P2
# TP2-INF110, by AGS
350 233 255
87
88
89
89
91
92
93
94
93
95
97
97
97
99
100
100
100
101
102
102
103
104
105
106
106
107
108
108
109
110
110
111
109
111
112
112
113
113
114
114
115
115
116
117
118
118
118
118
118
118
118
119
119
120
120
120
120
120
121
122
121
122
123
122
123
123
121
123
122
123
122
122
122
123
121
122
122
108
70
56
55
50
47
45
43
44
45
46
44
42
43
40
33
33
30
32
34
32
31
30
29
29
28
28
26
30
31
30
29
29
28
29
31
30
27
30
31
30
30
32
34
34
33
33
32
30
31
31
30
31
31
29
30
31
28
28
30
27
24
24
25
27
24
22
24
23
25
24
23
23
25
24
25
25
24
28
38
28
27
26
27
27
27
27
24
25
27
27
27
25
26
28
27
29
28
29
28
29
30
30
30
30
30
33
31
32
31
32
33
33
35
32
33
34
34
35
35
35
35
36
36
36
36
36
36
37
38
37
39
38
38
38
39
40
41
42
40
41
41
43
43
45
46
44
45
48
51
50
48
49
45
45
45
47
47
48
50
49
48
50
51
52
51
52
52
54
53
55
54
56
56
56
57
57
61
60
61
63
66
67
83
97
116
133
132
133
134
135
135
135
136
137
136
136
137
136
136
136
136
136
136
136
135
136
135
134
135
134
134
134
133
133
132
131
132
131
131
131
130
130
129
130
129
128
127
128
127
126
126
125
125
124
124
124
123
122
122
121
120
120
119
119
118
117
117
117
116
115
114
114
113
113
112
110
110
109
109
109
108
107
107
106
105
104
103
103
102
101
100
101
87
88
90
91
92
92
93
94
94
95
96
96
97
99
100
100
101
101
102
103
103
104
105
106
106
107
107
108
108
109
110
110
111
112
112
112
113
113
114
114
115
115
116
117
117
117
118
118
117
118
119
118
120
119
120
120
120
119
121
120
121
121
121
121
122
122
122
123
122
122
122
122
122
122
122
122
123
80
58
50
48
45
43
43
42
43
41
40
38
36
38
33
33
33
29
32
32
30
32
29
26
27
26
26
25
29
30
28
26
28
28
26
27
27
26
27
28
31
29
30
32
30
28
26
27
29
34
33
32
31
33
31
28
24
24
26
26
25
24
25
25
24
23
23
24
24
24
22
22
24
26
25
24
24
24
23
40
28
23
23
24
26
26
25
25
26
25
27
29
27
26
26
27
28
27
27
28
28
29
30
28
30
32
31
29
30
31
31
31
32
34
33
32
34
35
35
34
36
36
35
36
36
35
35
37
37
37
37
37
37
37
37
38
39
39
41
41
42
42
42
42
43
43
45
44
46
47
49
49
49
47
47
44
45
47
47
49
51
48
48
51
51
53
50
51
50
53
55
55
55
58
55
56
58
60
61
63
64
68
68
68
68
105
132
132
133
134
135
135
136
136
136
137
137
137
136
137
137
136
136
136
136
135
135
135
135
134
134
134
134
133
133
132
131
132
131
131
131
130
131
129
129
129
128
128
127
127
126
126
125
125
124
123
123
123
122
121
121
120
120
119
119
118
118
117
117
116
115
115
115
113
112
112
111
111
110
109
109
108
107
106
105
104
104
104
103
102
101
100
100
86
88
89
90
90
91
92
93
96
94
95
96
97
99
100
100
102
102
101
102
103
103
105
105
107
106
108
108
109
109
110
111
110
111
111
112
114
114
114
114
115
116
116
116
117
117
117
118
118
118
119
118
118
119
119
119
119
120
120
120
119
120
120
121
120
121
122
121
121
121
121
121
120
121
110
87
107
55
47
47
46
44
42
43
40
38
36
38
36
31
35
32
37
32
29
28
29
28
29
26
24
25
24
25
25
28
28
26
26
28
27
25
25
24
24
26
26
29
26
30
28
28
26
27
26
29
33
31
32
30
29
32
26
23
25
28
27
23
23
22
24
23
23
22
23
23
22
23
23
22
24
24
23
24
22
24
22
23
23
24
23
25
25
26
26
25
24
26
26
28
24
26
24
27
26
28
28
30
28
27
28
29
29
30
29
29
31
30
31
32
31
32
32
32
33
33
33
34
34
34
33
33
34
35
35
35
36
36
35
36
36
36
37
37
37
38
39
40
39
40
42
42
42
45
44
44
43
47
47
47
48
48
45
45
44
46
47
47
48
47
48
51
51
53
49
52
51
52
55
55
56
57
56
59
58
60
59
62
66
67
68
69
86
130
132
132
133
134
135
136
135
136
136
136
135
136
136
136
136
136
136
136
135
135
135
135
135
134
134
134
133
133
133
132
132
132
131
130
130
130
129
129
128
127
127
127
127
127
126
126
125
124
124
123
123
122
121
121
121
120
119
119
118
118
117
117
115
115
114
114
113
112
112
111
111
110
109
108
107
107
107
106
105
104
104
103
102
102
100
100
88
88
89
90
91
92
92
93
94
95
96
97
98
98
99
100
100
101
102
102
103
103
104
105
105
106
107
108
109
109
110
110
110
112
112
112
113
114
114
114
115
116
116
116
117
117
117
117
117
117
117
118
119
118
118
118
118
119
118
118
119
120
120
120
120
120
121
120
121
120
122
119
119
121
111
56
73
48
46
43
40
41
39
39
35
34
32
34
35
33
33
33
29
30
27
25
26
26
25
24
25
24
24
26
26
23
29
31
28
27
26
24
25
24
24
24
24
28
25
27
25
24
25
26
26
24
28
27
27
26
26
26
28
24
24
23
25
23
23
23
24
22
22
22
23
23
23
23
22
22
23
23
22
23
21
22
24
23
24
23
24
25
24
25
23
22
24
25
28
26
23
23
26
25
27
26
27
28
28
29
29
29
29
29
28
29
30
30
31
32
31
31
31
32
32
32
32
33
33
33
33
32
34
34
34
36
35
34
35
35
36
36
36
37
37
37
38
39
40
41
40
41
42
43
44
43
42
44
44
44
45
45
45
45
46
46
45
46
45
46
47
48
49
48
50
50
52
52
54
55
55
55
55
55
59
59
60
62
63
65
68
69
71
108
132
132
133
134
134
135
135
136
137
137
136
137
136
135
136
136
136
136
136
135
135
135
135
134
134
134
133
133
133
132
132
132
131
130
130
130
129
129
129
128
128
127
127
126
126
126
125
124
123
123
122
122
122
122
121
120
120
119
119
118
118
118
116
115
115
114
114
113
113
112
111
110
110
109
107
107
107
107
105
104
104
103
102
101
101
100
88
88
88
89
91
92
92
93
95
96
97
96
96
98
99
100
100
101
102
103
103
104
105
105
105
106
107
109
109
109
110
109
110
111
111
113
113
114
114
115
115
116
116
116
117
117
117
117
117
119
116
117
116
118
117
118
119
120
120
121
121
119
119
120
123
119
121
119
119
120
119
120
120
97
74
50
46
44
42
39
38
36
32
33
31
31
32
35
32
32
31
28
26
27
26
24
23
23
24
27
25
23
24
25
25
26
30
28
29
26
24
26
24
22
22
23
25
26
24
25
25
23
22
25
23
23
23
24
23
24
21
25
27
28
24
23
23
22
21
21
21
22
20
20
22
22
22
22
21
21
24
25
22
20
22
22
21
23
25
23
23
23
23
23
22
23
24
25
26
25
23
24
23
24
26
26
26
28
29
28
27
27
28
28
29
30
29
29
29
30
30
30
29
32
32
31
32
33
32
31
31
33
34
33
33
34
34
35
34
34
35
35
35
36
37
37
38
38
38
39
40
41
41
39
42
41
41
42
42
45
45
44
45
45
46
44
43
45
45
47
47
49
48
50
50
50
49
50
53
56
52
56
56
57
58
58
59
61
63
65
67
70
70
100
132
131
133
134
134
135
135
136
135
136
135
136
136
135
136
136
135
135
136
135
134
135
134
134
134
133
134
133
132
132
132
132
132
131
130
130
130
129
129
128
128
127
127
126
126
126
125
125
123
123
123
122
122
122
121
120
120
120
119
118
118
117
117
115
115
114
113
113
113
112
111
111
109
108
108
107
107
106
106
105
104
103
102
101
101
100
87
88
89
89
91
92
92
94
94
96
97
98
99
99
100
100
100
101
102
103
104
104
105
105
105
106
107
108
109
109
110
110
110
110
111
112
113
114
114
115
114
116
116
116
116
117
117
116
116
116
116
117
118
108
74
117
110
87
98
97
105
119
118
110
93
116
120
119
120
120
121
125
81
47
44
44
42
41
37
38
37
35
32
32
30
29
30
30
31
29
25
24
24
27
24
25
26
24
24
25
24
24
24
27
25
25
27
24
25
27
27
26
22
22
22
24
25
24
25
24
22
20
21
23
24
22
22
21
22
22
22
21
25
24
25
26
23
22
21
21
19
21
20
20
20
21
19
22
21
20
25
25
20
21
20
23
21
23
20
23
26
23
23
22
21
23
22
26
24
23
24
22
24
24
26
25
25
26
28
27
28
28
26
28
28
30
28
28
28
29
30
30
29
30
30
30
31
32
31
31
31
32
32
32
33
33
33
33
33
34
35
35
34
35
36
35
35
37
37
37
38
38
38
39
40
39
39
40
40
43
43
42
42
44
43
45
46
46
46
45
47
49
47
48
49
49
50
52
53
52
53
53
55
56
59
58
61
61
63
65
66
70
83
120
132
132
133
133
133
134
134
135
136
136
135
135
135
135
136
136
135
135
135
135
134
134
134
134
134
133
133
132
132
132
133
132
131
130
130
130
129
129
129
128
127
127
127
126
126
126
125
125
124
124
123
122
122
121
121
121
120
119
119
118
118
117
116
116
115
114
113
113
112
112
111
111
110
109
108
107
106
106
105
104
104
103
102
101
101
99
87
88
89
90
91
92
93
94
94
95
96
96
97
98
99
100
100
101
103
104
105
105
105
105
105
106
108
109
109
110
111
111
110
110
111
111
113
113
114
115
114
115
116
116
116
116
116
116
116
116
115
117
119
96
50
78
62
50
56
50
63
116
120
108
60
110
115
117
117
112
98
93
67
44
44
42
39
37
38
36
32
33
32
30
28
30
32
29
26
25
25
22
24
24
25
26
26
23
23
24
24
24
24
24
25
24
22
24
27
25
23
24
24
22
21
24
24
22
23
25
22
21
20
23
21
22
21
21
20
21
21
22
22
22
21
25
21
19
19
21
23
24
23
20
22
22
21
20
20
22
23
23
23
21
22
20
24
21
41
47
23
21
21
22
23
22
20
23
23
23
23
23
22
24
22
29
45
29
25
26
25
27
28
27
29
29
28
28
27
28
29
29
29
29
29
30
32
31
31
31
30
30
32
33
33
32
33
34
33
34
35
34
34
35
35
35
36
36
36
36
37
37
37
38
38
38
39
40
40
42
41
41
43
42
45
44
45
48
45
45
45
47
47
47
49
49
51
53
52
52
53
55
54
55
58
59
58
61
63
66
66
73
102
129
131
131
132
133
133
134
135
135
135
135
135
135
136
136
136
136
136
136
135
135
134
134
134
135
134
133
134
132
132
132
132
131
132
131
131
130
129
129
129
128
128
128
127
126
126
126
126
125
124
124
123
123
122
122
121
120
120
119
119
118
118
117
116
116
115
114
114
113
113
112
111
111
110
109
108
107
107
106
106
105
105
103
102
102
101
99
87
88
90
91
91
92
94
95
94
95
96
97
98
99
100
99
100
101
104
104
104
105
105
105
105
106
108
109
109
109
110
110
110
110
111
111
112
114
114
115
114
114
114
115
115
116
116
115
115
117
115
81
71
59
50
50
49
50
50
51
51
81
108
86
59
83
76
69
74
81
47
49
48
42
41
37
37
35
32
32
32
30
32
32
31
29
30
26
24
25
22
24
25
22
22
27
24
21
21
23
21
22
25
23
22
22
21
27
24
22
24
23
23
24
23
24
24
26
24
22
23
20
20
21
20
20
20
20
18
19
20
20
23
22
20
23
21
19
22
23
24
24
25
23
25
22
21
20
21
23
20
22
20
23
20
25
22
20
41
26
19
21
19
22
23
21
22
21
22
23
23
23
22
23
23
37
66
35
23
26
28
29
28
29
29
27
26
26
26
27
28
29
27
28
29
29
31
30
30
29
30
31
31
32
32
31
32
34
32
33
34
34
34
35
35
35
35
35
36
36
36
37
38
38
37
38
38
40
40
41
41
42
43
41
43
46
46
46
45
45
46
47
46
47
48
49
49
51
52
51
53
65
71
59
57
59
60
61
63
67
67
70
80
128
130
131
132
133
134
135
135
134
134
134
135
135
135
136
136
136
135
135
135
135
135
134
134
134
133
133
133
132
133
132
132
132
131
130
130
129
129
129
129
128
128
127
127
126
126
126
126
125
124
123
123
122
122
122
122
121
120
119
119
118
118
117
116
115
115
114
114
113
112
112
111
110
110
109
109
108
107
106
106
105
105
103
103
102
101
100
88
89
90
91
92
92
94
94
94
96
96
98
98
99
99
101
100
100
102
103
104
105
105
106
105
106
108
109
109
109
109
109
110
110
111
112
113
113
113
113
114
115
115
116
114
114
115
115
115
96
71
56
46
47
47
47
46
46
46
46
46
59
68
68
50
47
46
43
48
51
44
46
44
40
38
35
35
33
31
31
33
30
32
29
30
28
24
24
23
22
22
22
21
19
20
21
22
21
19
21
20
20
20
20
23
21
21
23
20
19
19
24
22
21
22
21
22
25
28
23
19
19
19
20
19
19
20
19
19
19
20
20
20
19
21
21
22
23
24
21
19
20
21
21
21
24
20
20
19
19
19
20
20
19
21
22
23
24
20
22
21
17
48
38
20
21
22
22
22
22
23
22
22
22
25
27
30
27
24
26
28
26
25
25
25
26
26
26
25
29
32
27
26
26
28
29
29
29
29
29
30
30
30
30
33
30
31
32
32
32
32
33
35
35
35
33
35
35
35
36
36
37
36
37
36
39
38
39
39
40
41
41
43
42
42
42
45
43
45
46
46
45
46
47
49
49
51
52
51
52
55
92
85
54
57
59
61
63
64
68
67
74
114
130
129
130
132
133
133
133
135
135
134
133
135
135
134
135
135
135
135
135
135
135
134
134
134
134
134
133
132
132
132
132
132
132
131
130
131
131
130
129
128
127
128
127
127
127
126
125
125
125
124
124
123
122
122
121
122
121
120
119
119
119
118
117
117
116
116
114
114
113
113
112
111
111
110
109
109
108
108
107
106
105
105
103
102
102
102
101
88
89
90
91
92
93
93
94
95
96
96
97
98
99
99
101
101
101
102
103
105
105
104
105
106
106
107
109
110
109
109
110
110
111
111
112
113
113
115
114
114
114
115
115
114
114
115
115
114
68
47
47
48
47
45
46
45
42
42
43
45
49
45
47
49
42
42
42
42
41
40
39
39
37
35
31
32
32
33
33
30
29
29
26
26
25
23
23
21
22
22
21
21
19
19
19
19
19
19
19
17
18
19
18
20
20
18
19
19
19
18
21
19
18
20
21
21
21
23
22
19
19
21
20
19
18
19
17
19
18
20
20
19
21
23
21
19
24
23
19
18
19
19
20
19
21
20
18
20
18
17
18
18
19
22
21
22
21
23
24
21
18
36
27
20
20
21
21
21
21
22
22
22
21
22
24
25
24
24
25
25
24
26
24
26
26
25
25
25
29
32
26
26
25
27
27
30
28
28
27
28
28
28
31
29
30
31
30
32
32
33
34
36
34
34
33
34
37
39
39
36
36
37
39
38
37
38
39
40
40
41
40
42
41
41
42
44
44
46
46
44
47
46
47
47
48
50
52
51
54
56
67
71
57
59
59
61
63
66
75
91
124
130
128
130
131
131
132
132
132
134
134
134
134
135
135
134
135
135
135
135
135
134
135
134
134
134
134
134
134
133
133
132
132
132
131
132
130
130
130
130
129
128
128
128
128
127
127
126
125
125
124
124
124
122
123
123
122
122
121
121
120
119
119
118
118
117
115
116
115
114
113
112
112
111
110
110
110
109
108
107
107
106
105
105
103
103
102
102
101
88
89
90
91
92
93
94
94
94
96
96
98
99
99
100
101
101
101
101
102
105
105
104
106
107
107
108
108
109
109
110
110
110
111
111
113
114
114
114
114
114
114
114
116
114
114
115
114
114
78
46
45
44
44
42
41
42
43
43
40
41
40
44
44
42
40
38
40
37
37
37
36
34
34
33
32
34
34
33
31
30
30
26
25
23
24
21
20
23
21
19
20
21
19
18
19
18
17
17
16
17
17
18
19
19
18
16
17
17
18
17
17
18
17
19
20
20
19
20
21
22
22
20
20
18
18
17
17
17
19
19
18
19
18
16
15
16
20
18
17
18
19
19
21
19
18
20
17
17
19
20
17
18
19
18
20
18
22
26
32
19
19
17
21
20
20
20
22
21
22
22
23
23
22
22
23
23
22
24
25
24
25
26
24
26
25
24
24
23
23
26
26
23
26
27
29
27
27
26
27
27
28
28
29
29
31
30
31
31
32
31
31
32
33
33
32
35
43
38
36
37
34
36
36
36
37
37
39
40
40
39
40
40
40
41
43
43
44
45
45
46
46
48
48
50
50
50
51
52
53
57
55
57
65
68
60
65
63
63
95
128
128
127
129
129
130
131
132
132
133
134
134
133
133
134
134
134
134
134
134
135
135
134
134
134
134
134
134
134
133
133
132
132
132
132
132
131
131
131
130
130
129
129
129
128
128
127
126
126
126
125
124
124
124
123
123
122
121
122
121
120
119
118
118
118
118
117
116
114
114
115
113
113
113
112
111
110
110
109
108
107
107
107
106
105
104
103
102
101
101
89
89
91
92
92
93
94
95
95
96
97
98
99
99
99
100
102
102
103
103
105
105
105
107
106
107
107
108
109
109
110
110
110
110
111
112
113
113
114
114
114
116
114
115
113
115
113
113
116
78
43
45
41
41
43
41
39
39
40
40
39
40
38
38
40
40
36
34
39
35
34
32
33
31
29
30
31
32
30
30
28
29
25
25
24
24
23
21
23
21
18
19
20
18
18
18
19
15
16
16
17
16
15
16
16
16
17
17
15
16
16
17
16
17
19
18
18
19
18
18
21
18
18
18
19
16
17
16
17
17
18
17
16
16
16
17
17
17
17
18
18
17
17
17
18
18
17
16
15
18
17
17
18
19
23
21
19
20
21
20
18
19
20
21
20
19
20
20
19
21
22
23
23
21
21
22
23
21
22
23
24
24
26
24
26
25
24
24
25
24
23
26
25
25
26
26
27
26
27
27
31
26
28
29
29
29
31
31
31
31
31
33
34
32
32
32
34
34
34
35
36
44
37
34
36
36
39
37
40
38
38
39
40
41
40
41
42
44
44
44
45
46
47
48
49
49
50
50
54
55
58
55
59
63
68
74
62
88
110
126
127
129
128
129
130
130
131
131
132
132
133
133
133
134
134
134
134
134
134
134
135
135
135
134
133
133
134
134
133
133
133
133
132
132
132
132
131
131
132
130
129
129
129
128
127
127
127
127
127
126
126
124
125
124
124
123
123
122
121
121
121
120
120
119
118
118
117
116
114
113
114
113
113
113
112
111
110
109
109
109
107
107
106
106
105
104
103
103
102
101
89
90
91
92
92
94
94
95
95
96
97
98
99
99
100
101
101
102
102
103
104
105
105
106
108
107
107
108
108
109
109
111
110
110
111
111
112
113
114
114
115
114
113
114
113
113
114
115
94
50
44
41
41
40
39
39
39
38
38
36
38
35
34
38
37
38
34
34
34
34
32
34
31
30
27
29
28
28
25
26
26
26
25
23
21
20
20
21
19
20
18
17
18
17
17
16
16
14
15
14
14
14
15
14
15
15
14
15
15
16
16
17
16
18
19
16
15
18
18
19
18
18
16
19
17
17
15
15
17
16
17
16
14
15
17
19
19
18
19
16
15
17
18
18
17
16
15
16
16
15
16
18
19
17
20
18
16
18
20
16
19
21
23
19
17
18
20
18
19
20
19
20
19
19
21
22
23
22
22
22
22
22
24
24
25
26
24
23
23
23
23
24
24
24
26
25
26
25
28
28
29
26
27
26
28
31
32
30
30
30
30
31
31
30
31
32
34
34
36
34
38
43
37
41
37
36
37
37
37
41
40
39
41
42
41
41
41
44
44
45
47
47
47
50
52
52
50
51
51
54
59
60
60
73
109
110
105
127
126
126
127
127
129
128
130
130
131
131
132
132
132
133
133
133
134
134
134
133
134
135
134
134
134
134
133
133
134
134
133
133
133
132
132
131
131
131
131
131
130
130
130
129
129
130
128
127
127
127
127
126
125
125
123
124
124
123
122
121
121
121
120
120
119
119
118
118
117
116
115
114
114
114
114
113
111
111
111
110
109
108
107
106
106
105
105
104
104
103
102
101
89
90
91
92
92
94
94
95
95
96
97
98
99
100
100
101
101
101
102
103
104
105
105
106
108
108
107
108
108
109
111
111
110
111
112
112
112
113
114
114
114
115
114
112
113
114
114
78
52
44
42
42
38
39
38
37
37
40
34
34
35
35
35
39
36
34
35
35
37
34
32
29
30
30
28
28
24
24
23
25
25
23
23
21
20
18
18
18
18
18
17
16
17
16
16
16
16
16
14
12
13
13
13
13
14
15
14
14
13
13
15
17
14
15
18
19
19
20
18
17
17
15
15
16
16
15
17
16
15
16
15
14
14
15
15
18
18
18
18
16
15
16
16
16
17
15
14
14
14
13
16
16
17
18
17
20
18
18
19
19
19
20
18
19
18
19
19
18
19
20
19
21
21
20
21
21
20
22
22
21
21
22
24
23
24
25
23
23
23
22
25
23
23
24
23
24
25
25
26
26
27
28
27
27
28
31
29
29
29
30
31
31
30
31
31
31
33
34
33
35
38
42
38
42
40
36
37
35
38
39
41
40
40
39
40
41
42
44
45
46
47
48
49
50
53
51
54
53
55
56
59
58
72
88
112
116
124
125
126
127
126
128
128
129
129
130
131
131
132
132
132
132
132
133
133
133
134
133
134
135
134
134
134
134
134
133
134
133
133
133
133
133
132
132
131
131
131
131
131
130
130
129
129
129
128
127
126
127
127
126
126
125
125
124
123
123
123
122
121
121
121
120
119
119
118
118
117
116
115
114
115
114
114
113
112
111
111
110
109
109
108
108
106
105
105
105
104
103
102
101
89
90
91
93
93
94
94
94
96
97
97
99
99
99
99
101
102
102
102
103
104
104
106
105
107
107
108
109
109
109
109
111
110
110
113
113
113
113
113
114
113
114
114
113
113
113
114
68
46
43
43
39
39
38
37
36
38
35
36
33
35
34
34
35
38
35
34
35
34
31
30
31
26
27
26
25
23
21
22
23
23
20
20
18
18
18
17
15
17
16
16
16
17
16
16
16
15
17
14
13
12
12
13
13
13
13
12
13
14
14
15
17
14
13
14
16
17
19
18
16
16
16
15
17
14
15
16
16
15
15
15
16
13
14
16
15
18
17
14
14
14
14
14
14
14
14
13
12
15
16
15
15
17
19
19
17
19
18
20
20
20
18
20
16
17
17
17
20
19
19
19
21
20
20
20
20
19
21
21
21
21
21
23
21
23
23
22
23
24
24
24
22
21
23
29
27
30
24
25
25
26
24
26
29
27
28
27
28
30
29
29
31
31
31
31
31
32
34
33
37
76
74
71
40
42
38
35
36
36
39
38
40
41
39
40
41
41
43
45
46
47
49
52
53
54
72
82
61
53
65
57
58
60
79
78
95
119
126
126
126
128
127
129
130
130
130
131
130
131
131
131
132
132
133
133
133
134
133
134
134
133
133
134
134
134
133
133
133
132
133
133
132
132
131
131
131
129
131
131
130
130
130
129
128
127
127
127
127
127
126
126
125
124
124
124
123
122
122
121
121
120
119
119
118
118
118
117
116
115
115
115
114
114
113
112
111
110
110
110
110
109
108
107
106
105
105
104
102
101
102
89
91
91
92
92
93
94
95
96
97
97
98
98
99
100
102
101
103
103
103
104
104
106
107
106
106
107
108
109
109
110
110
111
111
113
113
113
113
113
114
114
114
113
112
112
113
115
97
47
41
39
39
37
38
38
35
43
39
37
35
36
34
35
33
35
34
33
31
31
30
31
29
24
24
24
22
23
20
21
22
21
19
19
18
16
15
15
15
14
14
15
14
14
15
15
14
12
14
14
15
11
12
15
11
12
14
12
12
15
13
13
16
15
14
14
15
15
17
17
14
17
17
18
18
14
13
14
15
15
15
14
14
12
13
15
15
16
16
13
14
15
14
16
15
15
14
14
18
17
20
15
15
16
16
19
19
18
20
20
21
17
17
18
19
15
17
17
18
18
18
19
21
20
20
20
20
20
20
20
20
20
20
23
21
22
23
23
21
21
23
21
23
22
23
26
25
29
24
25
27
25
25
26
27
29
28
28
28
29
30
29
30
31
31
31
30
32
31
34
58
59
54
52
50
41
36
35
37
36
37
38
38
42
40
39
39
42
43
44
47
48
50
53
75
100
115
72
54
58
62
57
58
62
62
65
111
126
126
125
127
126
128
129
130
129
130
130
130
131
131
131
132
132
133
133
133
133
133
133
132
133
133
134
134
134
133
133
133
132
132
132
132
132
131
131
131
131
130
130
130
130
129
128
128
128
128
128
127
126
126
125
125
124
124
124
123
123
122
122
122
121
120
120
119
119
118
117
116
116
115
115
114
114
113
111
111
111
110
109
109
108
107
106
106
105
104
103
102
101
101
88
90
91
92
94
94
95
97
95
96
98
99
99
100
100
101
101
102
103
103
104
104
105
106
106
107
107
108
108
109
109
109
111
111
112
112
113
113
113
113
113
113
113
113
113
113
112
87
69
43
40
37
37
46
44
33
36
35
35
36
35
33
34
34
32
31
30
31
28
27
28
26
24
24
27
24
22
20
18
18
18
18
16
16
15
14
14
13
14
14
16
14
14
13
14
14
11
13
14
12
14
12
11
11
10
10
11
11
14
12
11
13
15
15
14
14
12
15
15
15
16
17
15
15
16
12
12
14
14
14
14
13
12
12
14
15
14
14
14
14
16
13
16
15
15
14
16
17
16
17
17
13
14
16
18
17
17
18
17
19
18
17
17
19
18
17
17
17
17
18
19
21
19
20
21
20
18
17
19
20
21
20
21
20
21
21
22
20
22
20
22
22
22
23
22
28
25
24
25
23
27
27
25
27
28
28
27
29
30
31
29
30
29
31
32
31
31
32
45
52
39
54
58
59
64
36
35
36
37
36
37
39
38
38
38
40
42
43
47
49
50
51
85
113
120
120
98
72
92
56
61
68
56
72
117
125
124
124
125
127
128
127
128
129
129
129
130
130
130
131
131
131
131
131
132
131
131
132
132
132
133
133
133
133
134
133
133
132
132
132
132
132
132
131
131
130
130
129
129
130
130
129
128
129
128
128
127
127
125
126
125
125
124
124
123
123
123
122
122
122
120
120
119
118
118
118
117
116
116
115
114
115
113
113
113
112
111
110
109
109
108
107
107
106
106
105
104
103
102
101
89
90
91
91
93
94
95
97
96
97
98
98
99
100
101
101
101
102
103
103
104
104
105
106
107
107
107
107
108
108
109
110
111
111
112
112
113
113
113
113
113
114
113
114
113
107
80
75
47
45
41
38
39
38
37
39
44
36
35
33
31
32
33
33
31
28
29
28
27
25
26
25
26
28
28
26
24
20
18
17
17
15
16
15
13
14
13
13
14
14
14
13
13
12
13
13
11
11
13
13
11
10
12
13
12
12
12
11
12
12
13
13
13
12
12
12
11
13
14
14
13
14
14
14
15
12
13
13
14
13
13
12
11
12
13
16
13
14
14
16
14
13
13
13
14
14
16
15
14
16
19
18
14
18
20
20
20
17
16
17
18
17
25
20
18
17
17
16
19
18
18
22
24
20
22
19
19
19
17
21
20
20
21
20
19
21
21
22
19
22
22
21
21
23
22
27
23
24
24
25
28
28
28
26
28
27
28
29
29
29
30
29
29
32
31
31
32
32
48
50
46
58
35
73
82
33
35
36
36
35
37
36
36
38
39
41
44
46
47
50
53
69
106
120
116
116
98
69
85
55
74
97
97
102
126
124
125
125
127
126
127
127
128
127
128
129
130
130
131
131
131
131
131
131
131
131
131
132
132
133
133
133
133
132
133
133
133
133
133
132
132
132
132
132
132
132
130
131
130
129
129
129
129
128
129
129
128
127
126
125
125
125
124
124
123
123
123
122
122
122
120
119
119
119
118
118
117
117
117
116
115
114
115
113
112
112
111
110
109
109
108
107
106
105
106
105
104
103
103
102
88
89
91
92
93
93
94
95
96
97
98
99
99
100
101
101
101
102
103
103
104
104
105
106
105
107
107
108
108
109
109
110
112
112
112
112
113
113
113
113
113
113
114
112
113
113
80
54
48
41
38
40
44
38
41
70
38
32
33
32
29
30
33
32
29
26
26
26
25
24
24
23
23
25
23
22
22
19
18
18
16
14
15
15
14
14
12
12
12
13
12
13
13
13
13
14
10
12
12
11
11
11
10
12
13
12
13
11
11
12
12
12
12
11
12
12
12
12
13
13
13
13
13
13
14
13
14
12
12
12
14
13
11
11
12
12
13
13
12
14
11
11
14
16
15
13
14
17
16
16
16
19
17
18
20
21
19
17
16
16
18
21
29
21
17
16
17
18
20
18
17
22
21
21
20
19
18
19
20
24
23
24
19
19
21
20
20
19
21
20
20
21
23
22
23
22
24
22
29
28
23
25
26
26
28
28
29
31
29
29
32
31
28
30
31
32
31
32
55
42
34
36
34
74
66
32
34
34
35
36
34
35
37
40
41
40
43
47
47
50
57
109
120
117
121
111
74
75
90
68
94
112
123
124
124
123
124
125
125
126
126
127
127
128
128
129
129
129
130
130
131
131
131
131
131
131
132
131
132
133
132
132
133
133
133
132
132
132
133
132
132
132
132
132
131
130
131
130
130
129
130
129
129
128
128
128
128
127
128
126
125
125
125
124
123
123
123
122
122
121
121
120
119
119
118
117
117
116
115
115
114
115
112
113
112
112
111
110
110
110
108
107
106
105
105
104
104
103
103
102
88
89
91
92
93
93
95
96
96
96
98
99
99
100
101
102
101
102
102
103
104
104
105
106
105
106
107
108
108
109
109
110
112
111
111
111
112
112
112
113
114
113
112
112
112
113
85
55
42
44
39
36
37
40
44
73
47
30
31
32
31
33
32
31
28
26
26
23
24
21
24
22
21
22
20
18
20
18
16
16
17
14
13
14
13
13
12
12
12
13
11
13
12
12
11
12
11
10
11
12
11
11
11
10
10
11
11
10
10
11
11
12
13
12
12
11
13
12
12
11
12
12
13
12
12
12
12
11
12
12
11
10
12
13
13
12
12
12
12
12
13
13
15
13
13
13
15
15
14
15
15
17
19
22
21
19
19
14
16
17
18
21
20
17
14
15
17
19
19
18
17
18
19
20
22
19
20
20
20
19
22
22
19
19
30
33
17
20
20
20
20
21
21
23
24
21
22
36
32
34
24
27
27
28
28
27
31
30
68
47
31
32
31
30
30
32
33
32
36
37
33
34
34
78
62
33
34
33
35
37
36
39
40
39
40
43
49
49
47
49
81
93
113
107
89
70
69
66
110
116
121
122
122
123
124
123
125
125
125
127
126
127
127
128
128
128
128
129
130
130
130
131
130
131
131
131
131
131
132
132
131
132
132
133
133
132
132
132
132
132
131
131
131
131
131
130
131
130
129
130
130
129
129
129
128
128
127
126
126
125
125
125
125
124
124
123
123
122
122
121
121
121
120
119
119
118
118
116
117
115
116
114
114
112
113
111
111
110
110
110
109
108
106
106
105
105
104
104
103
102
89
90
91
92
92
94
95
96
96
97
98
98
99
99
100
101
101
102
102
103
104
104
105
105
106
106
107
107
108
108
109
109
109
110
110
111
111
111
111
112
113
113
113
112
112
112
116
97
49
41
39
37
38
39
39
52
66
38
30
32
32
30
28
28
26
26
23
24
22
22
21
20
20
20
18
18
20
19
17
16
15
15
14
15
15
14
12
11
11
11
10
12
12
12
12
12
12
10
11
10
10
9
10
10
10
10
11
10
10
10
11
12
11
11
10
10
12
11
11
11
11
11
13
12
11
11
12
12
12
14
13
11
12
12
11
12
11
11
12
12
13
13
13
12
12
14
14
12
12
15
14
14
15
17
17
22
19
29
25
18
17
17
14
16
15
18
18
18
16
19
20
17
18
19
20
21
20
21
19
17
19
18
21
19
21
24
19
18
20
20
19
23
24
20
21
22
28
27
25
25
23
27
27
28
29
30
31
36
84
60
30
32
32
30
32
31
32
32
32
32
33
31
46
52
36
34
33
36
36
37
36
38
40
41
40
42
50
53
52
51
60
72
96
70
52
68
113
85
119
122
120
122
121
124
123
125
124
125
125
125
125
126
127
128
128
128
128
128
129
129
130
131
130
131
130
131
131
131
132
131
132
132
132
132
132
132
132
132
132
132
132
132
132
131
131
131
131
131
130
130
129
129
129
129
128
128
127
127
125
125
125
125
125
124
124
123
123
122
121
121
120
120
120
118
119
118
118
117
116
116
113
114
113
114
112
112
112
110
110
110
109
108
107
107
105
105
104
104
103
102
89
90
91
93
93
94
95
95
95
96
97
98
99
100
101
101
102
102
102
103
104
104
105
105
105
106
106
107
108
108
108
108
109
109
110
110
111
111
111
111
112
112
112
113
111
112
111
112
94
48
40
41
39
42
37
33
34
32
32
33
29
24
27
25
25
23
23
22
23
22
21
21
19
20
17
17
19
18
17
16
14
14
15
12
13
14
12
11
11
10
10
10
10
10
11
11
11
12
12
8
10
8
10
10
10
9
10
10
9
9
10
9
9
10
9
9
10
9
10
10
10
11
12
12
11
11
12
13
15
14
15
12
11
12
11
12
11
13
13
12
11
15
14
16
14
14
12
12
14
15
13
13
15
17
18
15
19
21
18
15
15
15
16
16
17
18
17
16
17
16
15
16
15
19
19
18
18
20
19
19
17
18
20
17
18
18
19
19
19
20
19
20
42
22
19
23
33
24
24
24
24
25
29
28
32
29
31
39
34
86
56
30
33
32
32
31
32
32
31
33
32
33
38
39
35
34
37
34
36
35
36
38
39
41
41
43
50
54
54
51
59
72
60
64
101
111
120
114
120
120
122
122
123
122
124
124
124
125
124
126
124
126
125
125
127
127
127
127
128
129
129
130
129
130
130
130
131
130
131
131
131
131
131
132
132
132
132
132
131
131
132
132
132
131
130
130
131
130
129
129
129
129
128
128
127
128
127
128
126
126
125
125
124
124
124
123
123
122
121
121
121
120
120
119
119
118
118
117
116
115
115
113
114
113
113
111
111
110
110
110
109
108
107
107
106
105
104
103
103
102
89
91
92
93
93
94
95
96
96
97
98
99
99
100
100
101
102
102
102
103
104
104
104
105
105
106
106
107
108
108
108
109
109
110
110
110
110
110
110
112
112
112
111
112
112
111
111
114
96
50
39
54
35
36
39
33
31
29
30
30
29
26
23
25
25
24
21
21
21
21
19
20
19
19
18
18
19
18
17
15
14
14
14
13
13
13
11
10
10
10
10
9
10
10
11
11
9
10
12
8
8
10
13
9
9
8
9
9
9
9
9
8
9
10
9
9
9
9
10
10
10
11
11
11
12
12
12
12
13
13
16
13
10
11
12
11
12
16
15
14
15
19
17
13
14
15
14
14
15
15
14
16
14
16
15
19
22
15
14
15
15
16
19
18
18
18
22
21
17
16
13
16
16
15
24
18
17
16
18
17
16
19
18
19
21
18
19
19
19
25
20
18
38
23
20
34
46
24
24
24
25
28
28
31
28
31
39
98
62
105
55
28
34
31
30
32
31
32
35
34
33
33
33
35
32
36
39
41
35
36
38
39
43
42
43
47
46
47
48
52
60
60
60
107
119
119
120
120
119
121
121
122
122
122
122
123
124
124
124
126
126
126
126
126
125
126
127
128
128
128
129
128
129
129
130
130
130
130
130
131
130
131
131
132
131
132
131
132
131
131
130
131
131
131
131
131
131
129
128
130
130
129
128
128
128
128
127
127
126
126
125
126
124
124
124
123
123
123
122
121
121
120
119
118
119
118
117
116
116
115
115
115
113
113
113
112
111
111
110
109
108
107
107
107
106
105
105
104
103
102
88
90
91
92
92
94
95
96
96
97
98
99
99
100
101
101
102
102
102
103
103
104
104
104
105
106
107
107
107
107
107
108
108
110
110
110
110
111
111
111
110
112
112
113
110
111
111
111
114
84
50
59
64
45
32
33
30
28
30
28
25
25
25
23
22
22
20
19
21
18
19
18
17
17
18
17
17
17
16
16
15
14
13
14
14
11
10
10
10
10
11
9
10
10
10
11
9
11
11
9
9
9
9
8
8
8
8
7
9
8
8
9
8
10
9
10
10
11
11
10
9
11
11
12
13
12
11
11
12
13
13
10
11
13
12
11
14
17
14
15
18
16
17
14
14
15
14
16
17
16
14
15
16
15
15
18
21
27
19
21
21
21
19
21
18
17
28
24
17
18
18
18
16
16
15
15
16
17
17
17
19
21
19
21
20
20
18
19
20
21
20
20
21
21
19
29
47
26
23
25
29
33
28
29
31
31
61
117
89
90
46
38
34
31
31
31
32
33
34
39
36
32
34
33
35
35
40
45
34
37
37
38
39
41
42
46
47
58
56
52
53
65
104
120
118
119
119
121
120
122
120
120
122
121
121
122
122
123
125
103
97
92
113
126
126
126
126
127
127
128
129
129
128
128
130
129
130
130
130
131
130
131
131
131
130
131
131
132
131
130
130
131
131
131
130
130
129
130
130
129
129
129
128
128
128
128
128
126
127
125
125
125
124
124
124
123
123
123
122
121
121
120
120
118
119
118
117
116
116
116
115
114
114
113
112
112
112
110
109
109
109
107
107
106
106
105
105
103
103
102
89
90
91
92
93
93
94
96
95
97
97
98
100
100
100
100
101
102
102
103
104
103
104
105
105
105
107
107
106
107
107
108
109
111
108
110
109
110
111
111
111
112
112
112
112
111
110
110
109
111
105
80
78
70
47
37
31
28
26
27
24
24
24
21
21
21
20
18
19
22
19
17
23
18
19
16
15
17
15
14
14
14
13
12
13
10
10
9
9
9
9
9
9
10
9
9
9
10
9
8
8
8
10
9
8
7
6
7
8
8
7
8
8
10
11
9
12
12
12
10
10
11
10
11
10
11
11
11
11
12
11
10
10
10
11
10
13
13
14
14
15
15
14
12
12
12
13
14
15
16
15
14
15
15
16
19
32
62
24
27
23
20
20
20
20
18
18
20
17
19
24
21
15
16
14
15
14
15
16
16
19
18
17
18
18
21
18
18
27
35
19
19
20
20
28
40
21
24
24
26
29
33
26
30
29
44
97
109
92
76
32
36
33
33
31
31
32
32
31
46
37
34
32
34
34
35
38
40
34
35
38
38
39
40
41
46
48
55
50
64
101
111
119
117
118
119
118
119
120
109
118
121
117
122
121
121
121
121
122
75
75
60
103
125
124
126
125
127
127
128
128
128
128
129
129
130
130
130
130
129
130
130
130
131
131
131
131
130
131
131
130
131
131
130
130
130
130
130
130
129
129
129
128
128
127
127
127
126
126
126
125
125
124
124
123
123
122
122
122
122
120
120
119
119
119
118
118
116
116
115
115
114
113
113
112
111
111
110
110
109
108
107
107
107
106
105
104
103
103
103
89
89
86
95
92
95
95
96
95
96
97
98
99
99
100
100
101
102
102
103
103
103
104
104
104
106
106
105
108
106
106
107
108
107
109
108
109
109
108
110
111
111
112
111
111
111
110
111
110
110
111
112
110
103
54
35
34
27
25
24
23
23
23
24
20
20
21
26
19
20
22
20
50
21
16
19
17
15
15
14
15
13
11
12
12
10
9
9
9
9
9
8
8
9
9
8
8
7
8
7
9
9
8
9
9
9
7
6
6
7
7
7
7
10
9
10
11
10
13
10
13
12
9
10
11
10
10
10
11
12
9
8
10
10
11
12
15
14
12
11
12
12
13
14
14
13
14
14
15
16
16
18
17
15
16
22
27
22
23
24
23
22
23
20
19
19
20
19
19
27
17
15
17
15
15
14
14
16
16
15
20
18
16
18
18
18
17
16
24
43
19
19
19
24
78
72
25
25
24
25
26
29
30
31
33
87
114
100
71
71
40
31
32
33
33
32
33
32
32
28
48
42
32
34
35
34
35
35
35
38
40
37
41
40
42
45
49
47
62
93
118
118
117
118
118
118
119
118
119
72
78
119
88
100
118
120
120
122
123
95
70
80
77
109
126
124
125
126
126
126
126
127
128
128
128
128
129
129
130
130
130
130
129
130
130
131
130
130
131
131
130
130
130
130
130
130
130
129
129
129
128
129
128
128
127
127
127
126
126
126
125
125
125
124
124
123
123
122
122
121
121
120
120
119
118
117
117
116
117
116
115
114
113
113
113
112
111
111
109
109
108
108
107
106
105
105
105
103
103
102
91
92
55
66
90
83
96
93
95
96
97
98
98
99
100
101
101
101
103
102
104
103
103
104
106
106
107
105
107
107
108
108
107
108
107
107
108
109
109
109
109
109
110
110
110
112
111
111
111
111
109
110
106
74
74
37
34
42
24
31
24
26
23
29
25
23
22
23
22
20
20
37
87
71
30
23
20
16
18
18
14
13
11
11
11
11
10
9
8
8
8
8
8
9
8
8
6
6
7
7
8
8
6
9
9
9
8
6
6
6
6
6
7
8
10
8
9
10
10
10
11
11
9
9
10
9
11
10
9
9
10
10
9
9
11
11
10
11
10
11
11
15
14
15
11
14
14
14
15
17
20
19
21
16
28
55
35
19
20
23
22
21
20
19
19
20
20
18
17
15
18
15
17
16
14
14
15
15
16
14
16
16
16
15
18
18
19
16
16
17
20
20
17
43
112
65
25
23
26
24
26
29
32
34
38
99
114
73
31
64
76
40
31
32
33
34
38
42
36
33
37
38
33
35
38
37
36
35
36
47
47
43
44
53
43
45
51
57
91
117
115
116
118
117
119
118
119
106
80
63
63
73
61
78
68
107
115
87
105
75
68
74
76
114
124
123
124
124
125
125
127
127
126
127
128
128
129
129
129
130
130
129
129
129
130
130
130
130
130
130
130
130
130
129
130
129
129
129
129
129
128
128
128
127
128
127
126
126
126
126
125
124
124
124
123
123
122
122
121
121
121
120
120
120
118
117
117
116
116
115
115
115
114
113
112
111
110
110
110
109
110
108
108
106
105
105
104
103
102
102
70
89
66
0
62
76
96
95
95
95
97
98
99
99
100
100
101
102
101
102
101
103
102
104
104
107
105
107
106
107
106
107
107
107
108
108
110
108
110
110
109
109
110
109
109
111
111
110
111
109
110
110
111
99
61
36
29
37
30
39
39
42
25
25
25
23
20
18
18
20
18
44
77
104
81
30
17
16
16
17
14
14
11
10
10
12
10
11
10
9
8
8
9
8
8
7
5
7
7
6
6
6
5
7
9
8
7
6
6
5
6
6
8
7
8
10
8
7
8
10
10
9
18
21
8
13
11
9
11
9
10
10
8
9
13
12
9
9
10
10
13
13
13
11
11
13
14
13
14
18
19
16
16
17
28
31
18
18
16
16
18
19
18
19
20
19
18
20
17
18
17
19
18
17
15
17
18
16
15
14
13
14
16
17
16
19
19
35
20
17
18
19
16
51
83
22
21
28
28
29
32
26
34
81
43
74
113
46
45
88
36
32
35
33
34
36
57
58
63
31
33
33
31
63
59
38
35
35
36
40
45
62
47
60
48
47
49
47
82
118
117
116
118
118
116
118
118
83
61
60
57
64
56
61
59
86
108
63
64
63
65
66
68
97
120
124
123
126
124
125
126
126
127
128
128
128
128
128
127
129
129
129
129
129
129
129
130
130
129
130
130
129
129
130
130
129
130
129
129
128
128
128
127
127
127
127
126
126
126
126
125
125
125
124
123
123
123
122
122
121
120
119
120
119
117
118
117
117
117
116
115
114
113
113
112
112
110
111
110
110
108
108
106
106
106
105
104
104
104
103
1
52
11
0
11
91
94
95
95
96
97
98
99
99
100
99
101
101
102
101
102
102
103
104
105
104
105
105
105
105
106
107
107
106
107
108
107
110
108
109
109
109
109
109
110
110
111
111
110
111
109
109
109
111
102
57
31
32
29
28
28
24
20
22
23
21
20
18
20
19
21
29
36
95
97
27
12
12
13
13
13
12
11
13
15
14
9
10
11
10
8
8
8
8
8
8
6
7
6
6
6
6
4
5
9
7
5
6
7
6
6
5
6
6
8
7
8
7
10
9
9
8
12
29
12
8
12
9
7
8
8
8
9
10
10
10
9
7
7
10
11
11
11
11
11
10
13
11
12
15
13
16
15
20
18
18
21
49
54
64
73
58
23
20
18
19
19
17
17
18
19
15
20
18
17
17
18
17
14
15
15
14
14
18
19
19
19
27
22
18
17
19
19
62
27
22
32
23
37
42
33
24
65
116
54
51
57
43
76
43
44
32
38
34
33
38
56
80
94
57
39
33
33
48
49
58
35
36
41
68
53
64
47
41
43
47
50
71
100
117
116
117
118
119
116
79
81
80
55
55
55
58
55
56
55
80
82
55
57
58
68
69
60
72
108
95
121
122
124
124
125
126
126
127
127
127
128
128
128
129
129
129
129
129
128
129
129
129
129
129
129
129
129
130
129
129
128
128
128
128
129
128
128
128
127
126
126
126
126
125
125
125
124
124
123
123
122
122
121
121
120
120
119
117
118
119
117
117
116
116
115
115
114
113
112
111
111
110
110
108
109
107
108
107
106
105
104
104
104
103
0
0
2
0
38
96
93
93
96
96
96
98
98
99
100
100
100
101
101
103
101
103
102
103
102
104
104
105
106
107
107
106
107
107
106
105
107
106
108
107
110
109
109
110
110
110
110
111
109
110
110
109
110
108
110
99
50
29
30
24
24
21
18
17
21
21
15
19
19
19
19
16
40
61
42
11
13
12
13
13
13
13
13
15
16
15
11
11
11
11
10
9
8
7
8
8
8
6
6
5
5
6
4
6
8
7
5
6
7
6
6
5
6
6
7
8
6
7
11
42
13
8
7
33
20
9
10
9
7
9
9
9
10
10
9
9
9
7
10
8
11
10
13
11
10
11
10
10
14
14
12
15
14
16
19
18
23
95
109
107
102
77
39
22
19
18
19
16
16
14
13
15
13
14
16
15
17
19
16
16
18
19
17
18
19
20
18
19
25
19
17
16
67
48
18
37
28
37
38
53
29
26
41
105
52
31
44
48
38
35
60
49
34
33
34
43
75
107
111
113
67
31
35
32
51
42
35
37
68
81
45
54
41
41
45
46
85
116
115
116
115
116
115
116
121
79
57
58
52
54
53
54
54
54
59
112
97
65
60
57
56
57
61
99
90
83
82
114
125
124
124
125
126
126
127
127
128
128
127
128
129
128
129
129
128
129
129
129
129
129
129
129
129
129
129
129
129
129
128
127
128
127
128
128
127
127
127
126
125
125
124
124
124
123
123
123
122
122
122
121
120
120
119
119
119
118
117
117
116
115
114
114
113
113
112
111
112
111
109
110
108
108
107
107
106
106
105
104
103
103
0
0
20
0
52
98
92
93
95
96
97
98
98
99
100
100
99
100
101
100
101
101
103
103
103
103
104
103
99
86
92
106
92
104
106
106
105
106
107
108
109
110
109
109
110
110
109
110
109
110
109
109
108
108
110
105
68
26
24
21
19
18
22
19
19
17
15
16
15
15
17
16
14
14
15
13
12
11
12
10
9
11
15
15
15
15
11
10
10
11
11
10
8
8
8
8
8
7
7
5
5
5
5
8
8
7
6
6
6
6
7
6
6
8
6
8
10
11
12
83
27
4
16
16
13
9
10
11
9
9
10
9
9
8
7
7
7
9
9
9
9
9
10
10
9
16
14
13
14
11
14
16
18
16
16
19
29
97
104
106
96
45
56
39
19
18
16
16
16
13
14
15
14
13
14
16
14
15
16
13
15
18
21
19
17
23
23
20
21
17
16
28
86
21
59
57
23
25
23
27
38
43
21
73
42
34
56
46
94
58
37
84
45
32
34
60
107
110
110
112
65
31
34
44
48
33
37
46
85
65
56
89
45
43
45
61
109
115
115
114
116
117
115
118
98
75
55
59
63
50
51
51
54
50
66
76
63
68
55
54
53
68
88
79
66
63
62
92
124
122
123
126
125
126
126
126
127
127
127
128
128
127
128
128
128
128
129
128
129
128
129
129
128
129
128
129
128
128
128
128
128
128
127
126
127
126
126
126
125
125
125
124
124
124
123
123
122
122
121
121
120
120
119
119
119
118
117
117
116
115
115
114
114
113
112
112
111
110
110
109
109
108
107
107
105
105
104
103
102
102
0
14
13
0
11
77
93
95
95
96
97
98
98
98
98
99
99
100
99
100
100
101
102
102
103
103
108
95
51
57
65
103
35
76
110
107
106
109
107
109
101
106
108
108
109
109
109
109
110
108
110
109
109
107
110
109
103
47
20
20
21
20
18
18
19
17
15
15
13
16
14
17
14
16
16
13
12
11
10
10
9
10
15
14
15
14
12
10
11
11
12
9
7
7
7
7
6
8
8
5
6
5
6
6
7
7
5
7
7
6
7
5
5
7
8
9
13
8
40
57
24
6
6
8
10
11
8
8
9
9
10
10
9
8
7
6
8
8
8
8
9
7
8
11
11
14
14
14
14
13
15
16
16
20
24
67
69
104
106
104
103
76
34
27
18
19
17
15
15
15
13
13
13
16
14
14
13
12
16
14
15
16
23
22
17
22
29
21
22
16
14
38
59
16
53
66
21
20
22
28
26
48
37
27
32
46
88
106
110
109
66
56
37
33
38
78
109
110
108
77
39
33
36
36
33
34
41
70
54
55
74
67
40
46
82
113
115
115
114
116
115
116
116
115
73
56
56
50
62
62
48
50
51
52
51
53
53
52
54
52
57
82
82
56
59
64
62
82
121
123
123
124
125
126
126
126
126
126
127
127
127
127
128
129
128
128
129
128
128
128
128
128
128
128
128
129
128
128
127
127
127
127
128
127
127
126
126
126
126
125
125
124
124
124
123
123
122
122
121
121
120
120
119
119
118
118
118
117
117
116
115
114
114
113
112
112
111
111
110
109
107
107
107
107
105
105
104
103
103
102
0
0
0
0
27
86
92
93
94
96
97
99
97
97
99
100
100
99
101
99
100
100
102
101
87
97
70
79
28
38
34
81
31
63
80
99
104
93
63
71
47
95
108
107
108
110
110
111
108
110
90
85
104
57
81
104
96
44
20
21
19
18
17
17
14
14
14
13
15
18
14
15
12
13
12
14
14
11
11
11
10
11
14
17
15
13
11
12
11
12
12
10
8
6
8
10
6
8
8
6
6
6
4
5
4
5
6
5
6
3
4
7
8
10
8
9
11
13
82
29
8
6
5
6
7
20
8
8
9
10
10
8
8
5
5
6
7
8
7
8
8
8
9
11
11
11
12
14
16
13
14
14
18
17
40
104
105
105
105
105
105
106
68
21
18
20
17
15
13
16
13
13
14
15
13
17
14
11
15
15
15
15
17
21
19
13
17
18
19
15
15
24
33
24
49
63
21
22
23
33
30
35
28
22
53
92
102
101
110
105
72
48
43
30
52
111
108
108
111
69
31
36
36
34
33
35
52
87
102
109
111
50
39
69
118
111
100
105
114
114
114
114
116
113
76
54
49
47
57
53
46
48
50
50
52
51
52
51
53
53
54
58
55
55
58
59
65
103
122
121
122
124
124
126
126
126
126
127
127
127
126
127
128
128
127
127
128
128
127
127
128
129
128
128
128
128
129
127
128
128
128
126
127
127
126
126
126
125
125
125
125
124
124
123
122
121
122
121
121
121
120
119
119
119
118
118
116
116
116
115
114
114
114
113
113
112
110
110
110
110
109
108
107
106
105
104
104
103
102
102
0
0
0
0
86
95
94
94
96
95
97
98
97
98
99
98
99
100
98
99
101
101
100
63
36
64
37
49
26
26
24
48
30
36
31
44
45
43
37
29
33
51
107
107
107
100
93
73
107
109
41
28
51
41
19
73
47
19
29
20
17
16
16
14
14
12
14
13
13
14
43
26
11
12
12
13
12
12
11
17
10
14
18
16
14
11
13
12
14
13
11
15
8
9
7
9
8
7
7
6
5
5
5
5
5
3
4
5
3
7
8
9
10
9
12
13
8
18
86
28
8
6
6
5
5
13
8
7
8
8
8
9
8
5
5
6
7
7
8
8
8
9
9
10
10
11
11
11
12
14
14
16
17
38
97
106
105
106
105
105
105
105
103
68
24
22
17
16
13
13
13
15
14
13
13
16
16
16
15
10
12
14
15
15
15
15
13
15
17
16
16
14
27
63
17
24
19
21
23
31
25
26
51
35
29
83
95
70
95
93
46
47
29
32
57
95
110
106
90
42
33
38
40
34
32
59
105
110
113
112
79
41
39
79
102
83
52
79
113
114
113
114
114
112
78
47
53
50
47
47
46
46
49
61
51
50
49
51
52
55
53
53
53
55
57
63
65
69
86
104
125
123
124
125
125
126
126
126
126
126
126
127
128
128
127
127
128
128
128
127
127
128
128
127
128
128
128
127
127
127
127
127
127
127
127
126
126
125
125
125
125
124
124
123
123
122
122
122
121
120
120
119
119
119
118
118
117
116
115
115
114
114
114
113
112
111
110
111
110
109
108
108
107
106
106
106
104
104
103
102
0
0
0
37
83
94
92
94
96
97
96
97
98
99
98
99
99
99
99
102
101
103
104
52
41
29
27
57
27
24
28
32
23
25
28
29
28
30
28
29
25
56
108
108
104
41
34
34
86
67
29
23
24
23
21
29
22
20
19
16
16
13
13
14
12
13
13
11
12
11
43
25
11
11
12
15
14
11
11
34
13
31
64
16
13
12
15
15
13
14
12
11
11
8
7
7
7
6
6
6
5
5
5
4
3
4
5
4
6
7
9
8
11
9
11
29
20
11
22
41
22
8
7
7
5
5
5
5
6
6
6
6
7
6
6
6
6
6
8
9
9
10
10
10
10
9
5
3
11
12
15
16
19
83
107
104
104
104
105
104
105
105
106
95
31
25
18
18
12
11
13
13
13
14
17
21
16
14
11
8
10
11
9
10
10
14
13
10
16
17
16
16
21
33
19
17
17
27
24
24
26
23
58
72
21
35
70
52
75
57
60
51
29
34
35
68
108
107
56
29
35
41
42
30
38
102
111
112
98
57
37
38
55
102
55
53
51
62
103
117
115
114
118
112
96
66
52
45
44
48
46
48
60
61
49
49
50
50
52
51
53
53
54
56
57
60
62
62
64
93
123
123
123
124
124
125
126
126
126
126
126
127
127
127
127
126
126
127
128
128
127
128
128
127
127
128
127
127
127
126
126
127
127
126
126
126
125
125
125
124
124
124
123
123
123
122
122
121
121
121
120
120
119
118
118
117
117
116
116
116
114
114
114
113
113
112
110
111
110
109
108
108
107
106
106
106
104
104
103
102
0
41
57
97
91
93
93
95
95
96
96
98
97
99
100
98
99
97
101
90
95
77
51
54
52
23
22
22
20
20
22
20
22
23
22
23
25
25
27
25
26
84
111
94
61
31
25
26
71
30
31
18
18
19
21
19
15
16
16
14
14
14
13
14
13
10
12
13
12
12
24
35
13
11
13
14
13
12
59
60
28
17
32
14
12
17
16
15
15
14
14
13
12
9
9
7
7
7
7
6
6
6
5
5
8
8
10
8
6
9
8
9
11
9
15
66
66
4
4
45
57
9
8
6
7
5
5
3
5
5
4
4
5
6
5
4
5
6
7
8
9
9
9
11
12
6
4
5
9
14
16
18
53
101
104
104
104
105
104
104
104
106
105
108
60
14
17
15
14
12
13
10
12
13
14
16
13
11
9
10
12
12
10
7
8
10
11
9
10
13
15
57
35
17
16
19
22
22
22
23
21
18
72
60
28
25
50
47
62
46
46
36
32
31
56
92
93
68
33
32
32
38
31
28
66
113
104
82
42
34
40
43
96
100
40
59
51
50
74
98
102
107
81
102
118
69
43
45
46
45
45
52
64
48
47
48
48
61
60
51
52
52
56
58
57
60
59
61
58
84
123
122
124
124
125
125
125
125
126
125
126
126
126
126
126
126
126
126
126
127
127
127
127
127
127
127
127
127
127
127
126
126
126
125
127
126
125
125
125
124
124
124
123
123
123
122
122
121
121
121
120
120
119
119
118
117
117
116
116
116
115
114
114
113
112
111
111
111
110
109
109
108
107
106
105
105
104
103
103
102
10
45
78
92
92
92
93
94
94
95
96
95
98
98
97
98
98
98
100
43
48
24
22
23
25
18
19
17
19
19
19
16
19
20
22
22
21
21
23
22
26
76
110
94
30
23
23
21
41
31
25
18
16
17
16
16
15
21
18
11
16
15
13
12
12
10
10
9
12
10
15
27
21
12
11
13
14
14
32
22
16
10
11
17
27
15
16
16
17
27
14
15
12
9
8
9
9
9
8
6
6
5
5
5
9
15
12
7
9
10
12
10
9
10
17
43
54
7
38
6
32
25
6
7
7
3
4
5
5
4
3
4
5
4
3
5
5
6
6
7
8
8
10
10
10
11
10
11
16
17
18
15
58
107
104
104
103
104
104
105
103
89
100
105
77
24
18
18
16
12
12
11
14
12
10
10
8
9
9
9
8
9
11
11
8
10
11
9
9
9
26
61
22
17
19
19
20
17
19
20
22
24
55
83
72
27
24
38
73
47
44
26
29
47
82
78
45
49
32
27
57
47
28
31
94
84
44
31
34
33
58
47
83
55
36
37
37
37
41
47
46
57
42
57
71
66
47
45
44
46
61
46
46
46
46
48
50
54
50
50
52
56
55
56
58
57
57
75
93
107
122
123
123
123
124
124
124
125
125
126
125
125
125
126
126
126
126
126
126
127
126
126
126
127
127
127
127
127
127
126
126
126
126
126
125
125
124
124
124
124
124
124
124
123
122
121
122
121
120
120
120
120
119
119
118
117
117
116
116
115
114
115
114
113
112
112
110
110
110
109
108
108
107
106
106
105
105
104
103
102
33
56
86
93
90
92
94
94
93
96
96
97
100
98
97
97
97
99
81
30
23
23
20
20
30
24
16
15
16
18
21
17
15
18
17
18
19
18
19
21
23
40
98
88
46
26
22
21
20
20
16
16
15
20
15
12
13
18
19
13
14
15
15
14
11
10
9
10
9
10
11
17
43
14
12
14
12
13
13
10
14
11
23
25
14
20
19
16
33
24
17
15
15
10
8
9
10
9
8
7
6
5
6
5
12
23
8
8
8
12
14
11
11
10
13
29
57
10
19
17
5
7
8
8
6
4
4
3
3
3
3
4
6
5
3
5
4
5
6
7
6
7
10
9
11
11
21
28
22
26
37
74
98
103
102
104
104
104
104
103
106
82
41
64
89
54
16
19
18
14
13
10
10
9
8
9
7
7
8
9
10
9
10
11
11
7
10
12
11
15
20
25
17
16
17
15
13
13
15
19
25
21
26
89
99
42
21
44
110
67
34
27
26
57
64
32
31
32
31
29
58
33
28
36
59
31
28
30
31
31
37
33
40
33
33
29
33
33
38
37
37
42
38
37
38
65
84
56
52
90
93
48
46
46
46
46
53
51
53
54
56
61
56
55
69
91
87
109
121
121
122
122
123
123
124
125
125
124
124
125
126
125
126
126
126
127
127
126
126
127
126
126
126
126
126
126
127
127
126
126
126
126
126
126
125
125
125
125
124
125
124
123
123
122
122
122
122
121
120
119
120
119
119
119
118
117
117
116
116
115
114
115
113
112
112
112
111
111
110
108
107
107
107
106
105
105
104
104
102
101
68
78
93
91
94
92
93
94
96
95
95
91
75
94
99
100
98
100
56
18
39
20
16
21
17
16
17
15
13
16
16
14
13
13
14
15
15
15
15
18
20
29
96
101
52
23
18
20
18
16
14
14
13
14
12
13
11
12
15
13
13
12
14
14
9
9
10
19
8
11
18
80
92
27
10
16
15
12
20
76
60
9
17
60
44
29
17
19
22
59
28
16
16
16
13
7
8
8
9
9
8
5
5
4
10
12
10
10
9
11
14
9
10
11
15
31
25
12
15
13
9
8
7
9
5
4
3
4
3
3
3
4
4
4
4
4
4
4
5
5
5
6
8
9
11
13
16
21
25
28
53
95
103
102
104
104
102
104
104
103
103
106
63
14
58
48
13
15
14
14
13
11
10
8
6
6
7
6
8
9
11
8
9
8
6
7
10
8
12
11
12
18
11
13
12
14
12
13
12
16
21
18
16
29
32
27
26
25
80
90
32
25
26
24
25
32
30
28
27
28
25
27
27
30
30
31
26
24
27
28
29
30
28
30
34
46
34
32
32
34
34
37
37
36
37
65
69
47
47
73
96
50
44
47
48
46
47
50
51
54
59
58
62
60
96
119
119
120
119
119
121
122
123
122
124
124
125
125
124
125
125
125
125
126
126
126
126
126
125
125
126
126
126
126
125
125
126
126
126
126
126
126
125
125
124
125
124
124
124
124
124
123
122
122
123
122
122
121
120
120
120
119
119
118
117
117
117
116
114
114
114
114
113
112
111
111
111
110
110
108
107
108
107
107
105
105
104
104
102
101
59
89
91
91
91
93
93
95
95
94
99
90
14
48
92
73
95
66
26
21
19
16
17
14
12
12
13
13
14
12
11
15
14
12
13
13
14
14
14
21
15
45
106
105
106
48
13
15
15
14
12
13
12
11
12
11
11
14
14
12
12
12
10
11
13
9
8
13
11
14
8
38
103
56
11
15
16
19
23
59
30
24
13
29
76
31
18
19
16
88
74
16
16
30
26
9
8
10
11
13
12
7
4
5
6
10
13
9
10
12
17
12
11
9
16
18
15
13
12
13
10
7
6
8
3
3
2
3
4
3
4
4
2
3
4
5
5
4
4
5
7
8
7
11
11
12
17
23
24
41
92
102
101
102
104
103
104
103
103
103
104
103
100
43
21
13
16
15
15
14
11
11
11
8
6
8
8
5
7
8
10
7
8
6
6
7
10
10
10
9
11
38
15
11
12
11
12
14
16
18
18
23
20
21
20
29
34
23
31
39
24
24
25
22
25
27
26
23
22
27
30
28
28
23
29
42
32
24
24
24
26
28
26
28
35
61
32
32
31
32
34
35
35
35
38
40
44
43
43
67
77
49
58
45
46
47
48
49
51
54
53
69
100
106
117
116
118
118
119
122
121
123
123
122
123
123
124
124
124
125
124
125
126
125
125
125
125
125
126
125
125
126
126
125
126
126
126
126
125
125
125
125
124
125
125
124
124
125
124
124
123
123
123
123
123
122
121
120
120
120
120
119
119
118
117
117
117
116
115
115
114
114
113
112
112
112
111
110
109
108
107
107
106
106
105
105
104
104
103
102
91
80
90
90
94
95
93
94
94
92
68
35
9
0
0
29
44
47
16
17
15
13
15
12
11
11
11
10
11
10
11
15
14
10
11
15
14
14
18
43
50
73
105
98
109
77
12
14
12
13
11
10
10
9
13
11
11
12
11
10
10
11
10
11
14
12
9
10
11
10
44
32
47
34
13
16
12
53
58
11
32
36
13
8
70
68
19
20
21
92
71
14
13
56
91
49
9
6
5
9
12
11
5
6
8
10
10
12
11
12
13
11
11
9
12
10
17
20
8
11
7
7
8
5
4
3
2
3
3
4
4
6
5
4
5
4
5
7
6
7
7
9
8
12
12
13
21
24
26
77
106
103
102
105
92
78
104
104
103
102
103
106
106
58
14
16
13
12
14
12
12
11
9
6
5
6
5
6
6
6
6
6
8
8
8
11
12
10
10
10
13
17
11
11
13
12
12
11
14
15
15
15
16
17
21
20
19
19
19
18
21
22
26
22
22
25
22
22
23
22
27
25
23
23
24
26
26
21
24
25
24
28
26
26
28
30
28
30
29
30
30
33
31
33
34
53
96
87
61
93
77
47
71
87
47
50
49
52
57
63
75
88
119
116
116
117
118
119
120
121
121
122
121
122
123
123
124
124
124
124
125
125
124
124
125
125
125
125
124
125
125
126
126
126
125
125
126
125
126
125
125
125
125
125
125
124
125
124
123
124
123
123
123
122
122
121
121
121
120
119
119
119
118
118
118
117
117
116
115
114
114
114
113
113
111
111
110
109
108
108
107
106
105
106
105
105
104
104
103
102
81
83
92
95
77
77
94
96
93
98
63
27
0
0
38
70
47
52
35
13
11
12
11
12
10
8
9
7
9
8
11
10
8
10
14
12
14
13
17
17
17
67
70
61
72
48
16
12
10
11
11
10
10
8
11
19
10
10
9
9
9
8
9
13
11
14
11
8
18
39
41
56
27
41
21
16
14
34
35
75
88
96
66
40
18
49
34
21
18
73
37
26
34
51
87
52
11
36
37
10
10
9
9
8
8
10
16
10
13
11
11
12
11
10
11
14
9
22
19
7
7
9
10
11
5
4
2
4
4
5
4
7
7
5
5
4
3
7
9
11
7
8
8
11
12
15
20
66
51
62
77
76
91
77
52
32
39
68
105
103
102
67
103
53
9
12
12
12
10
9
11
11
8
6
6
4
5
4
7
5
5
5
7
7
7
10
11
11
9
10
12
11
13
10
12
11
10
12
13
14
13
14
16
16
18
18
18
19
17
16
21
24
26
27
27
24
24
23
24
24
25
24
22
23
21
23
22
21
23
23
24
24
25
28
29
27
26
27
28
31
40
29
30
33
38
40
62
106
101
110
112
87
72
73
50
48
51
55
80
108
112
108
116
117
117
118
119
120
121
121
121
122
122
122
123
123
123
123
124
124
124
124
124
124
124
124
125
125
124
125
125
125
125
125
125
125
125
125
125
125
125
125
124
124
124
124
124
123
123
123
123
122
122
122
122
121
121
121
120
120
119
119
118
117
117
117
116
115
115
114
114
113
113
112
112
111
110
109
109
108
108
106
106
106
106
105
104
104
103
102
77
92
92
84
10
17
95
95
95
91
71
69
44
2
58
101
77
23
35
15
35
15
14
10
9
9
8
9
7
6
6
7
7
11
11
10
11
14
12
13
11
57
73
25
21
20
21
11
9
10
9
7
7
7
8
12
9
9
9
8
8
7
8
13
11
10
13
10
52
30
9
35
32
24
15
16
19
15
53
104
100
100
103
101
88
48
18
19
17
21
18
49
48
46
50
12
19
92
98
35
8
9
7
7
5
8
10
13
11
9
10
13
14
10
10
12
7
35
31
8
8
10
12
11
9
5
2
3
3
5
7
5
5
5
4
5
5
4
8
7
9
7
9
10
13
16
27
47
21
19
27
16
23
32
23
24
20
77
105
77
63
25
37
43
25
13
11
12
10
9
16
9
6
6
5
4
4
4
5
6
4
8
8
5
7
8
10
10
9
11
9
11
12
11
10
10
9
11
11
11
11
11
12
13
17
20
17
16
19
18
19
21
21
25
24
22
22
22
20
20
22
23
22
21
19
21
20
22
21
20
22
22
24
25
25
25
27
25
25
29
36
31
32
34
37
35
40
87
115
96
76
102
64
46
48
64
69
63
106
116
115
116
116
116
117
118
119
119
120
120
121
122
122
121
122
123
123
123
123
124
123
124
124
124
123
124
124
124
125
125
124
125
125
124
125
125
125
125
125
125
125
124
124
124
124
124
124
123
123
123
123
122
123
122
121
121
121
120
120
120
119
119
118
118
117
116
116
116
115
114
114
113
112
112
112
111
110
110
109
108
108
107
106
106
104
104
104
103
102
101
89
85
92
19
0
60
100
99
93
80
64
73
79
66
55
102
87
23
24
11
14
17
40
9
9
8
11
5
7
7
6
5
6
9
9
8
11
9
11
14
15
17
34
18
21
16
18
13
12
8
6
7
6
7
7
6
8
7
8
6
7
7
8
9
8
12
9
28
96
34
9
15
18
28
25
15
19
36
57
103
98
101
100
100
102
98
46
22
17
18
18
68
54
20
16
14
31
62
44
16
20
18
17
8
8
5
7
8
11
10
13
10
15
9
12
18
6
36
39
5
8
14
11
9
8
4
4
4
3
4
5
4
5
5
3
4
5
7
9
8
7
8
9
12
13
11
11
8
12
17
31
17
14
17
16
16
16
66
106
36
11
21
12
75
86
16
10
8
6
8
18
6
7
6
4
4
4
4
4
3
5
6
9
6
7
9
11
9
10
14
10
9
13
12
8
7
9
10
11
10
9
10
12
13
13
16
14
16
15
16
16
16
16
18
18
23
20
18
18
19
20
20
20
21
21
21
21
22
20
20
21
22
23
23
26
26
27
26
26
27
29
29
31
32
33
36
36
43
76
66
53
59
53
71
67
103
111
104
114
113
116
115
115
119
117
118
118
118
119
120
121
122
122
121
122
122
122
122
123
124
123
122
123
124
124
124
124
124
124
124
124
124
125
124
125
125
124
124
124
125
125
124
124
124
124
124
123
123
123
122
123
122
123
122
121
121
121
120
119
119
119
118
117
117
117
117
115
114
115
114
114
113
112
112
112
111
110
109
109
108
108
107
106
106
104
104
104
104
103
102
85
26
36
5
0
41
51
50
42
42
16
35
93
100
94
94
76
29
25
11
8
8
25
27
5
9
4
6
5
5
4
5
6
8
9
10
8
8
9
9
9
11
12
14
15
15
14
12
10
7
5
6
6
6
6
8
9
7
7
6
5
6
8
6
7
19
6
36
100
92
58
22
7
52
46
13
24
43
71
103
101
100
101
100
99
100
100
71
18
17
16
51
67
11
15
17
20
11
12
43
47
48
71
10
7
6
7
4
8
10
16
25
56
18
8
13
10
18
17
10
8
9
12
10
3
4
3
3
3
4
3
4
5
3
6
9
10
8
8
8
7
7
11
13
10
9
11
8
9
12
13
14
11
13
12
13
11
35
99
38
8
15
21
25
50
23
7
8
8
5
6
5
10
5
4
4
3
4
3
6
4
5
6
6
7
8
9
10
8
7
11
10
9
10
13
9
7
7
9
9
9
9
12
12
11
12
11
14
14
14
14
14
15
16
16
20
23
22
21
20
16
18
18
19
19
18
18
18
19
21
20
22
22
21
23
23
26
26
28
27
29
30
28
33
32
35
36
38
54
50
65
64
88
112
108
111
114
114
114
115
114
117
117
117
118
118
118
119
120
120
121
121
121
121
121
121
122
122
122
123
123
123
123
123
124
124
123
124
124
124
123
124
124
123
123
123
124
124
124
124
124
123
124
123
123
123
123
123
122
122
123
122
122
122
121
121
120
119
119
119
118
118
118
118
116
116
115
115
115
114
113
113
113
112
111
111
109
109
109
109
108
107
106
105
105
104
103
103
102
102
62
9
0
0
29
70
74
70
79
61
57
68
92
95
94
99
50
14
34
11
10
9
13
21
21
8
16
9
4
8
10
4
8
7
8
7
8
6
7
9
10
9
13
13
13
12
10
13
9
8
8
6
5
6
5
6
9
7
6
6
4
5
6
7
7
6
8
26
92
97
98
80
26
75
57
15
21
18
64
105
100
101
101
101
99
99
99
100
45
16
17
27
35
15
31
35
41
40
48
96
81
34
94
54
7
8
7
5
7
8
6
31
28
17
12
15
14
12
12
10
8
9
14
10
4
2
2
3
3
3
4
4
7
9
10
9
8
9
6
7
9
11
10
8
10
12
6
11
22
8
9
8
8
8
11
12
12
17
23
54
14
10
12
10
28
20
9
8
8
9
7
7
3
4
5
5
4
3
4
3
5
5
6
6
6
7
8
6
7
7
10
6
7
8
10
9
8
6
7
7
9
8
10
10
10
10
10
13
11
11
12
11
13
14
15
18
19
28
15
16
18
18
17
19
17
17
17
17
18
20
19
20
22
21
22
22
25
24
25
25
28
29
33
35
32
37
40
48
61
67
75
97
111
111
112
112
113
114
114
114
115
115
117
116
117
118
118
119
120
120
120
120
120
121
121
121
121
122
122
123
123
124
123
123
123
123
123
123
123
123
123
123
123
123
124
124
124
124
124
123
123
123
124
124
124
124
123
123
123
123
123
122
122
121
121
120
120
119
119
119
119
118
117
117
117
116
115
114
115
114
113
113
113
112
111
111
109
110
109
108
108
107
106
105
105
104
103
103
102
102
46
44
65
79
85
93
94
96
92
90
99
97
94
94
95
94
89
70
39
12
11
8
4
26
68
16
11
8
8
7
14
8
4
9
7
7
5
5
5
6
7
9
12
11
11
9
9
9
8
6
7
6
5
6
5
4
6
7
6
5
5
6
7
11
9
7
11
9
44
96
93
98
27
48
26
16
20
18
71
103
100
102
100
99
100
101
98
102
85
25
17
19
17
15
41
38
95
67
43
92
95
29
80
84
9
8
13
12
6
6
2
44
35
13
14
57
17
12
13
12
9
8
8
28
6
1
1
2
1
3
3
6
12
11
10
9
8
6
8
7
10
13
6
7
8
10
11
9
11
10
9
7
5
6
7
10
11
10
11
60
12
8
10
9
7
8
9
7
11
9
9
13
6
5
4
6
2
3
3
4
4
7
5
4
5
4
5
5
6
5
5
7
6
7
7
11
12
5
6
9
9
8
10
11
12
10
10
9
10
11
10
10
12
13
13
16
14
34
21
15
17
16
18
16
15
16
17
17
17
17
17
18
19
22
23
22
23
23
24
25
27
27
28
29
31
34
48
42
46
74
112
112
110
112
113
113
113
113
114
114
115
116
115
116
117
117
118
119
119
119
119
119
120
120
121
121
121
122
122
122
122
122
123
122
122
123
123
123
123
123
123
123
123
123
123
123
123
123
124
123
124
123
123
123
122
122
122
122
122
122
122
122
121
121
121
120
120
119
119
118
118
118
117
117
116
115
115
114
115
114
113
112
113
112
111
111
110
110
109
108
107
106
106
105
104
104
103
103
102
101
81
88
89
91
92
92
92
92
94
94
93
94
94
94
93
93
94
99
74
29
6
8
9
35
24
6
6
4
10
12
7
7
7
7
14
7
6
6
7
5
7
7
9
8
7
8
8
6
6
6
5
4
5
6
7
4
6
10
6
4
3
4
3
10
13
11
10
11
23
86
47
90
28
14
19
19
20
19
75
102
101
100
100
100
99
100
99
99
102
43
19
15
17
16
15
19
25
12
4
38
101
45
42
89
10
16
34
12
12
5
5
13
20
13
20
48
26
21
12
14
10
7
6
9
2
2
8
5
2
3
1
19
26
12
10
7
7
7
8
9
9
32
12
7
10
6
8
7
6
6
9
4
5
5
8
8
7
9
12
12
6
7
10
6
9
9
7
8
9
6
3
9
8
6
7
3
2
2
4
6
3
3
4
4
4
5
5
6
5
5
6
5
7
7
7
8
7
7
7
9
9
9
11
10
10
8
12
14
9
9
10
12
12
11
12
17
16
17
15
13
15
15
18
17
15
15
17
16
17
17
16
18
18
18
19
21
22
23
25
28
27
29
28
27
30
32
29
39
56
97
112
111
114
111
108
105
113
114
113
114
115
115
116
116
117
117
118
118
119
120
120
120
120
120
121
121
121
122
122
122
122
121
121
122
122
122
123
123
122
123
123
123
123
123
123
122
123
122
123
123
123
123
123
123
123
122
123
122
122
122
122
122
121
121
121
120
119
119
119
119
118
118
117
117
116
115
115
113
115
114
113
112
112
112
111
111
110
109
109
108
106
106
105
105
105
104
103
103
102
101
89
89
90
90
90
91
92
92
92
93
95
95
93
93
93
93
92
92
96
86
35
0
31
72
8
4
4
4
2
4
8
7
6
6
7
5
5
3
4
5
7
6
7
5
6
8
7
4
5
3
3
4
5
6
5
8
5
5
5
3
1
5
5
7
9
11
9
9
8
32
26
63
23
15
21
19
19
26
83
103
100
100
101
101
99
99
99
98
102
51
21
22
18
16
15
13
12
15
10
7
65
53
12
66
15
15
59
28
14
7
3
13
35
15
14
12
28
40
10
12
18
8
7
7
3
2
8
4
3
2
17
74
18
10
10
9
8
7
7
9
11
21
17
7
7
4
7
5
5
5
14
7
3
6
8
6
4
6
10
6
9
7
5
7
7
7
7
8
8
5
4
6
6
6
5
5
5
6
5
4
4
5
2
4
3
4
3
5
5
3
4
7
5
10
8
7
5
12
7
8
11
9
9
10
10
11
12
9
8
7
9
10
10
10
11
14
16
16
13
14
14
13
16
16
14
15
15
15
16
16
17
19
17
19
20
21
23
22
21
23
25
25
30
36
30
34
37
47
61
109
111
103
78
72
60
57
83
110
113
114
115
115
117
117
117
117
117
118
119
119
119
119
119
120
120
120
121
121
121
122
121
121
122
122
121
121
122
121
122
122
122
122
122
122
122
123
123
123
122
122
122
122
122
123
122
123
122
122
122
121
121
122
120
121
121
119
119
119
118
119
117
117
116
117
116
116
115
114
113
113
113
113
112
111
112
111
109
109
108
107
107
107
106
105
105
104
102
101
101
100
89
88
90
90
92
92
91
92
92
92
92
93
92
93
93
94
92
92
92
96
65
48
22
21
11
4
4
3
2
3
6
6
5
5
5
5
3
3
2
6
3
5
7
5
5
5
4
3
2
2
1
2
4
5
4
6
5
3
2
3
4
7
5
5
5
8
8
7
11
11
14
19
18
16
18
19
17
68
101
99
101
100
101
100
99
100
99
100
103
56
24
42
23
17
17
15
48
94
68
6
35
45
13
36
18
12
46
50
12
7
5
6
14
12
17
19
24
43
44
16
25
6
4
0
2
5
5
3
3
0
28
84
44
5
9
8
7
8
7
9
10
6
7
6
5
4
5
4
5
5
4
4
5
5
8
6
17
9
7
12
9
5
5
6
4
5
5
6
7
5
7
4
7
6
5
6
8
7
4
4
5
4
2
2
4
3
3
5
5
4
6
8
7
10
8
5
44
23
7
7
10
8
9
10
9
8
10
9
8
7
8
9
10
11
12
14
16
17
16
16
17
14
14
14
15
15
15
18
16
16
16
17
17
17
20
20
22
23
27
25
25
31
31
40
31
40
37
38
62
113
109
103
47
36
40
42
58
112
113
113
113
115
115
116
116
116
117
117
118
119
120
120
119
119
120
120
120
120
120
121
122
121
121
121
121
122
122
122
121
122
122
122
122
121
122
122
122
122
122
122
122
122
123
122
122
122
122
121
122
121
121
120
120
120
120
119
119
119
118
118
118
118
117
116
116
115
115
114
115
114
112
112
112
112
111
110
109
109
108
107
107
106
105
105
105
104
103
101
101
100
88
90
91
90
91
91
92
91
93
92
92
94
93
92
91
93
90
91
94
93
82
65
28
17
13
4
3
1
4
3
4
5
3
4
4
4
3
3
1
5
6
5
5
4
4
3
3
3
1
2
1
1
3
4
4
4
3
3
1
3
3
5
4
5
6
4
8
6
7
9
11
13
13
15
16
17
19
84
100
99
99
100
101
101
100
99
100
100
101
81
22
37
31
56
16
18
30
60
61
13
36
48
15
19
6
13
68
16
11
4
7
8
12
12
18
54
54
37
48
16
26
24
0
3
7
9
9
4
2
16
29
50
44
6
10
7
7
8
8
23
9
7
5
5
4
4
2
3
4
2
1
3
4
5
6
5
8
4
6
9
7
9
6
6
4
5
4
5
7
6
5
5
5
5
6
5
6
3
5
6
4
3
3
2
3
4
5
3
3
5
6
6
7
8
10
6
29
8
8
8
7
7
8
10
9
8
9
9
9
9
8
10
10
9
10
11
12
12
13
13
14
16
14
15
16
15
15
13
13
16
15
17
16
17
18
20
19
24
25
24
26
25
26
24
26
28
31
37
90
96
61
58
43
38
38
39
70
112
85
69
105
117
115
114
116
116
117
117
118
119
119
119
119
119
119
119
120
120
120
120
121
120
121
121
121
121
121
121
121
121
121
121
121
121
121
121
122
122
122
122
122
122
122
121
122
122
122
121
122
122
121
120
120
119
119
119
119
119
118
117
117
117
117
116
116
115
115
115
114
114
113
112
112
111
110
109
109
109
108
107
107
106
105
105
105
104
103
101
101
101
88
89
89
91
90
91
92
91
91
94
91
77
94
93
94
95
93
92
88
79
32
24
27
18
10
3
1
1
4
2
2
2
3
3
3
2
3
2
1
3
5
3
2
2
1
0
2
3
2
2
0
0
1
2
3
1
2
2
0
2
3
4
3
3
4
5
4
6
6
8
10
11
11
12
14
17
19
80
98
100
100
100
99
99
100
100
99
99
100
94
31
21
35
98
52
15
16
21
27
12
15
25
23
59
4
18
45
10
20
26
4
8
53
26
9
28
86
71
33
33
33
21
0
2
4
4
4
3
0
32
62
47
13
8
9
7
9
9
30
45
5
6
5
6
1
1
1
4
3
1
2
2
5
6
4
6
2
2
4
5
8
7
9
1
3
3
4
4
5
7
4
6
5
5
4
4
4
7
3
5
7
3
3
4
5
3
3
4
4
4
4
7
7
8
10
5
4
7
6
8
8
8
8
9
8
9
11
10
11
11
8
9
10
9
9
8
10
10
13
10
12
14
15
14
14
17
14
13
14
15
18
16
19
29
25
31
22
25
23
27
26
29
28
26
33
30
32
34
59
45
36
35
41
38
41
39
51
56
45
47
68
81
109
115
116
117
117
117
117
118
118
118
118
119
119
119
120
119
120
120
120
120
120
121
121
120
120
121
121
121
121
121
121
121
121
121
122
121
121
122
122
121
122
122
121
121
121
121
121
121
121
120
120
119
119
119
119
119
118
117
118
117
116
116
116
115
115
115
113
113
113
112
111
110
110
110
109
109
108
107
107
106
105
105
103
102
102
102
101
101
88
89
89
90
90
92
91
90
93
74
65
30
44
84
80
41
76
58
37
25
17
16
15
7
7
5
3
4
4
2
2
2
2
2
0
0
2
1
2
1
0
3
2
1
2
0
0
2
2
1
0
0
0
1
3
1
1
1
0
1
2
3
3
3
5
4
3
5
4
7
7
8
9
11
13
16
15
72
101
98
99
100
100
100
100
100
100
100
99
97
33
23
26
91
89
23
18
17
23
18
10
11
22
78
12
13
22
12
78
79
5
4
47
52
17
35
15
55
40
48
61
21
6
3
5
4
3
3
4
43
8
4
5
8
6
5
7
5
33
40
2
5
6
19
2
0
1
2
3
1
1
2
3
2
4
3
4
3
1
5
6
6
2
3
3
4
4
2
4
5
6
4
3
3
4
5
5
6
5
5
5
4
4
4
5
4
2
3
1
4
5
5
8
9
8
5
6
5
5
7
7
7
7
7
7
8
10
9
8
11
8
7
8
7
8
9
9
9
9
12
11
15
14
11
15
12
12
14
17
19
18
16
44
91
58
40
21
25
26
24
27
26
28
25
25
27
28
35
58
30
34
35
39
38
41
39
39
42
47
49
46
52
100
115
115
116
116
116
117
117
118
118
118
118
118
118
119
119
119
119
119
120
120
120
120
120
120
121
120
121
121
121
120
120
120
121
121
121
121
121
121
121
121
122
122
122
122
121
120
120
121
120
119
119
119
118
118
119
118
118
118
117
116
116
115
115
114
114
114
112
112
112
111
110
110
110
109
108
107
107
107
106
105
105
103
102
103
102
101
101
89
89
89
89
90
91
90
91
93
36
23
24
20
57
21
10
28
27
19
14
13
8
11
6
3
4
3
3
3
2
2
1
1
2
0
2
1
2
1
0
0
3
2
2
2
2
1
1
2
0
0
0
0
0
1
0
0
0
0
0
0
1
2
3
2
3
2
4
3
5
6
8
7
16
24
15
15
50
99
98
99
100
99
100
101
101
100
99
99
100
54
21
21
73
78
37
17
17
16
23
28
17
5
20
10
6
6
32
85
49
10
3
3
34
15
59
39
6
22
24
21
14
32
27
4
4
2
1
8
50
8
3
1
7
6
5
5
12
36
19
4
2
0
17
20
4
0
0
0
0
1
1
0
5
8
3
2
2
4
2
4
13
12
7
2
2
3
2
3
5
4
4
3
3
4
2
5
5
5
4
2
4
4
5
3
3
3
4
3
5
5
6
6
7
4
6
6
4
4
5
7
7
7
7
7
7
8
7
8
11
8
6
8
8
7
8
8
9
10
11
12
11
13
13
17
18
14
18
17
17
20
22
36
78
39
21
23
23
22
24
23
23
24
26
26
27
28
29
35
32
34
48
35
34
34
38
40
40
51
46
45
57
110
113
114
115
116
116
117
117
117
117
118
118
118
118
119
118
118
118
119
120
119
119
119
120
120
119
120
120
120
120
120
120
120
120
120
121
121
120
120
121
121
121
120
121
121
121
120
120
120
120
120
119
119
119
118
118
118
118
117
116
115
116
115
115
114
114
113
112
112
112
111
110
110
109
109
108
107
107
107
106
105
104
103
102
103
102
101
100
89
88
89
89
90
89
90
87
95
67
12
10
12
14
10
9
9
10
8
11
7
8
7
4
4
4
4
1
2
1
0
0
1
2
0
3
1
2
0
0
0
0
1
1
0
1
1
1
1
0
0
0
0
0
0
0
0
0
0
0
0
2
1
1
0
1
3
1
4
5
5
5
6
23
34
14
17
30
95
97
99
100
99
100
100
100
100
99
97
101
52
21
23
33
52
42
26
16
15
12
53
43
22
6
5
7
37
24
31
20
15
3
4
4
7
31
51
6
17
23
31
18
74
39
0
4
3
1
9
15
6
2
6
4
7
7
6
10
19
22
9
0
2
1
25
47
0
0
0
0
1
0
0
0
6
1
2
3
0
12
29
66
47
13
3
2
2
4
8
11
6
3
3
3
2
2
3
3
2
7
5
4
6
10
7
3
4
2
3
5
5
3
4
5
6
0
4
4
3
5
6
5
6
7
6
6
7
9
9
11
9
6
7
8
7
8
8
9
8
10
10
11
12
14
14
15
15
12
15
17
19
25
56
60
18
20
21
20
20
21
22
24
24
23
24
34
37
32
29
30
38
60
35
35
34
58
51
43
41
41
43
54
102
114
114
114
115
116
116
117
117
117
118
118
118
117
118
118
118
118
118
119
119
119
119
119
119
119
120
120
120
120
120
121
120
120
119
120
120
119
120
120
121
121
120
120
120
120
120
120
120
119
119
119
119
118
118
118
117
117
116
116
115
115
115
114
114
113
113
112
112
112
111
110
110
109
109
108
107
107
107
106
105
104
103
103
103
102
101
100
88
89
89
88
90
89
90
74
47
65
26
16
12
7
6
8
8
7
7
5
8
5
4
3
3
2
4
0
2
0
0
0
0
0
1
0
0
0
0
0
0
0
0
0
1
1
0
0
0
0
0
0
0
0
0
0
0
0
0
0
0
2
1
0
0
0
1
3
3
4
4
6
5
31
31
13
18
26
89
98
99
99
99
100
100
100
100
99
98
100
77
23
25
21
21
28
31
20
16
11
19
17
63
14
5
7
61
31
16
17
19
10
2
3
3
4
16
16
6
10
30
13
14
0
2
4
3
7
5
5
6
4
5
4
5
4
1
12
12
10
8
5
1
1
6
7
10
0
0
1
0
0
0
0
3
1
0
0
23
66
84
90
47
4
3
0
2
4
12
5
12
4
2
3
4
4
3
3
4
2
5
7
3
32
27
4
4
4
4
4
5
4
5
5
6
18
4
4
5
5
6
5
7
7
6
6
7
9
9
10
9
8
9
10
8
8
8
9
10
11
10
11
13
12
15
15
19
13
18
16
18
21
40
37
32
18
17
19
21
20
23
22
23
23
23
35
50
44
27
33
32
30
33
34
40
40
40
46
39
45
48
58
102
115
114
114
115
116
117
117
117
117
117
117
117
117
118
118
118
118
119
119
119
119
119
118
119
119
118
119
119
119
119
119
120
120
119
119
119
120
120
119
120
120
120
120
120
119
119
119
119
118
119
119
119
118
118
118
117
117
116
116
116
114
115
114
114
113
113
112
111
111
110
110
110
109
108
108
107
107
106
106
105
105
103
103
102
102
101
100
88
88
88
90
88
90
88
88
43
30
28
12
9
6
7
6
5
4
4
5
7
6
1
1
2
2
0
0
0
0
0
0
0
0
0
2
0
0
0
2
1
0
0
0
0
0
0
0
0
0
0
0
0
0
0
0
0
0
0
0
0
0
0
1
0
0
1
0
1
2
4
6
7
12
13
13
17
21
81
98
97
98
98
99
99
100
99
99
99
97
100
50
19
23
20
23
23
23
18
13
11
14
18
8
4
5
27
32
7
10
10
10
4
1
3
2
1
3
2
3
4
3
1
1
1
4
4
3
4
6
5
4
3
4
2
1
1
3
2
4
12
6
2
1
0
1
1
0
0
0
0
0
1
3
6
0
13
51
79
95
101
58
7
4
3
21
8
12
11
5
3
3
5
3
3
4
4
5
3
12
22
11
4
5
7
6
6
4
5
6
5
4
3
6
10
29
7
7
6
5
5
6
6
6
6
9
8
7
6
7
8
7
7
9
8
9
9
9
10
10
9
12
11
11
11
14
15
14
15
19
18
29
53
29
23
20
19
20
19
21
22
21
30
26
24
22
25
26
30
29
30
31
31
32
35
39
40
41
39
55
46
79
115
112
113
113
115
115
115
116
116
117
116
117
117
117
117
117
116
117
117
118
117
118
118
118
118
118
119
119
119
118
118
119
119
118
120
119
119
119
119
119
119
119
119
119
119
120
119
119
119
119
119
119
118
118
118
116
117
116
116
116
116
115
114
114
113
112
112
112
112
110
110
111
109
108
108
107
107
106
105
105
105
104
104
102
102
101
100
100
89
88
88
89
89
87
88
90
71
11
8
8
6
6
3
4
4
4
4
3
3
4
2
0
0
0
0
0
0
1
0
0
0
0
0
0
0
0
0
0
0
0
0
0
0
0
0
0
0
0
0
0
0
0
0
0
0
0
0
0
0
1
0
0
0
0
0
9
7
4
8
9
9
10
12
14
16
19
53
98
99
99
100
99
98
100
99
98
98
97
98
89
29
21
21
21
22
22
18
13
12
10
9
22
10
3
18
19
3
0
1
0
2
0
2
2
2
2
1
2
3
0
2
2
6
3
3
3
6
4
2
2
4
2
2
0
4
2
1
4
37
25
0
0
0
0
0
0
0
1
0
1
2
0
2
33
61
74
77
58
48
9
6
6
3
21
7
7
6
3
12
16
5
8
8
4
5
4
4
16
10
6
5
7
8
7
8
6
5
3
4
3
5
9
6
6
14
18
32
4
7
5
5
7
28
5
8
7
8
8
11
6
6
7
7
8
8
8
9
10
9
12
12
12
11
13
12
16
16
16
20
20
26
52
40
19
22
19
17
19
20
20
23
24
21
22
25
25
27
29
30
29
30
32
33
36
55
44
37
61
63
67
111
112
113
113
114
114
115
116
115
115
116
116
115
115
117
117
117
117
117
117
118
118
118
118
117
117
118
118
119
118
118
118
119
118
119
119
118
118
119
119
119
119
119
119
118
119
119
119
118
118
119
118
119
118
118
117
116
116
116
116
116
115
114
114
113
113
112
112
112
110
110
110
109
108
109
108
107
105
104
105
104
104
104
102
102
101
100
100
88
87
88
89
88
89
88
93
57
12
11
7
4
4
4
2
2
3
2
1
2
2
0
0
0
0
0
0
0
0
0
0
0
0
0
0
0
0
0
0
0
0
0
0
0
0
0
0
0
0
0
0
0
0
0
0
0
0
0
0
0
0
3
5
0
2
3
22
10
8
10
6
9
9
12
12
17
19
28
92
98
98
98
99
98
98
98
98
98
97
96
99
46
18
21
18
19
21
21
17
10
8
9
20
11
2
23
29
8
0
0
0
0
1
8
11
7
11
25
9
7
5
1
3
3
3
5
3
3
2
2
0
1
4
0
0
2
1
1
3
15
9
3
0
1
0
0
0
0
0
0
2
0
2
4
28
10
10
7
7
9
6
4
5
5
2
4
4
5
0
31
26
10
19
8
4
5
6
6
6
4
7
4
6
8
7
8
6
6
6
6
7
32
15
5
4
11
33
9
8
8
5
5
5
8
8
7
7
6
7
8
6
6
5
8
11
9
8
7
9
9
16
18
9
13
12
14
14
15
15
18
23
21
46
71
15
19
17
20
19
19
19
21
20
20
23
29
26
27
28
29
28
32
34
35
44
48
39
38
70
96
100
111
112
112
113
113
113
114
115
115
115
115
116
115
116
116
116
116
116
117
117
118
117
117
118
117
118
118
118
118
118
117
118
118
118
118
118
118
118
118
118
118
118
118
118
117
118
118
119
118
118
119
118
119
117
117
117
116
116
116
115
115
114
114
114
113
112
112
111
111
110
110
110
109
109
107
107
107
105
105
105
104
104
104
102
102
101
100
99
86
89
87
88
87
90
84
85
53
10
11
5
4
2
2
2
2
0
1
2
0
1
1
0
0
0
0
0
0
0
0
0
0
0
0
0
1
0
0
0
0
0
0
0
0
0
0
0
0
0
0
0
0
0
0
0
0
0
0
0
0
9
12
21
42
0
2
1
3
7
6
13
6
21
20
12
14
19
22
83
98
98
98
99
100
97
98
98
98
97
96
99
63
20
27
20
16
19
21
17
11
10
8
7
6
3
25
22
9
1
0
0
1
1
10
14
11
9
29
19
11
7
1
0
3
4
4
2
0
1
0
1
0
0
13
8
0
4
0
0
1
2
2
3
1
2
1
0
0
0
1
4
0
3
0
1
9
8
17
19
6
5
5
5
5
7
4
22
7
12
22
12
5
5
5
5
5
5
9
7
7
7
11
20
21
15
7
8
9
5
6
7
12
9
9
6
12
9
9
7
6
4
4
7
6
4
7
5
4
8
6
7
6
6
11
14
10
7
9
10
12
16
9
8
9
11
10
12
13
14
15
17
20
51
58
21
18
19
19
20
17
18
19
22
21
22
25
25
26
26
26
28
31
33
36
34
34
38
52
64
107
113
111
112
112
112
113
113
114
115
115
115
114
115
116
115
115
115
115
116
116
117
117
116
116
117
117
118
118
117
117
117
118
117
117
118
117
118
118
118
118
118
119
119
118
118
117
118
119
119
119
118
118
118
117
117
117
116
116
116
115
115
115
114
114
114
113
112
111
111
111
110
110
109
109
108
107
107
107
106
105
105
104
104
103
102
102
101
100
100
87
87
87
87
87
89
70
38
33
18
8
6
2
2
1
0
0
1
0
0
0
0
0
0
0
0
0
0
0
0
0
0
0
0
0
0
0
0
0
0
0
0
0
0
0
0
0
0
0
0
0
0
0
0
0
0
0
1
0
0
0
0
8
1
58
30
0
3
1
5
16
14
5
30
33
9
15
24
16
67
99
97
98
98
99
98
98
98
97
96
96
97
82
19
25
29
17
14
19
16
11
9
6
7
5
0
2
15
7
0
0
0
0
3
6
13
14
10
21
17
55
12
4
0
1
3
2
1
1
2
0
0
1
9
11
0
1
1
2
0
1
2
1
2
1
2
0
0
0
3
2
4
4
1
15
37
9
4
19
21
7
4
4
5
8
9
12
8
4
53
14
3
5
6
6
10
7
7
8
9
8
10
10
42
69
29
8
15
9
8
6
8
6
6
12
15
5
9
7
9
5
23
21
4
6
9
8
6
6
7
6
7
10
14
18
13
9
9
10
10
10
15
12
10
11
10
10
10
12
12
16
16
15
20
30
20
16
17
18
18
17
18
20
20
21
22
23
25
25
25
27
29
31
35
48
47
50
47
98
107
109
109
110
112
112
112
113
114
114
113
113
114
114
114
114
114
115
115
115
116
115
116
115
116
116
117
117
117
117
117
117
117
117
117
117
117
117
118
118
118
117
117
118
118
118
118
117
117
118
117
118
117
117
118
117
117
117
116
116
115
114
115
114
114
113
113
112
112
111
111
110
110
109
109
109
108
108
107
106
106
105
105
104
103
103
102
101
101
100
99
86
87
87
87
87
85
51
29
27
15
7
5
3
0
1
1
0
0
0
0
0
0
0
0
0
0
0
0
0
0
0
0
0
0
0
0
0
0
0
0
0
0
0
0
0
0
0
0
0
0
0
0
0
0
0
0
0
6
1
0
1
2
41
11
54
22
0
2
3
35
41
15
5
41
45
8
16
22
18
54
99
94
97
98
98
99
97
95
97
95
96
94
96
59
17
19
18
8
9
9
9
6
3
3
0
4
5
5
3
0
0
0
0
0
2
7
7
13
9
10
32
20
0
0
1
4
0
0
0
0
0
0
2
21
7
0
1
0
1
0
0
0
2
0
3
2
0
0
0
2
2
4
9
6
6
23
5
5
13
6
5
5
3
7
6
7
10
6
9
25
14
17
12
7
9
8
7
12
10
10
14
7
46
98
93
25
15
13
10
8
6
7
6
9
11
10
9
7
14
54
43
85
53
4
12
28
15
15
6
5
6
8
15
14
21
9
8
8
10
10
10
14
11
10
10
11
10
10
12
12
19
13
13
16
15
16
14
16
18
16
17
17
21
18
23
25
26
24
24
26
25
30
37
59
96
100
100
91
110
109
109
109
110
110
111
112
112
113
113
112
113
113
113
113
113
113
114
114
115
115
114
115
114
115
116
116
117
116
116
117
117
116
116
116
116
116
117
117
117
117
117
117
118
118
117
117
117
117
117
117
117
117
117
116
117
116
116
116
115
115
114
114
113
114
113
112
112
111
111
111
110
109
109
108
108
108
107
106
105
105
104
104
103
102
102
101
100
100
99
98
86
86
87
88
88
85
39
29
28
16
7
3
3
1
0
0
0
0
0
0
0
0
0
0
0
0
0
0
0
0
0
0
0
0
0
0
0
0
0
0
0
0
0
0
0
0
0
2
0
0
0
0
0
0
0
0
0
0
0
7
0
2
13
14
15
14
28
5
8
58
49
42
6
46
64
7
14
43
20
44
97
96
96
97
97
97
97
97
96
97
95
93
95
92
42
14
11
7
3
5
7
4
3
0
3
1
0
2
0
0
0
0
0
0
0
7
13
20
13
8
16
41
0
2
2
3
3
1
1
1
0
0
0
1
1
0
2
0
0
0
0
0
0
1
2
4
1
0
0
2
4
3
6
7
6
5
6
7
8
17
3
3
4
5
5
7
7
8
9
9
11
12
10
9
8
11
13
13
11
12
24
34
82
103
77
9
44
24
10
9
9
10
10
12
9
7
8
11
77
93
89
99
70
27
53
62
21
15
5
6
6
11
16
9
17
10
7
11
8
9
11
12
12
14
10
12
9
12
14
27
24
19
12
15
13
16
17
14
16
16
16
16
15
18
20
23
25
25
24
28
36
36
43
62
92
108
108
109
108
108
110
110
110
110
110
110
110
111
112
111
112
112
112
112
113
113
113
114
114
114
113
114
114
116
115
116
115
114
115
115
115
115
116
116
116
116
117
117
116
116
116
116
116
117
117
117
116
116
117
117
117
117
117
116
116
115
115
115
115
115
114
114
113
114
113
112
112
112
110
110
110
110
109
108
108
107
107
106
105
104
104
104
104
103
102
102
101
100
99
98
86
87
87
87
89
81
36
25
25
19
10
4
1
0
0
0
0
0
0
0
0
0
0
0
0
0
0
0
0
0
0
0
0
0
0
0
0
0
0
0
0
0
0
0
0
0
0
2
0
0
0
0
0
0
0
0
0
0
0
0
1
0
5
26
40
10
74
28
28
48
34
58
2
68
67
8
10
54
27
22
85
96
96
97
97
97
96
96
95
95
94
97
94
84
48
16
8
6
3
4
1
0
2
0
0
0
0
0
4
0
0
0
0
0
0
10
14
13
16
12
11
25
1
2
4
4
2
4
3
4
4
0
8
8
0
0
0
0
0
0
0
0
0
0
1
19
17
9
1
1
2
4
1
3
4
4
6
5
8
6
6
7
5
5
6
6
7
7
12
15
15
15
8
25
59
59
77
38
24
70
45
74
101
102
50
7
33
28
10
9
9
12
6
14
13
7
8
31
96
94
98
98
82
70
33
28
27
9
6
5
5
11
16
13
9
10
8
8
7
10
8
9
11
11
11
11
11
12
14
18
22
22
14
15
13
14
15
15
18
19
15
21
19
22
25
23
24
25
25
30
40
39
30
48
97
107
107
108
107
108
109
109
109
109
110
110
110
111
111
111
111
110
112
112
112
112
112
113
114
114
114
113
115
115
114
115
115
115
115
115
114
115
116
115
115
116
116
116
116
116
116
116
116
116
117
116
116
115
116
115
116
115
116
116
116
116
115
114
115
114
114
114
113
113
113
112
112
111
111
110
108
108
108
107
108
107
107
107
106
104
104
104
103
103
101
101
100
100
99
98
86
87
86
88
89
70
28
25
24
21
18
8
1
0
0
0
0
0
0
0
0
0
0
0
0
0
0
0
0
0
0
0
0
0
0
0
0
0
0
0
0
0
0
0
0
0
0
0
0
0
0
0
0
0
0
0
0
0
0
0
0
0
12
26
41
72
56
22
16
12
12
17
5
33
60
11
10
45
45
14
71
97
95
95
95
96
94
95
96
96
92
67
80
101
47
17
7
4
0
0
0
0
0
0
0
0
0
0
0
0
0
0
0
0
1
13
13
17
13
15
13
3
2
2
2
3
4
5
6
8
5
7
16
49
10
0
0
0
0
0
0
0
0
0
0
57
80
35
5
1
2
1
12
8
3
5
5
5
5
10
27
18
4
6
7
6
7
9
10
33
18
35
15
49
100
97
99
91
74
97
101
99
99
99
86
38
37
39
10
11
12
14
7
7
7
9
9
66
97
94
65
68
83
48
9
11
10
9
7
5
5
7
18
11
8
10
8
7
6
8
8
8
9
10
10
12
14
12
12
17
15
12
11
11
10
13
14
16
17
19
18
19
22
21
20
26
25
25
25
28
38
40
80
94
108
106
107
107
106
108
108
108
109
109
109
110
109
109
110
110
111
110
110
110
111
111
112
111
112
113
113
113
112
113
112
114
114
114
114
115
114
115
116
114
115
115
115
115
115
115
116
116
115
114
115
116
115
115
116
116
116
115
116
115
115
115
114
115
114
114
113
113
113
113
112
112
111
111
110
110
110
109
108
108
107
106
106
105
105
104
104
103
103
103
102
100
100
99
99
98
88
86
88
86
87
75
47
25
22
22
22
13
2
1
0
0
0
0
0
0
0
0
0
0
0
0
0
0
0
0
0
0
0
0
0
0
0
0
0
0
0
0
0
0
0
0
0
0
0
0
0
8
3
1
1
0
0
1
0
0
0
1
0
0
24
96
83
48
66
34
71
27
13
45
14
13
10
36
71
13
57
99
94
95
94
94
95
96
94
92
57
14
68
60
64
28
12
2
0
0
0
0
0
0
0
0
0
0
0
0
0
0
0
8
13
15
10
7
3
14
33
18
0
0
2
2
4
4
3
4
27
16
10
45
83
56
26
10
0
0
0
0
0
0
21
46
56
23
0
2
3
1
9
5
3
6
6
5
5
8
26
9
5
7
7
8
9
10
11
14
10
41
57
97
99
99
100
101
77
100
98
99
101
98
100
98
65
22
13
14
14
11
9
9
7
9
14
57
87
97
54
29
35
63
21
6
8
9
8
13
14
6
15
11
7
8
8
9
7
6
7
6
7
8
8
9
14
13
11
10
15
13
10
10
12
13
14
16
18
17
20
18
18
20
20
21
21
25
26
26
29
75
96
95
97
106
105
106
107
107
105
108
107
107
108
109
108
108
107
110
109
109
111
110
109
109
109
111
111
112
112
112
112
113
113
114
113
113
114
115
115
114
114
115
114
114
114
114
114
114
115
115
115
115
115
115
114
115
115
115
116
115
116
116
115
115
114
114
114
114
114
113
112
113
112
112
110
110
110
110
110
109
108
107
107
106
105
105
105
104
103
103
102
101
102
100
100
99
99
98
88
87
87
87
87
68
32
26
22
21
20
9
5
0
0
0
0
0
0
0
0
0
0
0
0
0
0
0
0
0
0
0
0
0
0
0
0
0
0
0
0
0
0
0
0
0
0
0
0
0
0
4
6
9
9
0
0
0
0
0
0
3
3
0
49
94
96
65
23
48
91
10
22
100
69
13
12
21
80
18
31
94
94
96
93
94
95
95
45
40
36
3
18
19
54
62
20
4
2
2
0
0
0
0
0
0
0
0
0
0
2
0
13
16
16
18
7
3
9
36
83
26
0
1
2
3
4
4
11
60
69
19
10
50
96
93
90
52
0
0
0
12
3
0
7
2
4
20
2
2
2
4
2
3
8
5
5
7
6
7
8
7
7
8
10
9
9
11
13
13
12
45
94
99
99
99
99
100
95
99
101
98
100
99
98
99
100
51
11
13
11
10
10
8
8
9
13
20
68
97
52
17
34
56
16
10
15
8
16
20
14
8
12
12
6
7
8
7
7
8
6
5
6
7
9
10
10
13
10
11
11
9
13
13
12
17
16
14
14
18
16
17
18
20
20
20
22
22
32
47
47
68
42
40
61
105
106
105
106
105
108
106
106
108
107
106
107
108
107
108
108
110
103
103
109
109
110
109
110
110
110
110
112
111
112
112
112
113
113
112
113
114
113
114
113
115
114
114
113
114
114
114
115
114
115
115
114
114
115
114
115
114
115
115
114
114
114
114
113
113
114
113
112
112
111
110
110
109
110
109
109
108
107
107
107
106
105
105
105
104
103
103
102
101
101
99
99
98
97
97
87
87
87
87
84
44
26
22
24
22
15
7
5
1
0
0
0
0
0
0
0
0
0
0
0
0
0
0
0
0
0
0
0
0
0
0
0
0
0
0
0
0
0
0
0
0
0
0
0
0
0
4
6
16
30
10
0
0
5
3
2
0
13
49
86
93
96
70
16
49
54
3
33
94
96
27
11
11
73
43
16
64
98
93
96
94
99
69
7
32
69
7
3
37
27
64
13
7
6
3
0
0
0
0
0
0
0
1
0
0
0
3
11
14
13
9
9
0
18
31
32
4
2
1
2
4
4
4
49
96
92
38
8
53
93
96
45
3
17
0
0
5
4
1
1
1
2
4
2
0
2
5
8
23
65
17
10
9
8
7
13
8
10
9
13
10
25
35
13
15
14
71
102
99
100
99
99
101
101
102
100
101
99
100
99
96
99
73
16
12
11
9
8
8
7
10
9
27
66
48
32
19
14
12
9
7
21
21
29
21
18
7
13
17
9
8
8
10
7
7
6
6
6
13
11
10
12
10
10
9
8
9
11
15
16
14
16
13
15
14
15
15
15
16
16
17
20
22
51
46
37
34
34
31
57
97
106
106
106
105
106
106
108
107
107
106
107
108
111
107
101
77
54
62
106
107
107
108
110
110
111
110
110
110
112
111
112
112
112
112
112
112
112
112
113
113
113
113
112
113
113
113
114
113
113
114
114
114
114
114
115
114
114
114
114
114
113
113
112
112
113
112
111
112
110
110
110
110
109
109
109
108
107
107
106
105
105
104
104
103
103
102
102
101
100
99
99
98
97
97
88
87
85
87
83
79
58
36
22
19
14
8
3
1
2
0
0
0
0
0
0
0
0
0
0
0
0
0
0
0
0
0
0
0
0
0
0
0
0
0
0
0
0
0
0
0
0
0
0
0
1
0
12
49
69
39
0
1
4
1
0
22
79
90
91
91
95
45
38
63
18
15
81
93
97
50
9
10
40
73
14
24
84
97
89
51
88
56
4
7
10
5
11
28
23
44
8
5
1
2
1
0
0
0
0
0
0
0
0
0
0
8
2
6
3
8
6
0
0
3
11
1
0
1
3
4
4
6
26
85
92
42
8
40
99
71
1
50
89
53
32
0
0
0
1
2
3
1
5
43
39
5
68
83
97
87
73
40
11
8
9
10
14
13
10
20
47
96
38
19
58
97
99
101
100
101
101
101
100
100
101
101
100
99
98
97
99
58
20
15
11
11
10
7
11
18
21
22
24
30
28
24
12
9
7
6
8
14
21
20
19
13
14
24
16
6
8
7
8
7
7
5
8
8
8
10
8
9
11
9
10
10
10
14
14
15
15
18
17
12
12
13
14
14
16
18
20
27
28
22
25
27
29
35
42
47
61
91
106
106
102
105
104
106
106
105
106
95
73
68
62
45
41
43
91
105
106
107
105
103
100
106
110
110
110
110
112
110
112
111
112
111
112
111
113
112
112
113
112
113
113
113
113
113
113
113
114
113
113
113
113
113
113
113
113
113
113
113
112
111
113
111
111
111
110
110
110
109
109
108
108
108
107
106
106
105
105
104
104
103
102
102
101
100
100
99
98
98
97
97
85
86
85
81
72
37
58
66
23
17
16
7
4
0
0
0
0
0
0
0
0
0
0
0
0
0
0
0
0
0
0
0
0
0
0
0
0
0
0
0
0
0
0
0
0
0
0
0
0
0
0
1
29
32
85
69
2
0
0
2
9
50
95
90
91
93
95
60
31
24
3
48
96
93
96
72
10
11
20
92
41
11
42
95
91
37
37
24
5
5
1
5
4
5
23
47
0
0
0
1
0
0
0
0
0
0
0
0
0
0
0
0
1
0
0
1
0
0
0
0
11
1
1
0
6
3
5
10
10
22
81
53
8
34
68
10
3
83
94
90
41
3
0
0
0
2
3
3
5
83
84
42
97
97
95
99
101
96
38
7
10
11
12
10
40
81
78
103
84
50
98
100
100
100
100
100
101
100
102
101
101
101
100
99
98
97
92
41
24
19
13
11
11
12
14
37
26
21
25
29
25
16
14
9
8
7
10
16
19
21
19
19
13
21
7
5
8
7
6
14
8
7
7
8
10
9
7
16
9
10
11
11
12
11
13
12
15
13
13
10
10
11
12
13
16
19
17
18
20
21
21
23
30
30
30
33
29
62
70
86
60
64
57
88
107
106
108
68
37
47
42
42
44
47
71
62
83
98
96
94
92
100
109
110
108
108
110
110
111
110
111
110
112
111
111
112
112
113
112
113
113
112
112
112
112
112
112
112
113
113
113
113
113
113
113
112
112
113
113
112
112
110
110
111
110
110
109
109
109
108
107
107
106
106
105
105
104
104
104
103
102
101
100
99
100
99
98
97
96
96
86
86
86
79
37
28
29
34
25
19
16
12
4
0
0
0
0
0
0
0
0
0
0
0
0
0
0
0
0
0
0
0
0
0
0
0
0
0
0
0
0
0
0
0
0
0
0
0
0
0
0
16
41
0
73
76
11
2
0
5
17
74
91
90
91
92
94
86
19
10
5
46
100
93
94
94
30
8
7
68
72
12
9
49
89
39
6
5
5
3
1
0
2
4
25
8
0
0
0
0
0
0
0
0
0
0
0
0
0
0
0
0
0
0
0
0
0
0
6
4
21
30
0
1
10
7
5
7
10
9
40
52
12
16
1
4
64
94
95
59
18
18
4
1
2
2
4
4
19
87
93
85
96
96
99
84
52
28
15
10
13
18
21
25
90
99
100
98
98
85
102
100
101
100
100
102
100
101
101
100
102
100
101
99
98
100
68
28
25
25
16
12
13
14
21
29
22
24
23
22
25
16
9
8
7
7
9
18
20
19
17
15
9
16
21
9
10
7
8
7
5
8
14
11
8
16
14
50
42
6
10
12
16
14
13
12
14
16
12
9
10
10
13
14
14
15
15
17
18
19
21
25
26
25
39
31
35
31
34
43
41
36
36
51
59
68
66
64
38
41
37
38
38
41
39
41
74
93
87
88
91
93
102
108
108
107
105
107
105
110
110
110
110
111
111
111
111
111
111
111
111
111
111
111
112
111
112
111
112
112
112
112
113
113
113
111
112
112
112
111
111
111
110
110
109
108
108
108
108
107
106
107
106
105
104
104
103
103
103
102
101
101
100
99
99
98
98
97
95
95
87
86
86
88
69
27
22
28
26
17
16
16
9
2
0
0
0
0
0
0
0
0
0
0
0
0
0
0
0
0
0
0
0
0
0
0
0
0
0
0
0
0
0
0
0
0
0
0
0
0
8
20
27
0
10
13
7
1
6
7
32
86
92
91
93
96
95
73
15
7
7
46
54
86
95
95
59
7
8
22
46
47
10
9
18
10
7
5
8
3
0
0
0
0
25
16
0
0
0
0
0
0
0
0
0
0
0
0
0
0
0
0
0
0
0
0
0
0
3
12
16
30
2
0
4
5
3
15
25
9
11
22
21
10
0
37
94
67
69
18
18
12
2
3
1
5
4
8
64
96
94
96
95
97
60
15
8
10
15
32
17
70
74
71
94
98
98
99
100
100
99
100
100
101
102
102
100
102
101
101
101
101
100
99
98
98
93
49
24
24
21
11
13
12
32
44
25
25
21
20
22
20
17
9
7
14
15
18
18
13
9
10
10
10
17
9
8
8
7
8
7
8
10
25
22
66
24
16
22
9
12
14
14
11
16
13
13
12
11
9
11
11
13
14
15
14
14
16
17
20
22
26
26
28
31
27
30
30
31
34
35
36
34
38
34
35
43
51
34
35
36
34
36
34
39
43
75
85
86
86
89
89
100
106
106
104
93
91
92
102
104
109
109
110
110
110
111
110
110
111
110
110
111
111
111
111
111
110
111
112
111
111
112
112
112
111
111
111
111
110
110
110
109
109
109
109
108
107
107
107
106
106
105
105
104
103
104
103
102
101
100
100
99
99
97
98
97
97
95
95
87
86
86
85
85
56
25
36
53
21
16
17
13
7
1
0
0
0
0
0
0
0
0
0
0
0
0
0
0
0
0
0
0
0
0
0
0
0
0
0
0
0
0
0
0
0
0
0
28
23
6
5
64
54
16
6
0
2
4
14
39
81
92
95
79
42
27
11
3
8
60
92
37
35
88
96
87
17
8
6
6
56
20
5
3
4
3
1
14
5
0
0
0
0
0
0
0
0
0
0
0
0
0
0
0
0
0
0
0
0
0
0
0
0
0
0
0
11
9
12
20
19
4
0
0
1
3
10
52
23
9
12
14
11
0
37
79
14
13
6
8
11
10
8
28
5
5
11
81
97
95
95
100
51
9
14
44
66
76
94
55
87
99
93
95
100
100
100
99
101
101
101
101
101
101
102
102
102
101
101
101
101
100
100
98
97
100
71
24
23
21
16
13
12
28
32
22
21
21
22
25
22
21
15
7
16
21
20
11
7
9
8
8
10
18
16
10
9
17
14
9
9
17
21
19
23
10
11
9
9
12
13
12
12
12
12
11
13
9
11
11
13
14
14
14
12
13
15
16
19
19
24
24
25
29
25
25
26
28
31
34
30
33
36
36
34
35
33
33
32
31
32
33
38
45
41
66
85
85
84
84
85
93
101
100
98
91
89
96
96
95
100
109
108
110
109
110
110
109
110
110
110
109
110
110
110
109
110
110
111
111
111
111
111
110
111
111
110
111
110
109
110
109
110
108
108
106
107
106
106
105
105
104
104
104
103
101
101
101
100
100
99
99
99
97
97
96
95
95
94
86
86
85
86
85
78
74
74
65
51
35
14
15
14
2
0
0
0
0
0
0
0
0
0
0
0
0
0
0
0
0
0
0
0
0
0
0
0
0
0
0
0
0
0
0
0
4
14
31
87
82
36
14
30
18
5
12
9
3
32
89
90
93
89
26
3
4
17
38
19
85
95
92
44
38
91
97
50
3
8
5
18
8
4
2
0
3
2
1
0
0
0
0
0
0
0
0
0
0
0
0
0
0
0
0
0
0
0
0
0
0
0
0
0
0
0
0
3
5
4
7
5
0
0
0
1
2
3
24
43
39
9
11
17
0
30
95
46
7
6
5
16
51
13
27
3
14
40
89
95
94
99
78
11
34
81
98
99
97
99
95
98
98
99
99
100
100
101
100
101
101
101
101
102
101
102
101
102
101
101
101
101
100
100
98
97
99
83
28
23
21
18
14
12
15
21
22
22
23
22
20
22
21
17
6
16
20
16
9
9
10
9
12
11
17
18
11
10
13
13
14
13
26
13
12
12
14
12
10
10
12
13
12
11
11
10
13
15
14
12
12
13
12
12
10
13
11
14
15
17
18
21
21
22
24
25
23
23
28
27
27
33
31
30
30
32
28
31
32
32
28
30
32
38
56
40
71
83
84
82
84
83
86
94
92
88
86
90
99
99
96
96
107
110
107
109
109
109
109
108
109
108
109
110
109
109
110
110
110
109
110
111
109
110
110
110
110
110
110
109
109
109
108
108
106
107
107
107
107
105
105
105
103
103
103
103
101
101
100
100
99
100
98
97
97
96
94
95
94
94
85
86
88
86
85
86
87
87
86
87
65
26
16
14
11
5
0
0
0
0
0
0
0
0
7
0
0
0
0
0
2
0
3
10
5
0
0
0
0
0
0
0
0
0
0
2
0
42
83
87
89
91
57
30
5
8
7
8
6
6
72
97
92
44
9
44
75
82
98
54
40
93
95
79
27
65
81
64
16
4
4
2
1
0
0
0
1
0
0
0
0
0
0
0
0
0
0
0
0
0
0
0
0
0
0
0
0
0
0
0
0
0
0
0
0
0
0
0
0
2
2
0
0
0
0
0
2
4
2
23
71
15
10
10
0
22
95
43
14
6
2
20
43
7
0
32
83
88
92
94
96
97
48
10
84
100
97
97
99
96
100
98
97
100
100
99
100
100
101
101
101
102
101
102
101
102
101
101
101
101
101
101
100
99
98
96
98
89
29
24
21
20
16
14
15
21
22
23
23
17
20
20
20
18
7
16
22
14
10
10
11
19
28
15
10
11
10
13
11
10
10
14
17
26
18
11
12
14
12
9
11
12
12
10
9
11
10
12
15
14
13
13
12
10
9
10
14
13
15
15
16
18
19
20
21
23
20
21
24
27
24
31
28
28
28
27
28
27
35
45
28
28
31
31
39
58
77
81
86
82
81
83
82
84
84
85
85
85
89
96
100
101
105
107
107
107
107
108
108
109
107
109
108
109
109
108
108
108
109
109
109
109
108
109
110
109
109
110
110
109
109
108
108
107
107
107
107
106
105
104
104
104
103
103
102
102
100
101
100
99
99
98
95
96
95
96
95
94
93
94
86
85
86
86
87
85
85
83
82
85
71
18
14
15
14
9
10
7
11
0
0
25
0
0
0
0
0
1
0
0
0
4
7
8
10
7
0
0
0
0
17
69
40
5
0
0
23
9
51
90
88
87
91
95
44
0
18
14
14
23
11
50
29
4
36
93
91
84
42
39
42
43
75
33
37
41
81
51
5
4
5
0
0
0
0
0
0
0
0
0
0
0
0
0
0
0
0
0
0
0
0
0
0
0
0
0
0
0
0
0
0
0
0
0
0
0
0
0
0
0
0
0
0
0
0
1
1
1
3
1
9
8
11
8
0
31
66
14
18
10
19
8
0
6
40
77
96
94
94
96
81
76
16
38
97
97
96
97
97
97
98
99
99
99
99
100
101
101
101
101
101
102
101
102
102
102
101
101
101
101
100
101
100
99
98
97
97
93
37
24
22
20
18
12
12
18
21
24
15
7
20
20
22
18
8
15
23
12
11
27
36
49
37
24
13
13
13
14
22
49
43
18
30
62
34
11
37
29
7
16
14
12
9
13
10
11
10
11
12
15
12
11
9
9
10
10
11
13
13
14
15
16
17
17
18
20
19
17
22
25
29
26
25
25
27
29
29
29
28
34
36
32
35
50
67
76
80
81
85
82
81
81
81
85
85
83
84
88
89
101
104
105
105
106
107
107
107
106
107
105
107
107
107
105
103
105
107
108
107
108
109
107
108
108
109
109
108
108
108
108
108
107
106
106
106
105
105
105
105
104
103
103
102
102
101
101
101
99
100
98
96
96
96
93
95
94
93
92
93
92
86
85
86
86
85
85
85
84
83
84
76
67
27
15
16
19
12
8
15
10
5
13
13
0
0
0
0
3
0
0
0
0
5
7
17
0
0
0
0
0
36
90
34
0
0
21
87
74
8
59
92
87
89
90
81
10
8
42
64
80
22
2
7
10
78
95
98
72
6
11
25
35
28
35
39
25
92
59
2
9
1
3
1
0
0
0
0
0
0
0
0
0
0
0
0
0
0
0
2
0
0
0
0
0
0
0
0
0
0
0
0
0
0
0
0
0
0
0
0
0
0
0
0
0
0
0
0
1
3
2
3
7
10
6
0
50
36
13
12
50
43
0
0
39
96
91
92
91
91
95
97
59
6
65
100
95
98
96
97
98
98
97
99
100
100
100
100
99
101
101
101
102
101
101
101
102
101
101
101
101
100
101
100
99
98
98
96
98
51
22
23
20
22
20
10
13
20
20
10
11
22
22
23
13
9
16
17
9
12
35
28
30
32
31
13
14
13
17
77
101
79
10
13
15
41
24
20
8
41
78
69
56
18
13
13
13
13
14
12
13
14
15
10
7
9
6
11
11
15
15
14
14
14
16
19
19
20
18
22
24
24
23
23
24
22
25
25
27
26
25
34
33
47
70
78
77
78
79
80
80
80
81
81
82
82
83
83
84
92
101
104
104
104
106
105
105
105
105
103
104
102
105
104
103
103
103
103
103
104
106
108
107
108
108
108
108
108
108
108
108
107
106
105
105
106
104
103
104
103
103
103
103
101
102
100
100
100
98
97
96
97
95
94
93
95
93
94
92
91
90
85
86
88
86
86
86
84
85
84
86
83
49
17
17
15
13
11
11
9
9
8
9
31
44
9
0
4
0
0
0
0
0
5
11
13
0
0
1
1
0
54
91
36
0
0
51
89
92
34
46
92
89
89
88
94
36
0
69
93
96
55
3
8
5
24
49
42
32
9
6
1
50
76
31
21
17
58
55
30
6
1
19
46
10
1
0
0
0
0
0
0
0
0
0
0
0
0
0
1
0
0
0
0
0
0
0
0
0
0
0
0
0
0
0
0
0
0
0
2
1
0
0
0
0
1
1
0
2
1
1
4
7
6
5
0
27
25
12
12
26
15
3
2
18
46
39
29
28
35
39
49
33
9
69
98
100
97
97
98
96
97
98
100
100
100
100
100
100
100
101
101
101
101
101
101
101
101
101
101
101
101
101
100
99
99
97
95
99
58
22
23
21
20
21
15
9
16
23
9
16
21
22
22
14
11
15
13
16
16
14
14
15
16
16
16
17
14
14
20
33
39
16
16
14
17
26
36
41
73
93
79
86
38
12
13
12
9
9
12
13
13
10
8
8
15
25
9
12
15
13
11
11
13
15
18
19
19
21
23
22
21
19
21
21
22
20
22
27
22
25
32
29
53
77
75
76
77
77
77
78
79
79
82
81
80
82
84
87
98
102
103
103
104
104
104
102
101
101
102
101
102
101
102
101
102
102
103
103
102
103
104
105
107
107
107
108
108
107
107
107
106
105
103
103
103
102
101
103
103
102
101
101
100
100
100
100
97
98
96
97
96
96
93
93
92
87
88
90
90
80
87
87
85
86
86
84
86
83
85
73
64
45
22
15
13
11
12
10
7
9
10
13
16
25
15
6
8
8
0
0
0
0
0
5
9
4
0
1
8
4
48
84
26
0
0
61
88
90
53
54
91
90
89
89
92
76
12
29
75
78
69
4
6
6
3
2
2
3
4
4
1
20
52
58
38
7
37
46
46
0
0
15
20
14
12
0
0
0
0
0
0
0
0
0
0
0
0
0
0
0
0
0
0
0
0
0
0
0
0
0
0
0
0
0
0
0
0
0
3
1
0
0
0
0
1
0
0
2
1
2
2
4
31
15
0
2
8
9
9
6
2
4
12
11
11
13
15
16
16
17
18
12
17
23
41
56
82
96
99
98
97
97
98
99
100
100
100
101
100
101
101
101
101
101
100
101
101
101
100
101
100
101
99
99
98
96
97
97
56
22
22
21
18
22
17
13
15
20
11
15
33
26
24
18
15
16
14
17
16
14
17
15
22
19
17
24
40
37
21
24
21
17
23
37
60
91
86
84
71
63
72
75
29
13
12
8
9
10
10
14
13
11
10
14
28
29
9
13
14
11
11
11
12
13
14
15
19
21
17
18
16
18
18
18
18
19
22
22
19
25
26
33
50
75
74
75
75
76
77
76
78
77
78
79
80
81
82
85
90
100
102
102
103
99
99
102
100
101
100
100
100
100
100
101
101
100
100
101
102
102
102
102
103
105
106
106
106
106
106
105
105
104
101
101
100
99
99
101
101
101
100
101
100
99
98
97
97
95
97
96
94
91
84
72
76
74
72
74
78
70
85
86
87
85
86
86
85
87
84
60
32
18
16
13
12
14
12
12
28
13
9
24
13
8
9
10
9
8
6
0
0
0
0
0
4
5
1
1
23
29
28
41
13
4
0
53
88
89
69
42
90
89
90
88
91
95
78
18
3
6
15
8
6
7
6
6
6
2
7
2
8
4
2
12
23
7
1
2
8
4
0
0
3
6
4
0
0
0
0
0
0
0
0
0
0
0
0
0
0
0
0
0
0
0
0
0
0
0
0
0
0
0
0
0
0
0
2
2
6
22
24
4
0
0
0
0
1
0
0
0
2
2
65
35
0
2
5
7
6
7
3
5
9
10
12
12
14
15
16
16
15
11
15
20
21
20
25
41
76
97
99
97
97
98
99
99
100
99
100
101
100
100
101
101
100
101
101
101
100
100
99
99
99
99
97
97
96
98
53
21
23
20
18
20
21
13
8
18
24
57
46
27
24
15
10
12
16
14
13
53
78
67
86
83
76
81
91
96
75
85
79
34
61
92
87
90
79
63
42
33
21
14
12
14
12
9
10
12
10
13
13
11
11
13
10
7
12
12
18
12
10
9
11
15
16
17
17
16
20
17
15
17
17
17
17
18
21
20
21
22
27
48
42
55
75
73
74
75
75
75
75
77
78
78
79
80
82
82
84
89
99
100
99
99
98
99
99
99
99
98
100
99
99
100
100
100
99
99
99
100
101
101
101
104
105
106
106
105
105
105
103
102
99
100
98
98
97
99
101
99
97
98
97
96
97
98
96
94
95
86
84
71
70
67
66
65
65
70
72
63
83
85
86
86
88
84
63
64
45
24
20
22
18
14
13
11
10
6
43
31
7
8
10
10
11
9
9
8
9
7
5
3
0
0
0
2
0
3
38
36
10
6
5
2
1
30
91
88
84
28
86
88
89
90
91
91
92
83
75
53
16
4
3
6
2
3
3
0
2
0
11
2
0
4
1
1
2
1
1
0
0
0
0
0
0
0
0
0
0
0
0
0
0
0
0
0
0
0
0
0
0
0
0
0
0
0
0
0
0
0
0
0
0
0
0
0
2
0
17
49
53
31
1
0
0
0
0
0
0
0
1
6
57
10
2
1
4
5
5
6
4
3
7
12
12
13
14
14
15
15
13
11
16
18
20
20
23
24
23
42
82
99
97
98
99
98
100
99
100
100
101
100
100
100
101
101
99
101
99
100
98
99
99
98
97
96
95
97
42
23
21
20
19
20
20
14
8
9
13
55
30
24
17
10
13
15
15
23
56
94
96
98
96
97
97
98
97
96
97
96
98
89
92
88
83
77
76
81
34
44
12
12
11
14
14
12
10
8
10
10
20
10
9
10
11
22
11
12
12
12
9
10
12
15
13
14
15
15
15
18
16
16
18
16
17
19
17
19
21
20
22
28
27
28
47
70
73
72
73
75
75
75
76
77
78
78
79
80
81
84
88
97
97
98
97
99
99
98
98
99
98
98
99
99
98
99
99
98
99
100
100
99
100
101
104
105
104
104
104
103
100
99
99
99
97
98
97
96
96
96
95
94
94
94
95
96
95
94
93
91
77
66
66
65
64
63
62
68
72
62
85
85
85
81
63
41
38
27
19
17
16
14
16
13
11
17
24
14
10
11
10
11
16
9
10
11
12
10
10
7
9
10
9
4
0
0
0
2
3
0
0
2
9
10
2
2
54
91
90
37
78
90
90
94
91
92
92
92
92
94
85
61
61
53
26
10
1
1
0
0
0
0
0
3
0
1
0
0
1
0
0
0
0
0
0
0
0
0
0
0
0
0
0
0
0
0
0
0
0
0
0
0
0
0
11
5
14
22
10
0
0
0
27
40
14
12
6
1
0
0
0
2
2
2
0
0
0
0
1
2
2
6
3
0
0
0
5
4
7
6
5
3
10
9
10
9
12
13
11
13
13
11
15
17
18
20
21
23
26
23
28
51
97
98
98
99
98
99
100
99
99
100
100
100
100
101
100
99
101
99
98
99
98
97
96
97
96
79
27
23
22
20
22
21
21
17
18
12
11
20
22
24
12
12
16
17
15
48
100
95
95
96
95
97
96
96
97
96
97
97
96
96
96
95
94
79
78
71
45
42
14
12
11
12
10
10
10
11
16
14
15
13
6
9
21
51
9
9
11
11
10
10
12
13
12
13
12
12
15
17
14
15
16
15
19
16
18
22
19
20
21
23
26
29
36
65
71
72
72
73
74
75
75
75
77
78
78
79
83
89
90
95
96
96
97
97
97
97
97
97
97
97
98
98
98
98
98
97
98
99
98
99
101
102
103
103
103
104
103
101
99
98
98
98
96
96
95
95
95
95
95
93
93
92
93
92
94
93
94
84
66
65
64
63
62
63
63
61
63
61
85
86
81
39
23
24
26
20
18
16
15
13
12
12
12
11
16
14
10
10
10
13
17
10
10
9
11
11
8
3
0
0
3
11
8
14
18
0
44
55
16
11
19
42
23
2
2
65
95
57
51
94
92
66
85
66
80
91
91
88
92
92
92
91
89
78
11
2
0
0
0
0
0
0
0
0
0
0
0
0
0
0
0
0
0
0
0
0
0
0
0
0
0
0
0
0
0
0
0
0
0
28
55
47
74
13
14
20
15
0
0
8
72
86
78
77
74
65
56
29
12
0
0
0
0
1
0
0
0
3
3
2
2
4
0
0
4
5
2
3
4
3
6
15
36
52
50
55
56
51
11
11
13
14
16
18
20
22
21
23
24
25
54
97
98
97
98
97
99
99
100
99
99
100
99
100
99
99
100
99
98
98
98
98
97
94
94
41
25
25
21
18
57
32
19
21
21
25
13
9
9
13
12
16
16
15
45
76
98
93
97
96
98
97
96
98
97
97
97
97
96
97
95
96
94
84
80
35
20
12
14
13
12
10
9
9
10
12
10
9
7
9
10
11
12
27
8
11
10
9
10
10
11
12
13
13
12
14
11
16
13
11
13
15
17
17
22
47
18
18
19
23
23
25
42
42
66
71
74
73
74
74
75
75
77
78
84
86
88
94
94
95
95
95
96
96
95
96
97
97
97
97
97
96
96
97
97
97
97
97
98
100
101
102
103
103
102
103
103
101
99
97
97
97
96
96
95
95
95
93
92
93
92
90
90
90
92
89
81
77
68
63
63
62
61
60
61
60
60
60
86
84
77
42
30
28
19
20
16
16
14
12
13
12
11
13
15
10
10
15
20
13
10
21
31
17
13
11
12
10
5
2
6
16
25
6
8
11
8
5
3
4
5
25
34
4
4
21
83
81
23
57
80
32
35
69
89
90
91
90
90
90
88
88
88
48
2
3
0
0
0
0
0
0
0
0
0
0
0
0
0
0
1
18
13
13
4
0
0
0
0
0
0
0
0
0
0
0
0
0
14
80
87
85
84
40
10
11
0
0
0
10
72
85
84
86
85
87
89
86
78
59
43
20
0
1
1
1
3
0
1
1
0
3
1
0
6
16
47
44
62
23
0
61
96
94
94
94
97
67
9
10
14
56
42
37
29
19
22
22
22
26
24
64
101
97
97
98
98
98
99
98
98
100
100
99
99
100
99
100
98
98
97
97
96
96
82
30
26
23
21
20
80
43
18
21
21
28
20
10
11
12
13
15
18
44
90
98
94
96
96
97
98
98
98
98
98
97
99
98
98
96
96
91
94
74
38
20
13
12
12
12
11
8
9
5
10
9
8
9
7
6
11
9
13
24
7
9
9
8
10
9
9
10
11
10
12
11
11
12
19
13
16
15
18
18
50
53
24
20
20
22
25
24
30
30
63
71
72
72
73
73
75
75
75
77
88
92
93
93
93
93
94
95
95
95
95
95
95
96
96
96
96
96
96
96
97
96
96
96
97
101
99
101
102
102
101
101
102
101
100
98
96
95
95
94
94
94
93
92
92
92
90
89
89
88
89
82
66
69
66
63
61
61
60
60
59
59
58
58
83
84
82
44
25
27
21
18
17
14
14
13
11
11
12
12
13
10
10
12
42
48
11
51
85
77
58
17
10
13
14
13
18
62
72
72
78
80
73
34
26
9
3
6
4
3
5
5
41
84
21
32
47
8
27
25
77
92
89
91
90
89
90
91
70
8
0
0
0
0
0
0
0
0
0
0
0
0
0
0
0
16
62
90
88
82
46
9
1
40
0
0
0
0
0
0
0
0
0
0
51
84
82
83
87
40
3
7
0
2
5
6
26
85
85
83
86
85
84
86
85
88
89
44
0
0
0
0
2
1
6
0
0
0
0
0
4
41
92
90
95
42
0
29
84
91
92
93
95
37
7
35
46
92
96
95
75
23
21
23
22
21
25
27
58
97
101
98
98
98
97
99
98
96
99
99
99
98
98
98
98
98
96
96
95
97
77
25
25
23
21
33
93
35
16
21
21
25
18
11
10
13
14
13
26
90
96
95
96
96
97
99
97
98
99
98
98
97
98
96
96
95
95
81
62
28
16
16
14
13
13
10
9
10
11
26
6
8
9
10
7
9
8
7
7
7
9
9
8
8
10
8
9
9
10
9
9
9
12
13
15
16
15
16
15
23
24
20
27
20
21
20
20
23
29
47
71
70
72
72
73
74
74
74
75
76
86
92
91
91
94
94
93
93
94
94
94
94
94
95
95
95
95
96
96
95
95
96
96
96
96
98
98
100
100
99
99
101
101
99
100
97
95
95
94
93
93
93
92
92
91
90
89
89
88
87
85
70
65
64
63
62
61
60
59
60
58
58
57
57
85
84
85
55
30
20
19
20
17
16
15
14
13
13
12
10
10
10
14
58
82
84
27
57
63
59
82
75
48
19
14
12
44
81
73
84
85
76
84
74
47
20
43
24
54
51
1
6
5
31
21
38
35
11
12
24
74
92
90
89
91
89
91
77
16
3
2
0
0
0
33
43
0
0
0
9
0
0
0
0
9
7
62
85
47
14
68
54
0
62
9
0
0
0
0
0
0
0
0
0
71
85
83
85
74
15
9
7
0
14
10
6
5
61
89
86
84
85
85
85
85
84
25
0
0
0
0
0
1
3
1
0
0
1
2
1
3
53
89
87
89
84
41
0
25
77
91
93
92
31
13
84
95
94
94
95
96
36
19
24
22
22
22
26
24
42
71
83
99
99
99
98
98
98
97
98
98
98
98
98
97
94
98
95
94
96
74
24
23
22
19
39
88
31
13
21
22
20
14
12
12
13
20
43
78
97
95
96
96
97
98
98
98
98
98
99
97
98
97
97
97
97
93
79
42
14
17
15
11
11
10
9
8
8
8
22
9
8
5
7
7
12
7
5
8
7
4
7
7
8
9
7
8
8
7
7
10
9
10
10
13
13
13
15
14
18
17
17
17
18
21
23
25
40
63
69
71
72
73
72
72
75
74
73
76
83
89
86
90
91
91
92
92
93
94
93
93
94
94
94
94
94
94
94
94
93
94
95
95
95
95
96
98
98
97
95
96
97
97
96
96
95
94
94
93
92
92
92
91
91
91
90
88
87
87
87
84
70
64
62
63
60
60
58
57
57
57
57
57
58
85
85
83
54
48
22
19
18
16
16
15
14
14
14
12
10
11
15
48
83
82
86
53
27
36
47
83
86
70
27
14
15
17
57
78
80
87
73
84
60
41
22
44
26
75
85
52
6
5
1
31
42
44
11
12
23
76
91
89
90
89
93
69
16
5
2
1
0
0
0
48
75
51
21
0
5
0
0
0
0
13
10
16
40
10
26
89
69
0
28
16
0
15
3
0
0
0
0
1
2
50
88
85
86
60
3
16
2
1
21
19
6
8
18
78
86
84
84
85
84
87
38
0
2
0
0
0
0
0
0
0
0
0
0
5
1
0
60
89
87
89
92
84
12
2
47
96
94
87
16
21
88
96
94
95
95
98
66
28
21
21
21
24
23
25
25
23
26
46
46
74
98
98
97
97
96
96
97
96
96
97
97
97
97
95
96
63
21
24
21
20
52
52
34
24
20
23
17
14
13
13
18
45
95
96
95
95
97
97
97
98
98
99
97
98
97
97
98
97
97
97
97
91
81
45
14
15
14
17
10
7
7
7
6
7
6
6
6
6
5
8
8
7
7
9
27
44
8
5
6
7
8
8
8
6
7
7
9
7
11
11
11
11
14
13
16
14
17
19
19
21
34
49
53
69
69
70
70
72
72
73
71
74
83
86
86
85
80
86
88
88
90
91
93
93
92
93
93
93
92
93
93
94
94
94
93
93
93
93
94
94
95
95
95
95
95
95
95
94
94
94
94
93
93
92
92
92
91
90
90
88
87
87
87
82
74
82
77
62
62
59
59
59
56
57
56
56
55
56
57
85
84
85
87
59
24
24
18
17
16
16
14
14
14
12
14
11
18
52
84
82
83
72
11
19
35
80
84
85
28
15
16
16
19
53
84
85
75
86
67
33
20
30
65
86
87
91
35
1
3
32
81
20
14
5
34
87
90
90
93
89
54
14
9
10
4
1
0
0
0
7
30
4
14
0
0
0
0
0
0
0
13
13
1
31
71
88
85
67
82
77
63
79
49
0
0
52
39
4
6
4
37
84
87
80
17
11
0
6
33
67
19
7
5
49
90
86
85
84
88
63
2
4
0
1
2
1
0
0
0
0
0
0
0
4
5
0
54
88
87
88
90
93
49
4
15
84
98
62
7
35
97
94
95
95
95
95
98
74
37
45
25
23
24
23
24
26
26
24
25
27
51
85
99
98
97
97
96
97
96
95
97
76
77
93
94
36
23
21
21
31
55
23
23
23
23
19
11
13
11
12
25
79
95
95
95
97
96
97
98
98
99
98
99
98
97
98
97
97
97
96
95
94
81
32
25
14
14
12
9
10
6
5
7
4
6
5
6
6
6
12
8
4
7
11
39
73
13
6
6
6
7
7
7
6
7
8
8
10
10
12
12
13
13
13
14
16
16
17
20
20
35
57
64
67
68
69
70
69
71
71
72
76
84
81
77
78
82
86
82
81
84
86
92
92
92
92
93
93
93
93
93
92
93
93
93
93
92
93
94
93
93
93
93
94
93
94
95
94
93
93
93
92
92
91
90
90
89
89
88
89
88
87
84
78
69
69
67
66
62
59
58
59
57
55
55
55
54
56
55
84
84
84
83
83
72
52
36
25
21
22
15
13
13
12
15
19
12
21
70
88
86
87
33
10
55
60
84
83
73
73
28
15
16
18
34
70
78
83
81
28
26
61
89
87
87
87
78
21
3
8
28
16
11
17
78
90
88
93
68
32
8
12
11
8
32
65
12
0
0
0
0
0
0
0
0
0
1
3
0
0
3
25
39
16
69
88
87
90
87
87
89
92
51
9
64
90
41
5
10
4
2
24
76
91
39
0
0
2
15
26
21
6
9
15
51
77
86
83
73
16
1
1
0
0
0
1
5
0
0
0
0
0
1
4
7
0
27
88
87
88
88
93
80
9
5
52
96
29
11
16
84
95
95
95
95
95
96
96
95
98
77
25
22
22
23
23
23
24
25
27
24
29
47
81
99
97
97
95
95
95
54
30
29
87
66
22
19
19
16
43
94
65
72
24
22
14
10
12
11
37
59
90
95
95
95
97
97
98
98
97
99
99
97
97
98
97
97
96
97
96
95
94
86
25
21
14
12
10
9
8
6
4
4
5
5
5
4
5
6
15
6
5
4
7
60
34
4
6
5
5
6
6
5
4
7
9
11
11
10
11
13
12
12
11
14
16
15
15
20
27
54
62
56
69
68
71
69
70
71
71
71
77
76
75
75
76
81
82
77
79
79
80
89
91
91
92
92
92
92
92
92
92
93
93
91
93
93
92
93
92
92
93
92
92
93
93
93
93
93
91
92
91
91
91
90
89
88
89
87
87
86
80
75
69
66
64
63
62
61
61
59
58
56
56
54
54
53
54
55
84
85
81
84
84
85
86
69
37
37
47
39
16
16
14
12
17
13
12
26
51
52
59
27
15
37
23
69
86
86
88
73
18
15
21
25
29
42
57
51
19
58
89
86
88
87
86
90
84
26
4
6
8
29
53
89
88
94
71
15
10
14
9
9
41
86
91
66
57
29
15
0
0
0
0
0
2
17
0
0
0
13
78
85
20
61
91
88
88
87
88
87
92
26
23
38
60
27
5
28
29
1
3
11
63
40
0
0
0
9
13
14
8
8
10
14
19
33
24
9
3
2
2
1
0
0
1
0
0
0
0
0
0
1
8
11
4
6
73
89
87
90
89
90
40
2
41
81
14
11
44
91
96
95
95
96
96
96
96
95
94
97
57
29
21
22
23
23
22
23
24
26
25
24
29
56
84
89
97
95
94
74
27
36
60
65
22
20
17
15
50
92
84
66
21
16
10
11
15
67
86
95
93
96
95
96
96
97
97
98
97
98
97
98
98
97
97
96
97
96
95
95
97
71
16
13
17
15
13
8
8
5
5
4
4
5
3
5
5
7
4
7
4
3
18
77
34
6
6
6
4
6
6
6
6
7
9
14
11
9
12
12
11
12
13
14
13
15
18
27
39
61
40
51
68
70
70
72
70
69
71
72
74
73
75
76
75
77
79
77
78
80
81
86
91
91
90
91
91
91
92
92
91
92
92
92
92
92
91
91
91
92
93
92
92
93
92
92
92
91
91
91
90
91
90
90
89
88
88
87
86
85
72
66
66
64
64
61
60
59
57
59
60
55
55
54
53
53
53
54
84
84
84
84
84
84
83
80
34
18
15
23
19
13
9
11
11
12
12
17
9
10
9
11
12
32
26
76
78
65
81
73
35
15
20
32
60
49
21
22
24
73
88
86
88
88
87
87
90
76
13
7
9
10
50
89
89
73
27
13
13
12
5
38
87
89
87
89
92
73
67
9
26
4
37
17
0
0
1
0
0
2
9
18
21
72
90
89
89
87
89
89
91
24
45
51
8
10
5
19
74
37
3
4
6
2
3
48
16
0
0
46
43
6
8
18
31
17
17
2
2
2
2
1
0
0
0
0
0
0
0
0
1
2
9
10
8
0
38
89
88
88
89
91
81
8
27
25
8
25
92
95
94
95
96
96
96
96
96
96
96
95
96
87
56
27
31
27
21
22
23
23
23
24
24
22
23
29
51
80
96
93
42
14
28
54
16
18
13
9
14
30
36
28
12
10
12
9
47
95
93
94
94
94
96
96
97
97
98
97
98
98
99
98
97
97
97
96
96
97
98
78
42
17
14
24
31
13
9
9
8
8
6
6
4
14
13
7
6
7
4
5
5
4
22
57
7
7
6
5
6
5
5
6
8
9
8
10
10
10
11
14
12
11
11
15
14
15
33
40
45
51
65
66
66
67
69
77
74
71
71
73
73
73
73
75
75
77
78
76
78
80
82
88
91
91
91
91
91
91
91
91
91
91
91
91
92
91
91
91
91
91
92
92
91
91
91
91
91
90
90
90
90
90
89
89
88
87
87
87
84
82
72
67
66
63
62
61
58
60
62
60
55
55
55
53
53
52
53
51
84
84
83
83
84
83
83
84
76
49
46
37
28
51
39
35
34
28
58
73
51
30
53
53
21
8
43
89
59
26
46
20
19
20
16
25
81
87
63
18
27
80
87
88
85
82
89
86
87
93
51
3
7
8
7
42
46
8
11
14
8
8
28
80
92
89
88
89
88
89
89
80
85
64
92
50
40
28
2
48
47
59
12
0
10
59
93
90
88
91
88
88
85
10
48
31
5
3
2
19
82
89
52
10
5
2
7
73
74
16
0
33
80
13
5
24
82
75
46
0
3
4
2
2
2
0
0
0
0
0
0
0
0
10
34
8
12
3
7
54
92
87
90
89
88
23
6
9
14
74
95
94
94
95
96
96
96
96
95
96
96
95
95
96
97
83
91
76
37
25
21
20
21
22
22
23
23
20
21
21
57
95
46
18
13
15
16
15
9
9
9
7
6
8
11
11
12
23
83
94
93
92
95
95
96
97
97
97
97
98
98
97
99
97
97
97
96
97
99
74
45
19
14
16
14
18
18
10
11
10
6
7
6
5
3
30
48
9
7
7
6
3
5
5
7
8
9
7
7
5
6
7
7
7
8
9
9
9
8
8
10
12
12
12
14
15
19
34
53
61
61
63
65
65
66
68
70
78
79
79
71
71
71
73
74
76
75
76
76
77
83
85
86
90
90
91
90
91
90
90
90
90
90
90
91
91
90
90
90
91
91
91
90
90
90
90
90
91
91
90
90
90
90
89
88
88
87
87
85
85
84
86
72
66
63
63
60
60
58
61
63
61
55
55
53
53
51
53
51
51
82
84
83
84
85
83
85
83
84
85
85
78
71
85
79
57
74
77
84
85
80
77
83
86
70
29
11
55
73
34
18
14
36
58
15
18
73
87
81
28
41
88
86
58
65
58
81
88
87
87
89
51
9
4
8
6
10
10
9
8
27
36
67
75
66
90
89
89
89
90
89
89
90
91
90
79
90
79
42
90
92
92
53
7
38
24
49
86
93
92
93
94
75
5
68
12
4
4
0
11
76
86
91
56
0
2
6
5
26
23
0
9
75
30
5
5
60
89
45
0
2
0
3
0
0
2
13
0
0
0
0
2
0
24
66
9
12
9
3
14
70
91
88
88
94
44
6
9
32
94
93
94
95
95
96
96
97
96
95
96
96
96
95
96
96
96
94
98
93
83
48
48
28
19
22
20
19
19
20
18
15
62
88
36
11
13
14
8
7
7
8
9
12
9
9
12
17
50
69
80
95
93
95
95
97
97
97
97
97
97
97
98
95
97
96
98
98
90
61
19
20
18
14
29
75
69
47
15
9
9
8
6
3
4
7
3
32
16
9
13
6
7
4
5
5
5
7
7
5
7
7
9
7
8
8
9
8
9
11
15
14
10
12
13
13
16
31
57
62
63
64
64
66
65
67
68
68
71
70
71
72
71
72
72
73
76
74
77
80
85
87
89
90
89
89
90
89
90
89
90
90
90
90
90
90
90
89
89
90
90
90
90
89
90
90
89
89
90
90
89
90
90
89
88
87
88
86
86
85
84
84
82
79
67
63
62
61
60
57
57
56
57
55
54
51
50
52
50
51
50
82
84
84
84
84
83
82
84
84
82
83
82
86
74
41
36
37
78
84
65
51
60
82
83
79
55
26
9
36
45
14
19
23
48
23
18
59
86
78
24
44
86
88
65
36
42
84
87
87
88
88
90
72
63
15
4
13
10
7
9
42
37
37
37
57
92
90
90
90
90
89
91
89
90
90
90
90
90
87
87
88
91
46
17
81
77
23
19
28
43
57
68
39
11
78
36
6
9
1
9
67
85
67
18
0
4
12
4
3
4
2
2
8
7
8
5
35
90
40
0
1
0
0
0
0
24
30
0
0
0
0
0
0
28
80
17
12
11
5
7
25
76
92
92
85
20
9
15
46
95
93
94
94
95
96
96
96
96
96
96
97
96
95
96
96
95
94
95
95
95
97
94
82
43
19
17
15
17
19
16
18
17
41
29
10
10
16
9
10
15
17
18
18
12
11
15
24
53
43
43
62
87
95
94
96
96
96
97
97
97
97
97
97
94
93
82
45
24
15
16
26
46
21
66
85
78
48
10
14
11
10
22
36
20
8
9
5
5
6
10
9
6
5
6
6
7
5
5
7
7
10
8
10
10
9
10
11
11
14
16
15
12
11
12
13
34
50
61
61
61
64
64
65
65
68
69
68
69
68
71
71
72
73
74
82
86
81
80
87
88
88
88
89
89
89
89
89
90
89
89
90
89
89
89
89
89
89
89
89
89
89
89
89
90
89
88
88
89
89
89
89
89
89
87
87
88
86
86
84
84
81
81
68
64
63
61
59
59
56
56
55
54
53
53
51
51
51
50
48
50
83
83
83
84
83
84
84
83
83
82
82
83
75
51
31
16
19
55
70
52
25
18
42
63
40
36
41
11
8
14
18
19
19
20
16
15
22
75
75
17
38
80
38
60
33
76
87
87
87
87
88
88
89
89
75
38
9
6
37
59
30
27
24
25
72
92
89
89
90
90
91
89
90
91
90
89
90
89
90
90
89
92
59
18
74
94
88
78
43
48
45
31
3
0
25
28
6
35
17
10
18
15
0
0
13
56
67
21
13
5
0
1
4
5
4
3
23
87
51
0
1
0
0
0
0
15
15
0
0
0
0
1
0
22
85
27
9
13
5
3
9
35
78
53
18
9
7
50
85
92
94
94
95
95
95
96
96
95
95
96
95
96
96
95
95
96
96
95
95
96
93
93
95
94
63
51
51
20
15
17
17
15
12
10
9
7
10
12
16
17
18
20
17
12
12
20
27
31
32
32
44
92
95
95
95
96
96
97
97
96
98
95
98
52
27
23
22
19
21
62
88
47
44
98
77
23
15
49
54
55
19
41
48
34
38
26
21
46
13
5
6
7
5
8
7
7
6
17
40
26
16
9
11
11
10
11
11
13
15
24
28
28
22
20
25
52
62
62
61
64
64
65
66
66
70
71
67
69
70
70
71
71
72
73
83
87
86
86
87
86
88
88
89
89
88
89
89
89
89
88
88
88
88
88
89
89
89
88
88
88
89
89
88
89
88
88
89
89
88
88
88
88
87
87
86
86
85
85
84
78
70
72
63
62
60
61
60
58
56
55
55
52
52
51
51
50
50
49
48
47
83
82
83
83
83
84
82
84
84
83
83
79
36
24
26
16
31
26
40
20
18
18
16
38
27
15
14
27
38
13
9
26
37
15
20
25
12
24
41
16
47
73
33
49
54
69
86
87
87
88
88
88
87
87
89
91
66
59
89
68
24
25
25
52
84
90
89
90
89
90
90
90
90
90
90
92
91
91
91
90
88
92
84
32
30
86
90
91
89
93
94
93
70
38
18
15
3
3
6
6
2
6
28
61
79
88
86
82
79
57
30
0
2
2
3
4
5
66
40
0
0
0
0
0
0
0
2
0
0
0
0
0
0
20
90
46
9
13
5
3
4
4
13
6
7
6
28
85
94
92
93
94
95
95
95
96
96
95
96
96
97
96
96
96
96
95
95
95
95
95
95
95
94
94
95
96
96
70
19
17
16
15
12
9
7
7
13
16
14
18
17
16
12
10
14
25
28
32
33
34
68
94
93
95
95
95
96
96
96
96
96
98
78
24
54
76
86
21
15
83
75
25
80
50
11
31
81
83
44
38
12
11
9
12
28
8
10
15
12
19
23
6
5
6
5
5
6
39
61
40
11
12
9
11
13
17
15
12
21
54
58
56
57
51
55
56
63
66
67
63
64
65
65
67
77
86
74
70
69
70
71
71
73
77
86
86
87
86
87
87
86
88
88
87
88
88
88
88
88
88
88
89
88
88
87
88
88
88
88
88
88
88
88
89
88
87
88
88
88
87
88
87
86
87
85
85
84
84
79
69
65
66
62
60
59
59
59
58
55
56
60
53
50
50
50
50
48
48
47
46
82
82
83
82
83
83
84
83
84
83
82
53
20
19
18
17
20
18
22
15
15
14
15
23
15
14
15
35
57
55
25
10
15
14
55
64
21
15
12
16
65
60
21
26
56
84
88
84
89
87
87
87
88
87
88
87
89
91
89
75
25
26
32
35
75
91
90
90
91
91
90
92
90
91
91
90
90
91
91
90
91
89
92
75
23
60
92
89
90
90
88
89
90
92
86
84
58
55
26
9
9
67
89
87
86
84
84
85
84
87
84
53
6
0
2
3
3
3
1
0
0
0
0
0
4
5
0
0
0
0
0
0
0
15
50
24
8
4
1
2
5
6
7
6
10
33
80
93
91
93
93
94
94
94
95
96
96
96
96
96
95
96
96
96
96
96
96
96
95
96
95
95
94
94
93
93
92
95
68
15
18
11
9
7
8
10
9
10
12
14
14
13
6
8
19
32
29
33
40
70
94
93
94
94
95
96
96
97
96
96
95
96
37
56
101
96
90
22
11
39
29
19
19
9
38
90
93
87
22
9
7
10
18
14
37
45
15
4
20
51
60
34
33
27
29
28
30
20
13
9
12
13
26
17
19
18
28
27
47
58
58
61
62
59
60
60
64
62
67
68
63
65
66
66
72
76
70
69
69
72
74
78
84
86
86
86
85
86
86
87
87
87
87
88
87
88
87
88
87
88
87
88
88
88
87
87
87
87
88
86
87
86
87
88
87
86
87
87
87
88
86
86
85
85
84
85
83
78
67
64
64
62
60
59
58
58
56
57
54
53
54
52
51
50
49
48
47
47
46
46
82
82
83
83
83
83
84
83
83
82
79
35
19
20
17
17
15
14
16
14
14
14
13
13
13
16
24
19
17
62
80
52
15
9
32
78
24
14
14
13
57
80
40
24
60
88
83
50
47
57
89
88
88
87
88
88
88
87
89
82
43
36
42
53
89
90
89
90
89
90
91
91
91
91
91
91
91
91
91
90
90
90
91
93
46
38
91
89
90
89
90
88
90
87
88
89
90
93
63
17
19
72
88
85
85
86
86
85
85
83
84
90
36
0
3
4
4
0
0
0
0
0
0
0
0
0
0
0
0
0
0
0
0
0
0
0
0
0
1
0
3
2
21
57
77
91
90
90
93
92
93
94
94
95
95
95
96
95
96
96
96
96
96
96
95
95
95
95
95
95
95
94
94
93
94
93
93
93
76
15
13
44
25
9
9
14
8
8
9
7
9
8
7
9
23
33
27
31
41
85
93
93
94
94
95
95
95
96
96
96
98
75
23
85
94
94
88
20
14
13
13
12
11
9
17
30
31
26
13
20
41
61
67
64
68
72
58
22
37
14
20
39
53
50
59
59
57
56
39
28
14
17
25
14
13
19
19
49
58
57
58
59
61
60
61
62
65
63
63
65
63
64
66
67
66
68
73
77
75
81
85
85
84
86
85
85
86
85
86
85
86
86
87
87
87
87
87
88
88
88
87
87
86
86
86
86
88
87
86
87
87
86
87
87
86
86
86
87
86
86
86
85
85
84
84
84
82
73
65
64
62
61
59
57
57
56
56
56
54
53
53
51
49
49
47
48
47
47
46
45
81
81
81
83
82
83
83
82
83
82
74
33
19
18
18
16
15
15
15
14
14
12
11
13
13
12
14
11
44
83
81
78
28
9
21
53
17
18
27
14
20
66
42
56
82
88
67
21
29
31
66
89
85
87
88
88
88
88
88
88
70
30
27
57
89
88
91
89
91
90
91
91
90
90
91
91
92
91
91
91
91
90
90
93
59
29
88
89
88
90
90
88
88
89
88
87
86
88
31
17
23
80
86
85
86
85
86
85
84
84
83
84
70
4
2
1
0
0
0
0
0
0
0
0
0
0
0
0
0
0
0
0
0
0
0
0
0
0
5
17
6
14
54
93
90
88
90
91
90
93
91
94
93
94
94
95
96
95
95
95
96
95
95
95
95
96
96
96
95
95
95
95
94
93
93
92
91
94
67
15
15
69
45
9
8
12
9
9
7
4
4
5
4
30
33
22
25
27
54
90
93
93
94
94
95
96
95
96
95
95
97
53
34
95
93
93
90
24
13
13
10
32
50
57
52
53
46
44
27
62
91
89
85
73
64
65
65
63
64
53
43
54
59
52
56
62
70
72
67
60
50
52
22
17
45
54
48
58
57
58
59
59
60
61
65
62
61
62
63
64
66
69
68
76
80
78
73
81
87
83
78
82
82
83
85
85
85
85
86
85
84
86
85
87
86
87
86
86
86
86
86
86
86
86
86
84
85
85
85
85
86
86
86
86
86
86
86
86
85
85
86
85
85
83
83
83
81
69
64
62
62
60
59
58
55
57
55
54
53
52
51
51
49
48
48
47
46
46
44
44
81
82
82
83
82
82
82
82
82
81
80
30
17
18
18
15
17
14
14
14
12
13
12
11
12
13
12
14
53
47
63
66
41
10
8
8
12
18
40
15
13
15
19
42
69
44
55
44
22
21
41
83
89
85
86
88
87
88
85
89
70
33
54
76
89
90
89
91
88
90
90
90
91
91
91
92
92
91
91
91
91
91
90
94
63
26
82
93
92
91
90
89
88
88
88
88
91
58
18
15
49
89
84
85
85
84
84
86
84
84
82
83
86
70
10
0
2
3
0
0
0
0
0
0
0
0
0
0
0
0
0
0
0
0
6
3
4
5
31
55
16
19
52
90
88
89
90
91
92
91
92
93
93
94
94
95
95
95
96
96
95
95
95
95
95
95
95
95
96
95
95
94
93
93
93
93
91
93
61
16
20
37
20
17
10
8
9
9
5
4
4
6
5
37
39
22
31
60
89
91
92
93
94
94
94
95
95
95
95
94
95
38
54
97
93
93
88
22
12
21
67
89
94
94
94
93
92
93
89
81
83
84
87
73
65
66
64
63
62
63
64
61
61
61
62
60
65
75
66
59
66
61
53
50
60
58
60
59
59
59
58
61
60
61
62
62
61
63
62
63
65
65
66
67
71
76
73
75
76
71
73
77
78
80
82
79
78
84
85
84
85
84
86
85
86
85
85
86
86
85
85
84
82
81
83
85
84
84
85
85
85
85
85
85
85
86
85
85
85
85
85
84
84
83
83
81
81
69
63
62
60
60
58
56
55
54
54
53
52
51
50
50
48
47
48
47
46
45
43
42
80
81
81
81
82
80
81
80
81
81
82
57
18
18
21
18
14
13
11
12
12
21
36
10
13
12
10
42
67
23
22
35
20
12
13
10
11
9
10
15
14
12
14
19
28
20
30
26
18
61
59
38
78
87
87
85
77
88
80
76
46
44
87
90
90
88
90
89
91
89
90
91
91
91
91
91
91
91
91
91
90
89
91
93
72
23
32
60
74
81
83
89
91
90
87
89
74
21
18
18
61
87
87
86
84
84
86
83
85
84
85
76
66
73
9
4
13
1
0
0
0
0
0
38
17
0
0
0
0
0
0
0
0
1
65
31
12
13
15
21
22
21
56
89
87
88
89
89
89
92
93
92
93
94
94
94
94
94
94
94
95
95
95
95
95
95
95
94
94
94
94
94
94
93
92
92
91
93
69
14
20
20
22
16
10
6
8
13
9
5
4
5
7
42
31
22
60
89
89
93
92
93
93
93
94
94
95
95
94
94
92
26
59
96
93
94
76
20
13
45
96
92
90
91
91
90
90
90
86
69
74
76
73
74
69
66
65
65
63
62
63
61
62
61
60
59
61
61
63
61
60
60
59
58
58
59
57
58
60
61
61
60
61
61
61
61
63
62
63
66
73
68
66
65
67
67
69
73
70
69
70
76
79
77
75
75
78
83
84
85
84
86
85
84
84
84
85
85
85
81
79
79
78
78
81
83
83
83
84
83
84
84
84
84
84
85
85
85
84
84
85
83
83
83
83
80
80
72
63
60
60
58
57
57
55
55
54
53
52
51
50
50
49
48
46
46
45
44
43
41
80
81
81
81
81
79
79
79
82
81
79
74
71
50
16
16
14
26
31
17
11
12
13
12
15
10
17
25
20
17
14
14
14
12
12
10
10
12
11
11
11
14
13
14
17
17
21
20
20
29
75
40
42
87
86
81
73
75
55
47
31
59
86
89
88
90
89
89
90
89
91
90
91
91
91
91
91
91
91
90
90
92
90
89
91
68
42
24
24
26
26
34
47
73
84
92
60
16
17
16
15
32
46
80
89
86
85
86
85
82
87
68
36
31
4
5
7
0
0
0
0
0
0
59
26
0
0
0
0
0
0
0
0
0
70
54
10
13
15
19
19
18
61
88
86
89
88
91
90
92
91
92
92
92
93
94
94
94
95
94
95
95
95
95
95
95
94
94
94
94
94
93
93
93
92
92
91
89
89
37
11
15
14
12
9
6
10
13
12
8
4
5
7
15
26
33
81
88
90
92
92
93
93
93
94
94
95
94
94
95
85
21
71
95
93
91
92
33
11
34
92
91
91
91
91
90
91
90
81
72
69
70
69
66
66
65
64
62
63
62
61
61
60
60
62
60
60
60
61
60
59
59
60
59
59
59
59
60
60
60
60
59
62
61
63
61
62
63
64
64
69
65
65
66
68
68
67
69
69
68
70
70
71
75
76
74
76
81
83
83
83
82
85
82
85
83
84
84
82
76
74
76
77
78
83
81
82
83
83
83
84
84
83
84
84
84
84
84
83
84
85
83
82
82
82
79
80
76
64
61
58
58
56
55
56
54
53
52
51
50
48
48
47
46
46
45
43
42
41
40
79
80
80
80
80
78
79
79
79
81
79
77
77
78
41
17
46
76
79
58
33
20
51
26
9
12
42
21
10
10
11
14
15
12
11
12
12
11
13
11
18
11
11
15
14
16
17
18
20
20
44
73
39
46
69
73
81
82
46
45
23
66
90
87
89
88
87
87
89
89
90
90
89
90
90
90
90
90
90
90
90
90
90
89
90
91
91
82
68
62
50
31
24
18
23
43
32
19
17
15
12
11
10
24
46
56
64
63
69
81
67
77
46
14
10
6
2
1
0
0
0
0
0
7
0
0
0
0
0
0
0
0
1
0
54
62
9
14
14
17
19
20
67
88
87
88
89
90
90
92
91
91
92
92
92
93
93
93
94
93
94
94
94
94
94
94
94
94
94
94
94
93
93
92
91
91
90
89
90
85
26
10
12
6
6
7
11
13
13
12
6
6
8
10
25
63
88
87
91
92
92
93
93
93
94
93
93
93
93
95
76
21
79
93
92
92
92
37
12
32
90
90
92
91
91
91
89
92
84
76
71
68
67
67
65
65
65
65
61
62
61
61
61
61
61
60
60
60
60
61
60
57
58
58
60
59
59
59
60
60
61
60
60
62
60
62
63
62
64
62
64
65
65
67
65
66
67
68
67
68
68
68
69
72
74
73
73
79
83
82
81
80
83
82
80
80
80
82
81
75
73
74
75
76
78
77
79
78
78
80
83
82
82
83
83
84
83
83
83
83
83
82
82
82
81
79
79
78
67
60
59
58
55
54
53
52
52
51
49
49
48
47
46
45
45
44
42
41
40
39
79
80
79
80
79
78
78
79
79
80
78
79
77
76
74
59
78
79
79
81
68
72
64
24
58
58
45
18
13
11
12
13
11
11
13
9
11
10
13
17
13
13
10
12
14
16
17
17
18
21
46
63
59
41
21
34
67
86
63
23
50
86
87
87
88
91
56
73
89
85
87
88
90
90
90
89
89
90
90
90
90
90
90
90
89
90
88
90
92
91
90
87
80
61
40
17
20
18
17
13
13
13
12
10
8
10
12
11
13
28
27
24
26
26
9
3
2
0
0
0
0
0
46
15
0
0
0
0
0
0
0
0
3
2
30
67
8
13
15
17
18
25
80
86
87
88
89
88
91
90
91
92
91
92
92
93
93
93
93
93
94
94
94
94
93
93
93
94
94
93
93
92
92
92
92
91
90
89
88
87
32
15
11
8
7
11
12
13
13
14
13
8
7
6
33
81
87
89
91
92
93
93
93
94
94
93
93
92
93
94
70
24
84
93
91
91
92
35
11
51
92
91
92
91
91
90
91
90
90
83
68
68
67
67
66
65
65
68
64
61
61
60
62
61
59
60
59
61
59
63
64
63
59
59
59
60
60
61
61
62
61
60
60
62
61
63
64
62
62
62
63
65
65
64
66
68
74
78
70
69
69
70
74
73
72
71
70
76
81
78
78
74
79
79
76
75
76
80
80
75
73
73
74
76
75
75
75
75
75
76
82
84
82
82
82
83
82
83
83
82
82
81
81
81
80
79
78
78
74
66
59
58
56
54
53
51
51
50
49
49
48
46
46
46
45
43
42
41
41
39
78
78
79
78
79
79
79
78
79
80
79
77
77
76
79
80
79
78
78
79
80
71
23
39
64
47
20
14
12
11
10
10
10
10
12
12
10
9
15
17
8
10
12
11
12
11
14
14
16
18
22
17
18
17
20
19
20
34
41
46
87
87
84
86
87
88
73
82
88
77
74
82
89
88
89
87
87
90
90
89
90
89
89
90
89
89
88
89
87
88
87
88
88
90
88
67
25
17
16
15
12
13
12
11
11
11
10
10
9
12
13
13
12
7
3
4
0
0
0
0
0
13
79
76
16
0
0
0
0
0
0
0
0
2
7
61
13
12
15
18
18
26
81
85
86
87
88
89
89
91
90
91
91
92
93
91
91
93
92
94
93
92
94
94
93
93
92
93
94
93
92
91
92
91
93
91
89
89
88
78
26
21
13
10
12
11
14
12
14
17
17
13
9
9
14
68
89
90
90
92
92
92
91
92
92
92
93
93
92
95
58
22
86
92
90
92
93
41
10
37
75
86
90
90
90
91
90
90
89
86
75
69
67
65
66
64
65
67
62
62
62
60
60
60
60
60
59
60
59
62
70
66
57
59
62
61
61
61
61
61
61
61
62
66
73
72
72
70
64
62
63
63
64
65
64
75
85
76
69
70
71
71
75
74
70
70
70
73
76
72
72
71
72
74
75
74
73
74
75
72
72
72
73
75
75
75
75
75
75
77
80
81
82
80
81
82
82
82
81
81
82
81
81
80
79
78
78
77
77
70
59
57
57
53
53
52
51
50
48
47
48
45
52
50
43
43
41
40
40
39
76
78
78
79
78
78
79
78
80
78
78
76
76
78
78
78
77
77
78
67
65
26
20
26
19
14
13
14
12
10
10
11
11
11
9
8
10
10
9
13
32
15
13
12
12
13
10
14
19
16
16
18
17
19
19
20
20
20
19
26
51
75
81
89
87
88
63
77
90
72
70
87
89
89
89
87
87
89
89
89
90
89
90
90
89
89
89
89
89
87
89
87
86
86
85
89
63
16
17
18
14
11
12
10
11
9
8
9
6
9
6
5
4
3
2
2
0
0
0
0
0
19
64
75
15
0
0
0
0
0
0
0
0
0
1
36
26
11
14
14
17
23
74
85
85
86
88
87
90
89
89
90
90
91
91
93
92
92
92
93
92
93
93
92
93
93
92
92
92
92
93
91
92
91
90
91
90
89
90
66
21
22
19
14
13
14
12
14
15
16
19
18
9
12
11
58
92
88
90
90
91
92
93
92
91
92
92
92
92
94
51
23
89
92
91
89
93
46
8
29
74
69
82
91
91
89
90
90
90
88
89
85
80
71
66
64
63
70
68
59
61
62
61
59
60
60
59
60
60
60
65
62
58
60
58
59
59
60
60
62
62
61
62
64
81
72
70
67
68
66
65
64
68
69
67
72
75
69
69
70
71
74
72
71
70
69
68
70
71
70
70
69
70
72
72
72
71
71
72
70
71
71
73
73
73
74
74
76
77
80
80
81
81
81
82
82
81
81
81
81
80
80
80
79
79
78
79
74
71
74
69
61
56
53
51
50
51
48
48
48
47
48
50
45
42
42
41
39
38
38
75
79
76
77
78
78
76
77
78
79
77
76
77
78
77
78
77
78
76
34
25
21
19
17
16
12
14
12
12
11
9
10
11
10
9
10
10
9
11
16
48
14
12
13
14
10
15
14
13
14
15
16
15
17
20
20
17
20
20
21
22
27
37
53
68
87
50
81
87
74
77
88
86
87
85
85
86
89
89
90
89
89
89
89
89
89
88
89
87
88
86
87
88
85
85
85
83
35
22
13
11
11
12
10
9
10
16
11
14
6
6
5
3
2
0
0
0
0
0
0
0
0
0
18
1
0
0
0
0
0
0
0
0
3
1
10
17
11
11
13
14
15
50
87
85
85
85
87
89
88
90
90
90
90
91
91
92
92
93
91
92
92
93
92
91
92
93
92
92
91
92
92
90
91
90
90
89
88
90
55
21
20
17
14
13
13
15
13
16
18
28
29
16
13
11
55
91
89
89
90
90
90
90
91
92
92
91
91
92
92
37
15
39
85
90
90
86
30
11
28
88
75
70
84
90
92
88
88
85
82
82
85
83
83
78
65
64
65
64
62
61
61
60
60
60
59
58
61
60
60
59
59
60
58
61
60
60
61
62
66
63
63
69
74
81
66
65
65
72
69
66
66
70
68
68
74
75
68
68
69
70
75
70
68
68
68
67
69
71
70
70
68
69
71
71
71
71
70
70
70
70
70
72
71
72
72
74
72
77
77
79
79
80
80
81
81
81
81
80
79
79
80
79
79
78
77
75
74
70
71
69
65
57
52
52
50
50
49
50
55
48
48
45
43
41
40
40
38
38
37
75
76
75
76
75
76
75
76
77
75
74
75
75
76
77
76
75
59
53
38
16
17
16
13
13
14
14
11
12
10
9
10
10
10
7
11
8
12
9
11
12
16
11
11
13
13
14
15
49
69
69
69
53
39
73
69
47
23
35
28
20
22
25
22
23
45
57
87
87
75
83
85
85
85
85
86
86
86
88
89
89
88
89
89
89
89
88
88
89
89
88
87
86
86
85
84
84
44
29
39
19
11
12
17
14
17
18
13
11
8
5
5
4
4
1
0
0
0
0
0
0
0
0
0
0
0
0
0
0
0
0
0
0
3
3
4
6
9
9
10
12
14
23
75
85
85
86
87
87
88
88
89
89
90
91
90
90
91
90
91
91
91
91
91
92
92
90
91
91
91
91
90
88
90
90
89
89
88
87
41
19
19
17
15
14
14
14
17
14
40
81
82
38
8
11
46
91
87
87
90
89
90
90
90
91
91
91
90
91
92
37
18
10
47
93
87
42
20
12
31
90
85
69
71
80
79
75
72
71
68
68
69
68
66
74
67
63
62
63
63
62
61
60
59
59
59
59
60
60
60
59
60
59
62
61
61
60
62
61
63
66
74
81
83
76
64
64
64
67
64
64
66
66
65
68
71
72
68
66
69
68
69
68
69
68
68
66
69
69
68
67
67
68
69
69
68
69
68
69
70
70
69
71
70
71
72
71
71
74
75
78
79
79
80
79
79
79
80
79
79
80
79
78
81
77
76
70
69
62
65
70
62
55
54
50
50
49
48
50
49
50
61
58
44
42
41
39
38
37
36
73
74
74
74
74
74
75
76
75
73
74
72
73
75
75
74
73
30
34
24
17
15
14
11
10
11
10
9
9
9
9
7
8
9
9
8
8
13
9
13
10
9
12
12
14
13
19
19
67
79
78
80
81
81
83
82
85
71
81
77
54
28
24
24
23
23
25
44
55
62
86
84
83
84
85
84
85
85
86
88
87
88
88
89
88
88
87
88
88
86
87
86
86
86
83
85
84
81
81
86
74
52
37
13
15
12
10
10
7
7
6
4
4
3
1
0
0
0
0
0
0
0
0
0
0
0
0
0
0
0
0
0
0
1
2
3
5
7
9
9
12
15
14
44
87
83
86
86
86
88
88
88
88
90
90
90
90
91
90
90
91
92
90
91
89
90
92
91
90
92
91
85
83
89
89
88
87
86
83
29
19
18
17
14
13
13
13
14
21
64
86
86
63
9
13
20
78
87
90
88
89
88
89
89
90
90
90
90
88
89
36
14
13
20
88
59
23
22
12
24
86
89
77
68
68
70
69
69
69
68
67
65
66
64
69
69
63
62
61
60
60
59
59
59
58
58
59
59
60
59
60
59
66
64
62
61
62
62
61
64
73
81
82
84
72
65
64
64
65
64
65
65
66
66
67
66
66
67
66
68
67
66
68
68
65
66
66
69
67
67
68
67
67
68
68
68
68
68
68
69
69
69
70
71
70
71
70
70
71
72
77
76
74
77
79
78
78
78
78
79
78
79
78
78
78
73
63
62
59
56
59
61
56
52
51
49
47
48
46
45
47
49
62
49
42
40
38
38
37
36
71
72
72
73
74
72
74
76
72
75
73
72
73
73
73
73
69
28
15
15
15
13
12
12
10
10
10
10
9
9
9
8
8
7
8
8
8
6
15
49
13
10
12
11
12
13
18
52
74
77
77
78
81
80
81
81
81
84
82
83
86
80
60
34
21
21
23
22
21
27
60
84
85
83
83
84
84
84
86
86
87
87
87
88
88
88
87
87
86
88
85
86
85
83
85
84
84
82
83
80
82
83
57
9
16
11
10
8
9
3
5
6
4
2
0
0
0
0
0
0
0
0
0
0
0
0
0
0
0
0
0
0
0
0
2
2
4
7
8
10
11
13
16
19
71
86
84
85
86
86
89
87
87
87
85
83
84
82
74
89
90
91
83
90
90
89
90
91
91
90
90
83
82
89
88
87
87
88
75
22
18
16
16
14
13
14
14
22
53
78
84
84
83
23
11
12
52
90
84
87
87
88
89
88
88
89
89
90
88
90
32
24
20
17
54
27
26
28
12
18
80
89
86
80
79
79
79
77
85
81
80
69
65
64
63
70
69
62
60
60
60
59
59
59
59
58
58
60
59
58
59
59
67
62
62
60
60
61
64
63
68
77
81
82
71
66
62
64
63
63
64
63
67
66
66
67
66
66
66
66
65
67
69
68
65
66
66
66
65
66
67
66
66
67
68
66
67
67
67
67
68
68
69
70
69
70
70
70
73
73
77
72
70
75
78
78
78
78
77
78
78
78
80
77
76
66
61
59
57
57
55
54
55
52
48
49
47
46
46
46
47
45
48
44
41
38
37
37
36
35
69
71
72
69
71
73
60
43
34
44
59
72
65
63
66
69
60
33
15
14
14
11
11
10
10
9
9
9
9
9
7
7
7
10
8
7
5
8
23
33
10
9
11
10
14
12
29
73
78
76
77
80
79
80
80
81
82
82
81
83
82
83
85
82
62
30
19
25
25
22
22
38
65
83
83
83
84
85
84
85
86
86
86
87
87
87
87
87
87
86
85
86
84
85
85
83
83
83
82
82
81
82
77
37
16
13
14
28
64
47
23
4
4
2
1
0
0
0
0
0
0
0
0
0
0
0
0
0
0
0
0
0
0
0
0
3
3
5
7
7
8
12
14
13
35
84
83
84
86
86
86
87
87
89
80
47
39
42
69
56
74
66
67
88
90
91
86
82
78
85
88
84
85
88
87
87
85
89
57
17
17
15
15
13
14
14
12
40
87
83
82
84
87
47
8
13
27
85
88
89
89
87
90
91
86
85
88
78
84
92
36
27
39
7
18
24
24
18
9
33
87
88
88
89
89
88
90
87
88
87
86
69
64
65
63
61
64
61
61
59
59
59
58
58
58
58
58
59
59
58
57
59
62
68
61
61
63
60
62
62
62
69
81
81
76
71
64
63
63
63
63
63
64
65
65
66
65
65
66
65
68
67
66
65
66
65
65
64
64
65
65
65
66
66
67
67
66
66
67
67
68
69
69
69
69
70
68
70
72
76
74
70
70
74
77
77
77
77
77
78
80
81
81
77
76
65
58
57
57
56
53
54
53
50
50
48
48
47
44
46
45
46
42
42
40
39
38
36
35
34
69
69
70
69
71
60
28
18
20
20
34
43
27
24
23
31
24
25
16
15
12
11
11
10
13
10
9
8
8
7
7
8
6
8
5
11
31
9
19
10
9
10
10
10
29
18
50
78
51
59
67
55
76
78
81
80
82
81
82
83
82
83
82
82
84
78
57
40
27
25
27
22
24
37
49
76
84
84
84
85
86
86
85
86
86
86
86
87
86
85
85
85
83
84
84
84
83
82
81
81
80
79
80
80
72
69
69
76
77
82
54
0
3
2
1
0
0
0
0
0
0
0
0
0
0
0
0
0
0
0
0
0
0
0
0
1
3
4
6
6
9
9
13
16
16
69
84
85
84
86
86
85
85
88
85
54
28
26
69
63
53
56
77
91
75
73
63
61
50
80
88
80
84
87
86
85
86
85
34
16
17
15
15
13
14
14
13
56
84
81
84
83
87
70
11
13
13
52
76
64
44
39
51
63
43
33
46
33
35
55
26
13
25
11
10
20
15
9
11
72
88
87
89
88
88
87
87
87
86
85
85
79
72
63
62
62
61
62
60
60
62
59
58
58
58
58
58
59
57
58
58
57
60
60
59
64
60
60
61
61
62
66
75
70
66
69
65
61
62
63
63
63
64
64
63
63
64
65
64
65
66
65
66
63
64
63
65
64
64
64
64
64
66
65
65
66
66
66
66
66
66
67
68
68
68
68
68
67
70
74
70
69
69
70
75
77
76
76
76
78
81
79
77
75
75
73
63
57
59
54
53
51
50
50
48
48
48
45
44
44
42
42
42
40
38
38
38
36
35
34
68
69
68
65
62
42
18
19
19
19
22
18
18
17
17
19
17
21
31
12
11
10
11
10
11
12
9
8
9
8
8
8
7
11
27
11
41
11
9
10
9
10
10
11
17
28
30
44
25
20
31
20
58
64
53
78
80
81
81
82
81
82
82
82
79
80
83
82
74
51
27
25
24
23
24
40
66
66
83
82
84
85
85
85
85
86
85
87
86
84
85
84
84
84
83
83
82
83
82
82
81
81
79
79
79
79
78
77
76
77
71
50
7
3
2
1
0
0
0
0
0
0
0
0
0
0
0
0
0
0
0
0
0
0
0
0
2
3
7
5
7
9
10
15
15
43
84
82
84
84
86
85
72
59
60
53
34
30
41
64
39
59
88
72
65
49
34
47
53
57
76
72
86
85
85
85
85
67
18
17
15
14
14
14
14
15
16
57
78
86
85
79
58
37
19
11
14
13
19
22
21
23
23
23
24
26
24
25
24
21
15
15
19
18
19
10
11
11
15
79
88
88
88
88
87
87
87
86
87
86
83
75
72
66
61
60
60
59
60
60
60
59
58
58
58
58
58
60
58
57
58
58
57
58
59
64
60
60
60
61
60
66
65
62
61
61
64
63
61
62
62
61
62
62
62
62
63
64
64
63
64
65
64
63
64
63
62
64
64
63
63
64
64
64
65
65
65
65
66
67
65
65
66
68
66
67
67
67
69
69
68
68
68
69
75
76
75
76
75
78
78
76
76
75
76
78
76
73
58
53
52
51
50
50
49
48
47
46
46
44
42
42
41
40
38
38
38
37
35
33
63
59
58
31
28
19
18
16
16
15
16
17
15
15
14
17
19
12
21
14
12
10
10
10
10
10
10
8
8
8
7
8
8
18
43
21
11
9
10
10
9
12
14
10
13
15
13
18
20
21
19
22
33
47
46
76
79
80
79
80
80
81
81
81
81
80
80
80
80
82
68
35
22
23
24
24
36
60
83
81
83
82
84
84
85
85
86
85
84
85
83
84
83
82
83
83
82
82
81
81
81
80
79
79
77
79
78
76
77
75
75
77
24
0
2
0
1
0
0
0
0
0
0
0
0
0
0
0
0
0
0
0
0
0
0
0
2
3
4
4
7
8
11
13
14
18
75
83
82
84
83
86
72
48
47
37
30
33
58
37
36
76
88
57
41
42
50
51
52
51
77
60
71
87
84
84
85
35
15
16
14
12
15
12
13
15
16
16
38
57
37
25
17
20
17
12
12
13
15
19
23
23
22
25
22
21
22
19
19
19
14
11
38
71
53
7
12
10
49
86
87
87
87
88
87
87
87
86
85
86
80
67
64
64
63
60
59
59
60
59
59
58
58
57
57
57
57
58
58
57
58
58
58
58
57
59
60
59
59
61
59
62
61
61
62
60
61
62
62
61
61
62
61
62
63
63
62
62
62
63
63
63
63
62
63
62
62
63
63
63
63
63
64
64
64
64
64
65
65
65
65
65
64
65
66
66
66
66
67
67
67
67
68
67
71
74
74
70
68
72
75
75
75
78
78
78
78
79
69
56
52
51
50
48
48
48
46
44
44
44
42
41
41
39
39
37
37
36
36
34
28
25
32
21
20
17
15
16
13
14
15
12
12
14
14
13
13
14
10
13
38
12
11
11
11
10
10
9
8
9
10
11
10
8
11
19
12
8
10
9
10
9
12
11
12
14
14
16
17
18
20
21
19
38
60
49
76
78
79
81
80
80
80
80
80
80
79
80
78
77
79
79
57
22
22
23
23
50
83
82
82
82
83
83
83
84
83
85
83
82
83
82
82
82
82
81
81
81
81
80
80
79
79
78
79
77
77
77
77
77
76
74
70
33
3
0
0
0
0
0
0
0
0
0
0
0
0
0
0
0
0
0
0
0
0
0
2
2
3
3
6
7
10
11
14
14
63
83
82
83
84
85
80
60
42
49
44
42
47
32
58
72
79
62
45
46
73
51
42
55
71
59
70
80
84
82
48
17
16
15
13
13
12
12
14
14
16
17
16
15
17
19
20
19
18
17
12
12
12
14
16
19
21
20
33
48
59
52
57
48
10
38
83
84
23
9
11
47
87
86
86
87
87
86
86
87
84
85
83
74
71
66
64
64
61
60
59
59
59
59
58
58
58
57
57
57
56
57
57
57
57
57
58
58
58
58
59
58
60
59
60
59
60
61
61
60
60
60
61
61
61
61
62
61
61
61
62
62
62
62
62
62
62
62
62
62
62
62
62
62
62
62
62
63
63
62
63
64
63
63
64
64
64
65
65
65
66
66
66
65
64
65
66
64
67
70
69
65
64
65
70
74
76
79
78
78
77
76
76
66
52
51
48
47
49
46
46
45
43
43
43
41
40
41
40
37
36
34
33
31
20
34
27
18
17
17
14
13
13
12
14
11
12
12
13
11
12
11
12
44
62
29
12
9
10
10
10
10
10
8
8
9
9
8
8
9
12
7
10
8
11
10
9
11
13
13
15
19
15
18
17
20
26
32
35
31
76
78
78
80
80
79
80
80
80
79
80
79
79
80
79
77
81
41
19
23
23
23
46
76
81
83
83
83
82
83
83
83
82
83
81
82
82
82
81
81
81
80
80
79
80
79
79
79
78
78
78
77
76
75
75
74
74
73
18
1
0
0
0
0
0
0
0
0
0
0
0
0
0
0
0
0
0
0
0
0
1
1
2
3
4
6
9
10
12
12
48
83
81
82
83
83
69
40
27
48
67
70
61
36
42
58
75
58
46
58
59
54
47
61
57
65
68
79
69
32
15
15
14
14
10
13
11
11
12
12
15
15
16
18
18
17
16
17
19
17
15
13
10
11
13
12
12
12
22
71
88
86
86
73
11
66
71
28
7
8
57
87
86
86
87
85
87
87
86
86
84
83
79
68
69
64
64
63
61
60
59
58
58
59
58
58
57
57
57
57
56
56
56
56
57
57
57
57
58
57
58
58
58
59
58
59
58
60
60
60
60
58
60
60
60
59
60
60
60
60
61
61
62
61
61
61
61
61
62
62
62
61
61
62
62
61
62
62
62
62
63
63
63
63
63
63
64
64
65
64
65
64
64
64
63
64
64
64
65
65
63
63
65
64
68
73
76
73
68
72
75
75
75
72
58
49
49
52
48
46
47
46
44
43
43
42
40
41
39
39
39
37
35
32
19
20
17
14
14
15
13
13
13
11
10
12
11
11
11
11
10
9
15
45
65
65
46
15
11
10
8
10
13
9
7
11
8
12
6
8
7
8
6
9
12
12
11
12
12
13
15
18
16
15
17
18
26
28
30
44
77
78
77
78
79
79
79
79
80
80
79
79
80
78
77
78
80
61
21
20
22
23
19
39
79
69
81
81
81
82
82
82
81
80
81
80
81
79
82
80
80
79
80
79
79
79
79
78
78
79
78
77
78
76
74
74
72
76
39
0
0
0
0
0
0
0
0
0
0
0
0
0
0
0
0
0
0
0
0
0
1
0
2
2
4
6
7
9
9
12
31
78
81
81
82
80
58
48
36
40
56
64
83
46
36
70
45
49
28
32
44
69
44
64
73
53
67
57
18
13
15
15
13
13
11
12
12
11
13
12
13
15
17
14
16
23
48
62
61
44
56
67
44
16
8
9
10
12
12
19
62
78
87
56
11
52
16
11
10
46
84
84
85
84
86
86
85
86
85
83
83
82
78
70
64
63
61
61
61
59
58
58
58
57
57
57
56
56
57
56
56
56
56
56
56
56
56
56
57
57
58
58
58
58
59
59
59
59
59
58
58
59
59
59
60
60
58
60
60
59
59
61
61
60
61
61
60
60
61
61
61
61
60
61
61
61
61
61
61
62
62
62
62
62
62
62
63
63
64
64
64
63
63
63
62
63
62
64
63
63
63
62
62
62
72
75
75
66
62
64
68
66
69
69
68
53
48
51
53
45
45
45
47
46
42
40
39
40
39
38
37
35
34
32
18
16
16
15
13
13
13
11
11
10
10
9
10
11
11
10
12
13
17
21
52
65
66
48
21
15
12
8
7
8
8
9
9
11
12
7
9
9
9
13
8
11
10
9
13
15
14
14
15
16
16
17
21
21
38
57
75
76
77
78
79
79
79
79
78
79
79
78
78
79
79
77
77
75
29
20
21
19
20
21
32
28
64
81
79
81
80
81
82
83
80
79
79
80
79
79
78
78
78
78
79
78
78
77
78
77
78
76
75
75
75
73
74
66
21
0
2
0
0
0
0
0
0
0
0
0
0
0
0
0
0
0
0
0
0
0
0
0
1
2
5
6
6
7
10
9
33
80
78
80
81
79
50
26
41
51
32
55
54
40
40
51
41
38
38
43
49
57
51
59
52
38
24
14
14
14
14
13
12
11
13
11
12
13
13
15
13
17
15
36
60
78
84
84
84
84
85
83
86
71
51
31
32
12
10
11
8
23
40
23
14
10
8
9
53
88
84
84
84
85
84
85
86
83
79
77
77
78
67
64
64
62
61
60
60
59
58
58
58
57
57
56
55
56
56
56
55
56
56
55
56
56
56
56
57
57
57
58
57
59
56
59
58
58
59
58
58
58
59
58
59
60
60
59
59
58
59
60
60
59
60
60
60
60
60
59
60
61
60
60
61
61
61
61
61
62
62
62
61
61
62
62
62
62
62
62
63
62
62
62
62
61
62
61
61
61
62
61
62
63
70
73
71
62
61
60
64
62
60
62
62
55
53
48
48
48
45
45
46
45
43
41
39
38
39
38
36
36
35
33
32
15
15
14
12
11
11
11
10
9
10
8
10
9
10
11
10
13
17
27
50
63
64
56
27
12
9
10
9
8
9
9
9
18
12
9
9
7
16
26
12
11
9
15
15
20
15
15
15
14
17
19
21
17
44
76
76
76
77
78
78
77
78
78
79
78
79
78
79
79
77
78
77
78
51
17
15
18
19
19
19
26
51
77
79
78
80
79
81
64
76
80
78
79
79
79
78
78
78
78
77
78
77
77
76
77
77
76
76
75
74
74
59
18
0
2
0
0
0
0
0
0
0
0
0
0
0
0
0
0
0
0
0
0
0
0
0
0
0
2
5
4
4
6
8
8
36
81
78
79
79
81
73
37
30
34
55
31
31
37
50
41
48
39
50
60
64
65
54
37
24
14
14
13
12
11
12
12
11
11
12
11
13
13
14
12
13
12
33
79
83
82
82
82
83
82
84
82
82
84
85
83
84
57
16
10
12
8
8
11
10
7
9
47
85
83
83
84
83
84
86
84
82
73
72
70
71
75
69
63
61
62
60
58
59
59
58
57
57
57
56
56
55
55
55
55
55
55
55
55
56
56
56
56
55
56
56
56
57
57
57
57
57
57
57
57
58
57
58
58
58
58
58
58
58
58
58
58
58
58
59
58
58
59
59
58
59
60
60
60
60
60
60
60
60
61
60
61
61
61
62
62
62
62
62
61
61
61
60
61
61
60
60
59
61
61
61
60
60
61
63
67
67
60
60
59
60
59
60
61
63
58
57
56
48
47
45
45
44
43
42
41
39
39
39
37
35
35
33
32
59
32
13
13
13
12
11
9
9
9
9
9
9
10
9
11
10
8
27
32
33
39
37
61
42
28
16
9
10
16
17
10
9
16
12
22
10
31
48
22
13
10
26
44
12
13
14
15
15
16
19
17
18
45
69
75
75
75
77
77
77
77
78
78
77
78
78
78
78
77
77
76
76
77
75
66
60
37
15
20
20
17
21
52
78
81
78
79
81
57
39
75
77
78
77
76
77
77
77
78
77
77
76
76
77
76
75
76
75
74
73
67
15
4
4
2
1
0
0
18
12
0
0
0
0
0
0
0
0
0
0
0
0
0
0
0
0
0
0
0
3
1
3
6
7
5
37
71
64
80
78
79
73
42
20
49
74
58
31
33
31
48
27
43
73
54
52
39
20
14
13
14
13
13
13
12
11
11
12
11
12
12
12
13
13
26
37
54
78
81
82
81
83
83
82
84
82
83
84
82
81
82
80
83
69
15
7
9
11
8
11
26
57
84
83
83
83
82
83
83
82
83
76
69
69
67
73
67
66
66
62
60
60
59
59
58
57
58
57
56
55
56
55
55
55
55
55
54
55
55
56
55
56
56
55
56
55
56
56
56
57
57
57
57
55
56
57
57
58
57
56
58
58
57
57
57
58
58
58
58
59
58
58
59
59
59
59
59
60
60
60
60
60
60
60
60
61
61
62
61
60
61
62
61
61
60
60
60
60
60
60
59
59
60
60
59
60
60
60
64
65
64
64
60
60
59
57
56
57
56
59
56
53
51
48
46
46
44
43
42
41
41
39
38
39
37
37
36
32
31
59
56
46
22
17
11
9
9
9
8
8
8
8
10
9
10
10
13
32
19
20
25
26
46
63
60
26
8
10
31
21
11
18
14
21
40
6
46
60
28
10
14
52
40
12
27
27
12
14
19
32
34
43
72
74
74
76
76
76
76
77
77
77
77
78
78
77
77
77
77
77
76
76
76
76
78
77
75
43
14
18
22
16
15
38
60
72
75
75
59
23
26
37
70
78
75
76
75
76
76
76
76
76
75
75
76
74
75
73
73
74
37
6
7
4
2
0
5
41
64
61
3
0
0
0
0
0
0
0
0
0
0
0
0
0
0
0
0
0
0
1
1
3
6
6
5
30
34
12
53
78
79
71
48
32
70
75
57
47
38
26
36
32
45
56
48
30
10
12
11
11
12
12
11
13
11
12
11
12
11
12
11
11
28
63
77
81
81
80
80
81
82
83
82
83
84
83
83
83
83
81
81
80
80
82
64
36
32
9
28
65
82
81
82
82
82
79
80
80
80
80
80
76
67
66
65
69
65
65
64
61
59
59
58
58
57
57
56
55
55
55
55
55
55
54
55
54
54
54
55
54
54
54
54
55
55
55
54
54
55
55
55
57
56
55
56
56
57
56
57
57
57
58
57
57
57
58
57
57
58
58
58
58
58
58
58
59
59
59
59
58
59
59
60
60
61
61
60
61
60
59
60
60
60
60
60
59
59
59
59
59
59
58
58
58
58
57
59
62
67
64
63
63
70
67
61
57
55
55
54
54
52
51
49
47
45
45
45
42
42
42
40
40
40
37
36
35
33
32
31
59
59
59
46
44
19
19
9
9
7
7
7
9
10
10
10
8
22
45
27
14
13
19
16
33
51
53
23
25
22
12
10
26
23
12
11
20
30
22
20
14
45
49
21
14
33
26
33
37
45
67
67
72
72
74
74
75
76
76
76
76
77
77
77
76
77
76
76
76
76
76
76
76
76
77
74
76
75
76
44
15
17
16
17
17
17
24
28
27
27
19
19
19
25
50
69
75
77
75
74
75
75
74
74
74
73
75
73
72
73
55
11
11
5
3
2
17
49
74
69
69
17
0
0
0
0
0
0
0
0
0
0
0
0
0
0
0
0
0
0
0
0
1
2
3
5
12
10
8
8
62
73
79
57
35
65
72
60
70
25
37
32
17
23
29
36
13
11
11
8
9
11
10
12
12
12
11
12
11
10
9
36
53
69
80
78
78
79
80
81
81
82
82
82
83
83
83
83
83
83
83
81
80
80
80
81
78
75
69
78
78
77
78
78
82
80
79
80
79
78
78
78
76
69
64
64
65
62
62
61
61
59
58
58
57
57
56
56
56
55
54
54
54
54
54
55
55
54
54
54
54
54
54
54
54
54
55
54
54
54
55
54
55
55
55
56
56
56
55
56
56
57
56
57
57
56
56
56
56
56
57
57
57
57
57
57
58
58
58
58
59
59
60
59
59
59
60
59
59
59
59
59
59
59
58
58
58
59
58
58
58
57
57
57
57
58
58
64
68
71
65
59
64
71
62
56
56
54
53
52
51
50
49
50
52
52
46
44
42
42
40
39
38
37
36
36
35
33
31
30
59
58
59
57
37
17
18
14
8
7
15
10
6
18
16
8
12
10
12
14
10
15
13
25
15
32
65
60
59
59
22
18
30
12
11
8
42
53
27
12
22
44
30
14
17
14
35
71
68
70
71
72
70
74
72
74
74
75
75
76
76
76
76
77
76
76
76
76
76
76
76
76
75
75
75
75
75
75
74
76
53
16
15
15
17
17
18
16
18
18
17
19
17
20
23
24
32
51
70
74
74
74
77
74
73
73
70
71
71
67
19
7
7
4
2
13
65
71
69
69
70
39
0
0
0
0
0
0
0
0
0
0
0
0
0
0
0
0
0
0
0
1
3
5
4
3
6
4
5
5
38
66
74
66
42
60
76
68
57
31
20
16
9
7
16
10
11
11
10
6
7
8
10
9
10
11
12
12
12
37
49
72
79
77
77
78
80
81
81
81
81
82
82
82
83
83
83
83
83
82
82
82
81
81
80
79
79
78
78
77
77
76
77
77
79
79
78
77
78
78
76
77
75
68
63
63
62
62
61
60
60
57
58
57
56
56
56
56
56
55
54
54
54
54
54
55
54
54
54
54
54
54
54
54
54
54
54
54
54
54
54
54
55
54
54
55
56
56
55
55
55
56
56
55
55
55
56
55
55
56
56
56
56
56
56
57
57
58
58
58
57
58
57
59
58
58
58
58
58
59
59
58
57
58
57
57
57
57
56
57
57
57
57
57
56
57
59
63
63
65
59
59
60
60
56
55
53
52
52
51
50
49
48
48
49
49
46
43
45
42
42
41
37
38
36
35
34
33
31
30
59
58
58
58
48
16
10
9
11
8
9
9
5
18
17
11
17
10
9
11
12
10
13
22
42
58
64
64
64
63
56
32
49
26
10
15
44
34
22
14
33
35
25
14
16
30
61
68
69
71
70
71
72
73
73
74
73
74
75
75
76
76
75
76
75
76
76
76
76
76
75
75
76
76
75
75
75
74
74
73
75
64
30
15
12
15
14
15
15
19
16
14
15
15
18
18
17
18
23
29
37
48
51
64
73
71
70
68
72
52
6
6
5
5
2
42
71
70
69
70
68
66
34
14
0
0
0
0
0
0
0
0
0
0
0
0
0
0
0
0
0
0
1
4
3
3
2
2
4
4
18
37
61
71
41
63
73
78
55
47
20
11
8
12
8
8
9
8
6
8
6
8
7
8
9
9
12
8
41
77
78
77
75
77
78
79
79
80
81
81
80
81
82
82
82
82
82
83
82
81
82
82
81
81
78
77
76
76
77
76
76
77
77
76
77
77
77
77
77
77
76
76
73
68
64
64
62
62
61
60
59
57
58
57
56
55
55
55
55
55
54
54
54
54
54
53
53
53
53
53
54
54
53
54
53
54
53
53
54
53
54
54
54
54
54
54
54
54
54
55
54
55
55
56
55
55
55
56
56
57
56
55
56
55
56
57
57
57
57
56
57
56
58
57
58
56
57
58
57
57
57
57
57
57
57
57
58
57
56
56
56
56
56
55
56
56
58
58
57
62
57
57
55
55
54
54
54
52
51
51
50
49
48
46
47
48
45
43
41
41
42
40
40
38
36
34
33
32
30
30
58
58
57
56
54
27
11
10
10
13
9
7
13
8
13
47
28
13
9
13
17
10
12
20
61
64
64
63
63
64
56
16
37
54
14
12
15
13
12
26
67
63
63
43
50
66
69
68
68
70
71
72
72
72
73
74
74
74
74
74
75
75
75
75
75
75
75
75
75
75
74
74
74
75
74
75
74
75
74
74
73
74
73
58
30
20
16
15
11
14
13
14
14
15
13
14
15
14
15
15
15
14
18
17
38
66
69
71
53
15
8
5
6
3
4
56
69
69
69
69
68
68
69
62
13
0
0
0
0
0
0
0
0
0
0
0
0
0
0
0
0
0
0
1
2
2
3
1
1
3
16
46
65
62
41
58
65
55
27
50
27
7
4
11
6
4
7
6
7
6
6
5
7
7
8
8
14
52
72
72
72
74
75
78
77
76
77
80
80
80
80
79
81
81
82
81
81
81
80
80
81
82
82
81
77
77
78
76
76
77
77
75
76
77
76
76
76
77
76
75
77
76
74
72
66
63
62
60
59
59
58
57
57
56
56
55
54
54
54
54
54
53
52
53
53
53
53
52
53
53
53
53
53
53
53
54
52
52
53
52
53
54
54
54
54
53
54
54
54
54
54
54
53
54
55
55
54
55
56
56
56
55
56
55
56
57
56
56
56
56
55
57
56
57
56
55
56
57
56
56
56
56
56
56
55
56
56
55
55
55
55
55
55
55
56
56
55
56
56
57
56
54
54
55
53
52
53
52
53
51
48
48
48
47
47
47
47
45
46
44
40
40
41
37
35
34
33
32
31
30
59
58
57
58
40
12
12
10
11
11
10
7
17
8
14
31
21
8
8
10
9
14
43
53
64
65
65
64
65
64
64
55
30
27
15
15
13
15
43
59
65
67
66
68
69
70
68
70
70
70
72
70
71
71
73
74
74
74
74
74
74
75
74
75
74
74
74
74
74
74
74
74
74
75
73
74
74
73
75
73
73
73
72
74
71
67
65
64
35
20
16
10
12
13
13
12
13
13
12
13
14
18
13
15
12
25
35
56
17
4
6
5
5
5
32
65
70
70
69
69
68
68
67
67
56
7
0
0
0
0
0
0
0
0
0
0
0
0
0
0
0
0
0
0
1
1
1
0
0
0
18
32
40
54
41
44
51
26
29
22
25
7
5
2
2
4
5
4
4
5
7
6
4
7
9
26
54
70
70
71
73
72
73
75
75
75
76
75
77
79
78
77
81
80
81
79
80
81
80
80
81
83
80
80
79
77
76
76
76
77
76
77
76
76
77
75
76
76
75
75
75
75
74
71
66
63
62
59
59
58
57
57
56
56
55
55
54
53
53
53
53
53
53
53
53
53
53
52
51
52
52
52
52
52
52
53
52
52
53
52
53
54
53
53
53
53
54
54
54
53
53
53
54
54
54
55
55
55
55
55
55
55
55
55
55
55
56
55
56
55
56
55
56
55
56
55
55
55
55
56
56
56
56
55
56
55
55
55
55
55
54
55
55
54
53
54
55
55
54
54
55
54
53
53
52
53
52
53
50
49
48
48
47
46
46
46
46
48
47
55
46
42
40
39
36
35
33
32
31
30
58
58
58
58
36
12
12
10
9
18
42
22
10
7
10
9
43
21
8
9
17
29
56
64
63
64
64
65
63
65
64
66
32
14
16
14
27
55
65
66
66
67
68
67
69
67
69
69
70
70
70
70
70
71
72
74
73
73
73
73
73
73
73
73
73
73
73
73
73
72
73
73
72
73
72
73
74
73
73
73
73
72
73
72
71
72
71
71
70
69
59
42
23
11
10
11
13
12
13
12
13
12
11
12
13
12
12
7
7
6
7
4
2
37
72
67
67
68
69
68
68
67
68
64
66
49
0
0
0
0
0
0
0
0
0
0
0
0
0
0
0
0
0
0
0
0
0
0
0
0
7
45
30
44
37
36
24
22
18
18
11
3
2
3
2
2
2
6
4
4
6
4
6
8
13
30
49
63
63
67
47
65
74
74
73
74
75
75
76
76
75
77
79
78
79
77
79
81
79
80
81
81
80
78
76
76
76
74
75
75
75
73
75
77
74
75
75
74
74
75
74
74
74
70
63
62
61
60
58
59
57
57
56
55
55
54
54
54
53
52
52
52
53
52
52
52
52
52
51
52
52
52
52
52
52
52
52
52
52
52
53
53
53
53
53
52
53
52
53
53
53
53
53
54
54
54
54
55
55
53
54
55
55
54
54
55
55
55
55
55
55
55
55
55
55
55
55
55
55
55
55
55
55
55
55
54
54
54
55
54
54
54
55
54
53
53
54
53
53
54
54
51
52
52
51
51
51
50
49
49
47
48
47
46
45
45
45
49
55
45
44
42
42
42
41
36
33
32
30
29
58
58
57
56
41
15
10
11
10
13
48
32
11
10
8
7
43
40
16
10
22
26
53
63
63
64
65
64
64
66
65
64
63
31
14
19
30
60
66
66
67
68
67
68
68
70
69
71
69
70
70
70
69
70
70
71
71
72
72
72
72
72
71
72
72
72
71
71
71
71
71
71
72
71
72
71
71
72
71
72
72
71
71
72
72
71
70
71
71
70
71
71
68
49
39
28
10
13
10
9
10
12
11
10
12
12
8
6
5
4
5
3
15
61
66
66
67
68
68
69
68
68
66
65
60
61
17
0
0
1
0
0
0
0
0
0
0
0
0
0
0
0
0
0
0
0
0
0
0
0
4
58
47
26
25
25
7
11
8
8
5
2
1
1
1
1
1
2
2
4
3
5
5
10
10
9
21
41
39
39
52
66
65
71
72
72
72
75
75
74
75
75
76
76
78
75
77
80
79
80
81
80
80
77
75
76
74
75
75
76
74
75
75
74
75
75
74
75
74
74
73
73
73
71
69
69
65
64
60
59
57
56
55
55
54
54
54
53
53
52
53
52
52
52
53
52
52
52
51
52
52
52
52
51
52
51
51
51
51
52
53
52
52
52
52
52
53
52
53
53
52
52
53
53
54
54
53
53
54
55
53
54
54
54
54
55
55
54
55
55
55
54
55
54
54
54
56
56
55
54
54
54
53
54
54
54
54
53
54
53
54
52
53
53
53
53
53
53
54
52
51
52
51
50
50
49
49
49
48
48
46
47
46
45
45
47
47
43
44
44
45
47
40
43
41
36
34
33
30
28
57
56
57
56
57
29
14
8
9
15
40
50
15
25
8
13
13
12
11
9
9
27
59
63
63
64
65
65
65
65
65
65
66
46
16
19
26
60
67
67
68
68
67
68
70
70
69
70
70
69
68
69
68
69
69
70
71
71
72
71
70
70
70
71
71
70
70
61
55
69
68
70
71
70
70
70
70
70
71
70
71
71
71
71
71
70
70
70
69
70
70
68
68
69
70
67
53
55
43
29
12
7
9
12
13
9
5
4
3
4
3
1
39
67
65
66
67
66
68
68
68
68
66
62
60
61
39
0
0
0
0
0
0
0
0
0
0
0
0
0
0
0
0
0
0
0
0
0
0
0
4
53
63
46
21
12
22
15
18
12
0
0
0
2
0
1
1
1
2
2
2
4
6
6
10
8
9
14
22
37
53
42
42
68
71
71
73
73
73
74
74
73
74
75
74
74
76
78
78
78
78
78
78
77
74
74
75
74
75
75
74
75
75
75
75
74
74
74
73
73
73
73
72
71
71
71
70
69
69
66
61
57
55
56
54
53
54
53
52
52
53
52
52
52
52
51
52
52
51
51
51
51
51
51
51
51
50
50
51
51
52
52
52
51
50
51
52
52
52
53
52
52
52
52
53
53
53
53
53
53
53
53
53
54
54
55
55
54
54
54
54
54
54
53
53
54
54
53
54
54
53
54
53
53
52
53
53
52
53
52
53
52
52
52
52
52
51
52
52
51
51
50
50
50
49
49
48
49
49
50
48
49
46
44
44
43
45
42
41
39
41
45
44
38
41
38
39
37
33
29
57
57
58
57
57
56
49
33
16
10
10
22
13
11
13
15
9
9
10
38
32
18
37
61
63
65
65
65
65
64
66
65
66
51
15
27
55
65
67
67
66
68
69
69
69
68
69
70
69
68
68
68
68
68
69
70
70
70
70
69
69
69
69
70
70
71
61
22
16
56
70
68
68
69
69
68
69
69
69
71
70
71
71
70
71
70
70
70
70
70
69
69
68
67
67
67
68
68
69
66
56
34
10
11
9
6
5
3
3
3
3
2
28
66
64
65
65
67
67
68
68
67
66
64
60
60
61
41
0
0
0
0
0
0
0
0
0
0
0
0
0
0
0
0
0
0
0
0
0
0
1
51
54
57
35
10
21
11
1
0
0
0
0
0
0
0
0
0
0
2
4
4
3
4
8
13
13
12
18
26
40
40
60
70
70
71
72
72
72
73
73
73
73
74
74
75
76
76
77
77
76
76
76
75
74
73
74
74
74
74
73
73
74
74
73
73
73
73
73
73
73
73
71
71
71
70
69
68
68
67
65
60
57
56
55
54
54
53
52
52
52
51
51
51
51
51
51
51
51
51
51
51
50
51
51
51
51
50
51
51
51
50
51
52
51
51
52
52
52
53
52
52
53
52
53
53
53
53
52
52
54
53
53
53
53
53
53
53
53
53
53
53
53
53
53
54
53
53
54
54
53
53
53
53
52
52
53
51
52
52
51
51
51
51
51
51
50
50
50
50
50
49
49
49
49
49
48
49
47
50
46
45
47
44
43
45
44
44
40
39
38
38
36
40
41
37
43
44
34
27
56
56
56
58
56
57
57
59
48
15
23
14
11
9
11
19
9
10
27
59
27
17
40
62
64
64
65
65
66
66
66
65
66
43
17
53
66
66
66
66
67
67
67
68
69
69
68
68
68
68
67
67
67
68
69
69
69
68
68
68
68
68
68
68
68
69
63
23
15
38
67
66
66
67
67
68
68
68
69
69
69
70
70
69
70
70
69
69
68
67
67
68
67
66
67
67
67
66
65
65
65
67
41
11
7
5
3
2
2
2
4
4
12
62
64
66
67
67
66
66
65
67
65
63
59
59
58
57
15
0
0
0
0
0
0
0
0
0
0
0
0
0
0
0
0
0
0
0
0
0
0
44
56
44
52
19
8
0
0
0
0
0
0
0
0
0
0
0
0
1
1
3
4
8
10
18
30
33
30
24
28
51
69
69
69
70
71
71
72
72
72
71
73
73
73
74
74
75
75
75
74
75
75
74
74
74
74
74
74
73
73
73
73
73
73
72
73
72
72
72
72
72
71
71
70
70
69
69
68
67
66
61
57
55
54
54
53
52
52
52
53
52
51
51
52
51
51
51
51
51
50
50
50
51
50
50
49
49
50
51
50
50
50
51
51
51
51
51
52
52
52
53
53
52
52
52
52
53
52
52
53
53
52
53
53
53
52
53
52
52
53
53
53
53
53
53
52
52
52
53
52
52
52
52
51
51
51
50
51
51
50
50
50
50
50
49
49
49
50
51
51
49
48
48
48
48
47
47
46
47
46
45
46
44
43
44
50
44
40
37
37
37
35
43
47
41
37
40
37
30
55
57
56
58
57
56
56
57
57
53
57
54
45
43
22
12
14
12
13
35
28
32
54
63
62
64
65
65
64
64
66
65
65
31
22
59
67
66
67
67
68
68
68
68
68
68
67
67
66
67
66
66
66
67
68
69
69
67
66
67
67
67
67
66
68
67
67
34
14
21
62
66
65
65
66
67
67
67
67
66
67
67
68
68
68
68
68
68
67
66
66
67
66
66
66
66
66
66
64
65
64
62
63
17
5
6
4
5
2
2
2
3
3
47
66
65
65
66
66
66
65
66
64
61
60
57
58
59
43
0
0
0
0
0
0
0
0
0
0
0
0
0
0
0
0
0
0
0
0
0
0
33
60
46
12
4
0
0
0
0
0
0
0
0
0
0
0
0
0
0
0
9
16
12
11
15
20
30
34
44
60
67
67
67
68
69
70
70
71
71
71
71
72
71
72
73
73
74
74
73
73
74
74
74
74
73
73
73
73
73
72
73
73
73
73
72
72
72
71
71
71
71
71
70
70
70
68
68
68
67
65
63
56
54
54
54
53
52
52
52
51
51
50
50
50
50
50
50
50
51
50
50
49
50
50
50
50
50
50
50
49
50
50
50
51
50
51
51
51
51
51
51
52
52
52
52
51
52
51
51
52
53
52
52
52
53
52
52
52
52
53
53
53
52
53
52
52
52
51
52
51
51
51
51
50
51
50
50
51
50
50
50
49
49
48
49
49
49
49
50
50
48
48
47
47
47
47
46
46
45
46
45
45
45
46
42
42
40
38
41
39
37
37
48
48
49
46
41
35
28
56
57
56
57
57
57
57
57
57
58
57
58
58
59
57
49
48
19
17
13
20
52
64
62
63
63
64
65
65
65
63
65
62
20
27
66
65
66
66
68
67
68
68
68
68
68
68
67
66
66
65
66
66
66
67
68
67
66
67
66
65
65
65
66
64
65
65
52
16
15
47
65
64
65
65
66
66
66
66
66
66
66
67
67
67
67
67
66
66
66
66
66
65
65
65
65
64
66
65
63
65
63
38
7
6
4
4
37
46
7
3
3
2
29
66
65
66
66
64
65
65
64
64
61
59
58
58
56
57
19
0
0
0
0
0
0
0
0
0
0
0
0
0
0
0
0
0
0
0
0
0
26
54
9
0
0
0
0
0
0
0
0
0
0
0
0
0
0
0
4
7
27
17
13
13
16
28
26
37
44
45
53
67
68
68
68
69
70
69
70
71
71
71
71
72
72
73
74
74
72
72
73
73
73
73
73
73
73
72
72
72
72
72
72
72
71
71
71
71
71
70
70
70
69
69
69
67
67
68
67
66
65
57
55
54
53
52
52
52
51
51
50
50
51
50
50
50
51
51
50
49
50
50
51
50
49
49
49
50
50
49
50
50
50
50
50
50
50
51
51
51
51
51
51
51
51
51
51
51
52
52
52
52
52
51
52
52
52
52
52
52
51
51
51
52
51
51
52
51
51
51
51
51
51
50
50
49
50
50
49
49
49
48
47
48
49
48
49
49
49
48
47
47
46
46
47
46
46
46
47
48
48
53
56
56
52
49
46
36
41
50
36
38
48
48
45
43
39
33
29
55
56
57
57
56
58
56
58
57
58
58
58
57
57
58
58
59
56
54
27
11
21
53
63
64
63
64
64
63
64
66
63
35
18
50
66
66
65
67
68
67
67
67
68
68
67
67
66
65
65
65
65
66
66
66
68
68
66
64
65
65
64
65
64
62
64
63
57
18
14
28
64
62
63
63
63
63
64
65
65
65
65
66
65
65
65
65
64
65
65
65
65
65
65
65
64
64
62
64
64
62
62
19
7
6
6
10
52
63
38
2
0
0
22
63
64
63
63
65
63
63
64
62
60
59
59
55
55
58
39
0
0
0
0
0
0
0
0
0
0
0
0
0
0
0
0
0
0
0
0
0
20
29
0
0
0
0
0
0
0
0
0
0
0
0
0
0
1
1
12
17
27
19
19
26
23
33
23
19
33
48
63
65
67
68
68
68
69
68
69
70
70
69
70
71
71
72
72
73
72
72
72
72
72
72
72
72
72
72
72
72
71
71
71
71
70
71
70
70
70
69
69
69
69
69
68
68
67
67
66
65
61
56
55
54
53
52
52
51
50
51
50
50
50
50
50
50
50
49
49
49
50
50
49
49
50
50
50
49
49
49
49
50
51
50
50
50
50
50
50
51
51
51
50
50
51
51
50
50
51
51
51
51
52
51
52
52
52
52
52
52
51
51
51
52
51
50
51
50
50
50
50
50
50
50
50
50
49
49
49
47
48
49
48
49
49
47
47
48
48
47
47
47
46
46
46
46
45
45
46
47
50
56
58
56
57
56
54
46
36
43
44
34
45
49
41
30
29
29
26
56
54
56
57
56
57
57
57
59
56
58
58
58
60
58
59
59
57
62
47
19
18
17
24
37
59
63
62
65
62
65
55
16
29
65
64
64
65
66
66
66
67
68
68
67
66
66
66
64
65
64
64
64
65
65
67
66
65
64
65
56
53
63
63
64
63
64
51
17
15
15
50
61
61
62
63
63
63
64
63
63
63
64
63
63
64
65
64
65
64
63
64
64
64
64
63
63
63
63
63
62
61
38
5
7
7
6
45
57
60
43
19
14
41
62
61
64
63
62
64
63
63
62
60
59
55
58
55
53
51
2
0
0
0
0
0
0
0
0
0
0
0
0
0
0
0
0
0
0
0
0
7
7
0
0
0
0
0
0
0
0
0
0
0
0
0
0
0
5
23
15
29
25
7
18
21
32
32
34
56
65
65
66
67
67
67
68
68
68
68
69
69
69
69
70
70
70
71
71
71
71
71
71
71
72
72
72
71
71
71
71
71
70
70
70
70
70
69
69
69
68
68
69
68
68
67
67
66
65
65
62
57
56
55
54
54
53
52
51
51
50
49
49
49
49
50
49
49
50
49
48
49
49
50
50
50
49
49
50
50
52
50
50
50
49
50
49
49
49
50
51
51
50
49
50
51
51
51
50
50
51
51
51
52
51
51
51
51
50
50
51
51
51
50
50
50
50
50
50
50
49
50
49
50
49
49
49
49
48
49
47
47
47
47
48
48
47
46
47
46
46
47
47
46
46
46
45
45
44
44
44
49
51
53
54
56
54
54
48
35
35
34
34
40
39
40
30
28
28
25
54
55
55
54
58
57
57
57
56
57
59
58
59
58
59
58
59
60
60
60
57
58
51
22
11
35
60
62
62
63
64
47
18
47
65
64
65
64
65
67
67
66
67
67
66
65
64
63
64
65
64
63
64
64
65
66
65
65
63
53
23
18
49
62
61
63
62
46
14
15
13
26
59
61
62
62
64
63
61
62
62
62
62
62
63
63
63
64
63
63
63
64
63
63
64
64
62
63
62
62
60
61
29
7
5
5
3
31
59
56
59
59
59
61
60
61
61
62
61
62
62
61
61
59
56
57
56
54
55
38
4
0
0
0
0
0
0
0
0
0
0
0
0
0
0
0
0
0
0
0
0
0
0
0
0
0
0
0
0
0
0
0
0
0
0
0
4
5
3
7
11
15
13
12
24
46
53
53
53
63
63
65
65
65
66
66
66
67
67
68
68
69
69
69
69
69
71
71
70
70
71
71
70
70
71
71
70
70
70
70
71
70
70
69
69
70
70
69
69
69
68
68
69
68
67
67
67
66
65
64
59
56
56
54
53
53
52
51
51
51
50
50
50
49
49
49
48
49
48
49
48
48
48
49
49
49
49
48
48
49
53
49
50
49
48
49
49
50
50
50
50
50
50
50
50
50
50
50
50
50
51
52
51
51
50
50
50
50
50
50
50
50
50
49
49
50
49
49
49
48
49
49
48
49
48
50
48
49
48
49
48
48
47
47
47
46
46
46
46
46
46
46
46
45
46
46
45
45
44
44
45
47
44
47
48
47
48
51
52
46
39
36
33
32
31
29
30
29
26
26
54
54
54
55
56
56
56
56
57
57
58
59
58
58
59
59
59
58
60
59
60
61
61
56
35
17
35
54
59
64
61
28
31
63
63
64
64
65
66
66
66
65
65
66
65
65
64
64
63
63
63
62
63
62
63
65
63
65
58
23
18
19
35
62
59
59
59
58
33
12
14
12
29
46
42
39
39
48
60
62
61
60
61
61
62
62
62
62
62
63
62
59
64
62
63
62
60
61
61
62
61
56
15
8
4
5
6
10
53
59
57
58
58
59
60
60
60
61
61
62
60
60
60
58
57
56
55
54
55
41
0
0
0
0
0
0
0
0
0
0
0
0
0
0
0
0
0
0
0
0
0
0
0
0
0
0
0
0
0
0
0
0
0
0
0
0
1
8
8
4
2
7
16
10
8
22
29
28
36
61
63
63
64
65
65
66
66
67
67
67
67
67
68
68
69
68
69
70
70
69
70
69
69
69
70
69
69
70
69
69
69
70
70
69
69
69
69
69
68
68
68
68
68
67
67
68
67
67
66
65
64
59
54
54
53
52
51
51
50
51
50
50
49
49
49
49
49
49
47
48
48
49
48
48
48
48
49
49
48
49
49
49
48
49
49
49
48
49
49
49
50
50
48
50
49
48
49
49
51
50
51
51
50
49
50
50
49
50
49
49
49
49
48
48
49
49
48
48
48
48
48
48
48
47
47
47
47
48
47
46
47
47
46
46
47
46
45
45
46
45
45
46
45
45
45
46
45
45
44
44
47
46
46
46
50
46
47
50
53
53
50
39
34
35
34
30
27
27
27
25
53
53
53
54
55
55
56
56
57
57
57
58
58
59
59
59
59
60
60
59
60
60
61
61
63
48
18
19
42
59
51
20
48
63
64
63
64
65
64
64
65
65
65
66
65
65
63
63
64
62
62
63
62
62
63
62
62
64
39
13
17
17
26
57
57
60
58
59
52
13
12
13
14
15
11
12
11
14
23
32
45
55
61
60
60
61
61
60
61
60
63
46
37
61
61
61
61
61
61
60
58
57
18
8
7
6
5
5
21
39
47
59
57
58
60
59
61
59
59
59
59
60
60
59
57
56
55
54
55
43
0
0
0
0
0
0
0
0
0
0
0
0
0
0
0
0
0
0
0
0
0
0
0
0
0
0
0
0
0
0
0
0
0
0
0
0
0
1
4
0
6
10
16
10
11
21
27
29
44
63
63
64
64
64
64
65
66
66
67
66
68
67
67
67
68
69
69
68
68
68
69
69
69
69
69
69
69
69
69
69
69
69
69
69
69
68
68
68
68
68
67
67
68
68
67
66
66
65
64
64
61
58
58
56
54
52
52
51
50
51
51
50
50
49
49
49
48
48
47
48
48
48
48
49
49
49
50
48
50
48
50
49
48
48
50
49
48
49
48
49
49
49
50
49
50
49
50
49
49
51
48
49
50
50
49
49
49
50
49
49
48
48
48
48
47
47
47
47
47
47
47
47
47
47
47
47
46
47
47
46
46
46
45
45
46
46
45
45
46
45
45
45
44
46
46
45
44
45
46
46
45
44
44
47
47
45
46
50
53
48
47
44
35
35
46
39
33
27
27
25
52
53
53
54
55
55
55
55
55
56
56
58
58
58
58
58
60
59
58
59
60
59
60
60
60
62
50
27
18
19
18
22
58
62
63
62
62
63
64
64
64
63
64
65
63
63
63
63
61
62
61
61
60
61
61
61
61
64
28
12
13
15
21
24
23
35
49
51
25
12
9
10
11
12
12
11
12
12
12
13
13
23
37
52
59
58
59
59
60
58
61
56
46
61
59
59
60
57
59
58
58
59
36
4
4
7
4
8
5
8
7
38
58
57
58
58
58
58
59
59
58
59
58
58
57
56
54
54
53
40
0
0
0
0
0
0
0
0
0
0
0
0
0
0
0
0
0
0
0
0
0
0
0
0
0
0
0
0
0
0
0
0
0
0
0
0
0
0
0
3
6
2
4
8
11
21
24
46
60
60
62
64
62
64
65
65
64
66
65
65
66
67
67
66
67
68
69
69
69
68
69
68
69
68
68
68
69
68
68
68
68
68
68
69
68
68
68
67
67
67
67
66
66
66
67
65
65
64
64
63
59
56
55
55
54
52
52
51
50
50
49
49
49
49
49
48
48
48
47
47
48
48
49
50
50
53
54
58
54
51
49
49
47
47
49
48
48
49
50
50
48
49
48
49
48
50
53
49
48
48
50
49
48
48
48
48
48
48
49
48
47
47
47
47
46
46
46
47
46
46
47
46
46
46
46
46
46
46
46
46
45
45
45
45
45
45
44
45
46
46
45
45
46
45
46
49
49
54
53
49
46
43
42
43
42
43
45
43
45
45
48
50
39
32
37
44
45
42
30
25
50
52
53
54
54
53
54
55
55
56
57
58
57
58
58
58
59
59
59
60
60
58
59
60
60
59
60
63
55
38
18
19
52
62
60
62
62
62
62
63
63
62
63
64
62
61
61
61
61
61
59
61
60
60
60
60
62
55
18
13
14
14
10
13
15
15
13
12
9
10
10
9
9
9
8
9
9
9
10
11
10
11
9
13
36
57
59
58
58
58
59
55
56
59
59
58
57
58
58
57
57
57
53
18
3
5
5
4
7
9
10
9
41
56
57
57
57
57
57
57
59
58
57
57
56
55
54
53
52
37
0
0
0
0
0
0
0
0
0
0
0
0
0
0
0
0
0
0
0
0
0
0
0
0
0
0
0
0
0
0
0
0
0
0
0
0
32
32
1
13
16
9
4
16
32
38
52
56
60
61
62
63
64
63
64
64
65
64
66
64
66
66
66
66
68
68
66
66
67
68
68
67
68
67
67
68
68
68
68
68
68
68
68
67
67
68
68
66
66
66
66
66
66
65
65
65
64
65
65
63
60
57
54
54
55
52
53
51
51
50
51
50
49
48
48
48
47
47
49
48
48
48
47
48
49
55
54
59
57
50
48
48
49
51
48
47
49
48
48
47
49
48
48
48
48
52
53
48
50
52
48
48
48
48
48
47
47
47
47
47
47
47
46
46
46
46
46
46
46
46
46
46
45
46
45
46
45
46
45
45
45
45
45
44
45
45
44
44
45
45
44
44
44
46
44
47
55
57
58
55
54
50
49
46
47
44
40
37
37
37
37
43
41
33
32
43
43
41
35
25
50
51
50
51
52
53
53
53
55
55
56
56
56
56
57
57
57
58
58
58
59
58
58
59
59
60
59
58
59
61
47
17
27
57
61
59
61
60
62
62
62
61
61
61
60
60
60
60
59
60
59
60
59
59
60
60
58
25
12
12
17
41
33
22
13
9
11
9
9
8
7
8
7
8
10
12
9
7
6
8
11
9
9
11
10
23
50
58
58
58
58
53
56
57
56
56
56
57
55
56
56
55
55
49
11
3
2
4
6
8
9
9
10
16
30
49
56
56
56
58
56
56
56
55
54
54
53
51
52
46
3
0
0
0
0
0
0
0
0
0
0
0
0
0
0
0
0
0
0
0
0
0
0
0
0
0
0
0
0
0
0
0
0
0
0
17
27
17
24
30
31
30
16
36
45
55
59
59
59
61
62
61
63
62
63
64
63
65
64
65
64
65
65
65
66
66
66
66
67
67
66
66
67
67
67
67
66
67
66
66
66
66
66
66
66
66
66
66
66
65
66
66
65
65
65
64
63
63
64
63
61
60
56
53
54
54
54
50
50
50
50
49
48
47
48
48
47
47
46
47
48
48
48
48
49
55
54
53
58
54
48
48
47
51
48
50
46
47
49
48
48
47
48
47
49
48
46
48
51
48
48
48
46
47
48
48
48
48
47
47
47
47
46
46
45
45
45
45
45
45
45
45
45
45
45
45
45
45
45
44
44
44
44
44
44
44
44
44
44
44
44
43
44
43
45
47
50
57
56
55
57
56
57
55
55
52
48
47
46
47
41
35
33
32
32
35
39
42
32
24
47
49
50
50
50
51
52
53
53
53
53
54
55
56
56
57
57
56
55
56
58
58
59
59
59
59
59
60
59
58
62
34
16
28
57
61
59
61
60
60
61
61
61
59
58
59
60
59
59
58
58
58
58
58
58
54
26
12
12
10
37
58
58
55
41
17
11
19
16
16
27
27
44
47
47
51
39
33
34
22
10
8
9
8
9
9
14
31
37
40
33
18
43
55
57
56
57
56
57
54
54
56
56
57
50
16
2
3
4
4
4
2
4
5
6
14
40
55
55
55
56
56
55
54
53
53
52
50
48
52
24
0
0
0
0
0
0
0
0
0
0
0
0
0
0
0
0
0
0
0
0
0
0
0
0
0
0
0
0
0
0
0
0
0
0
17
2
12
32
54
51
46
55
49
50
57
58
58
59
61
61
62
62
62
62
62
64
62
64
63
64
64
66
64
64
65
66
66
66
66
66
66
67
66
67
66
65
66
65
66
66
66
66
66
66
65
66
66
65
65
66
66
64
64
64
63
63
62
61
62
61
61
61
56
53
52
53
52
50
49
49
49
48
48
47
47
47
47
46
47
47
47
46
47
47
48
50
51
52
55
48
48
47
47
48
52
47
51
50
48
46
48
47
47
47
48
48
46
47
48
47
46
46
47
48
48
47
46
47
46
46
46
46
46
46
45
45
44
45
45
44
44
45
44
43
43
43
44
44
44
44
44
43
43
44
43
43
44
43
44
44
43
43
45
45
47
55
56
57
56
55
56
55
56
53
54
54
53
51
51
50
47
41
37
32
32
31
31
27
26
47
48
48
49
49
50
51
51
52
53
53
54
54
54
54
54
54
54
54
55
55
56
58
58
57
58
57
58
58
57
57
57
29
14
24
44
58
58
58
59
59
60
59
59
59
59
59
58
57
56
57
56
58
56
44
21
11
12
12
23
54
54
55
56
55
53
48
53
52
53
55
54
56
55
55
54
55
56
54
55
45
16
5
8
7
8
8
6
7
7
9
8
14
25
28
35
41
39
43
46
43
38
36
31
25
20
3
3
4
4
1
2
3
5
4
4
5
17
42
56
55
54
54
53
52
52
51
50
48
50
31
0
0
0
0
0
0
0
0
0
0
0
0
0
0
0
0
0
0
0
0
0
0
0
0
0
0
0
0
0
0
0
0
0
0
16
6
0
31
54
55
56
55
56
56
58
57
59
60
60
61
61
61
62
62
63
63
64
63
64
63
63
63
64
64
65
64
64
64
65
65
65
65
65
65
64
64
64
65
65
65
65
65
65
65
64
65
65
64
64
65
64
63
63
63
62
62
61
60
61
61
60
59
59
59
56
53
50
48
49
48
48
48
48
47
46
46
46
47
47
46
46
46
47
46
46
47
48
46
47
47
45
48
47
47
48
49
54
46
46
50
51
50
51
47
48
52
49
49
48
48
45
46
48
47
47
47
46
45
45
45
45
45
45
45
45
44
44
44
44
44
44
44
44
43
43
43
43
43
44
44
43
42
43
43
43
43
44
43
43
42
42
44
43
44
46
51
54
56
57
57
56
55
56
54
53
53
52
52
51
50
49
48
45
36
32
33
28
27
26
46
45
47
46
47
48
50
50
50
51
52
52
52
52
52
53
53
54
53
53
54
55
55
56
55
56
57
58
58
56
58
57
54
28
15
18
29
44
56
57
58
58
57
58
58
57
58
57
56
57
56
56
53
28
12
11
12
10
22
53
55
54
55
54
55
54
57
54
56
54
55
56
55
54
55
54
54
54
55
53
55
50
26
7
5
6
6
6
7
6
8
8
8
8
10
9
9
8
6
8
6
5
3
3
1
1
4
2
1
0
1
2
2
3
1
3
4
5
9
30
54
55
55
54
53
51
49
49
49
49
21
0
0
0
0
0
0
0
0
0
0
0
0
0
0
0
0
0
0
0
0
0
0
0
0
0
0
0
0
0
0
0
0
0
2
7
0
22
54
54
53
54
56
56
56
56
57
58
59
59
60
60
62
61
62
61
62
61
62
62
62
64
63
64
63
63
63
65
64
64
65
64
65
64
64
64
64
64
64
64
64
64
64
64
64
64
63
64
64
64
64
63
63
63
61
62
61
61
61
60
61
60
59
57
55
55
53
50
47
50
47
47
47
47
46
46
45
45
46
46
46
47
46
45
45
46
47
45
46
47
45
48
46
47
46
46
48
47
46
48
53
51
48
48
48
48
52
51
48
47
46
47
53
56
51
45
45
46
44
45
45
45
44
43
43
43
44
44
44
43
44
44
43
44
43
44
44
43
43
43
43
42
43
43
43
42
42
43
43
43
43
44
44
44
44
43
50
56
57
56
56
56
56
54
56
53
54
51
51
51
50
47
47
46
42
32
29
27
26
26
43
44
44
45
46
47
48
48
48
49
50
50
51
51
52
51
50
52
52
52
53
52
54
54
55
55
55
55
56
55
55
54
55
54
38
22
18
15
38
56
55
55
57
55
56
56
57
55
55
54
53
55
33
11
12
12
11
35
52
54
54
55
53
55
54
54
54
53
54
54
54
54
54
54
55
54
54
54
53
53
53
53
54
45
19
5
7
5
6
5
6
6
5
7
7
6
6
7
5
4
3
4
4
2
3
1
2
0
0
0
1
3
1
0
1
2
1
4
4
5
20
25
24
24
31
40
44
40
35
29
0
0
0
0
0
0
0
0
0
0
0
0
0
0
0
0
0
0
0
0
0
0
0
0
0
0
0
0
0
0
0
0
0
0
15
22
18
48
52
53
53
53
54
55
55
56
57
57
58
58
58
59
60
59
60
61
61
61
61
61
61
63
62
63
63
63
63
63
63
63
64
62
63
63
63
63
64
63
63
63
63
64
63
63
63
63
63
63
63
63
62
62
62
61
62
61
60
60
60
60
60
59
58
57
54
49
49
49
48
48
47
46
46
46
45
46
46
46
46
45
46
46
46
46
46
45
45
46
46
45
46
45
45
46
46
46
47
46
47
47
48
46
47
47
47
47
46
46
47
46
47
49
54
56
51
47
45
45
44
43
43
44
44
43
43
44
43
42
43
42
44
42
42
44
42
42
42
43
45
44
44
44
42
42
42
43
43
42
42
43
42
42
42
44
43
44
49
55
55
55
55
55
54
54
54
53
52
51
50
51
49
47
47
46
44
40
30
27
25
24
41
42
43
42
43
45
46
45
45
46
48
49
49
49
49
49
49
49
50
50
51
51
52
52
52
53
54
53
53
53
53
53
55
53
55
51
33
19
15
32
53
55
55
56
54
55
53
54
54
55
56
41
16
12
9
15
24
51
54
54
54
52
55
53
53
53
53
53
54
53
54
55
54
54
54
54
55
54
53
53
53
53
53
53
53
37
11
9
8
5
4
3
4
3
4
4
3
5
4
4
3
4
4
4
1
1
0
0
0
0
0
1
0
1
1
1
1
3
3
3
1
0
0
0
1
4
3
0
0
0
0
0
0
0
0
0
0
0
0
0
0
0
0
0
0
0
0
0
0
0
0
0
0
0
0
0
0
0
0
0
0
0
0
0
22
48
53
51
52
53
53
54
55
54
55
55
57
58
58
58
58
58
59
59
60
60
60
60
60
61
61
61
61
61
62
62
62
63
63
63
62
63
63
62
63
62
62
63
63
63
63
63
62
63
63
62
63
63
63
62
61
62
61
61
60
61
60
60
60
59
59
59
56
53
51
48
48
48
48
47
47
46
46
45
45
45
46
45
45
45
45
46
45
45
46
46
46
46
45
44
45
46
46
46
46
46
46
47
46
47
47
47
46
46
46
46
46
46
47
47
46
49
56
55
50
46
44
44
44
45
43
43
44
44
43
42
45
48
45
44
42
42
43
42
43
43
42
43
45
44
44
42
42
43
42
42
43
42
42
43
42
43
43
42
45
50
55
56
55
56
55
55
55
54
53
54
52
51
51
50
49
48
46
45
44
43
39
29
24
23
39
40
40
41
42
43
42
44
44
45
47
48
47
48
49
48
50
48
50
50
49
50
50
50
51
52
53
52
53
52
52
52
52
53
51
53
55
39
15
16
30
51
52
53
53
52
54
53
53
49
36
15
12
9
22
47
52
51
52
52
52
54
52
52
54
53
53
53
54
53
53
54
53
53
53
54
54
53
54
54
54
54
53
52
51
52
50
46
46
40
34
25
21
15
13
12
7
5
1
2
2
1
1
4
1
0
2
5
5
3
1
0
0
1
0
0
1
2
1
2
0
0
0
0
0
0
0
0
0
0
0
0
0
0
0
0
0
0
0
0
0
0
0
0
0
0
0
0
0
0
0
0
0
0
0
0
0
0
0
0
0
0
0
0
22
49
50
53
53
53
53
53
54
55
55
57
56
57
57
58
59
58
57
58
59
59
59
59
59
59
60
59
60
61
61
61
61
61
61
61
62
61
61
61
62
62
62
62
62
62
62
62
61
62
62
62
62
61
63
61
61
61
60
61
59
60
60
59
59
58
58
58
59
56
54
50
49
49
47
46
46
45
45
46
45
46
46
45
45
45
45
45
45
45
46
46
45
45
45
45
45
45
45
46
46
45
46
46
47
46
47
46
46
46
46
46
46
46
46
46
46
43
49
55
55
47
44
44
45
43
44
42
42
43
42
44
46
50
48
45
43
45
47
45
43
42
42
43
44
43
42
41
41
42
42
43
44
43
41
42
42
42
43
45
53
55
56
55
54
55
54
54
54
53
53
53
52
51
51
49
48
48
46
45
43
42
41
32
26
24
38
37
38
39
41
41
41
43
43
44
45
46
46
46
46
46
48
47
48
48
48
49
51
51
51
51
52
52
52
52
51
51
52
50
50
50
49
52
37
13
15
29
50
52
52
52
51
52
47
17
10
13
10
28
48
52
50
51
52
53
52
52
53
52
53
52
53
53
53
53
53
53
52
53
53
54
53
53
55
54
54
53
51
52
53
50
50
52
51
51
52
50
51
49
49
49
44
39
30
26
29
30
21
9
21
35
42
42
44
31
38
21
5
0
2
1
0
2
0
0
0
0
0
0
0
0
0
0
0
0
0
0
0
0
0
0
0
0
0
0
0
0
0
0
0
0
0
0
0
0
0
0
0
0
0
0
0
0
0
0
0
0
0
3
27
45
49
52
51
52
53
53
54
54
55
55
56
56
56
56
57
57
57
58
57
58
58
58
59
59
59
60
60
60
61
61
61
61
60
60
60
60
61
61
60
60
61
61
61
61
61
62
61
61
61
61
61
60
61
60
60
60
59
58
58
59
59
58
58
58
57
57
57
57
56
51
49
48
46
45
46
45
46
46
45
45
45
44
44
44
45
45
45
44
45
45
46
45
45
45
45
46
45
46
47
50
47
52
52
50
49
48
47
47
47
46
45
45
45
45
46
46
45
49
53
47
47
49
44
44
48
48
46
46
42
44
45
44
44
42
48
51
52
47
43
41
41
44
43
41
42
42
41
41
41
41
41
41
41
42
43
45
48
49
55
54
54
55
55
55
54
55
54
53
53
52
52
51
49
49
48
46
46
45
44
41
40
33
26
23
36
36
37
37
38
40
41
42
41
41
42
43
43
44
44
45
46
45
44
45
47
47
49
49
49
49
49
49
49
50
49
50
49
50
51
49
50
48
49
24
12
13
26
40
49
48
47
31
16
11
9
11
34
49
51
50
50
51
51
51
52
51
51
53
51
52
52
51
51
51
53
52
51
52
52
52
54
54
53
53
54
52
53
53
52
53
51
51
50
50
50
49
49
49
48
47
48
48
50
50
51
48
48
46
49
49
49
48
47
50
49
50
44
21
2
0
0
0
0
0
0
0
0
0
0
0
0
0
0
0
0
0
0
0
0
0
0
0
0
0
0
0
0
0
0
0
0
0
0
0
0
0
0
0
0
0
0
0
0
0
0
0
0
24
48
48
49
50
52
53
53
52
53
54
55
56
55
56
56
55
55
57
57
58
57
58
58
58
59
58
59
59
59
59
59
60
60
60
60
60
59
60
60
59
60
60
59
60
61
60
60
61
61
60
60
59
59
59
59
59
60
58
58
57
58
58
58
58
57
57
57
56
56
56
55
52
49
48
46
46
45
44
44
44
44
44
44
44
43
44
44
45
45
45
46
47
45
45
45
45
45
45
45
46
49
54
51
54
55
56
56
57
56
55
52
50
49
50
51
53
51
47
44
44
44
45
51
47
42
47
49
51
50
49
46
43
42
41
42
42
47
48
48
48
44
43
42
41
41
43
44
41
39
40
41
41
41
41
41
42
47
51
54
54
55
55
55
55
54
55
54
53
53
53
52
52
51
50
49
49
49
47
45
45
42
41
40
36
29
23
33
34
35
35
36
37
37
38
39
40
41
41
40
41
42
43
44
44
42
43
45
44
46
46
47
47
47
47
47
48
48
48
47
46
47
46
47
49
46
47
37
14
14
23
24
23
16
9
8
9
20
39
51
48
48
49
51
50
49
50
49
50
52
50
51
50
51
51
51
51
51
51
51
51
51
51
52
52
52
53
52
52
53
53
51
52
52
50
51
50
50
50
49
48
48
47
48
47
48
47
47
47
49
48
47
48
45
48
48
47
48
47
48
48
42
25
10
0
0
0
0
0
0
0
0
0
0
0
0
0
0
0
0
0
0
0
0
0
0
0
0
0
0
0
0
0
0
0
0
0
0
0
0
0
0
0
0
0
0
0
0
0
0
40
48
48
48
49
51
52
52
53
53
53
54
54
55
55
55
55
55
56
56
56
57
56
58
59
57
57
59
58
58
58
58
59
59
59
60
60
59
59
58
58
59
60
59
59
59
59
59
59
59
59
59
58
59
60
59
59
58
56
57
57
58
57
57
57
56
56
56
56
52
51
51
50
47
46
46
45
45
44
44
43
43
43
43
43
43
43
44
44
44
45
48
51
49
48
46
44
44
45
45
44
47
54
56
54
55
55
55
55
56
56
56
56
56
56
57
57
56
53
48
44
45
44
43
42
43
49
50
47
44
42
41
42
41
43
41
45
44
43
46
51
47
42
40
43
42
41
41
42
41
40
40
41
41
40
41
44
51
53
53
54
54
55
54
54
53
53
53
53
53
52
52
51
51
49
50
48
48
47
45
45
43
42
39
38
30
22
32
33
34
35
34
33
34
37
37
38
39
39
39
40
41
41
42
42
41
42
43
42
42
43
44
44
44
46
46
47
46
45
44
44
45
44
45
45
45
47
48
41
23
14
10
9
9
9
18
34
47
49
46
48
49
49
49
48
48
48
49
48
49
50
50
49
49
49
50
49
49
50
50
49
50
51
50
50
51
51
52
51
51
49
50
51
49
50
50
49
49
48
48
47
47
47
48
48
47
48
47
48
48
48
47
47
48
48
47
48
47
47
47
45
46
46
44
39
26
18
0
0
0
0
0
0
0
0
0
0
0
0
0
0
0
0
0
0
0
0
0
0
0
0
0
0
0
0
0
0
0
0
0
0
0
0
0
0
0
0
0
0
3
46
45
47
48
50
51
51
51
52
53
53
54
55
55
54
54
54
55
55
55
55
56
56
57
58
57
57
58
57
57
57
58
58
58
58
58
58
58
57
58
59
57
58
58
58
58
58
59
59
58
59
59
58
58
58
58
57
58
56
57
58
57
57
57
57
57
56
55
55
52
49
48
48
46
46
45
44
45
44
43
43
43
43
43
43
43
43
43
44
45
47
49
52
53
54
52
49
46
44
45
46
44
52
55
55
53
56
54
55
55
55
55
55
55
55
55
55
54
55
54
50
45
43
42
42
41
42
42
41
41
41
39
44
45
46
43
49
48
48
45
46
41
40
40
40
40
40
40
40
40
40
41
41
41
41
41
44
45
50
53
54
54
54
53
53
53
52
53
53
51
51
51
50
51
49
48
47
46
46
45
44
41
40
40
38
31
21
31
33
32
31
31
32
34
35
36
36
37
38
38
39
39
39
40
39
39
39
40
41
40
42
42
43
43
44
44
44
43
43
44
45
43
43
43
44
44
44
45
45
46
42
34
29
30
38
45
46
45
46
47
47
46
48
46
46
47
47
48
47
48
48
48
48
49
49
49
49
49
49
48
49
49
48
49
50
49
49
50
50
49
48
48
48
48
49
49
48
48
46
47
46
47
47
48
47
46
48
47
48
47
49
47
48
48
46
48
47
48
47
46
46
44
44
42
44
45
46
38
20
0
0
0
0
0
0
0
0
0
0
0
0
0
0
0
0
0
0
0
0
0
0
0
0
0
0
0
0
0
0
0
0
0
0
0
0
0
0
0
0
14
44
46
47
48
49
49
50
51
52
52
53
53
52
53
54
53
54
54
54
54
55
54
55
55
55
56
57
56
56
57
57
57
57
57
57
57
57
57
57
57
58
57
58
57
58
59
57
57
57
57
57
58
57
57
56
58
57
57
57
56
57
57
56
56
56
57
56
55
54
54
51
46
45
45
45
45
45
44
43
43
43
42
42
42
42
42
42
42
43
46
47
48
49
49
52
53
54
53
48
46
46
47
52
55
54
55
55
56
55
55
54
54
55
55
55
55
53
54
56
53
53
51
50
47
44
42
41
40
41
41
41
42
45
44
44
44
44
42
42
40
40
41
41
41
40
40
40
39
41
39
40
40
40
41
42
42
45
49
51
53
53
53
52
52
53
51
52
52
51
51
50
50
51
50
48
47
47
45
44
44
42
41
40
38
32
29
21
31
31
32
33
34
32
31
32
33
35
35
37
37
37
37
36
38
38
38
37
39
40
39
40
39
41
42
42
42
43
41
44
43
43
43
44
44
42
43
42
43
42
44
45
45
44
44
45
41
41
44
45
45
46
47
44
45
44
46
46
46
46
46
46
46
46
46
48
47
46
48
48
46
47
48
49
48
47
47
48
47
48
48
49
49
48
47
48
48
46
47
46
45
46
45
46
46
46
46
46
46
47
48
47
47
46
47
48
47
47
46
47
46
46
46
44
44
45
43
42
42
42
36
16
0
0
0
0
0
0
0
0
0
0
0
0
0
0
0
0
0
0
0
0
0
0
0
0
0
0
0
0
0
0
0
0
0
0
0
0
0
0
19
44
45
46
47
49
49
51
51
51
50
51
51
51
51
51
52
52
53
53
54
54
54
54
54
54
55
55
55
55
54
56
55
56
56
56
56
56
56
56
56
56
56
57
56
56
57
57
58
57
57
56
57
56
56
56
56
56
56
57
56
57
56
56
55
55
55
54
54
53
52
50
47
45
45
44
44
44
43
43
42
42
42
42
41
41
41
41
43
42
43
44
46
45
51
51
52
53
54
53
53
53
53
54
53
54
55
54
54
55
54
53
54
54
54
54
54
53
54
53
53
52
52
52
51
51
49
47
44
42
41
41
41
41
40
40
41
41
41
40
40
40
40
47
43
39
40
40
40
40
40
39
40
41
41
42
42
50
53
53
52
52
52
52
52
52
51
51
51
51
50
49
49
48
48
47
47
46
45
43
42
41
40
38
35
28
26
23
29
29
31
33
32
32
34
34
33
33
33
36
36
36
35
35
37
37
37
39
38
39
37
39
40
41
41
42
42
43
42
43
43
43
43
44
43
42
42
41
42
41
41
42
42
42
42
42
41
43
43
43
45
44
44
43
42
42
43
43
44
45
44
44
44
45
45
46
45
44
46
45
44
46
47
46
46
46
47
46
46
48
47
46
45
46
46
46
46
46
46
46
46
46
45
43
45
44
46
45
46
45
46
45
47
45
46
46
46
46
45
44
45
44
45
45
44
43
43
42
42
41
41
40
16
0
0
0
0
0
0
0
0
0
0
0
0
0
0
0
0
0
0
0
0
0
0
0
0
0
0
0
0
0
0
0
0
0
0
0
0
20
41
44
45
46
47
47
48
49
49
49
49
50
51
51
51
51
52
51
51
52
53
52
53
54
54
54
54
54
54
54
54
55
55
56
56
55
55
55
54
55
55
55
55
56
56
56
56
55
55
55
55
54
55
55
55
56
56
55
55
56
55
55
55
55
54
54
54
54
53
52
53
51
48
45
43
44
44
43
43
42
42
41
41
41
41
41
41
41
41
42
43
44
44
45
48
50
52
52
53
53
54
54
53
54
53
54
54
53
53
53
54
54
54
54
54
54
53
53
52
52
53
52
52
52
51
50
50
51
49
47
47
47
44
41
41
40
40
40
41
40
40
39
40
47
44
40
41
40
40
41
43
45
40
40
43
44
45
49
52
52
52
52
51
51
51
51
51
51
50
50
49
49
48
48
48
47
46
45
44
43
41
40
40
38
37
30
23
21
27
29
30
30
31
31
32
34
33
33
34
34
35
36
34
33
37
36
38
38
39
38
38
39
39
39
39
40
39
40
40
40
40
41
41
42
42
41
41
41
40
40
41
41
40
39
40
40
40
41
39
41
41
43
41
41
41
41
42
41
42
42
41
41
42
42
42
43
43
43
43
44
44
43
43
43
45
43
44
45
45
45
44
45
45
45
45
46
45
46
44
45
45
45
45
44
43
44
44
46
45
46
45
45
45
45
46
46
44
45
44
44
44
44
44
43
43
43
43
43
42
40
42
40
40
36
5
0
0
0
0
0
0
0
0
0
0
0
0
0
0
0
0
0
0
0
0
0
0
0
0
0
0
0
0
0
0
0
0
0
0
31
43
42
43
47
46
47
47
48
49
48
49
49
49
49
50
50
50
50
50
51
51
52
51
53
52
52
53
53
54
54
54
54
55
56
54
54
54
54
54
55
55
54
54
54
55
55
54
54
54
54
55
55
56
55
54
54
54
54
55
54
54
55
54
54
54
54
53
53
53
53
53
51
50
45
42
43
43
42
43
42
41
41
41
41
41
41
41
40
42
41
43
41
43
44
44
48
52
53
53
53
53
52
52
53
52
53
53
53
53
53
52
52
53
53
53
52
52
52
52
53
51
51
51
51
51
51
49
48
47
47
47
48
47
46
45
45
44
47
42
42
40
40
45
46
44
40
38
40
41
40
46
49
43
43
47
49
51
52
51
51
51
51
51
51
51
51
50
50
50
49
49
48
47
46
47
45
45
44
43
43
41
39
38
38
36
30
22
20
25
26
28
29
29
30
32
31
32
32
32
33
34
34
32
33
37
38
37
38
37
39
38
39
39
39
40
42
41
40
39
40
41
42
41
42
42
41
40
39
40
40
38
38
38
39
40
39
39
38
38
38
39
40
40
39
39
40
39
39
40
41
42
43
41
40
41
41
41
40
40
42
44
43
41
41
42
42
42
43
42
41
42
44
45
44
42
42
41
43
42
44
45
44
44
43
44
43
45
43
45
45
46
44
46
44
45
45
45
45
44
44
43
43
43
42
43
43
43
42
40
41
41
40
40
39
38
6
0
0
0
0
0
0
0
0
0
0
0
0
0
0
0
0
0
0
0
0
0
0
0
0
0
0
0
0
0
0
0
0
26
38
41
42
44
44
45
46
46
48
49
48
49
48
49
48
49
49
50
51
51
50
50
51
52
53
52
53
54
53
53
53
53
54
54
54
53
54
54
54
54
55
54
55
54
53
53
54
54
53
53
53
54
55
55
54
54
54
52
52
54
50
52
53
52
53
53
53
53
53
52
53
51
50
50
46
43
43
42
43
42
42
42
41
40
40
41
41
41
42
41
42
40
41
41
43
44
46
51
51
51
51
52
52
52
52
52
52
52
52
53
52
52
52
53
52
51
51
51
51
51
51
51
50
51
51
50
50
49
47
47
47
46
47
46
47
48
46
47
47
48
46
46
46
49
48
49
47
43
44
48
47
49
50
48
48
50
51
51
50
51
51
51
51
51
51
50
50
51
51
49
48
48
47
47
46
45
45
44
43
42
41
40
39
37
38
33
29
24
20
23
24
25
26
27
28
29
28
28
28
28
29
32
33
32
33
34
33
35
34
37
37
38
37
38
39
39
39
38
39
40
39
39
40
40
40
41
42
41
40
40
40
39
39
39
38
38
37
36
37
37
40
37
39
37
38
39
38
36
36
38
40
40
40
40
39
39
40
41
40
38
39
39
39
41
42
44
41
41
39
40
40
39
39
41
42
42
42
41
42
41
41
42
42
42
43
42
43
43
43
42
45
44
43
44
43
44
44
44
44
44
44
44
42
43
43
43
42
42
41
43
41
41
39
40
38
38
32
0
0
0
0
0
0
0
0
0
0
0
0
0
0
0
0
0
0
0
0
0
0
0
0
0
0
0
0
0
0
0
0
28
41
42
43
41
45
44
44
45
45
47
46
48
47
48
47
48
49
49
49
50
49
49
51
50
51
50
52
52
51
52
52
52
52
52
52
53
54
53
53
53
53
53
54
53
52
52
52
53
51
51
53
53
53
52
53
53
53
51
51
52
49
51
53
52
51
51
51
52
52
51
51
50
50
49
46
44
42
42
42
41
40
40
40
40
40
40
40
41
40
41
40
41
41
42
41
42
44
49
51
51
51
52
51
52
52
52
52
52
52
52
52
51
51
51
51
51
51
51
51
51
51
50
50
50
50
50
50
47
47
48
48
46
47
46
46
46
46
46
47
47
47
47
49
49
48
48
48
48
49
49
50
50
49
50
50
50
51
50
50
51
50
50
50
51
51
50
49
49
49
49
49
48
47
45
44
45
44
44
43
41
40
38
38
37
36
34
32
25
19
22
25
25
24
26
26
25
26
25
27
27
28
30
31
34
33
32
33
33
35
34
35
34
36
36
37
37
36
36
38
39
39
39
39
39
39
39
41
41
40
39
39
39
38
37
38
39
39
39
37
38
37
37
35
36
38
37
37
37
37
37
36
37
38
39
38
38
38
39
39
38
38
37
39
39
38
39
39
40
39
41
41
40
40
40
40
40
40
40
41
41
40
41
41
40
40
40
40
42
41
43
42
43
42
42
42
43
44
43
42
43
43
43
42
43
43
43
42
41
41
40
41
39
41
37
39
37
37
7
0
0
0
0
0
0
0
0
0
0
0
0
0
0
0
0
0
0
0
0
0
0
0
0
0
0
0
0
0
0
5
38
40
41
40
45
42
43
43
44
45
45
45
47
47
47
47
47
48
48
48
49
49
49
50
48
49
49
49
50
50
52
51
52
51
51
51
52
52
51
52
51
51
51
52
52
52
51
50
51
51
51
52
52
52
52
53
51
52
50
50
51
48
51
51
52
51
51
51
51
51
50
50
50
50
48
44
43
42
42
41
40
40
40
40
40
40
40
40
40
40
39
41
39
41
40
40
43
45
49
50
49
50
51
51
52
51
51
51
51
50
50
51
50
51
51
51
50
50
50
50
50
51
51
51
51
50
50
49
47
47
47
47
46
46
46
46
46
45
46
44
49
47
48
47
47
48
48
48
48
48
47
50
49
50
49
49
50
50
51
51
51
50
50
50
50
50
49
49
48
48
47
46
46
46
45
44
44
43
42
42
40
39
37
37
36
35
34
32
25
19
22
22
24
24
24
26
27
27
28
27
27
28
30
29
30
32
31
31
33
32
33
31
33
35
33
31
33
35
36
35
35
37
38
38
39
39
39
39
39
38
38
37
36
37
37
37
37
36
37
36
37
39
39
37
36
37
38
37
37
38
37
37
37
35
35
36
35
35
36
36
35
35
37
37
36
37
38
37
38
40
39
39
38
39
39
38
38
39
38
38
39
38
38
38
38
38
39
40
41
41
41
42
41
41
42
40
40
40
40
40
40
39
40
41
42
40
41
42
40
40
38
41
39
38
39
37
36
37
18
0
0
0
0
0
0
0
0
0
0
0
0
0
0
0
0
0
0
0
0
0
0
0
0
0
0
0
0
0
0
9
39
40
41
42
42
42
43
44
44
44
44
45
45
45
46
47
46
47
48
49
49
50
50
50
49
49
50
50
50
50
51
50
51
51
52
52
51
50
49
50
51
50
51
51
51
51
50
49
51
52
52
51
51
52
51
51
50
51
48
50
50
49
52
52
51
51
51
51
50
50
49
49
50
48
47
43
42
42
41
41
41
40
39
39
40
40
40
39
39
38
39
40
40
40
40
41
40
43
46
47
49
49
50
51
51
50
50
50
51
50
49
51
49
50
50
51
50
50
50
50
50
49
49
49
49
49
49
48
46
46
45
46
45
45
45
45
45
46
45
46
46
47
47
48
48
48
48
48
49
49
49
49
48
50
50
50
50
50
50
50
49
49
50
49
49
48
48
47
47
47
46
46
46
45
44
43
43
42
41
41
39
39
37
36
35
33
32
29
24
18
21
21
21
20
21
24
24
25
27
24
24
23
26
28
28
28
28
28
29
29
28
28
30
30
29
28
29
30
31
32
32
33
36
35
35
37
35
34
34
34
34
34
35
36
36
36
36
36
36
33
36
36
37
37
38
37
38
37
38
37
35
35
38
36
36
35
34
34
34
34
34
33
33
37
36
35
35
36
37
37
34
36
36
36
36
36
35
35
35
37
37
37
37
36
37
39
37
38
40
39
40
41
41
39
39
40
40
40
39
38
39
38
38
37
39
39
40
40
40
38
38
39
38
38
37
37
35
34
23
0
0
0
0
0
0
0
0
0
0
0
0
0
0
0
0
0
0
0
0
0
0
0
0
0
0
0
0
0
0
15
39
38
39
42
41
43
43
44
44
44
43
45
45
46
45
46
48
47
47
47
47
48
50
49
50
48
49
49
48
49
50
50
50
50
52
52
50
51
50
50
51
50
50
51
51
51
50
50
51
51
50
50
51
52
51
51
52
52
48
50
49
48
51
51
51
50
51
50
50
50
49
49
48
46
47
43
41
41
40
41
41
40
39
39
39
39
39
39
38
38
38
39
39
39
38
39
39
41
41
43
48
49
48
49
50
49
50
49
51
50
49
51
49
49
48
49
50
49
49
49
48
48
49
49
48
49
48
47
45
46
45
45
45
46
46
45
45
45
45
46
46
47
47
47
48
47
48
48
48
49
49
48
49
48
49
49
48
48
49
50
49
49
50
49
48
47
47
47
48
47
46
45
45
44
43
42
41
41
40
39
38
37
36
34
34
32
32
27
22
16
18
19
19
19
20
22
22
23
23
22
21
21
23
24
22
24
25
28
28
27
27
28
29
29
29
30
30
30
30
32
32
32
33
32
33
33
31
32
32
33
32
30
31
31
33
30
33
34
33
32
33
33
34
32
34
34
33
33
34
34
35
33
33
31
31
30
32
33
33
33
31
32
33
32
32
32
34
33
34
33
33
34
34
36
36
32
32
33
33
35
34
35
33
34
35
36
37
39
36
37
39
39
39
39
39
40
39
37
38
38
38
37
38
37
38
38
37
38
36
37
37
37
36
37
36
34
33
33
26
0
0
0
0
0
0
0
0
0
0
0
0
0
0
0
0
0
0
0
0
0
0
0
0
0
0
0
0
0
0
20
38
38
39
38
41
40
43
42
42
41
42
44
45
44
45
45
46
46
47
46
46
47
48
47
48
48
47
47
48
48
48
48
48
48
49
49
49
49
49
50
49
49
49
49
49
49
50
50
50
51
50
50
51
51
51
51
50
51
47
48
49
48
50
50
50
51
51
50
50
48
49
48
47
46
44
42
41
41
40
40
40
39
39
39
37
38
38
38
37
38
38
37
37
38
39
40
39
41
41
42
46
47
47
48
48
50
49
49
47
49
47
49
48
48
42
46
48
48
49
47
48
47
48
48
47
47
47
46
45
45
45
46
44
46
44
46
45
44
45
45
45
46
45
47
46
47
47
47
48
48
49
48
49
48
48
48
48
48
48
48
49
48
49
48
48
47
47
46
46
45
44
44
44
43
43
41
40
40
38
38
37
36
35
34
32
31
30
27
19
17
18
20
20
19
20
22
22
22
21
21
24
20
20
21
23
23
22
24
26
27
28
29
30
28
30
30
29
29
30
29
29
29
30
30
31
31
29
29
28
29
29
27
27
27
29
27
28
28
29
30
31
28
29
29
31
30
29
30
32
33
34
30
29
29
30
29
31
30
31
30
30
31
32
30
28
30
32
31
31
30
30
33
32
30
29
29
29
28
31
31
31
33
32
32
33
35
35
35
35
36
35
36
38
36
37
37
38
35
36
38
37
36
37
37
37
36
37
38
36
35
36
37
35
35
35
33
33
31
32
9
0
0
0
0
0
0
0
0
0
0
0
0
0
0
0
0
0
0
0
0
0
0
0
0
0
0
0
0
0
4
34
37
37
39
39
40
39
41
41
41
42
42
42
43
45
45
45
45
46
45
45
45
47
48
48
47
47
47
47
47
47
48
49
48
48
49
49
48
47
48
48
49
48
48
48
48
49
49
50
50
51
50
50
50
51
49
50
50
46
48
48
47
50
50
50
50
49
48
47
47
48
48
47
47
45
42
40
39
39
39
39
38
38
39
38
38
37
37
37
37
37
37
37
37
37
38
39
39
40
42
47
45
46
47
45
46
47
47
49
47
47
46
46
47
43
44
48
47
46
47
47
47
47
45
46
45
46
45
46
45
44
44
44
44
43
44
45
44
44
46
45
44
46
46
46
46
47
46
47
47
47
48
49
49
48
48
47
47
47
48
47
47
47
47
47
46
46
45
45
45
44
43
43
41
40
39
39
39
37
36
35
35
33
32
31
30
29
26
19
17
15
16
18
18
19
20
21
20
19
20
20
21
19
21
21
20
21
22
22
21
21
25
28
29
28
28
27
27
27
28
27
26
26
28
28
28
28
30
28
27
26
24
24
24
26
26
25
25
24
26
25
23
25
25
26
26
26
28
28
28
28
28
27
27
31
29
30
30
31
30
27
26
24
27
27
28
28
28
29
29
31
29
29
30
30
29
27
27
27
28
28
32
33
33
34
36
36
36
33
34
35
36
36
36
37
37
37
36
34
36
34
34
36
35
35
35
35
35
34
33
32
34
34
33
32
31
32
31
31
11
0
0
0
0
0
0
0
0
0
0
0
0
0
0
0
0
0
0
0
0
0
0
0
0
0
0
0
0
0
0
28
38
36
38
39
40
38
39
40
41
41
41
40
41
42
43
42
43
45
46
45
44
44
44
44
45
45
45
45
44
44
45
46
46
47
47
47
47
48
48
47
49
48
48
49
48
49
49
49
48
49
50
49
48
48
49
50
49
46
48
47
47
49
49
49
48
48
48
45
47
48
46
45
44
43
41
40
40
39
38
39
38
38
38
37
37
36
37
36
36
36
36
36
36
36
37
37
38
39
43
45
46
44
46
41
43
47
46
45
45
41
45
45
46
43
43
46
46
46
45
45
45
45
46
45
45
46
44
44
44
45
44
44
44
44
44
43
45
44
44
45
45
46
45
45
45
45
45
47
46
46
46
46
47
47
46
47
46
47
48
47
47
47
46
46
46
45
45
45
45
43
43
42
41
40
40
38
37
36
35
34
34
32
31
31
30
28
25
18
15
14
14
15
17
17
18
20
20
21
21
20
20
22
20
21
19
21
22
23
20
20
21
23
22
26
26
25
27
27
27
27
27
27
27
25
24
25
26
23
22
25
25
25
25
25
24
23
23
23
24
24
24
26
25
24
24
24
25
24
23
26
26
26
27
27
28
27
28
27
27
25
24
24
25
24
25
26
26
25
27
25
27
29
28
27
29
29
28
27
28
28
31
32
32
34
36
35
34
33
33
31
32
35
34
34
33
34
33
34
32
34
35
36
35
36
36
34
34
35
35
33
34
33
31
32
30
31
30
32
10
0
0
0
0
0
0
0
0
0
0
0
0
0
0
0
0
0
0
0
0
0
0
0
0
0
0
0
0
0
0
30
36
35
35
38
39
40
39
39
40
41
41
41
41
42
44
44
43
44
44
44
43
44
44
44
44
45
44
44
44
45
44
44
46
46
46
45
46
47
46
47
48
47
47
47
47
48
47
47
49
49
47
47
49
49
49
49
48
45
47
46
46
49
49
48
48
47
47
43
46
46
42
42
41
40
40
39
40
39
38
38
37
37
37
37
36
36
37
36
36
36
35
35
35
36
36
38
40
46
45
46
44
46
46
42
42
45
45
45
44
39
43
43
43
41
40
43
44
45
44
45
45
43
44
44
44
44
45
44
43
43
43
44
44
43
44
44
43
44
44
43
44
45
45
46
46
44
45
46
45
46
46
46
47
46
46
46
46
46
47
47
46
46
46
45
45
45
44
43
43
42
42
41
40
39
38
38
36
36
35
34
33
31
31
29
29
28
27
21
15
10
10
12
14
14
14
16
17
17
19
18
17
19
20
22
21
23
22
22
20
20
22
21
20
21
22
22
24
25
25
26
25
23
24
24
23
23
23
20
20
20
22
23
23
23
23
22
23
22
23
24
23
24
24
24
24
24
24
22
24
26
27
27
27
27
26
24
21
24
25
25
24
25
25
22
24
24
24
23
23
25
23
24
25
24
24
26
26
28
28
27
27
29
29
31
34
32
30
30
30
30
31
32
29
30
30
28
30
28
29
30
33
30
34
35
34
34
35
35
35
35
34
35
34
35
32
32
32
31
0
0
0
0
0
0
0
0
0
0
0
0
0
0
0
0
0
0
0
0
0
0
0
0
0
0
0
0
0
0
2
29
32
33
34
36
38
39
39
38
38
39
40
41
40
41
43
42
42
42
43
44
43
44
44
44
44
44
44
44
45
46
44
45
45
45
46
45
45
46
46
46
46
46
46
46
47
47
47
47
47
48
48
48
47
47
48
48
47
45
47
45
46
48
48
47
47
46
46
43
46
44
40
40
39
39
39
38
38
38
38
38
37
37
37
37
36
36
35
35
35
36
35
35
35
36
36
37
39
42
45
44
45
44
43
39
41
42
41
41
38
39
36
37
36
38
37
37
38
42
44
43
43
42
43
42
44
43
42
42
43
44
42
43
44
42
42
43
43
43
42
42
43
43
44
44
43
44
45
45
45
45
45
46
46
46
45
46
46
46
45
45
45
45
45
44
44
43
42
43
42
41
41
40
39
38
37
37
36
35
33
32
31
30
29
28
29
26
25
21
14
9
10
11
12
12
12
13
14
15
17
17
18
17
18
18
16
19
19
20
20
21
22
23
23
23
23
22
21
21
23
24
22
20
22
22
21
20
22
21
20
18
19
20
19
21
21
21
23
22
21
21
21
21
20
21
23
26
26
25
24
23
25
25
24
24
23
22
21
22
24
23
22
23
24
24
24
23
23
23
21
22
24
24
24
22
21
24
25
23
25
25
24
24
25
26
28
28
28
27
27
29
29
29
28
28
27
27
24
25
25
26
29
29
31
32
32
32
32
31
30
31
31
32
31
31
28
27
28
22
0
0
0
0
0
0
0
0
0
0
0
0
0
0
0
0
0
0
0
0
0
0
0
0
0
0
0
0
0
0
0
11
34
34
34
36
36
37
38
38
38
38
39
41
41
41
42
42
42
42
42
42
42
42
43
43
42
44
44
44
44
45
44
43
44
44
44
44
45
46
46
46
46
46
46
47
47
47
46
47
47
48
46
45
47
48
46
47
47
44
46
44
45
47
46
47
46
46
45
43
43
41
39
39
38
37
38
38
38
36
37
37
36
36
36
35
35
36
34
35
34
34
35
35
35
35
34
36
38
42
42
44
44
44
41
37
37
37
36
36
35
38
37
37
38
32
30
33
29
30
35
42
44
48
45
47
45
46
45
45
43
42
42
41
42
42
43
43
43
41
42
45
45
45
43
43
42
43
44
44
45
43
45
45
45
45
45
45
45
45
45
45
45
44
45
44
43
43
42
42
41
39
38
38
37
38
37
36
35
34
33
32
31
29
28
27
27
26
25
23
15
8
10
11
12
13
13
12
13
14
13
17
17
19
17
17
15
15
16
17
17
17
17
20
21
22
21
22
23
23
23
22
21
21
18
18
17
17
19
19
22
21
20
20
19
21
20
22
21
20
19
19
20
21
20
21
23
24
24
22
23
22
21
21
23
25
23
22
25
25
27
24
21
23
22
22
22
23
23
23
23
22
23
23
24
23
23
23
23
23
24
24
23
23
23
23
23
25
24
24
25
24
23
26
26
26
26
25
25
23
25
24
26
28
26
26
28
29
30
31
31
29
29
29
29
28
27
25
25
5
0
0
0
0
0
0
0
0
0
0
0
0
0
0
0
0
0
0
0
0
0
0
0
0
0
0
0
0
0
0
0
0
30
35
34
36
36
37
38
39
39
39
40
41
41
40
40
41
41
42
42
43
42
43
43
42
42
43
43
43
42
43
45
43
44
45
44
44
45
45
45
44
44
44
46
46
46
46
45
45
44
46
47
46
45
45
44
45
45
43
45
44
44
45
45
46
44
45
44
42
40
39
39
37
37
36
37
37
37
36
36
37
36
35
34
35
35
35
35
35
34
34
34
35
35
35
34
35
36
38
40
42
44
43
39
35
36
34
33
36
33
15
1
0
0
0
0
0
0
0
0
0
0
0
1
0
1
0
10
28
35
43
46
45
45
45
39
39
44
47
40
27
25
31
33
41
44
43
43
43
44
44
45
44
45
45
44
44
45
44
44
44
44
43
43
42
42
41
40
40
39
38
38
37
36
36
35
35
34
33
32
31
29
28
28
27
26
24
23
21
13
10
11
9
8
11
13
13
15
15
15
16
15
15
18
16
17
17
16
16
17
17
18
20
19
19
19
19
19
19
21
22
22
23
20
20
19
16
17
15
17
18
16
17
16
19
19
21
20
18
19
20
21
22
23
22
22
22
22
19
21
20
20
21
23
24
20
20
21
21
21
23
20
21
22
22
19
20
21
21
20
21
20
21
21
21
21
20
21
22
21
23
22
23
23
23
24
21
21
21
23
24
22
22
21
24
24
24
24
24
24
25
25
27
26
26
25
26
27
27
28
25
28
29
29
27
27
25
25
9
0
0
0
0
0
0
0
0
0
0
0
0
0
0
0
0
0
0
0
0
0
0
0
0
0
0
0
0
0
0
0
0
14
32
33
35
36
37
37
38
39
40
40
40
40
40
41
40
41
40
40
41
42
42
42
42
43
43
43
44
43
43
44
45
44
44
45
45
46
45
46
47
46
46
47
46
45
46
46
45
45
46
46
46
45
45
44
43
43
42
44
43
43
44
45
44
43
43
42
40
38
37
37
37
37
36
36
35
36
36
35
37
35
34
34
35
34
34
34
34
34
34
34
33
33
34
33
34
34
37
40
43
41
41
39
35
34
33
36
30
0
0
0
0
0
0
0
0
0
0
0
0
0
0
0
0
0
0
0
0
0
0
0
4
0
0
0
0
0
0
0
0
0
0
0
29
41
42
43
44
43
44
44
43
45
44
43
44
44
43
43
43
43
42
42
41
41
41
40
38
39
38
37
36
35
35
35
33
32
32
32
29
26
26
28
26
25
23
22
21
13
7
10
11
9
10
13
13
14
11
15
17
16
17
17
16
16
16
17
19
18
18
19
17
16
17
18
18
16
17
18
18
18
18
18
19
23
21
22
22
19
20
17
16
15
18
18
18
16
16
17
18
18
20
20
20
22
21
20
20
18
18
18
19
19
19
19
18
17
19
17
15
15
16
17
19
16
15
16
17
18
20
18
17
18
19
18
18
20
19
19
19
22
21
21
21
22
21
22
23
23
22
22
23
20
20
21
21
22
20
20
21
21
26
24
25
25
25
26
26
28
26
25
26
25
23
24
24
23
0
0
0
0
0
0
0
0
0
0
0
0
0
0
0
0
0
0
0
0
0
0
0
0
0
0
0
0
0
0
0
0
0
0
25
34
34
33
34
32
34
35
35
35
38
38
39
39
38
39
38
38
39
39
41
40
41
42
40
40
41
42
42
42
42
42
42
43
43
43
45
45
45
45
46
46
46
46
45
45
46
45
46
46
47
45
44
46
42
41
42
43
42
44
44
43
42
41
39
40
39
37
37
37
37
36
36
35
35
35
34
35
37
35
35
33
33
33
33
34
33
33
33
33
33
34
32
33
34
37
40
40
42
42
42
36
33
35
33
12
0
0
0
0
0
0
0
0
0
0
0
0
0
0
0
0
0
0
0
0
0
0
0
0
0
0
0
0
0
0
0
0
0
0
0
0
0
35
41
42
43
43
44
44
43
43
43
43
43
43
44
42
41
41
41
41
40
40
39
38
37
37
36
36
35
34
33
32
33
31
30
29
30
24
26
26
26
24
23
21
20
13
4
7
9
9
7
7
9
12
10
13
15
15
16
16
16
17
17
16
16
18
18
17
17
18
17
19
20
20
20
19
20
19
17
17
20
21
18
18
17
18
19
19
20
17
16
19
19
16
16
18
19
17
17
17
17
17
18
18
18
17
16
18
20
16
15
16
15
13
13
15
16
16
17
15
16
15
14
15
16
17
18
20
19
22
21
22
20
21
20
18
20
20
22
18
19
16
17
18
20
19
20
19
22
20
19
20
21
22
20
19
18
20
23
23
24
23
23
22
23
23
25
24
22
24
23
22
21
18
0
0
0
0
0
0
0
0
0
0
0
0
0
0
0
0
0
0
0
0
0
0
0
0
0
0
0
0
0
0
0
0
0
0
9
32
32
32
32
31
31
30
33
32
33
34
37
36
37
36
35
37
39
38
39
39
39
41
40
39
37
39
41
41
40
41
40
42
41
43
43
43
44
44
45
45
45
45
44
45
44
44
45
44
45
45
44
45
41
41
42
42
41
42
42
41
41
40
39
40
39
37
36
35
35
34
35
35
35
35
35
36
36
34
35
35
34
33
33
33
32
33
32
33
33
33
32
32
34
36
39
40
40
39
41
35
32
30
0
0
0
0
0
0
0
0
0
0
0
0
0
0
0
0
0
0
0
0
0
0
0
0
0
0
0
0
0
0
0
0
0
0
0
0
0
0
0
13
44
40
42
43
43
43
44
43
43
43
43
42
42
42
42
41
40
39
39
39
39
39
36
36
36
36
35
34
33
32
31
31
30
29
29
23
26
26
25
23
21
21
19
15
6
6
7
7
6
4
5
8
9
9
10
12
15
15
15
16
15
15
14
14
14
16
18
19
18
19
19
20
20
20
23
21
21
20
22
21
20
17
15
16
15
18
18
15
14
18
16
18
19
18
18
18
18
19
17
17
16
17
17
17
18
16
17
18
16
16
14
16
16
15
16
17
16
14
14
16
16
20
19
17
21
19
20
17
17
19
16
17
20
22
20
21
17
22
21
19
20
18
17
19
19
19
19
18
20
18
18
20
19
18
19
20
21
21
22
23
22
21
22
22
23
23
24
21
20
18
19
17
0
0
0
0
0
0
0
0
0
0
0
0
0
0
0
0
0
0
0
0
0
0
0
0
0
0
0
0
0
0
0
0
0
0
10
29
28
31
31
33
33
32
32
31
33
32
32
32
32
33
33
35
36
36
37
39
41
39
38
39
39
39
40
40
38
39
41
40
40
41
44
43
44
43
44
44
43
43
42
42
42
42
42
40
41
42
43
43
42
40
39
40
39
40
41
41
41
40
39
39
39
37
36
35
35
34
35
35
35
33
34
35
36
35
35
35
34
33
33
33
32
32
32
32
32
32
32
32
31
34
36
38
39
37
37
38
32
0
0
0
0
0
0
0
0
0
0
0
0
0
0
0
0
0
0
0
0
0
0
0
0
0
0
0
0
0
0
0
0
0
0
0
0
0
0
0
0
0
42
41
40
41
43
43
44
42
42
42
43
42
42
41
41
40
40
40
40
39
38
38
37
36
36
35
33
32
32
31
29
30
29
29
27
22
25
24
22
22
21
20
18
17
0
1
3
5
6
6
6
8
8
8
9
11
11
11
12
13
13
13
13
13
14
15
16
16
16
17
17
18
18
19
20
20
20
20
19
20
22
22
21
20
17
19
20
19
22
22
17
18
19
19
19
17
15
14
15
17
15
13
16
16
16
17
16
14
15
15
13
15
16
16
15
18
17
16
15
16
16
19
20
19
19
19
18
17
18
16
17
16
19
18
22
22
21
16
18
20
20
19
20
18
20
18
19
18
18
16
16
17
16
15
17
19
19
20
21
21
21
22
21
19
21
23
22
23
24
20
22
4
0
0
0
0
0
0
0
0
0
0
0
0
0
0
0
0
0
0
0
0
0
0
0
0
0
0
0
0
0
0
0
0
0
0
0
25
25
29
31
31
34
34
31
31
33
29
28
27
29
30
30
31
32
34
35
36
40
39
39
41
40
39
40
40
40
40
39
41
40
42
41
41
43
42
42
42
43
44
43
42
42
42
41
40
41
41
41
41
40
39
40
40
39
39
40
40
39
39
38
38
38
37
36
36
36
36
36
35
35
34
35
36
36
35
34
34
33
33
34
33
32
32
32
32
32
32
33
32
31
31
35
37
36
36
36
33
0
0
0
0
0
0
0
0
0
0
0
0
0
0
0
0
0
0
0
0
0
0
0
0
0
0
0
0
0
0
0
0
0
0
0
0
0
0
0
0
0
0
37
39
40
40
40
41
43
42
42
42
42
41
41
40
39
40
40
40
39
39
38
38
37
36
35
34
33
32
32
31
30
30
29
28
25
22
25
24
21
21
20
19
18
16
0
2
1
2
3
4
3
5
7
8
9
8
8
8
9
10
11
12
12
13
12
11
12
13
14
14
17
19
18
17
16
16
16
18
19
18
19
18
19
20
21
20
20
19
21
22
21
18
18
19
19
18
19
21
20
18
19
18
17
12
13
17
17
16
14
15
15
16
14
13
12
14
16
14
16
17
17
18
18
17
16
17
15
16
14
14
14
16
16
19
20
23
21
18
16
16
16
17
18
19
17
18
18
19
19
18
18
17
16
16
17
18
19
19
20
21
22
21
19
20
20
19
20
19
20
18
15
0
0
0
0
0
0
0
0
0
0
0
0
0
0
0
0
0
0
0
0
0
0
0
0
0
0
0
0
0
0
0
0
0
0
0
0
16
25
25
27
28
32
33
32
32
32
29
31
29
28
29
29
29
29
31
33
35
36
37
38
38
38
37
37
37
36
36
40
41
42
40
41
40
40
40
41
41
42
43
43
44
43
43
42
42
41
41
40
41
39
39
39
39
40
39
38
38
38
38
37
36
36
36
35
35
36
35
35
35
35
35
35
35
35
35
33
34
34
33
33
33
32
32
32
32
32
32
33
33
31
32
34
34
35
35
36
8
0
0
0
0
0
0
0
0
0
0
0
0
0
0
0
0
0
0
0
0
0
0
0
0
0
0
0
0
0
0
0
0
0
0
0
0
0
0
0
0
0
0
21
40
40
39
41
40
40
41
41
41
40
40
40
39
40
40
39
38
38
37
37
36
36
35
34
33
33
33
32
31
29
30
29
27
23
21
23
23
22
21
20
18
18
15
0
1
1
2
3
3
3
5
4
5
6
7
8
9
8
6
8
10
9
10
12
13
13
12
13
13
15
15
14
16
15
19
17
17
19
18
18
18
18
20
19
19
20
19
21
20
21
20
21
22
20
19
19
21
20
20
20
20
21
20
17
17
20
17
16
15
15
16
15
14
14
12
12
12
15
13
13
14
16
18
18
15
13
11
10
12
11
14
16
17
15
18
20
19
19
18
15
14
17
17
19
18
18
17
20
20
20
20
20
19
18
15
18
18
17
20
20
15
16
20
21
21
19
17
17
14
12
0
0
0
0
0
0
0
0
0
0
0
0
0
0
0
0
0
0
0
0
0
0
0
0
0
0
0
0
0
0
0
0
0
0
0
0
0
27
26
26
28
30
30
31
29
30
32
32
31
32
30
29
30
32
33
34
34
34
36
36
35
37
38
38
38
39
39
39
40
40
41
40
41
40
40
41
41
41
41
41
42
41
41
42
42
42
41
40
40
39
38
37
37
39
39
38
38
38
38
38
36
36
36
35
35
35
35
34
34
35
35
35
33
34
34
33
33
34
33
33
33
33
33
33
33
32
31
31
31
30
32
31
30
32
32
30
0
0
0
0
0
0
0
0
0
0
0
0
0
0
0
0
0
0
0
0
0
0
0
0
0
0
0
0
0
0
0
0
0
0
0
0
0
0
0
0
0
0
0
8
40
37
39
39
39
39
39
39
39
39
39
39
38
38
38
37
37
37
36
36
35
35
33
32
32
31
31
30
29
27
28
28
26
21
20
22
21
21
20
20
17
17
13
0
0
0
0
0
0
0
1
3
3
3
4
4
5
5
5
5
7
7
7
9
11
13
14
13
13
13
14
14
14
13
15
12
12
14
13
13
16
16
18
17
16
18
18
19
18
18
19
16
17
17
18
18
19
20
22
19
20
19
20
22
21
20
18
15
19
22
20
19
18
19
15
13
11
11
11
11
12
12
14
14
14
11
11
14
13
16
15
14
14
13
14
17
18
19
17
16
16
17
17
16
16
14
12
13
16
19
19
20
19
18
15
16
16
16
16
14
11
13
15
16
16
18
18
18
18
6
0
0
0
0
0
0
0
0
0
0
0
0
0
0
0
0
0
0
0
0
0
0
0
0
0
0
0
0
0
0
0
0
0
0
0
0
0
26
27
28
28
29
30
28
26
28
30
30
29
28
28
29
30
33
34
34
33
30
34
33
32
34
36
38
38
35
35
37
37
39
38
40
39
40
40
41
40
41
41
40
41
42
41
41
40
40
42
41
42
40
41
42
41
41
39
40
40
39
37
39
38
37
35
34
34
35
35
34
34
35
34
34
32
32
33
32
33
33
33
32
33
31
31
32
31
31
30
30
30
31
29
30
31
30
33
13
0
0
0
0
0
0
0
0
0
0
0
0
0
0
0
0
0
0
0
0
0
0
0
0
0
0
0
0
0
0
0
0
0
0
0
0
0
0
0
0
0
0
0
1
40
35
37
37
37
37
37
37
38
37
38
37
37
37
36
36
35
35
34
34
33
33
32
31
30
29
28
28
27
27
26
26
24
19
20
22
21
19
19
18
17
16
12
0
0
0
0
0
0
0
0
0
1
2
5
7
7
6
6
5
9
9
9
10
10
10
9
9
9
9
11
11
11
13
13
14
14
14
14
13
15
13
10
13
11
13
15
16
19
18
16
16
17
15
15
14
17
18
18
18
16
15
15
17
17
18
18
18
19
19
17
18
16
17
18
18
12
11
14
14
14
11
14
13
13
10
13
12
13
15
15
12
13
11
13
13
14
15
15
16
14
15
14
16
16
14
13
14
16
18
17
17
18
19
18
16
15
17
16
17
17
17
16
16
16
15
15
16
17
1
0
0
0
0
0
0
0
0
0
0
0
0
0
0
0
0
0
0
0
0
0
0
0
0
0
0
0
0
0
0
0
0
0
0
0
0
0
15
24
26
25
28
29
25
24
26
28
30
30
31
32
31
31
33
34
34
30
31
33
32
32
33
33
35
36
37
37
38
39
39
38
39
39
39
39
39
38
39
38
38
38
39
40
40
40
39
39
37
38
40
40
41
41
41
40
39
38
37
35
37
36
36
34
34
35
34
35
35
35
35
33
33
33
32
33
32
32
31
31
31
31
29
30
30
29
30
29
29
30
31
31
29
29
31
31
0
0
0
0
0
0
0
0
0
0
0
0
0
0
0
0
0
0
0
0
0
0
0
0
0
0
0
0
0
0
0
0
0
0
0
0
0
0
0
0
0
0
0
0
8
37
34
36
35
36
37
37
37
37
36
36
35
35
35
35
35
34
33
33
32
31
30
30
30
29
27
26
26
25
25
23
23
22
17
19
20
20
19
19
16
16
15
12
0
0
0
0
0
0
0
0
0
0
0
0
3
2
5
6
5
5
5
6
8
6
8
7
7
7
9
10
10
8
9
11
9
12
10
11
12
13
12
12
10
12
13
13
12
14
12
13
12
14
17
16
13
12
12
13
14
16
17
16
16
15
16
16
17
17
16
18
17
17
19
18
17
15
15
11
12
14
12
13
12
14
16
13
12
12
10
11
11
12
12
11
10
11
13
14
15
14
12
11
13
13
13
16
15
14
12
15
14
14
14
17
16
17
17
15
17
18
16
17
17
15
15
14
15
15
0
0
0
0
0
0
0
0
0
0
0
0
0
0
0
0
0
0
0
0
0
0
0
0
0
0
0
0
0
0
0
0
0
0
0
0
0
0
2
26
24
26
27
29
29
27
28
28
26
27
28
26
29
33
34
34
34
36
33
33
34
33
32
35
34
34
35
36
37
37
38
38
40
38
39
39
39
39
39
40
39
38
38
37
38
37
38
39
36
38
39
39
39
39
39
39
39
37
35
35
34
35
34
37
35
34
34
34
34
35
35
35
33
33
32
32
32
31
31
31
32
31
31
30
29
30
30
30
29
28
29
28
28
28
31
14
0
0
0
0
0
0
0
0
0
0
0
0
0
0
0
0
0
0
0
0
0
0
0
0
0
0
0
0
0
0
0
0
0
0
0
0
0
0
0
0
0
0
0
0
12
35
32
35
34
34
34
34
35
34
34
33
33
34
32
33
33
31
31
31
31
30
29
28
28
27
26
25
25
24
23
22
21
18
17
17
18
17
17
17
15
14
13
9
0
0
0
0
0
0
0
0
0
0
0
0
0
1
3
3
5
5
6
4
4
6
7
7
7
8
9
7
9
10
8
9
8
13
13
11
11
11
11
9
10
12
14
12
12
9
11
12
11
12
12
12
13
12
12
12
12
14
16
17
18
18
18
18
18
16
15
17
14
18
18
17
19
17
19
17
16
14
13
13
11
11
13
14
13
14
10
10
10
9
8
7
8
11
13
13
14
11
12
13
14
14
14
15
14
14
13
12
11
12
13
12
16
16
16
16
15
15
16
17
16
12
15
12
15
0
0
0
0
0
0
0
0
0
0
0
0
0
0
0
0
0
0
0
0
0
0
0
0
0
0
0
0
0
0
0
0
0
0
0
0
0
0
0
9
24
23
25
27
28
29
28
27
28
29
29
29
28
28
29
32
33
32
33
35
32
33
34
32
32
33
37
35
36
37
37
36
35
34
30
36
38
40
39
38
38
38
39
38
36
37
38
38
38
36
38
38
38
37
38
39
38
37
36
33
33
36
37
37
38
36
35
35
34
35
34
33
35
36
34
32
33
33
32
32
31
31
30
28
31
29
29
30
26
27
27
26
27
26
29
28
0
0
0
0
0
0
0
0
0
0
0
0
0
0
0
0
0
0
0
0
0
0
0
0
0
0
0
0
0
0
0
0
0
0
0
0
0
0
0
0
0
0
0
0
0
10
33
32
32
34
32
33
33
34
34
34
33
33
33
31
31
31
30
29
29
28
28
28
26
26
25
25
25
24
23
23
21
19
17
16
17
16
16
15
15
13
12
11
7
0
0
0
0
0
0
0
0
0
0
0
0
0
0
0
0
1
0
1
2
2
2
4
4
3
4
6
6
6
7
7
7
7
6
7
9
7
8
10
11
10
10
11
12
10
9
12
12
11
12
12
10
13
12
14
16
14
14
13
10
12
14
14
15
17
17
16
16
17
16
16
15
15
16
15
18
17
20
17
15
15
13
11
12
10
12
11
12
15
9
7
7
8
9
10
12
13
11
11
11
12
11
12
13
14
16
15
13
15
14
13
12
13
14
14
14
13
11
11
12
13
10
10
12
9
0
0
0
0
0
0
0
0
0
0
0
0
0
0
0
0
0
0
0
0
0
0
0
0
0
0
0
0
0
0
0
0
0
0
0
0
0
0
0
18
18
19
22
23
24
26
27
28
28
28
28
26
27
30
32
32
31
31
31
30
32
31
30
29
32
34
33
36
35
37
36
37
35
37
36
36
37
37
36
36
36
35
35
36
37
39
39
39
39
37
35
32
34
36
38
38
36
35
36
37
35
35
35
37
37
37
36
37
36
36
37
35
35
36
36
35
35
34
32
33
34
33
33
27
33
36
25
26
32
28
28
28
28
25
22
0
0
0
0
0
0
0
0
0
0
0
0
0
0
0
0
0
0
0
0
0
0
0
0
0
0
0
0
0
0
0
0
0
0
0
0
0
0
0
0
0
0
0
0
0
0
22
30
32
32
32
32
31
31
32
33
32
32
32
31
31
30
29
29
28
27
26
25
25
25
24
23
23
22
21
21
21
20
18
16
14
14
13
13
14
14
13
12
10
5
0
0
0
0
0
0
0
0
0
0
0
0
0
0
0
1
1
1
0
2
2
1
2
3
2
4
5
5
4
6
7
4
4
3
4
2
5
4
6
6
10
10
8
10
8
8
10
10
7
8
9
9
11
10
11
12
11
12
13
11
12
14
14
14
12
17
14
17
16
17
15
14
15
14
13
15
12
9
11
17
16
15
15
16
13
15
13
12
10
11
13
10
6
6
7
10
10
11
12
10
12
14
14
14
15
16
15
17
14
14
14
15
13
11
10
8
11
12
10
9
12
9
8
8
9
0
0
0
0
0
0
0
0
0
0
0
0
0
0
0
0
0
0
0
0
0
0
0
0
0
0
0
0
0
0
0
0
0
0
0
0
0
0
0
13
18
19
22
25
26
26
26
27
28
27
28
24
24
27
31
30
31
31
30
28
28
27
29
29
31
33
35
34
34
34
36
34
34
34
36
35
35
36
37
36
35
35
35
35
35
36
37
38
38
38
37
37
36
36
37
36
36
35
36
38
37
37
36
37
36
37
37
37
37
37
37
36
36
37
37
34
35
35
34
34
34
33
32
32
32
29
24
17
25
23
20
20
19
17
0
0
0
0
0
0
0
0
0
0
0
0
0
0
0
0
0
0
0
0
0
0
0
0
0
0
0
0
0
0
0
0
0
0
0
0
0
0
0
0
0
0
0
0
0
0
0
16
32
30
32
31
32
31
32
32
32
31
31
31
30
29
28
27
27
27
26
25
25
23
23
24
23
21
21
20
20
19
18
17
13
12
11
10
11
10
11
11
11
7
3
0
0
0
0
0
0
0
0
0
0
0
0
0
0
0
0
0
0
0
0
0
0
0
0
1
0
0
3
6
4
4
6
8
8
9
8
7
9
8
6
5
5
7
6
8
5
8
8
6
5
4
5
7
8
9
9
9
10
11
10
9
10
9
10
11
11
12
13
13
12
14
12
11
11
11
12
11
11
11
10
9
9
11
13
13
14
11
8
10
9
10
10
11
11
10
12
10
10
11
11
12
13
15
15
15
15
13
12
12
12
11
14
16
13
12
10
9
8
8
7
6
8
6
12
0
0
0
0
0
0
0
0
0
0
0
0
0
0
0
0
0
0
0
0
0
0
0
0
0
0
0
0
0
0
0
0
0
0
0
0
0
0
0
0
13
17
21
21
21
22
21
21
22
23
25
25
25
26
25
26
26
28
27
25
24
27
29
28
27
30
32
32
32
31
32
32
34
32
32
31
31
31
32
33
32
33
35
36
35
35
36
36
36
36
37
37
37
35
37
37
37
36
35
35
36
37
36
36
36
36
37
36
36
37
35
34
35
36
37
36
36
35
33
33
34
35
34
33
31
32
24
16
15
12
17
15
13
13
13
0
0
0
0
0
0
0
0
0
0
0
0
0
0
0
0
0
0
0
0
0
0
0
0
0
0
0
0
0
0
0
0
0
0
0
0
0
0
0
0
0
0
0
0
0
0
0
11
30
29
30
31
31
29
30
29
29
30
30
30
29
29
28
27
27
26
24
24
23
23
23
23
21
19
19
18
17
18
16
14
11
10
9
7
7
6
8
9
9
6
3
0
0
0
0
0
0
0
0
0
0
0
0
0
0
0
0
0
0
0
0
0
0
0
0
1
0
0
0
0
2
2
1
2
4
5
4
8
6
7
10
9
9
7
6
7
6
8
8
7
5
4
3
2
2
3
3
5
6
7
7
7
9
9
9
8
7
5
7
8
11
10
9
9
9
8
11
10
12
11
11
11
10
11
11
13
14
14
14
12
14
13
9
7
10
12
13
11
12
14
12
11
14
15
11
15
13
13
15
7
11
13
16
16
14
12
13
14
11
12
12
7
6
6
1
0
0
0
0
0
0
0
0
0
0
0
0
0
0
0
0
0
0
0
0
0
0
0
0
0
0
0
0
0
0
0
0
0
0
0
0
0
0
0
0
2
17
16
18
19
19
20
20
20
21
23
22
23
24
23
24
23
25
27
26
24
25
26
27
26
28
30
30
29
30
29
30
30
32
30
30
31
31
31
31
32
32
31
30
33
35
36
34
35
36
36
36
37
36
35
35
36
36
36
35
37
37
35
36
36
36
36
36
37
35
35
36
35
34
35
35
35
35
36
36
35
34
34
33
34
30
17
15
12
12
13
15
12
16
0
0
0
0
0
0
0
0
0
0
0
0
0
0
0
0
0
0
0
0
0
0
0
0
0
0
0
0
0
0
0
0
0
0
0
0
0
0
0
0
0
0
0
0
0
0
0
0
19
26
27
28
27
28
28
29
28
27
28
28
28
28
27
26
26
26
25
24
24
23
23
21
21
19
17
17
15
13
16
14
12
10
9
8
7
6
5
6
7
6
3
1
0
0
0
0
0
0
0
0
0
0
0
0
0
0
0
0
0
0
0
0
0
0
0
0
0
0
0
0
0
0
0
0
0
0
0
3
2
4
3
5
4
5
4
6
5
7
4
5
6
5
6
6
5
4
5
4
5
5
4
4
6
7
6
6
6
5
1
0
0
5
6
5
5
8
10
5
6
6
6
6
9
9
9
8
8
8
9
11
12
12
12
12
12
12
11
10
9
9
10
12
12
12
13
12
13
13
13
15
14
14
14
17
13
13
12
12
13
10
12
13
11
6
0
0
0
0
0
0
0
0
0
0
0
0
0
0
0
0
0
0
0
0
0
0
0
0
0
0
0
0
0
0
0
0
0
0
0
0
0
0
0
0
0
0
0
17
16
17
16
17
18
17
17
19
21
22
21
20
20
22
22
24
26
24
24
25
26
26
26
28
27
27
28
28
29
29
30
29
30
30
30
30
30
29
30
31
32
33
32
32
33
34
35
34
34
35
35
35
35
35
34
34
35
37
34
34
36
36
35
34
35
35
36
35
36
35
34
34
35
35
34
32
33
35
34
34
34
33
33
32
16
11
10
11
11
12
13
9
0
0
0
0
0
0
0
0
0
0
0
0
0
0
0
0
0
0
0
0
0
0
0
0
0
0
0
0
0
0
0
0
0
0
0
0
0
0
0
0
0
0
0
0
0
0
0
0
10
27
25
28
27
26
26
27
27
26
26
27
26
26
25
25
24
24
23
22
21
18
17
17
17
16
15
15
14
12
13
12
10
9
7
6
6
5
5
5
4
2
0
0
0
0
0
0
0
0
0
0
0
0
0
0
0
0
0
0
0
0
0
0
0
0
0
0
0
0
0
0
0
0
0
0
0
0
0
1
0
0
0
0
0
0
0
0
0
0
0
2
3
1
2
2
4
4
6
4
5
4
2
2
3
5
5
6
5
5
5
6
6
4
3
2
1
1
4
3
5
6
4
5
5
6
7
7
6
8
8
9
10
11
11
12
12
11
12
10
9
10
8
6
9
12
15
15
12
13
14
14
16
15
11
11
13
14
17
16
14
13
15
14
6
0
0
0
0
0
0
0
0
0
0
0
0
0
0
0
0
0
0
0
0
0
0
0
0
0
0
0
0
0
0
0
0
0
0
0
0
0
0
0
0
0
0
0
0
14
14
15
16
16
16
13
14
17
19
21
20
24
22
22
21
23
25
25
26
25
26
25
25
27
26
26
27
27
25
27
28
28
29
30
31
30
29
30
31
30
29
30
32
32
33
33
33
34
34
34
33
34
33
34
35
34
34
35
36
34
35
33
35
33
34
34
35
36
36
35
36
36
35
35
34
32
34
36
33
33
35
34
32
25
14
13
11
10
11
10
10
0
0
0
0
0
0
0
0
0
0
0
0
0
0
0
0
0
0
0
0
0
0
0
0
0
0
0
0
0
0
0
0
0
0
0
0
0
0
0
0
0
0
0
0
0
0
0
0
0
4
26
24
26
26
25
26
26
26
25
25
25
24
23
23
24
23
23
22
21
20
16
15
15
14
13
13
13
12
11
11
10
9
8
7
6
6
4
4
3
1
0
0
0
0
0
0
0
0
0
0
0
0
0
0
0
0
0
0
0
0
0
0
0
0
0
0
0
0
0
0
0
0
0
0
0
0
0
0
0
2
2
1
0
0
0
0
0
0
0
0
0
0
1
0
2
0
2
3
4
3
1
4
2
2
0
2
5
6
5
6
5
4
5
5
4
4
5
3
3
3
4
4
4
4
6
4
5
6
6
5
6
9
9
10
9
9
10
11
10
10
10
9
10
7
8
11
10
9
12
13
14
13
14
13
11
9
10
9
11
14
10
10
10
0
0
0
0
0
0
0
0
0
0
0
0
0
0
0
0
0
0
0
0
0
0
0
0
0
0
0
0
0
0
0
0
0
0
0
0
0
0
0
0
0
0
0
0
0
12
12
16
16
15
17
17
15
17
16
17
17
19
20
19
17
19
23
23
23
24
25
25
25
24
24
26
25
25
27
28
29
29
30
29
30
30
32
30
29
32
30
30
31
29
31
31
30
30
32
32
34
32
34
35
33
34
35
34
33
33
33
34
34
33
35
33
33
33
35
35
35
36
34
36
34
33
34
32
34
34
34
16
26
18
12
12
9
10
8
10
2
0
0
0
0
0
0
0
0
0
0
0
0
0
0
0
0
0
0
0
0
0
0
0
0
0
0
0
0
0
0
0
0
0
0
0
0
0
0
0
0
0
0
0
0
0
0
0
0
0
0
26
23
24
23
24
24
24
24
24
24
24
23
22
22
22
22
21
20
20
20
17
14
15
14
13
11
10
11
9
9
7
7
5
5
5
4
4
2
2
1
0
0
0
0
0
0
0
0
0
0
0
0
0
0
0
0
0
0
0
0
0
0
0
0
0
0
0
0
0
0
0
0
0
0
0
0
0
0
0
0
0
0
0
0
0
2
1
0
0
0
0
0
0
0
0
0
0
1
1
0
0
3
3
4
4
4
3
4
3
0
1
3
4
4
2
1
4
0
0
2
7
7
5
3
3
2
2
3
3
3
2
4
3
5
5
6
6
8
9
8
11
8
11
9
8
9
6
6
7
10
11
10
9
11
9
9
8
9
11
8
9
9
0
0
0
0
0
0
0
0
0
0
0
0
0
0
0
0
0
0
0
0
0
0
0
0
0
0
0
0
0
0
0
0
0
0
0
0
0
0
0
0
0
0
0
0
0
0
11
17
18
17
13
12
13
16
16
16
20
19
19
19
21
21
20
22
23
24
25
26
26
25
23
23
25
25
23
24
25
25
26
27
26
28
29
30
29
30
31
32
32
31
31
29
29
29
30
32
32
32
33
32
31
32
34
33
33
33
32
31
33
33
32
32
32
32
33
32
32
32
33
33
33
34
33
35
33
32
32
37
0
19
13
10
10
12
12
11
13
0
0
0
0
0
0
0
0
0
0
0
0
0
0
0
0
0
0
0
0
0
0
0
0
0
0
0
0
0
0
0
0
0
0
0
0
0
0
0
0
0
0
0
0
0
0
0
0
0
0
0
23
23
21
22
22
24
23
23
23
22
22
22
21
21
20
20
19
19
18
17
16
16
15
12
11
10
9
11
11
8
7
7
5
4
4
2
2
2
1
1
0
0
0
0
0
0
0
0
0
0
0
0
0
0
0
0
0
0
0
0
0
0
0
0
0
0
0
0
0
0
0
0
0
0
0
0
0
0
0
0
0
0
0
0
0
0
0
0
0
0
0
0
0
0
0
0
1
0
0
0
0
0
0
0
0
0
1
0
3
8
4
2
2
3
4
2
0
0
0
2
1
5
5
4
3
4
6
7
5
4
5
4
5
4
5
1
4
4
5
4
7
7
7
4
4
2
2
4
5
4
7
5
8
8
9
7
8
6
6
8
7
0
0
0
0
0
0
0
0
0
0
0
0
0
0
0
0
0
0
0
0
0
0
0
0
0
0
0
0
0
0
0
0
0
0
0
0
0
0
0
0
0
0
0
0
0
0
0
3
14
17
18
20
20
20
16
19
20
19
17
20
20
19
19
20
22
23
25
24
26
25
23
24
25
24
25
26
25
25
28
27
25
27
27
26
27
26
29
27
29
28
29
29
31
30
28
29
30
31
32
31
31
31
30
30
30
30
29
31
33
32
32
32
32
32
31
32
32
32
32
33
34
33
33
33
34
32
31
31
34
0
0
30
25
25
29
23
7
0
0
0
0
0
0
0
0
0
0
0
0
0
0
0
0
0
0
0
0
0
0
0
0
0
0
0
0
0
0
0
0
0
0
0
0
0
0
0
0
0
0
0
0
0
0
0
0
0
0
0
0
21
22
22
22
21
22
22
22
22
21
21
21
20
20
19
19
18
17
16
14
13
14
12
10
10
9
8
9
9
6
6
6
5
3
2
1
0
1
0
0
0
0
0
0
0
0
0
0
0
0
0
0
0
0
0
0
0
0
0
0
0
0
0
0
0
0
0
0
0
0
0
0
0
0
0
0
0
0
0
0
0
0
0
0
0
0
0
0
0
0
0
0
0
0
0
0
0
0
0
0
0
0
0
0
0
0
0
0
0
0
0
0
0
0
0
0
0
0
0
0
0
1
2
0
1
2
2
2
1
1
4
4
4
5
5
6
5
3
2
1
3
3
4
6
6
5
7
7
5
4
5
7
6
7
8
9
8
7
7
2
0
0
0
0
0
0
0
0
0
0
0
0
0
0
0
0
0
0
0
0
0
0
0
0
0
0
0
0
0
0
0
0
0
0
0
0
0
0
0
0
0
0
0
0
0
0
0
0
0
14
16
18
18
18
18
19
17
18
16
19
20
19
19
20
20
21
21
21
22
22
22
24
24
24
25
24
23
25
25
24
26
27
27
28
28
28
30
27
28
26
28
28
28
27
28
28
28
30
28
28
31
31
30
30
30
29
30
30
30
31
32
33
32
31
30
28
28
31
32
31
31
30
31
30
30
31
30
30
30
30
26
0
0
12
21
11
0
0
0
0
0
0
0
0
0
0
0
0
0
0
0
0
0
0
0
0
0
0
0
0
0
0
0
0
0
0
0
0
0
0
0
0
0
0
0
0
0
0
0
0
0
0
0
0
0
0
0
0
0
0
22
20
20
20
21
21
21
21
20
20
19
19
19
18
18
17
15
15
14
12
12
11
10
9
10
10
9
8
7
6
6
5
4
3
2
1
1
0
0
0
0
0
0
0
0
0
0
0
0
0
0
0
0
0
0
0
0
0
0
0
0
0
0
0
0
0
0
0
0
0
0
0
0
0
0
0
0
0
0
0
0
0
0
0
0
0
0
0
0
0
0
0
0
0
0
0
0
0
0
0
0
0
0
0
0
0
0
0
0
0
0
0
0
0
0
0
0
0
0
0
0
0
0
0
0
0
0
0
0
0
1
1
2
0
2
1
2
1
1
0
0
2
0
0
3
2
1
1
0
0
0
0
0
0
0
0
0
0
0
0
0
0
0
0
0
0
0
0
0
0
0
0
0
0
0
0
0
0
0
0
0
0
0
0
0
0
0
0
0
0
0
0
0
0
0
0
0
0
0
0
0
0
0
0
0
0
0
0
0
4
12
15
15
14
16
13
16
18
15
16
17
18
20
20
19
19
21
23
22
22
22
22
22
23
23
25
24
27
26
25
26
27
26
27
26
26
26
27
27
27
27
27
27
28
28
29
30
29
31
31
30
29
29
29
31
31
31
31
31
31
31
31
30
28
25
25
26
28
29
30
29
30
30
30
31
28
30
29
30
29
30
22
0
0
0
0
0
0
0
0
0
0
0
0
0
0
0
0
0
0
0
0
0
0
0
0
0
0
0
0
0
0
0
0
0
0
0
0
0
0
0
0
0
0
0
0
0
0
0
0
0
0
0
0
0
0
0
0
0
0
21
20
21
20
20
20
21
21
20
20
18
17
18
17
17
16
14
13
13
11
10
9
9
8
8
8
7
7
6
7
5
3
3
2
1
0
0
0
0
0
0
0
0
0
0
0
0
0
0
0
0
0
0
0
0
0
0
0
0
0
0
0
0
0
0
0
0
0
0
0
0
0
0
0
0
0
0
0
0
0
0
0
0
0
0
0
0
0
0
0
0
0
0
0
0
0
0
0
0
0
0
0
0
0
0
0
0
0
0
0
0
0
0
0
0
0
0
0
0
0
0
0
0
0
0
0
0
0
0
0
0
0
0
0
0
0
0
0
0
0
0
0
0
0
0
1
0
0
0
0
0
0
0
0
0
0
0
0
0
0
0
0
0
0
0
0
0
0
0
0
0
0
0
0
0
0
0
0
0
0
0
0
0
0
0
0
0
0
0
0
0
0
0
0
0
0
0
0
0
0
0
0
0
0
0
0
0
0
0
0
0
0
9
16
15
17
15
14
13
13
14
16
17
18
18
18
16
17
21
21
21
23
23
23
25
23
24
24
23
26
25
24
27
25
27
27
28
26
26
27
28
29
28
29
29
29
28
28
30
29
29
28
28
28
29
30
31
28
31
32
31
30
31
30
30
29
29
28
28
28
27
28
25
26
29
30
30
30
31
30
28
28
28
19
0
0
0
0
0
0
0
0
0
0
0
0
0
0
0
0
0
0
0
0
0
0
0
0
0
0
0
0
0
0
0
0
0
0
0
0
0
0
0
0
0
0
0
0
0
0
0
0
0
0
0
0
0
0
0
0
22
19
20
20
20
20
21
21
19
19
18
18
17
16
16
15
15
14
12
11
10
10
9
8
8
7
6
6
5
4
3
2
2
2
0
0
0
0
0
0
0
0
0
0
0
0
0
0
0
0
0
0
0
0
0
0
0
0
0
0
0
0
0
0
0
0
0
0
0
0
0
0
0
0
0
0
0
0
0
0
0
0
0
0
0
0
0
0
0
0
0
0
0
0
0
0
0
0
0
0
0
0
0
0
0
0
0
0
0
0
0
0
0
0
0
0
0
0
0
0
0
0
0
0
0
0
0
0
0
0
0
0
0
0
0
0
0
0
0
0
0
0
0
0
0
0
0
0
0
0
0
0
0
0
0
0
0
0
0
0
0
0
0
0
0
0
0
0
0
0
0
0
0
0
0
0
0
0
0
0
0
0
0
0
0
0
0
0
0
0
0
0
0
0
0
0
0
0
0
0
0
0
0
0
0
0
0
0
0
0
0
0
0
2
9
11
12
11
12
12
14
15
17
16
16
17
17
19
19
18
20
19
19
21
24
23
21
23
25
26
25
24
24
25
24
27
27
28
25
27
26
28
30
25
26
21
15
20
18
18
28
29
27
29
28
26
30
29
29
28
30
30
27
27
30
30
31
29
29
30
30
31
28
29
29
29
29
30
29
28
28
28
26
30
0
0
0
0
0
0
0
0
0
0
0
0
0
0
0
0
0
0
0
0
0
0
0
0
0
0
0
0
0
0
0
0
0
0
0
0
0
0
0
0
0
0
0
0
0
0
0
0
12
0
0
0
0
0
0
0
23
20
21
22
21
21
20
20
19
19
19
19
19
17
17
16
16
15
14
14
14
12
11
11
10
9
8
7
6
5
5
5
3
2
1
0
0
0
0
0
0
0
0
0
0
0
0
0
0
0
0
0
0
0
0
0
0
0
0
0
0
0
0
0
0
0
0
0
0
0
0
0
0
0
0
0
0
0
0
0
0
0
0
0
0
0
0
0
0
0
0
0
0
0
0
0
0
0
0
0
0
0
0
0
0
0
0
0
0
0
0
0
0
0
0
0
0
0
0
0
0
0
0
0
0
0
0
0
0
0
0
0
0
0
0
0
0
0
0
0
0
0
0
0
0
0
0
0
0
0
0
0
0
0
0
0
0
0
0
0
0
0
0
0
0
0
0
0
0
0
0
0
0
0
0
0
0
0
0
0
0
0
0
0
0
0
0
0
0
0
0
0
0
0
0
0
0
0
0
0
0
0
0
0
0
0
0
0
0
0
0
0
0
0
0
0
5
10
13
11
12
13
13
12
12
15
18
19
19
18
20
21
20
21
22
22
21
21
23
25
23
24
24
25
23
23
24
22
24
23
24
25
25
26
25
25
23
18
20
17
24
26
26
27
27
28
27
26
26
25
27
26
23
23
27
27
28
28
26
28
29
28
28
28
29
28
28
26
27
28
25
23
25
13
0
0
0
0
0
0
0
0
0
0
0
0
0
0
0
0
0
0
0
0
0
0
0
0
0
0
0
0
0
0
0
0
0
0
0
0
0
0
0
0
0
0
0
0
0
0
0
0
22
4
0
0
0
0
0
0
22
19
19
19
20
20
19
20
20
20
18
18
17
16
17
15
16
15
13
13
13
13
12
11
10
9
8
8
7
7
6
6
4
3
3
1
0
0
0
0
0
0
0
0
0
0
0
0
0
0
0
0
0
0
0
0
0
0
0
0
0
0
0
0
0
0
0
0
0
0
0
0
0
0
0
0
0
0
0
0
0
0
0
0
0
0
0
0
0
0
0
0
0
0
0
0
0
0
0
0
0
0
0
0
0
0
0
0
0
0
0
0
0
0
0
0
0
0
0
0
0
0
0
0
0
0
0
0
0
0
0
0
0
0
0
0
0
0
0
0
0
0
0
0
0
0
0
0
0
0
0
1
0
0
0
0
0
0
0
0
0
0
0
0
0
0
0
0
0
0
0
0
0
0
0
0
0
0
0
0
0
0
0
0
0
0
0
0
0
0
0
0
0
0
0
0
0
0
0
0
0
0
0
0
0
0
0
0
0
0
0
0
0
0
0
0
0
0
0
2
6
11
11
13
15
15
18
17
17
17
17
18
17
18
19
18
22
23
21
23
21
22
21
20
22
21
16
14
14
17
20
23
24
21
22
23
23
22
22
21
22
21
21
20
22
21
23
23
25
25
24
24
25
24
25
24
26
28
28
26
26
25
25
24
25
26
27
26
26
26
26
24
26
0
0
0
0
0
0
0
0
0
0
0
0
0
0
0
0
0
0
0
0
0
0
0
0
0
0
0
0
0
0
5
0
0
0
0
0
0
0
0
0
0
0
0
0
0
0
0
0
0
18
20
0
0
0
0
0
0
21
16
20
19
19
19
19
18
18
17
19
17
16
16
15
14
15
14
13
12
13
12
12
11
9
8
8
8
7
6
4
4
3
3
2
2
1
0
0
0
0
0
0
0
0
0
0
0
0
0
0
0
0
0
0
0
0
0
0
0
0
0
0
0
0
0
0
0
0
0
0
0
0
0
0
0
0
0
0
0
0
0
0
0
0
0
0
0
0
0
0
0
0
0
0
0
0
0
0
0
0
0
0
0
0
0
0
0
0
0
0
0
0
0
0
0
0
0
0
0
0
0
0
0
0
0
0
0
0
0
0
0
0
0
0
0
0
0
0
0
0
0
0
0
0
0
0
0
0
0
0
0
0
0
0
0
0
0
0
0
0
0
0
0
0
0
0
0
0
0
0
0
0
0
0
0
0
0
0
0
0
0
0
0
0
0
0
0
0
0
0
0
0
0
0
0
0
0
0
0
0
0
0
0
0
0
0
0
0
0
0
0
0
0
0
0
0
0
0
1
0
0
4
10
16
16
15
14
18
17
18
17
15
17
20
19
18
17
20
18
19
21
20
19
17
15
11
8
11
7
8
9
20
21
22
22
23
20
23
22
21
22
21
20
21
22
22
22
22
22
22
21
22
24
23
25
24
24
23
23
22
22
22
21
21
21
23
25
25
25
24
26
11
0
0
0
0
0
0
0
0
0
0
0
0
0
0
0
0
0
0
0
0
0
0
0
0
0
0
0
0
0
0
22
24
20
19
0
0
0
0
0
0
0
11
14
0
0
0
0
0
0
0
21
0
0
0
0
0
0
13
15
16
19
19
20
19
18
17
16
16
16
15
14
15
13
14
13
12
11
10
9
9
10
10
8
7
7
7
6
6
5
4
3
3
3
1
0
0
0
0
0
0
0
0
0
0
0
0
0
0
0
0
0
0
0
0
0
0
0
0
0
0
0
0
0
0
0
0
0
0
0
0
0
0
0
0
0
0
0
0
0
0
0
0
0
0
0
0
0
0
0
0
0
0
0
0
0
0
0
0
0
0
0
0
0
0
0
0
0
0
0
0
0
0
0
0
0
0
0
0
0
0
0
0
0
0
0
0
0
0
0
0
0
0
0
0
0
0
0
0
0
0
0
0
0
0
0
0
0
0
0
0
0
0
0
0
0
0
0
0
0
0
0
0
0
0
0
0
0
0
0
0
0
0
0
0
0
0
0
0
0
0
0
0
0
0
0
0
0
0
0
0
0
0
0
0
0
0
0
0
0
0
0
0
0
0
0
0
0
0
0
0
0
0
0
0
0
2
0
0
0
2
1
0
1
9
13
14
13
17
15
16
20
20
19
17
17
15
15
16
16
15
15
17
15
9
10
8
8
7
8
13
14
18
19
20
19
20
21
17
19
20
21
21
21
19
20
21
21
21
21
20
20
21
22
22
22
21
20
21
22
22
20
21
20
21
21
21
21
22
20
7
0
0
0
0
0
0
0
0
0
0
0
0
0
0
1
12
0
0
0
0
0
0
0
0
0
0
0
0
0
0
21
19
20
21
20
17
18
17
19
19
19
18
21
0
0
0
0
0
0
0
19
1
0
0
0
0
0
13
19
19
18
18
15
17
17
18
17
18
14
14
13
14
13
12
11
11
11
11
10
9
7
7
6
6
6
6
5
4
2
2
2
0
1
0
0
0
0
0
0
0
0
0
0
0
0
0
0
0
0
0
0
0
0
0
0
0
0
0
0
0
0
0
0
0
0
0
0
0
0
0
0
0
0
0
0
0
0
0
0
0
0
0
0
0
0
0
0
0
0
0
0
0
0
0
0
0
0
0
0
0
0
0
0
0
0
0
0
0
0
0
0
0
0
0
0
0
0
0
0
0
0
0
0
0
0
0
0
0
0
0
0
0
0
0
0
0
0
0
0
0
0
0
0
0
0
0
0
0
0
0
0
0
0
0
0
0
0
0
0
0
0
0
0
0
0
0
0
0
0
0
0
0
0
0
0
0
0
0
0
0
3
0
0
0
0
0
0
0
0
0
0
0
0
0
2
0
0
0
0
0
0
0
0
0
0
0
0
0
0
0
3
1
0
0
0
0
0
0
0
1
0
0
2
0
4
13
15
14
17
16
15
14
17
18
18
19
20
16
18
19
18
20
19
16
14
15
14
15
16
17
15
13
16
14
13
14
14
14
15
17
18
20
18
18
19
19
18
19
16
16
17
14
17
18
20
21
20
19
19
19
21
20
18
19
19
20
20
19
17
17
0
0
0
0
0
0
0
0
0
0
0
0
0
0
23
18
6
0
0
0
0
0
1
20
0
0
0
0
0
0
20
19
18
19
18
19
20
19
19
17
18
18
18
19
0
0
0
0
0
0
20
15
0
0
0
0
0
11
16
18
16
17
17
17
16
15
18
16
16
15
12
12
12
12
11
10
9
9
7
7
7
7
6
5
5
4
4
3
1
1
1
0
0
0
0
0
0
0
0
0
0
0
0
0
0
0
0
0
0
0
0
0
0
0
0
0
0
0
0
0
0
0
0
0
0
0
0
0
0
0
0
0
0
0
0
0
0
0
0
0
0
0
0
0
0
0
0
0
0
0
0
0
0
0
0
0
0
0
0
0
0
0
0
0
0
0
0
0
0
0
0
0
0
0
0
0
0
0
0
0
0
0
0
0
0
0
0
0
0
0
0
0
0
0
0
0
0
0
0
0
0
0
0
0
0
0
0
0
0
0
0
0
0
0
0
0
0
0
0
0
0
0
0
0
0
0
0
0
0
0
0
0
0
0
0
0
0
0
2
0
0
0
0
0
0
0
0
0
0
0
0
0
0
0
0
0
0
0
0
0
0
0
0
1
0
0
0
0
0
0
0
0
0
0
0
0
0
0
0
0
0
0
0
0
0
1
4
10
13
14
15
15
14
14
15
16
15
18
17
18
19
18
16
19
17
15
17
15
15
14
14
13
18
16
16
15
15
16
16
14
14
18
17
17
14
13
11
16
17
17
15
16
15
16
18
19
19
18
18
18
19
18
17
17
17
18
18
16
14
17
0
0
0
0
0
0
0
0
0
0
0
0
0
14
10
12
12
0
0
11
18
17
18
17
1
0
0
0
0
0
20
17
16
18
18
18
18
19
17
18
16
18
17
21
0
0
0
0
0
1
14
15
0
0
0
0
0
12
17
16
17
15
13
12
12
15
14
16
13
11
12
13
11
12
11
10
8
9
8
7
6
5
4
4
3
3
2
1
0
0
0
0
0
0
0
0
0
0
0
0
0
0
0
0
0
0
0
0
0
0
0
0
0
0
0
0
0
0
0
0
0
0
0
0
0
0
0
0
0
0
0
0
0
0
0
0
0
0
0
0
0
0
0
0
0
0
0
0
0
0
0
0
0
0
0
0
0
0
0
0
0
0
0
0
0
0
0
0
0
0
0
0
0
0
0
0
0
0
0
0
0
0
0
0
0
0
0
0
0
0
0
0
0
0
0
0
0
0
0
0
0
0
0
0
0
0
0
0
0
0
0
0
0
0
0
0
0
0
0
0
0
0
0
0
0
0
0
0
0
0
0
0
0
0
0
0
0
0
0
0
0
0
0
0
0
0
0
0
0
0
0
0
0
0
0
0
0
0
0
0
0
0
0
0
0
0
0
0
0
0
0
0
0
0
0
0
0
0
0
0
0
0
0
0
0
0
0
0
0
1
2
10
14
12
8
11
13
12
12
12
12
10
14
12
14
14
14
15
16
17
16
17
14
15
16
16
17
14
15
13
16
17
15
10
13
11
9
11
10
17
19
17
16
17
17
15
16
18
18
18
16
17
17
17
16
17
17
16
14
16
0
0
0
0
0
0
0
0
0
0
0
0
4
12
13
12
14
15
15
14
14
15
16
14
6
0
0
0
0
0
18
16
15
14
16
14
19
17
19
18
17
15
19
19
0
0
0
0
0
15
15
13
0
0
0
0
0
10
18
15
18
16
15
13
14
14
16
14
14
12
13
13
12
12
11
9
9
11
8
6
5
6
6
5
4
2
2
1
0
0
0
0
0
0
0
0
0
0
0
0
0
0
0
0
0
0
0
0
0
0
0
0
0
0
0
0
0
0
0
0
0
0
0
0
0
0
0
0
0
0
0
0
0
0
0
0
0
0
0
0
0
0
0
0
0
0
0
0
0
0
0
0
0
0
0
0
0
0
0
0
0
0
0
0
0
0
0
0
0
0
0
0
0
0
0
0
0
0
0
0
0
0
0
0
0
0
0
0
0
0
0
0
0
0
0
0
0
0
0
0
0
0
0
0
0
0
0
0
0
0
0
0
0
0
0
0
0
0
0
0
0
0
0
0
0
0
0
0
0
0
0
0
0
0
0
0
0
0
0
0
0
0
0
0
0
0
0
0
0
0
0
0
0
0
0
0
0
0
0
0
0
0
0
0
0
0
0
0
0
0
0
0
0
0
0
0
0
0
0
0
0
0
0
0
0
0
0
0
0
0
0
0
0
4
0
0
3
2
7
3
4
9
10
9
7
11
11
11
9
13
13
13
12
15
16
17
15
13
15
14
13
10
11
11
14
11
9
12
12
13
15
18
17
17
18
17
17
17
16
17
16
17
16
16
16
16
15
14
13
16
0
0
0
0
0
0
0
0
0
0
0
0
14
12
12
13
12
13
14
15
15
14
15
18
13
0
0
0
0
0
13
12
13
13
15
13
15
13
15
16
17
15
15
18
1
0
0
0
0
19
13
12
0
0
0
0
0
4
14
14
15
13
14
14
13
14
14
14
12
13
13
13
12
12
10
8
8
7
7
7
6
5
4
3
2
2
1
2
1
0
0
0
0
0
0
0
0
0
0
0
0
0
0
0
0
0
0
0
0
0
0
0
0
0
0
0
0
0
0
0
0
0
0
0
0
0
0
0
0
0
0
0
0
0
0
0
0
0
0
0
0
0
0
0
0
0
0
0
0
0
0
0
0
0
0
0
0
0
0
0
0
0
0
0
0
0
0
0
0
0
0
0
0
0
0
0
0
0
0
0
0
0
0
0
0
0
0
0
0
0
0
0
0
0
0
0
0
0
0
0
0
0
0
0
0
0
0
0
0
0
0
0
0
0
0
0
0
0
0
0
0
0
0
0
0
0
0
0
0
0
0
0
0
0
0
0
0
0
0
0
0
0
0
0
0
0
0
0
0
0
0
0
0
0
0
0
0
0
0
0
0
0
0
0
0
0
0
0
0
0
0
0
0
0
0
0
0
0
0
0
0
0
0
0
0
0
0
0
0
0
0
0
0
0
0
0
0
0
0
0
0
0
0
0
0
2
3
0
6
6
8
10
12
13
14
14
16
15
16
17
16
14
13
14
14
10
12
11
11
11
14
15
14
14
17
18
19
19
17
18
17
19
17
16
14
13
12
12
12
11
0
0
0
0
0
0
0
0
0
0
0
6
13
14
14
13
14
14
13
15
15
14
15
15
19
0
0
0
0
0
17
13
13
14
14
13
13
14
15
14
14
13
12
17
0
0
0
0
0
17
14
14
0
0
0
0
0
2
13
11
13
13
13
12
13
12
12
11
11
12
12
11
10
11
9
7
6
3
4
4
4
3
3
3
3
1
1
1
0
0
0
0
0
0
0
0
0
0
0
0
0
0
0
0
0
0
0
0
0
0
0
0
0
0
0
0
0
0
0
0
0
0
0
0
0
0
0
0
0
0
0
0
0
0
0
0
0
0
0
0
0
0
0
0
0
0
0
0
0
0
0
0
0
0
0
0
0
0
0
0
0
0
0
0
0
0
0
0
0
0
0
0
0
0
0
0
0
0
0
0
0
0
0
0
0
0
0
0
0
0
0
0
0
0
0
0
0
0
0
0
0
0
0
0
0
0
0
0
0
0
0
0
0
0
0
0
0
0
0
0
0
0
0
0
0
0
0
0
0
0
0
0
0
0
0
0
0
0
0
0
0
0
0
0
0
0
0
0
0
0
0
0
0
0
0
0
0
0
0
0
0
0
0
0
0
0
0
0
0
0
0
0
0
0
0
0
0
0
0
0
0
0
0
0
0
0
0
0
0
0
0
0
0
0
0
0
0
0
0
0
0
0
0
0
0
0
0
0
0
0
0
0
0
1
0
4
7
7
8
12
13
16
13
18
14
17
13
13
13
13
13
9
13
15
16
17
16
14
15
15
14
15
15
16
17
15
15
13
13
0
0
0
0
0
0
0
0
0
0
0
0
15
13
13
15
13
15
15
13
15
15
14
13
14
16
0
0
0
0
0
1
18
16
15
14
14
13
14
13
14
16
14
13
15
0
0
0
0
9
13
14
13
0
0
0
0
0
0
12
11
13
13
13
12
11
10
10
10
9
9
8
8
7
9
8
6
3
0
0
2
3
4
0
1
0
0
0
0
0
0
0
0
0
0
0
0
0
0
0
0
0
0
0
0
0
0
0
0
0
0
0
0
0
0
0
0
0
0
0
0
0
0
0
0
0
0
0
0
0
0
0
0
0
0
0
0
0
0
0
0
0
0
0
0
0
0
0
0
0
0
0
0
0
0
0
0
0
0
0
0
0
0
0
0
0
0
0
0
0
0
0
0
0
0
0
0
0
0
0
0
0
0
0
0
0
0
0
0
0
0
0
0
0
0
0
0
0
0
0
0
0
0
0
0
0
0
0
0
0
0
0
0
0
0
0
0
0
0
0
0
0
0
0
0
0
0
0
0
0
0
0
0
0
0
0
0
0
0
0
0
0
0
0
0
0
0
0
0
0
0
0
0
0
0
0
0
0
0
0
0
0
0
0
0
0
0
0
0
0
0
0
0
0
0
0
0
0
0
0
0
0
0
0
0
0
0
0
0
0
0
0
0
0
0
0
0
0
0
0
0
0
0
0
0
0
0
0
0
0
0
0
0
0
0
0
0
0
0
0
1
0
1
2
8
13
10
12
13
14
14
14
14
16
16
17
16
18
15
17
16
15
15
14
17
14
16
16
11
14
0
0
0
0
0
0
0
0
0
0
0
16
13
13
14
13
16
14
14
16
15
15
14
16
13
17
0
0
0
0
0
0
16
14
14
13
13
13
13
10
13
14
12
9
14
0
0
0
0
13
13
10
9
0
0
0
0
0
0
12
10
11
13
12
13
12
10
12
8
8
9
7
7
6
7
5
7
8
5
3
4
4
2
2
0
0
0
0
0
0
0
0
0
0
0
0
0
0
0
0
0
0
0
0
0
0
0
0
0
0
0
0
0
0
0
0
0
0
0
0
0
0
0
0
0
0
0
0
0
0
0
0
0
0
0
0
0
0
0
0
0
0
0
0
0
0
0
0
0
0
0
0
0
0
0
0
0
0
0
0
0
0
0
0
0
0
0
0
0
0
0
0
0
0
0
0
0
0
0
0
0
0
0
0
0
0
0
0
0
0
0
0
0
0
0
0
0
0
0
0
0
0
0
0
0
0
0
0
0
0
0
0
0
0
0
0
0
0
0
0
0
0
0
0
0
0
0
0
0
0
0
0
0
0
0
0
0
0
0
0
0
0
0
0
0
0
0
0
0
0
0
0
0
0
0
0
0
0
0
0
0
0
0
0
0
0
0
0
0
0
0
0
0
0
0
0
0
0
0
0
0
0
0
0
0
0
0
0
0
0
0
0
0
0
0
0
0
0
0
0
0
0
0
0
0
0
0
0
0
0
0
0
0
0
0
0
0
0
0
0
0
0
0
0
0
2
0
0
0
0
0
6
0
2
3
11
13
13
14
16
16
17
17
17
16
11
13
12
13
16
0
0
0
0
0
0
0
0
0
0
10
12
13
14
14
14
14
13
15
17
16
14
15
16
16
15
0
0
0
0
0
0
0
15
14
14
13
14
13
13
13
12
14
10
12
0
0
0
0
14
10
10
11
11
0
0
0
0
0
10
10
12
10
10
12
10
11
9
8
7
8
10
8
7
8
5
6
6
5
4
4
3
2
1
1
0
0
0
0
0
0
0
0
0
0
0
0
0
0
0
0
0
0
0
0
0
0
0
0
0
0
0
0
0
0
0
0
0
0
0
0
0
0
0
0
0
0
0
0
0
0
0
0
0
0
0
0
0
0
0
0
0
0
0
0
0
0
0
0
0
0
0
0
0
0
0
0
0
0
0
0
0
0
0
0
0
0
0
0
0
0
0
0
0
0
0
0
0
0
0
0
0
0
0
0
0
0
0
0
0
0
0
0
0
0
0
0
0
0
0
0
0
0
0
0
0
0
0
0
0
0
0
0
0
0
0
0
0
0
0
0
0
0
0
0
0
0
0
0
0
0
0
0
0
0
0
0
0
0
0
0
0
0
0
0
0
0
0
0
0
0
0
0
0
0
0
0
0
0
0
0
0
0
0
0
0
0
0
0
0
0
0
0
0
0
0
0
0
0
0
0
0
0
0
0
0
0
0
0
0
0
0
0
0
0
0
0
0
0
0
0
0
0
0
0
0
0
0
0
0
0
0
0
0
0
0
0
0
0
0
0
0
0
0
0
0
0
0
0
0
0
0
0
0
0
0
2
0
0
0
4
2
4
3
0
4
7
12
13
8
0
0
0
0
0
0
0
0
0
13
14
13
12
13
14
12
12
14
15
14
15
17
17
15
14
5
0
0
0
0
0
0
0
16
12
13
14
12
12
11
12
13
8
5
7
0
0
0
0
11
7
8
7
6
6
0
0
0
0
7
10
9
11
8
8
11
9
9
8
8
8
6
6
8
7
6
5
4
3
4
2
2
2
0
0
0
0
0
0
0
0
0
0
0
0
0
0
0
0
0
0
0
0
0
0
0
0
0
0
0
0
0
0
0
0
0
0
0
0
0
0
0
0
0
0
0
0
0
0
0
0
0
0
0
0
0
0
0
0
0
0
0
0
0
0
0
0
0
0
0
0
0
0
0
0
0
0
0
0
0
0
0
0
0
0
0
0
0
0
0
0
0
0
0
0
0
0
0
0
0
0
0
0
0
0
0
0
0
0
0
0
0
0
0
0
0
0
0
0
0
0
0
0
0
0
0
0
0
0
0
0
0
0
0
0
0
0
0
0
0
0
0
0
0
0
0
0
0
0
0
0
0
0
0
0
0
0
0
0
0
0
0
0
0
0
0
0
0
0
0
0
0
0
0
0
0
0
0
0
0
0
0
0
0
0
0
0
0
0
0
0
0
0
0
0
0
0
0
0
0
0
0
0
0
0
0
0
0
0
0
0
0
0
0
0
0
0
0
0
0
0
0
0
0
0
0
0
0
0
0
0
0
0
0
0
0
0
0
0
0
0
0
0
0
0
0
0
0
0
0
0
0
0
0
0
0
0
0
0
0
0
0
0
0
0
0
0
0
0
0
0
0
0
0
0
0
0
0
0
0
9
12
12
13
15
12
16
15
15
14
14
17
15
15
16
0
0
0
0
0
0
0
0
2
12
13
12
12
13
14
12
9
6
8
0
0
0
0
2
7
6
6
10
5
5
0
0
0
0
0
6
8
8
6
7
7
7
5
8
6
7
8
5
6
4
4
0
1
3
2
0
0
0
2
0
0
0
0
0
0
0
0
0
0
0
0
0
0
0
0
0
0
0
0
0
0
0
0
0
0
0
0
0
0
0
0
0
0
0
0
0
0
0
0
0
0
0
0
0
0
0
0
0
0
0
0
0
0
0
0
0
0
0
0
0
0
0
0
0
0
0
0
0
0
0
0
0
0
0
0
0
0
0
0
0
0
0
0
0
0
0
0
0
0
0
0
0
0
0
0
0
0
0
0
0
0
0
0
0
0
0
0
0
0
0
0
0
3
0
0
0
0
0
0
0
0
0
0
0
0
0
0
0
0
0
0
0
0
0
0
0
0
0
0
0
0
0
0
0
0
0
0
0
0
0
0
0
0
0
0
0
0
0
0
0
0
0
0
0
0
0
0
0
0
0
0
0
0
0
0
0
0
0
0
0
0
0
0
0
0
0
0
0
0
0
0
0
0
0
0
0
0
0
0
0
0
0
0
0
0
0
0
0
0
0
0
0
0
0
0
0
0
0
0
0
0
0
0
0
0
0
0
0
0
0
0
0
0
0
0
0
0
0
0
0
0
0
0
0
0
0
0
0
0
0
0
0
0
0
0
0
0
0
0
0
0
0
0
0
0
0
0
0
0
0
0
0
0
0
0
0
0
0
0
0
1
4
7
5
7
9
11
10
5
7
0
0
0
0
0
0
0
0
6
11
11
11
13
11
10
12
11
9
11
0
0
0
0
5
4
5
4
8
5
4
0
0
0
0
0
10
7
7
5
4
3
2
3
4
5
3
2
3
0
0
3
0
0
0
3
1
0
0
0
0
0
0
0
0
0
0
0
0
0
0
0
0
0
0
0
0
0
0
0
0
0
0
0
0
0
0
0
0
0
0
0
0
0
0
0
0
0
0
0
0
0
0
0
0
0
0
0
0
0
0
0
0
0
0
0
0
0
0
0
0
0
0
0
0
0
0
0
0
0
0
0
0
0
0
0
0
0
0
0
0
0
0
0
0
0
0
0
0
0
0
0
0
0
0
0
0
0
0
0
0
0
0
0
0
0
0
0
0
0
0
0
0
0
0
0
0
0
0
0
0
0
0
0
0
0
0
0
0
0
0
0
0
0
0
0
0
0
0
0
0
0
0
0
0
0
0
0
0
0
0
0
0
0
2
0
0
0
0
0
0
0
0
0
0
0
0
0
0
0
0
0
0
0
0
0
0
0
0
0
0
0
0
0
0
0
0
0
0
0
0
0
0
0
0
0
0
0
0
0
0
0
0
0
0
0
0
0
0
0
0
0
0
0
0
0
0
0
0
0
0
0
0
0
0
0
0
0
0
0
0
0
0
0
0
0
0
0
0
0
0
0
0
0
0
0
0
0
0
0
0
0
0
0
0
0
0
0
0
0
0
0
0
0
0
0
0
0
0
0
0
0
0
0
0
0
0
0
0
0
0
0
0
0
0
0
0
0
0
0
0
0
0
0
0
0
0
0
0
2
10
9
12
12
12
12
10
12
9
0
0
0
0
0
6
1
5
7
1
3
2
3
0
0
0
0
3
5
3
3
2
0
1
0
4
3
1
1
0
0
0
0
0
0
0
0
0
0
0
0
0
0
0
0
0
0
0
0
0
0
0
0
0
0
0
0
0
0
0
0
0
0
0
0
0
0
0
0
0
0
0
0
0
0
0
0
0
0
0
0
0
0
0
0
0
0
0
0
0
0
0
0
0
0
0
0
0
0
0
0
0
0
0
0
0
0
0
0
0
0
0
0
0
0
0
0
0
0
0
0
0
0
0
0
0
0
0
0
0
0
0
0
0
0
0
0
0
0
0
0
0
0
0
0
0
0
0
0
0
0
0
0
0
0
0
0
0
0
0
0
0
0
0
0
0
0
0
0
0
0
0
0
0
0
0
0
0
0
0
0
0
0
0
0
0
0
0
0
0
0
0
0
0
0
0
0
0
0
0
0
0
0
0
0
0
0
0
0
0
0
0
0
0
0
0
0
0
0
0
0
0
0
0
0
0
0
0
0
0
0
0
0
0
0
0
0
0
0
0
0
0
0
0
0
0
0
0
0
0
0
0
0
0
0
0
0
0
0
0
0
0
0
0
0
0
0
0
0
0
0
0
0
0
0
0
0
0
0
0
0
0
0
0
0
0
0
0
0
0
0
0
0
0
0
0
0
0
0
0
0
0
0
0
0
0
0
0
0
0
0
0
0
0
0
0
0
0
0
0
0
0
0
0
0
0
0
0
0
0
0
0
0
0
0
0
0
0
0
0
0
0
0
0
0
0
4
5
3
0
0
0
0
0
0
2
2
0
6
4
3
4
3
0
0
0
0
6
6
6
2
3
1
0
1
1
0
0
0
0
0
0
0
0
0
0
0
0
0
0
0
0
0
0
0
0
0
0
0
0
0
0
0
0
0
0
0
0
0
0
0
0
0
0
0
0
0
0
0
0
0
0
0
0
0
0
0
0
0
0
0
0
0
0
0
0
0
0
0
0
0
0
0
0
0
0
0
0
0
0
0
0
0
0
0
0
0
0
0
0
0
0
0
0
0
0
0
0
0
0
0
0
0
0
0
0
0
0
0
0
0
0
0
0
0
0
0
0
0
0
0
0
0
0
0
0
0
0
0
0
0
0
0
0
0
0
0
0
0
0
0
0
0
0
0
0
0
0
5
0
0
0
0
0
0
0
0
0
0
0
0
0
0
0
0
0
0
0
0
0
0
0
0
0
0
0
0
0
0
0
0
0
0
0
0
0
0
0
0
0
0
0
0
0
0
0
0
0
0
0
0
0
0
0
0
0
0
0
0
0
0
0
0
0
0
0
0
0
0
0
0
0
0
0
0
0
0
0
0
0
0
0
0
0
0
0
0
0
0
0
0
0
0
0
0
0
0
0
0
0
0
0
0
0
0
0
0
0
0
0
0
0
0
0
0
0
0
0
0
0
0
0
0
0
0
0
0
0
0
0
0
0
0
0
0
0
0
0
0
0
0
0
0
0
0
0
0
0
0
0
0
0
0
0
0
0
0
0
0
0
0
0
0
0
0
0
0
0
0
0
0
0
0
0
0
0
0
0
0
0
0
0
0
0
0
0
0
0
0
0
0
0
0
0
0
0
0
0
0
0
0
1
0
0
2
0
0
0
0
0
0
0
0
0
0
0
0
0
0
0
0
0
0
0
0
0
0
0
0
0
0
0
0
0
0
0
0
0
0
0
0
0
0
0
0
0
0
0
0
0
0
0
0
0
0
0
0
0
0
0
0
0
0
0
0
0
0
0
0
0
0
0
0
0
0
0
0
0
0
0
0
0
0
0
0
0
0
0
0
0
0
0
0
0
0
0
0
0
0
0
0
0
0
0
0
0
0
0
0
0
0
0
0
0
0
0
0
0
0
0
0
0
0
0
0
0
0
0
0
0
0
0
0
0
0
0
0
0
0
0
0
0
0
0
0
0
0
0
0
0
0
0
0
0
0
0
0
0
0
0
0
0
0
0
0
0
0
0
0
0
0
0
0
0
0
0
0
0
0
0
0
0
3
0
0
0
0
0
0
0
0
0
0
0
0
0
0
0
0
0
0
0
0
0
0
0
0
0
0
0
0
0
0
0
0
0
0
0
0
0
0
0
0
0
0
0
0
0
0
0
0
0
0
0
0
0
0
0
0
0
0
0
0
0
0
0
0
0
0
0
0
0
0
0
0
0
0
0
0
0
0
0
0
0
0
0
0
0
0
0
0
0
0
0
0
0
0
0
0
0
0
0
0
0
0
0
0
0
0
0
0
0
0
0
0
0
0
0
0
0
0
0
0
0
0
0
0
0
0
0
0
0
0
0
0
0
0
0
0
0
0
0
0
0
0
0
0
0
0
0
0
0
0
0
0
0
0
0
0
0
0
0
0
0
0
0
0
0
0
0
0
0
0
0
0
0
0
0
0
0
0
0
0
0
0
0
0
0
0
0
0
0
0
0
0
0
0
0
0
0
0
0
0
0
0
0
0
0
0
0
0
0
0
0
0
0
0
0
0
0
0
0
0
0
0
0
0
0
0
0
0
0
0
0
0
0
0
0
0
0
0
0
0
0
0
0
0
0
0
0
0
0
0
0
0
0
0
0
0
0
0
0
0
0
0
0
0
0
0
0
0
0
0
0
0
0
0
0
0
0
0
0
0
0
0
0
0
0
0
0
0
0
0
0
0
0
0
0
0
0
0
0
0
0
0
0
0
0
0
0
0
0
0
0
0
0
0
0
0
0
0
0
0
0
0
0
0
0
0
0
0
0
0
0
0
0
0
0
0
0
0
0
0
0
0
0
0
0
0
0
0
0
0
0
0
0
0
0
0
0
0
0
0
0
0
0
0
0
0
0
0
0
0
0
0
0
0
0
0
0
0
0
0
0
0
0
0
0
0
0
0
0
0
0
0
0
0
0
0
0
0
0
0
0
0
0
0
0
0
0
0
0
0
0
0
0
0
0
0
0
0
0
0
0
0
0
0
0
0
0
0
0
0
0
0
0
0
0
0
0
0
0
0
0
0
0
0
0
0
0
0
0
0
0
0
0
0
0
0
0
0
0
0
0
0
0
0
0
0
0
0
0
0
0
0
0
0
0
0
0
0
0
0
0
0
0
0
0
0
0
0
0
0
0
0
0
0
0
0
0
0
0
0
0
0
0
0
0
0
0
0
0
0
0
0
0
0
0
0
0
0
0
0
0
0
0
0
0
0
0
0
0
0
0
0
0
0
0
0
0
0
0
0
0
0
0
0
0
0
0
0
0
0
0
0
0
0
0
0
0
0
0
0
0
0
0
0
0
0
0
0
0
0
0
0
0
0
0
0
0
0
0
0
0
0
0
0
0
0
0
0
0
0
0
0
0
0
0
0
0
0
0
0
0
0
0
0
0
0
0
0
0
0
0
0
0
0
0
0
0
0
0
0
0
0
0
0
0
0
0
0
0
0
0
0
0
0
0
0
0
0
0
0
0
0
0
0
0
0
0
0
0
0
0
0
0
0
0
0
0
0
0
0
0
0
0
0
0
0
0
0
0
0
0
0
0
0
0
0
0
0
0
0
0
0
0
0
0
0
0
0
0
0
0
0
0
0
0
0
0
0
0
0
0
0
0
0
0
0
0
0
0
0
0
0
0
0
0
0
0
0
0
0
0
0
0
0
0
0
0
0
0
0
0
0
0
0
0
0
0
0
0
0
0
0
0
0
0
0
0
0
0
0
0
0
0
0
0
0
0
0
0
0
0
0
0
0
0
0
0
0
0
0
0
0
0
0
0
0
0
0
0
0
0
0
0
0
0
0
0
0
0
0
0
0
0
0
0
0
0
0
0
0
0
0
0
0
0
0
0
0
0
0
0
0
0
0
0
0
0
0
0
0
0
0
0
0
0
0
0
0
0
0
0
0
0
0
0
0
0
0
0
0
0
0
0
0
0
0
0
0
0
0
0
0
0
0
0
0
0
0
0
0
0
0
0
0
0
0
0
0
0
0
0
0
0
0
0
0
0
0
0
0
0
0
0
0
0
0
0
0
0
0
0
0
0
0
0
0
0
0
0
0
0
0
0
0
0
0
0
0
0
0
0
0
0
0
0
0
0
0
0
0
0
0
0
0
0
0
0
0
0
0
0
0
0
0
0
0
0
0
0
0
0
0
0
0
0
0
0
0
0
0
0
0
0
0
0
0
0
0
0
0
0
0
0
0
0
0
0
0
0
0
0
0
0
0
0
0
0
0
0
0
0
0
0
0
0
0
0
0
0
0
0
0
0
0
0
0
0
0
0
0
0
0
0
0
0
0
0
0
0
0
0
0
0
0
0
0
0
0
0
0
0
0
0
0
0
0
0
0
0
0
0
0
0
0
0
0
0
0
0
0
0
0
0
0
0
0
0
0
0
0
0
0
0
0
0
0
0
0
0
0
0
0
0
0
0
0
0
0
0
0
0
0
0
0
0
0
0
0
0
0
0
0
0
0
0
0
0
0
0
0
0
0
0
0
0
0
0
0
0
0
0
0
0
0
0
0
0
0
0
0
0
0
0
0
0
0
0
0
0
0
0
0
0
0
0
0
0
0
0
0
0
0
0
0
0
0
0
0
0
0
0
0
0
0
0
0
0
0
0
0
0
0
0
0
0
0
0
0
0
0
0
0
0
0
0
0
0
0
0
0
0
0
0
0
0
0
0
0
0
0
0
0
0
0
0
0
0
0
0
0
0
0
0
0
0
0
0
0
0
0
0
0
0
0
0
0
0
0
0
0
0
0
0
0
0
0
0
0
0
0
0
0
0
0
0
0
0
0
0
0
0
0
0
0
0
0
0
0
0
0
0
0
0
0
0
0
0
0
0
0
0
0
0
0
0
0
0
0
0
0
0
0
0
0
0
0
0
0
0
0
0
0
0
0
0
0
0
0
0
0
0
0
0
0
0
0
0
0
0
0
0
0
0
0
0
0
0
0
0
0
0
0
0
0
0
0
0
0
0
0
0
0
0
0
0
0
0
0
0
0
0
0
0
0
0
0
0
0
0
0
0
0
0
0
0
0
0
0
0
0
0
0
0
0
0
0
0
0
0
0
0
0
0
0
0
0
0
0
0
0
0
0
0
0
0
0
0
0
0
0
0
0
0
0
0
0
0
0
0
0
0
0
0
0
0
0
0
0
0
0
0
0
0
0
0
0
0
0
0
0
0
0
0
0
0
0
0
0
0
0
0
0
0
0
0
0
0
0
0
0
0
0
0
0
0
0
0
0
0
0
0
0
0
0
0
0
0
0
0
0
0
0
0
0
0
0
0
0
0
0
0
0
0
0
0
0
0
0
0
0
0
0
0
0
0
0
0
0
0
0
0
0
0
0
0
0
0
0
0
0
0
0
0
0
0
0
0
0
0
0
0
0
0
0
0
0
0
0
0
0
0
0
0
0
0
0
0
0
0
0
0
0
0
0
0
0
0
0
0
0
0
0
0
0
0
0
0
0
0
0
0
0
0
0
0
0
0
0
0
0
0
0
0
0
0
0
0
0
0
0
0
0
0
0
0
0
0
0
0
0
0
0
0
0
0
0
0
0
0
0
0
0
0
0
0
0
0
0
0
0
0
0
0
0
0
0
0
0
0
0
0
0
0
0
0
0
0
0
0
0
0
0
0
0
0
0
0
0
0
0
0
0
0
0
0
0
0
0
0
0
0
0
0
0
0
0
0
0
0
0
0
0
0
0
0
0
0
0
0
0
0
0
0
0
0
0
0
0
0
0
0
0
0
0
0
0
0
0
0
0
0
0
0
0
0
0
0
0
0
0
0
0
0
0
0
0
0
0
0
0
0
0
0
0
0
0
0
0
0
0
0
0
0
0
0
0
0
0
0
0
0
0
0
0
0
0
0
0
0
0
0
0
0
0
0
0
0
0
0
0
0
0
0
0
0
0
0
0
0
0
0
0
0
0
0
0
0
0
0
0
0
0
0
0
0
0
0
0
0
0
0
0
0
0
0
0
0
0
0
0
0
0
0
0
0
0
0
0
0
0
0
0
0
0
0
0
0
0
0
0
0
0
0
0
0
0
0
0
0
0
0
0
0
0
0
0
0
0
0
0
0
0
0
0
0
0
0
0
0
0
0
0
0
0
0
0
0
0
0
0
0
0
0
0
0
0
0
0
0
0
0
0
0
0
0
0
0
0
0
0
0
0
0
0
0
0
0
0
0
0
0
0
0
0
0
0
0
0
0
0
0
0
0
0
0
0
0
0
0
0
0
0
0
0
0
0
0
0
0
0
0
0
0
0
0
0
0
0
0
0
0
0
0
0
0
0
0
0
0
0
0
0
0
0
0
0
0
0
0
0
0
0
0
0
0
0
0
0
0
0
0
0
0
0
0
0
0
0
0
0
0
0
0
0
0
0
0
0
0
0
0
0
0
0
0
0
0
0
0
0
0
0
0
0
0
0
0
0
0
0
0
0
0
0
0
0
0
0
0
0
0
0
0
0
0
0
0
0
0
0
0
0
0
0
0
0
0
0
0
0
0
0
0
0
0
0
0
0
0
0
0
0
0
0
0
0
0
0
0
0
0
0
0
0
0
0
0
0
0
0
0
0
0
0
0
0
0
0
0
0
0
0
0
0
0
0
0
0
0
0
0
0
0
0
0
0
0
0
0
0
0
0
0
0
0
0
0
0
0
0
0
0
0
0
0
0
0
0
0
0
0
0
0
0
0
0
0
0
0
0
0
0
0
0
0
0
0
0
0
0
0
0
0
0
0
0
0
0
0
0
0
0
0
0
0
0
0
0
0
0
0
0
0
0
0
0
0
0
0
0
0
0
0
0
0
0
0
0
0
0
0
0
0
0
0
0
0
0
0
0
0
0
0
0
0
0
0
0
0
0
0
0
0
0
0
0
0
0
0
0
0
0
0
0
0
0
0
0
0
0
0
0
0
0
0
0
0
0
0
0
0
0
0
0
0
0
0
0
0
0
0
0
0
0
0
0
0
0
0
0
0
0
0
0
0
0
0
0
0
0
0
0
0
0
0
0
0
0
0
0
0
0
0
0
0
0
0
0
0
0
0
0
0
0
0
0
0
0
0
0
0
0
0
0
0
0
0
0
0
0
0
0
0
0
0
0
0
0
0
0
0
0
0
0
0
0
0
0
0
0
0
0
0
0
0
0
0
0
0
0
0
0
0
0
0
0
0
0
0
0
0
0
0
0
0
0
0
0
0
0
0
0
0
0
0
0
0
0
0
0
0
0
0
0
0
0
0
0
0
0
0
0
0
0
0
0
0
0
0
0
0
0
0
0
0
0
0
0
0
0
0
0
0
0
0
0
0
0
0
0
0
0
0
0
0
0
0
0
0
0
0
0
0
0
0
0
0
0
0
0
0
0
0
0
0
0
0
0
0
0
0
0
0
0
0
0
0
0
0
0
0
0
0
0
0
0
0
0
0
0
0
0
0
0
0
0
0
0
0
0
0
0
0
0
0
0
0
0
0
0
0
0
0
0
0
0
0
0
0
0
0
0
0
0
0
0
0
0
0
0
0
0
0
0
0
0
0
0
0
0
0
0
0
0
0
0
0
0
0
0
0
0
0
0
0
0
0
0
0
0
0
0
0
0
0
0
0
0
0
0
0
0
0
0
0
0
0
0
0
0
0
0
0
0
0
0
0
0
0
0
0
0
0
0
0
0
0
0
0
0
0
0
0
0
0
0
0
0
0
0
0
0
0
0
0
0
0
0
0
0
0
0
0
0
0
0
0
0
0
0
0
0
0
0
0
0
0
0
0
0
0
0
0
0
0
0
0
0
0
0
0
0
0
0
0
0
0
0
0
0
0
0
0
0
0
0
0
0
0
0
0
0
0
0
0
0
0
0
0
0
0
0
0
0
0
0
0
0
0
0
0
0
0
0
0
0
0
0
0
0
0
0
0
0
0
0
0
0
0
0
0
0
0
0
0
0
0
0
0
0
0
0
0
0
0
0
0
0
0
0
0
0
0
0
0
0
0
0
0
0
0
0
0
0
0
0
0
0
0
0
0
0
0
0
0
0
0
0
0
0
0
0
0
0
0
0
0
0
0
0
0
0
0
0
0
0
0
0
0
0
0
0
0
0
0
0
0
0
0
0
0
0
0
0
0
0
0
0
0
0
0
0
0
0
0
0
0
0
0
0
0
0
0
0
0
0
0
0
0
0
0
0
0
0
0
0
0
0
0
0
0
0
0
0
0
0
0
0
0
0
0
0
0
0
0
0
0
0
0
0
0
0
0
0
0
0
0
0
0
0
0
0
0
0
0
0
0
0
0
0
0
0
0
0
0
0
0
0
0
0
0
0
0
0
0
0
0
0
0
0
0
0
0
0
0
0
0
0
0
0
0
0
0
0
0
0
0
0
0
0
0
0
0
4
0
0
0
0
0
0
0
0
0
0
0
0
0
0
0
0
0
0
0
0
0
0
0
0
0
0
0
0
0
0
0
0
0
0
0
0
0
0
0
0
0
0
0
0
0
0
0
0
0
0
0
0
0
0
0
0
0
0
0
0
0
0
0
0
0
0
0
0
0
0
0
0
0
0
0
0
0
0
0
0
0
0
0
0
0
0
0
0
0
0
0
0
0
0
0
0
0
0
0
0
0
0
0
0
0
0
0
0
0
0
0
0
0
0
0
0
0
0
0
0
0
0
0
0
0
0
0
0
0
0
0
0
0
0
0
0
0
0
0
0
0
0
0
0
0
0
0
0
0
0
0
0
0
0
0
0
0
0
0
0
0
0
0
0
0
0
0
0
0
0
0
0
0
0
0
0
0
0
0
0
0
0
0
0
0
0
0
0
0
0
0
0
0
0
0
0
0
0
0
0
0
0
0
0
0
0
0
0
0
0
0
0
0
0
0
0
0
0
0
0
0
0
0
0
0
0
0
0
0
0
0
0
0
0
0
0
0
0
0
0
0
0
0
0
0
0
0
0
0
0
0
0
0
0
0
0
0
0
0
0
0
0
0
0
0
0
0
0
0
0
0
0
0
0
0
0
0
0
0
0
0
0
0
0
0
0
0
0
0
0
0
0
0
0
0
0
0
0
0
0
0
0
0
0
0
0
0
0
0
0
0
0
0
0
0
0
0
0
0
0
0
0
0
0
0
0
0
0
0
0
0
0
0
0
0
0
0
0
0
0
0
0
0
0
0
0
0
0
0
0
0
0
0
0
0
0
0
0
0
0
0
0
0
0
0
0
0
0
0
0
0
0
0
0
0
0
0
0
0
0
0
0
0
0
0
0
0
0
0
0
0
0
0
0
0
0
0
0
0
0
0
0
0
0
0
0
0
0
0
0
0
0
0
0
0
0
0
0
0
0
0
0
0
0
0
0
0
0
0
0
0
0
0
0
0
0
0
0
0
0
0
0
0
0
0
0
0
0
0
0
0
0
0
0
0
0
0
0
0
0
0
0
0
0
0
0
0
0
0
0
0
0
0
0
0
0
0
0
0
0
0
0
0
0
0
0
0
0
0
0
0
0
0
0
0
0
0
0
0
0
0
0
0
0
0
0
0
0
0
0
0
0
0
0
0
0
0
0
0
0
0
0
0
0
0
0
0
0
0
0
0
0
0
0
0
0
0
0
0
0
0
0
0
0
0
0
0
0
0
0
0
0
0
0
0
0
0
0
0
0
0
0
0
0
0
0
0
0
0
0
0
0
0
0
0
0
0
0
0
0
0
0
0
0
0
0
0
0
0
0
0
0
0
0
0
0
0
0
0
0
0
0
0
0
0
0
0
0
0
0
0
0
0
0
0
0
0
0
0
0
0
0
0
0
0
0
0
0
0
0
0
0
0
0
0
0
0
0
0
0
0
0
0
0
0
0
0
0
0
0
0
0
0
0
0
0
0
0
0
0
0
0
0
0
0
0
0
0
0
0
0
0
0
0
0
0
0
0
0
0
0
0
0
0
0
0
0
0
0
0
0
0
0
0
0
0
0
0
0
0
0
0
0
0
0
0
0
0
0
0
0
0
0
0
0
0
0
0
0
0
0
0
0
0
0
0
0
0
0
0
0
0
0
0
0
0
0
0
0
0
0
0
0
0
0
0
0
0
0
0
0
0
0
0
0
0
0
0
0
0
0
0
0
0
0
0
0
0
0
0
0
0
0
0
0
0
0
0
0
0
0
0
0
0
0
0
0
0
0
0
0
0
0
0
0
0
0
0
0
0
0
0
0
0
0
0
0
0
0
0
0
0
0
0
0
0
0
0
0
0
0
0
0
0
0
0
0
0
0
0
0
0
0
0
0
0
0
0
0
0
0
0
0
0
0
0
0
0
0
0
0
0
0
0
0
0
0
0
0
0
0
0
0
0
0
0
0
0
0
0
0
0
0
0
0
0
0
0
0
0
0
0
0
0
0
0
0
0
0
0
0
0
0
0
0
0
0
0
0
0
0
0
0
0
0
0
0
0
0
0
0
0
0
0
0
0
0
0
0
0
0
0
0
0
0
0
0
0
0
0
0
0
0
0
0
0
0
0
0
0
0
0
0
0
0
0
0
0
0
0
0
0
0
0
0
0
0
0
0
0
0
0
0
0
0
0
0
0
0
0
0
0
0
0
0
0
0
0
0
0
0
0
0
0
0
0
0
0
0
0
0
0
0
0
0
0
0
0
0
0
0
0
0
0
0
0
0
0
0
0
0
0
0
0
0
0
0
0
0
0
0
0
0
0
0
0
0
0
0
0
0
0
0
0
0
0
0
0
0
0
0
0
0
0
0
0
0
0
0
0
0
0
0
0
0
0
0
0
0
0
0
0
0
0
0
0
0
0
0
0
0
0
0
0
0
0
0
0
0
0
0
0
0
0
0
0
0
0
0
0
0
0
0
0
0
0
0
0
0
0
0
0
0
0
0
0
0
0
0
0
0
0
0
0
0
0
0
0
0
0
0
0
0
0
0
0
0
0
0
0
0
0
0
0
0
0
0
0
0
0
0
0
0
0
0
0
0
0
0
0
0
0
0
0
0
0
0
0
0
0
0
0
0
0
0
0
0
0
0
0
0
0
0
0
0
0
0
0
0
0
0
0
0
0
0
0
0
0
0
0
0
0
0
0
0
0
0
0
0
0
0
0
0
0
0
0
0
0
0
0
0
0
0
0
0
0
0
0
0
0
0
0
0
0
0
0
0
0
0
0
0
0
0
0
0
0
0
0
0
0
0
0
0
0
0
0
0
0
0
0
0
0
0
0
0
0
0
0
0
0
0
0
0
0
0
0
0
0
0
0
0
0
0
0
0
0
0
0
0
0
0
0
0
0
0
0
0
0
0
0
0
0
0
0
0
0
0
0
0
0
0
0
0
0
0
0
0
0
0
0
0
0
0
0
0
0
0
0
0
0
0
0
0
0
0
0
0
0
0
0
0
0
0
0
0
0
0
0
0
0
0
0
0
0
0
0
0
0
0
0
0
0
0
0
0
0
0
0
0
0
0
0
0
0
0
0
0
0
0
0
0
0
0
0
0
0
0
0
0
0
0
0
0
0
0
0
0
0
0
0
0
0
0
0
0
0
0
0
0
0
0
0
0
0
0
0
0
0
0
14
0
0
0
0
0
0
0
0
0
0
0
0
0
0
0
0
0
0
0
0
0
0
0
0
0
0
0
0
0
0
0
0
0
0
0
0
0
0
0
0
0
0
0
0
0
0
0
0
0
0
0
0
0
0
0
0
0
0
0
0
0
0
0
0
0
0
0
0
0
0
0
0
0
0
0
0
0
0
0
0
0
0
0
0
0
0
0
0
0
0
0
0
0
0
0
0
0
0
0
0
0
0
0
0
0
0
0
0
0
0
0
0
0
0
0
0
0
0
0
0
0
0
0
0
0
0
0
0
0
0
0
0
0
0
0
0
0
0
0
0
0
0
0
0
0
0
0
0
0
0
0
0
0
0
0
0
0
0
0
0
0
0
0
0
0
0
0
0
0
0
0
0
0
0
0
0
0
0
0
0
0
0
0
0
0
0
0
0
0
0
0
0
0
0
0
0
0
0
0
0
0
0
0
0
0
0
0
0
0
0
0
0
0
0
0
0
0
0
0
0
0
0
0
0
0
0
0
0
0
0
0
0
0
0
0
0
0
0
0
0
0
0
0
0
0
0
0
0
0
0
0
0
0
0
0
0
0
0
0
0
0
0
0
0
0
0
0
0
0
0
0
0
0
0
0
0
0
0
0
0
0
0
0
0
0
0
0
0
0
0
0
0
0
0
0
0
0
0
0
0
0
0
0
0
0
0
0
0
0
0
0
0
0
0
0
0
0
0
0
0
0
0
0
0
0
0
0
0
0
0
0
0
0
0
0
0
0
0
0
0
0
0
0
0
0
0
0
0
0
0
0
0
0
0
0
0
0
0
0
0
0
0
0
0
0
0
0
0
0
0
0
0
0
0
0
0
0
0
0
0
0
0
0
0
0
0
0
0
0
0
0
0
0
0
0
0
0
0
0
0
0
0
0
0
0
0
0
0
0
0
0
0
0
0
0
0
0
0
0
0
0
0
0
0
0
0
0
0
0
0
0
0
0
0
0
0
0
0
0
0
0
0
0
0
0
0
0
0
0
0
0
0
0
0
0
0
0
0
0
0
0
0
0
0
0
0
0
0
0
0
0
0
0
0
0
0
0
0
0
0
0
0
0
0
0
0
0
0
0
0
0
0
0
0
0
0
0
0
0
0
0
0
0
0
0
0
0
0
0
0
0
0
0
0
0
0
0
0
0
0
0
0
0
0
0
0
0
0
0
0
0
0
0
0
0
0
0
0
0
0
0
0
0
0
0
0
0
0
0
0
0
0
0
0
0
0
0
0
0
0
0
0
0
0
0
0
0
0
0
0
0
0
0
0
0
0
0
0
0
0
0
0
0
0
0
0
0
0
0
0
0
0
0
0
0
0
0
0
0
0
0
0
0
0
0
0
0
0
0
0
0
0
0
0
0
0
0
0
0
0
0
0
0
0
0
0
0
0
0
0
0
0
0
0
0
0
0
0
0
0
0
0
0
0
0
0
0
0
0
0
0
0
0
0
0
0
0
0
0
0
0
0
0
0
0
0
0
0
0
0
0
0
0
0
0
0
0
0
0
0
0
0
0
0
0
0
0
0
0
0
0
0
0
0
0
0
0
0
0
0
0
0
0
0
0
0
0
0
0
0
0
0
0
0
0
0
0
0
0
0
0
0
0
0
0
0
0
0
0
0
0
0
0
0
0
0
0
0
0
0
0
0
0
0
0
0
0
0
0
0
0
0
0
0
0
0
0
0
0
0
0
0
0
0
0
0
0
0
0
0
0
0
0
0
0
0
0
0
0
0
0
0
0
0
0
0
0
0
0
0
0
0
0
0
0
0
0
0
0
0
0
0
0
0
0
0
0
0
0
0
0
0
0
0
0
0
0
0
0
0
0
0
0
0
0
0
0
0
0
0
0
0
0
0
0
0
0
0
0
0
0
0
0
0
0
0
0
0
0
0
0
0
0
0
0
0
0
0
0
0
0
0
0
0
0
0
0
0
0
0
0
0
0
0
0
0
0
0
0
0
0
0
0
0
0
0
0
0
0
0
0
0
0
0
0
0
0
0
0
0
0
0
0
0
0
0
0
0
0
0
0
0
0
0
0
0
0
0
0
0
0
0
0
0
0
0
0
0
0
0
0
0
0
0
0
0
0
0
0
0
0
0
0
0
0
0
0
0
0
0
0
0
0
0
0
0
0
0
0
0
0
0
0
0
0
0
0
0
0
0
0
0
0
0
0
0
0
0
0
0
0
0
0
0
0
0
0
0
0
0
0
0
0
0
0
0
0
0
0
0
0
0
0
0
0
0
0
0
0
0
0
0
0
0
0
0
0
0
0
0
0
0
0
0
0
0
0
0
0
0
0
0
0
0
0
0
0
0
0
0
0
0
0
0
0
0
0
0
0
0
0
0
0
0
0
0
0
0
0
0
0
0
0
0
0
0
0
0
0
0
0
0
0
0
0
0
0
0
0
0
0
0
0
0
0
0
0
0
0
0
0
0
0
0
0
0
0
0
0
0
0
0
0
0
0
0
0
0
0
0
0
0
0
0
0
0
0
0
0
0
0
0
0
0
0
0
0
0
0
0
0
0
0
0
0
0
0
0
0
0
0
0
0
0
0
0
0
0
0
0
0
0
0
0
0
0
0
0
0
0
0
0
0
0
0
0
0
0
0
0
0
0
0
0
0
0
0
0
0
0
0
0
0
0
0
0
0
0
0
0
0
0
0
0
0
0
0
0
0
0
0
0
0
0
0
0
0
0
0
0
0
0
0
0
0
0
0
0
0
0
0
0
0
0
0
0
0
0
0
0
0
0
0
0
0
0
0
0
0
0
0
0
0
0
0
0
0
0
0
0
0
0
0
0
0
0
0
0
0
0
0
0
0
0
0
0
0
0
0
0
0
0
0
0
0
0
0
0
0
0
0
0
0
0
0
0
0
0
0
0
0
0
0
0
0
0
0
0
0
0
0
0
0
0
0
0
0
0
0
0
0
0
0
0
0
0
0
0
0
0
0
0
0
0
0
0
0
0
0
0
0
0
0
0
0
0
0
0
0
0
0
0
0
0
0
0
0
0
0
0
0
0
0
0
0
0
0
0
0
0
0
0
0
0
0
0
0
0
0
0
0
0
0
0
0
0
0
0
0
0
0
0
0
0
0
0
0
0
0
0
0
0
0
0
0
0
0
0
0
0
0
0
0
0
0
0
0
0
0
0
0
0
0
0
0
0
0
0
0
0
0
0
0
0
0
0
0
0
0
0
0
0
0
0
0
0
0
0
0
0
0
0
0
0
0
0
0
0
0
0
0
0
0
0
0
0
0
0
0
0
0
0
0
0
0
0
0
0
0
0
0
0
0
0
0
0
0
0
0
0
0
0
0
0
0
0
0
0
0
0
0
0
0
0
0
0
0
0
0
0
0
0
0
0
0
0
0
0
0
0
0
0
0
0
0
0
0
0
0
0
0
0
0
0
0
0
0
0
0
0
0
0
0
0
0
0
0
0
0
0
0
0
0
0
0
0
0
0
0
0
0
0
0
0
0
0
0
0
0
0
0
0
0
0
0
0
0
0
0
0
0
0
0
0
0
0
0
0
0
0
0
0
0
0
0
0
0
0
0
0
0
0
0
0
0
0
0
0
0
0
0
0
0
0
0
0
0
0
0
0
0
0
0
0
0
0
0
0
0
0
0
0
0
0
0
0
0
0
0
0
0
0
0
0
0
0
0
0
0
0
0
0
0
0
0
0
0
0
0
0
0
0
0
0
0
0
0
0
0
0
0
0
0
0
0
0
0
0
0
0
0
0
0
0
0
0
0
0
0
0
0
0
0
0
0
0
0
0
0
0
0
0
0
0
0
0
0
0
0
0
0
0
0
0
0
0
0
0
0
0
0
0
0
0
0
0
0
0
0
0
0
0
0
0
0
0
0
0
0
0
0
0
0
0
0
0
0
0
0
0
0
0
0
0
0
0
0
0
0
0
0
0
0
0
0
0
0
0
0
0
0
0
0
0
0
0
0
0
0
0
0
0
0
0
0
0
0
0
0
0
0
0
0
0
0
0
0
0
0
0
0
0
0
0
0
0
0
0
0
0
0
0
0
0
0
0
0
0
0
0
0
0
0
0
0
0
0
0
0
0
0
0
0
0
0
0
0
0
0
0
0
0
0
0
0
0
0
0
0
0
0
0
0
0
0
0
0
0
0
0
0
0
0
0
0
0
0
0
0
0
0
0
0
0
0
0
0
0
0
0
0
0
0
0
0
0
0
0
0
0
0
0
0
0
0
0
0
0
0
0
0
0
0
0
0
0
0
0
0
0
0
0
0
0
0
0
0
0
0
0
0
0
0
0
0
0
0
0
0
0
0
0
0
0
0
0
0
0
0
0
0
0
0
0
0
0
0
0
0
0
0
0
0
0
0
0
0
0
0
0
0
0
0
0
0
0
0
0
0
0
0
0
0
0
0
0
0
0
0
0
0
0
0
0
0
0
0
0
0
0
0
0
0
0
0
0
0
0
0
0
0
0
0
0
0
0
0
0
0
0
0
0
0
0
0
0
0
0
0
0
0
0
0
0
0
0
0
0
0
0
0
0
0
0
0
0
0
0
0
0
0
0
0
0
0
0
0
0
0
0
0
0
0
0
0
0
0
0
0
0
0
0
0
0
0
0
0
0
0
0
0
0
0
0
0
0
0
0
0
0
0
0
0
0
0
0
0
0
0
0
0
0
0
0
0
0
0
0
0
0
0
0
0
0
0
0
0
0
0
0
0
0
0
0
0
0
0
0
0
0
0
0
0
0
0
0
0
0
0
0
0
0
0
0
0
0
0
0
0
0
0
0
0
0
0
0
0
0
0
0
0
0
0
0
0
0
0
0
0
0
0
0
0
0
0
0
0
0
0
0
0
0
0
0
0
0
0
0
0
0
0
0
0
0
0
0
0
0
0
0
0
0
0
0
0
0
0
0
0
0
0
0
0
0
0
0
0
0
0
0
0
0
0
0
0
0
0
0
0
0
0
0
0
0
0
0
0
0
0
0
0
0
0
0
0
0
0
0
0
0
0
0
0
0
0
0
0
0
0
0
0
0
0
0
0
0
0
0
0
0
0
0
0
0
0
0
0
0
0
0
0
0
0
0
0
0
0
0
0
0
0
0
0
0
0
0
0
0
0
0
0
0
0
0
0
0
0
0
0
0
0
0
0
0
0
0
0
0
0
0
0
0
0
0
0
0
0
0
0
0
0
0
0
0
0
0
0
0
0
0
0
0
0
0
0
0
0
0
0
0
0
0
0
0
0
0
0
0
0
0
0
0
0
0
0
0
0
0
0
0
0
0
0
0
0
0
0
0
0
0
0
0
0
0
0
0
0
0
0
0
0
0
0
0
0
0
0
0
0
0
0
0
0
0
0
0
0
0
0
0
0
0
0
0
0
0
0
0
0
0
0
0
0
0
0
0
0
0
0
0
0
0
0
0
0
0
0
0
0
0
0
0
0
0
0
0
0
0
0
0
0
0
0
0
0
0
0
0
0
0
0
0
0
0
0
0
0
0
0
0
0
0
0
0
0
0
0
0
0
0
0
0
0
0
0
0
0
0
0
0
0
0
0
0
0
0
0
0
0
0
0
0
0
0
0
0
0
0
0
0
0
0
0
0
0
0
0
0
0
0
0
0
0
0
0
0
0
0
0
0
0
0
0
0
0
0
0
0
0
0
0
0
0
0
0
0
0
0
0
0
0
0
0
0
0
0
0
0
0
0
0
0
0
0
0
0
0
0
0
0
0
0
0
0
0
0
0
0
0
0
0
0
0
0
0
0
0
0
0
0
0
0
0
0
0
0
0
0
0
0
0
0
0
0
0
0
0
0
0
0
0
0
0
0
0
0
0
0
0
0
0
0
0
0
0
0
0
0
0
0
0
0
0
0
0
0
0
0
0
0
0
0
0
0
0
0
0
0
0
0
0
0
0
0
0
0
0
0
0
0
0
0
0
0
0
0
0
0
0
0
0
0
0
0
0
0
0
0
0
0
0
0
0
0
0
0
0
0
0
0
0
0
0
0
0
0
0
0
0
0
0
0
0
0
0
0
0
0
0
0
0
0
0
0
0
0
0
0
0
0
0
0
0
0
0
0
0
0
0
0
0
0
0
0
0
0
0
0
0
0
0
0
0
0
0
0
0
0
0
0
0
0
0
0
0
0
0
0
0
0
0
0
0
0
0
0
0
0
0
0
0
0
0
0
0
0
0
0
0
0
0
0
0
0
0
0
0
0
0
0
0
0
0
0
0
0
0
0
0
0
0
0
0
0
0
0
0
0
0
0
0
0
0
0
0
0
0
0
0
0
0
0
0
0
0
0
0
0
0
0
0
0
0
0
0
0
0
0
0
0
0
0
0
0
0
0
0
0
0
0
0
0
0
0
0
0
0
0
0
0
0
0
0
0
0
0
0
0
0
0
0
0
0
0
0
0
0
0
0
0
0
0
0
0
0
0
0
0
0
0
0
0
0
0
0
0
0
0
0
0
0
0
0
0
0
0
0
0
0
0
0
0
0
0
0
0
0
0
0
0
0
0
0
0
0
0
0
0
0
0
0
0
0
0
0
0
0
0
0
0
0
0
0
0
0
0
0
0
0
0
0
0
0
0
0
0
0
0
0
0
0
0
0
0
0
0
0
0
0
0
0
0
0
0
0
0
0
0
0
0
0
0
0
0
0
0
0
0
0
0
0
0
0
0
0
0
0
0
0
0
0
0
0
0
0
0
0
0
0
0
0
0
0
0
0
0
0
0
0
0
0
0
0
0
0
0
0
0
0
0
0
0
0
0
0
0
0
0
0
0
0
0
0
0
0
0
0
0
0
0
0
0
0
0
0
0
0
0
0
0
0
0
0
0
0
0
0
0
0
0
0
0
0
0
0
0
0
0
0
0
0
0
0
0
0
0
0
0
0
0
0
0
0
0
0
0
0
0
0
0
0
0
0
0
0
0
0
0
0
0
0
0
0
0
0
0
0
0
0
0
0
0
0
0
0
0
0
0
0
0
0
0
0
0
0
0
0
0
0
0
0
0
0
0
0
0
0
0
0
0
0
0
0
0
0
0
0
0
0
0
0
0
0
0
0
0
0
0
0
0
0
0
0
0
0
0
0
0
0
0
0
1
0
0
0
0
0
0
0
0
0
0
0
0
0
0
0
0
0
0
0
0
0
0
0
0
0
0
0
0
0
0
0
0
0
0
0
0
0
0
0
0
0
0
0
0
0
0
0
0
0
0
0
0
0
0
0
0
0
0
0
0
0
0
0
0
0
0
0
0
0
0
0
0
0
0
0
0
0
0
0
0
0
0
0
0
0
0
0
0
0
0
0
0
0
0
0
0
0
0
0
0
0
0
0
0
0
0
0
0
0
0
0
0
0
0
0
0
0
0
0
0
0
0
0
0
0
0
0
0
0
0
0
0
0
0
0
0
0
0
0
0
0
0
0
0
0
0
0
0
0
0
0
0
0
0
0
0
0
0
0
0
0
0
0
0
0
0
0
0
0
0
0
0
0
0
0
0
0
0
0
0
0
0
0
0
0
0
0
0
0
0
0
0
0
0
0
0
0
0
0
0
0
0
0
0
0
0
0
0
0
0
0
0
0
0
0
0
0
0
0
0
0
0
0
0
0
0
0
0
0
0
0
0
0
0
0
0
0
0
0
0
0
0
0
0
0
0
0
0
0
0
0
0
0
0
0
0
0
0
0
0
0
0
0
0
0
0
0
0
0
0
0
0
0
0
0
0
0
0
0
0
0
0
0
0
0
0
0
0
0
0
0
0
0
0
0
0
0
0
0
0
0
0
0
0
0
0
0
0
0
0
0
0
0
0
0
0
0
0
0
0
0
0
0
0
0
0
0
0
0
0
0
0
0
0
0
0
0
0
0
0
0
0
0
0
0
0
0
0
0
0
0
0
0
0
0
0
0
0
0
0
0
0
0
0
0
0
0
0
0
0
0
0
0
0
0
0
0
0
0
0
0
0
0
0
0
0
0
0
0
0
0
0
0
0
0
0
0
0
0
0
0
0
0
0
0
0
0
0
0
0
0
0
0
0
0
0
0
0
0
0
0
0
0
0
0
0
0
0
0
0
0
0
0
0
0
0
0
0
0
0
0
0
0
0
0
0
0
0
0
0
0
0
0
0
0
0
0
0
0
0
0
0
0
0
0
0
0
0
0
0
0
0
0
0
0
0
0
0
0
0
0
0
0
0
0
0
0
0
0
0
0
0
0
0
0
0
0
0
0
0
0
0
0
0
0
0
0
0
0
0
0
0
0
0
0
0
0
0
0
0
0
0
0
0
0
0
0
0
0
0
0
0
0
0
0
0
0
0
0
0
0
0
0
0
0
0
0
0
0
0
0
0
0
0
0
0
0
0
0
0
0
0
0
0
0
0
0
0
0
0
0
0
0
0
0
0
0
0
0
0
0
0
0
0
0
0
0
0
0
0
0
0
0
0
0
0
0
0
0
0
0
0
0
0
0
0
0
0
0
0
0
0
0
0
0
0
0
0
0
0
0
0
0
0
0
0
0
0
0
0
0
0
0
0
0
0
0
0
0
0
0
0
0
0
0
0
0
0
0
0
0
0
0
0
0
0
0
0
0
0
0
0
0
0
0
0
0
0
0
0
0
0
0
0
0
0
0
0
0
0
0
0
0
0
0
0
0
0
0
0
0
0
0
0
0
0
0
0
0
0
0
0
0
0
0
0
0
0
0
0
0
0
0
0
0
0
0
0
0
0
0
0
0
0
0
0
0
0
0
0
0
0
0
0
0
0
0
0
0
0
0
0
0
0
0
0
0
0
0
0
0
0
0
0
0
0
0
0
0
0
0
0
0
0
0
0
0
0
0
0
0
0
0
0
0
0
0
0
0
0
0
0
0
0
0
0
0
0
0
0
0
0
0
0
0
0
0
0
0
0
0
0
0
0
0
0
0
0
0
0
0
0
0
0
0
0
0
0
0
0
0
0
0
0
0
0
0
0
0
0
0
0
0
0
0
0
0
0
0
0
0
0
0
0
0
0
0
0
0
0
0
0
0
0
0
0
0
0
0
