P3
# TP2-INF110, by AGS
375 250 255
255
255
255
255
255
255
255
255
255
255
255
255
255
255
255
255
255
255
255
255
255
255
255
255
255
255
255
255
255
255
255
255
255
255
255
255
255
255
255
255
255
255
255
255
255
255
255
255
255
255
255
255
255
255
255
255
255
255
255
255
255
255
255
255
255
255
255
255
255
255
255
255
255
255
255
255
255
255
255
255
255
255
255
255
255
255
255
255
255
255
255
255
255
255
255
255
255
255
255
255
255
255
255
255
255
255
255
255
255
255
255
255
255
255
255
255
255
255
255
255
255
255
255
255
255
255
255
255
255
255
255
255
255
255
255
255
255
255
255
255
255
255
255
255
255
255
255
255
255
255
255
255
255
255
255
255
255
255
255
255
255
255
255
255
255
255
255
255
255
255
255
255
255
255
255
255
255
255
255
255
255
255
255
255
255
255
255
255
255
255
255
255
255
255
255
255
255
255
255
255
255
255
255
255
255
255
255
255
255
255
255
255
255
255
255
255
255
255
255
255
255
255
255
255
255
255
255
255
255
255
255
255
255
255
255
255
255
255
255
255
255
255
255
255
255
255
255
255
255
255
255
255
255
255
255
255
255
255
255
255
255
255
255
255
255
255
255
255
255
255
255
255
255
255
255
255
255
255
255
255
255
255
255
255
255
255
255
255
255
255
255
255
255
255
255
255
255
255
255
255
255
255
255
255
255
255
255
255
255
255
255
255
255
255
255
255
255
255
255
255
255
255
255
255
255
255
255
255
255
255
255
255
255
255
255
255
255
255
255
255
255
255
255
255
255
255
255
255
255
255
255
255
255
255
255
255
255
255
255
255
255
255
255
255
255
255
255
255
255
255
255
255
255
255
255
255
255
255
255
255
255
255
255
255
255
255
255
255
255
255
255
255
255
255
255
255
255
255
255
255
255
255
255
255
255
255
255
255
255
255
255
255
255
255
255
255
255
255
255
255
255
255
255
255
255
255
255
255
255
255
255
255
255
255
255
255
255
255
255
255
255
255
255
255
255
255
255
255
255
255
255
255
255
255
255
255
255
255
255
255
255
255
255
255
255
255
255
255
255
255
255
255
255
255
255
255
255
255
255
255
255
255
255
255
255
255
255
255
255
255
255
255
255
255
255
255
255
255
255
255
255
255
255
255
255
255
255
255
255
255
255
255
255
255
255
255
255
255
255
255
255
255
255
255
255
255
255
255
255
255
255
255
255
255
255
255
255
255
255
255
255
255
255
255
255
255
255
255
255
255
255
255
255
255
255
255
255
255
255
255
255
255
255
255
255
255
255
255
255
255
255
255
255
255
255
255
255
255
255
255
255
255
255
255
255
255
255
255
255
255
255
255
255
255
255
255
255
255
255
255
255
255
255
255
255
255
255
255
255
255
255
255
255
255
255
255
255
255
255
255
255
255
255
255
255
255
255
255
255
255
255
255
255
255
255
255
255
255
255
255
255
255
255
255
255
255
255
255
255
255
255
255
255
255
255
255
255
255
255
255
255
255
255
255
255
255
255
255
255
255
255
255
255
255
255
255
255
255
255
255
255
255
255
255
255
255
255
255
255
255
255
255
255
255
255
255
255
255
255
255
255
255
255
255
255
255
255
255
255
255
255
255
255
255
255
255
255
255
255
255
255
255
255
255
255
255
255
255
255
255
255
255
255
255
255
255
255
255
255
255
255
255
255
255
255
255
255
255
255
255
255
255
255
255
255
255
255
255
255
255
255
255
255
255
255
255
255
255
255
255
255
255
255
255
255
255
255
255
255
255
255
255
255
255
255
255
255
255
255
255
255
255
255
255
255
255
255
255
255
255
255
255
255
255
255
255
255
255
255
255
255
255
255
255
255
255
255
255
255
255
255
255
255
255
255
255
255
255
255
255
255
255
255
255
255
255
255
255
255
255
255
255
255
255
255
255
255
255
255
255
255
255
255
255
255
255
255
255
255
255
255
255
255
255
255
255
255
255
255
255
255
255
255
255
255
255
255
255
255
255
255
255
255
255
255
255
255
255
255
255
255
255
255
255
255
255
255
255
255
255
255
255
255
255
255
255
255
255
255
255
255
255
255
255
255
255
255
255
255
255
255
255
255
255
255
255
255
255
255
255
255
255
255
255
255
255
255
255
255
255
255
255
255
255
255
255
255
255
255
255
255
255
255
255
255
255
255
255
255
255
255
255
255
255
255
255
255
255
255
255
255
255
255
255
255
255
255
255
255
255
255
255
255
255
255
255
255
255
255
255
255
255
255
255
255
255
255
255
255
255
255
255
255
255
255
255
255
255
255
255
255
255
255
255
255
255
255
255
255
255
255
255
255
255
255
255
255
255
255
255
255
255
255
255
255
255
255
255
255
255
255
255
255
255
255
255
255
255
255
255
255
255
255
255
255
255
255
255
255
255
255
255
255
255
255
255
255
255
255
255
255
255
255
255
255
255
255
255
255
255
255
255
255
255
255
255
255
255
255
255
255
255
255
255
255
255
255
255
255
255
255
255
255
255
255
255
255
255
255
255
255
255
255
255
255
255
255
255
255
255
255
255
255
255
255
255
255
255
123
88
53
138
98
60
178
112
82
246
167
106
255
218
129
255
209
114
137
133
58
55
60
29
39
36
17
28
28
20
18
15
22
28
25
24
29
30
17
33
28
10
55
47
36
60
58
47
52
47
34
30
27
10
18
20
13
18
18
20
20
18
12
13
13
10
10
10
12
10
10
10
10
10
10
11
11
11
13
13
13
14
14
14
16
16
16
17
17
17
12
15
10
8
12
4
8
12
5
8
9
7
5
5
5
7
4
5
10
5
6
10
3
1
13
4
7
13
11
11
10
10
10
8
8
8
9
9
9
14
14
14
15
11
13
15
10
11
5
7
4
8
8
8
5
5
5
6
5
5
1
5
2
5
11
2
17
18
15
14
14
14
7
7
7
2
2
2
2
2
2
1
1
1
7
7
7
11
9
10
16
8
9
23
16
16
29
29
23
44
34
26
46
37
22
18
29
10
21
16
6
22
13
15
22
25
11
48
52
39
62
60
43
33
26
20
41
26
16
89
63
40
114
82
45
134
97
48
150
114
66
144
114
61
162
119
60
203
143
75
206
152
79
201
147
82
187
131
73
177
121
64
176
122
62
179
123
59
180
121
64
192
130
74
168
121
66
114
74
29
80
52
24
53
41
15
39
24
5
54
28
13
73
43
23
97
65
36
98
71
32
78
56
18
106
67
32
100
59
32
100
58
31
123
77
47
115
75
41
114
73
42
129
79
43
144
88
44
167
110
60
184
131
78
166
124
75
151
110
59
162
111
56
161
111
61
80
53
31
21
14
10
9
6
14
4
2
10
9
8
13
118
15
147
211
18
255
142
19
172
133
120
129
115
89
45
79
76
93
48
101
166
89
96
255
84
39
193
18
8
6
5
5
11
5
7
7
1
4
5
4
4
5
3
3
4
4
4
3
6
6
6
14
10
7
8
4
7
18
4
4
66
40
23
136
92
55
188
124
56
205
138
83
159
109
62
114
100
67
119
194
255
109
188
255
151
218
255
215
255
255
89
80
56
64
50
31
22
17
15
182
129
78
255
206
120
160
113
49
35
17
11
33
24
14
101
62
36
92
62
41
109
68
38
95
62
29
69
31
16
73
43
20
99
65
27
118
84
46
86
59
37
83
57
22
80
58
14
79
52
25
67
43
19
64
46
20
75
49
29
83
67
32
41
28
16
63
55
30
45
40
20
33
27
17
44
41
28
56
48
29
90
73
43
103
77
46
106
75
48
97
75
47
76
66
36
71
60
36
65
55
35
48
44
26
35
27
17
7
12
7
22
16
13
20
10
10
36
27
21
38
34
22
33
22
11
18
12
11
24
27
10
26
28
16
45
39
32
99
75
49
159
123
68
122
98
51
120
101
61
123
104
69
68
53
31
49
45
29
53
50
27
72
65
39
75
66
43
77
69
48
90
80
57
95
86
60
80
75
50
50
51
31
27
31
17
25
28
19
30
22
21
18
18
18
11
15
8
23
14
8
31
24
19
28
18
11
39
28
24
45
32
28
22
18
14
1
1
5
10
10
10
15
17
17
20
22
20
17
25
17
5
18
8
11
8
7
14
14
12
31
17
12
210
254
255
255
255
255
116
123
117
89
147
209
255
255
255
255
255
255
25
25
21
14
20
24
255
255
255
255
255
255
255
255
255
79
65
52
60
56
58
28
25
30
36
30
30
95
84
72
55
49
41
105
98
84
58
41
32
65
60
60
83
69
44
118
98
78
49
56
34
113
89
98
178
149
161
255
255
255
255
225
193
156
163
185
210
227
252
142
122
128
39
24
27
27
21
27
29
25
25
24
17
14
8
5
4
8
6
6
13
15
15
4
5
7
5
7
5
4
5
3
7
7
7
13
13
13
9
9
9
6
6
6
7
7
7
7
7
7
7
7
7
7
8
7
8
12
10
4
10
7
4
7
4
8
8
8
7
8
1
5
7
3
5
5
2
11
7
9
11
8
11
9
11
9
7
9
7
1
9
5
7
8
7
7
7
7
9
10
7
12
16
9
12
18
5
14
17
8
15
19
7
19
23
11
20
23
11
18
19
10
21
21
14
29
26
20
31
22
15
30
22
14
27
25
18
17
13
14
19
11
9
25
17
13
26
20
15
30
28
17
42
40
22
55
48
30
59
52
34
67
64
42
75
71
50
90
75
59
101
87
49
145
116
62
105
70
52
105
95
50
160
119
68
98
79
52
94
80
52
95
81
58
64
60
33
40
34
20
24
18
24
18
9
8
6
0
7
9
4
7
10
10
10
15
15
15
16
16
16
13
13
15
11
11
14
11
8
12
16
14
12
18
17
9
20
17
8
25
25
15
27
24
17
15
14
9
10
10
10
35
34
25
48
43
31
56
51
35
71
61
37
85
74
43
89
80
55
98
90
54
131
118
65
163
140
85
163
134
87
129
108
69
109
94
60
99
80
49
65
42
24
15
9
4
48
43
18
99
86
44
132
111
58
154
122
74
159
121
80
140
103
64
151
112
74
148
104
72
89
54
33
64
45
24
73
54
26
86
59
37
101
73
42
149
109
67
255
255
255
255
255
255
116
85
56
162
124
79
188
148
87
192
165
77
160
142
67
92
77
41
92
63
40
140
111
67
153
122
78
115
92
59
69
55
43
46
41
39
19
19
15
23
20
6
54
46
35
60
54
46
43
40
31
29
25
13
25
24
16
17
17
17
18
18
12
16
15
6
10
10
8
7
10
10
10
10
10
10
10
10
13
13
13
18
18
18
21
21
21
23
23
23
24
26
23
19
22
16
15
19
11
12
17
8
11
14
8
10
13
7
10
14
7
16
16
11
22
19
17
21
21
16
18
22
14
14
18
10
12
16
8
15
18
12
18
21
18
17
18
18
9
8
8
8
10
10
11
11
11
15
13
12
18
14
13
17
10
12
10
9
7
9
11
10
8
8
8
1
1
1
0
0
0
4
4
4
1
1
1
7
4
3
21
12
8
28
25
18
38
30
24
54
45
29
61
54
27
61
49
29
75
50
42
77
57
41
50
43
31
15
9
2
33
34
28
72
59
42
128
87
60
166
121
70
185
139
75
182
147
81
148
127
69
129
99
46
173
113
57
210
145
81
190
136
73
176
120
63
164
108
53
163
105
48
183
121
62
198
135
71
190
130
68
184
126
69
149
105
52
100
62
28
68
43
21
46
33
10
38
21
7
44
21
17
53
24
17
74
34
28
97
52
40
74
35
28
87
48
31
59
29
23
29
15
2
61
34
20
87
52
33
95
58
35
107
64
38
122
72
36
135
83
35
156
103
49
150
104
54
120
81
36
117
72
37
116
78
49
57
42
24
25
17
5
11
6
9
11
1
10
20
11
13
143
27
201
235
21
220
145
82
53
181
151
139
244
195
157
80
62
59
35
55
103
70
103
255
61
63
232
24
6
23
8
6
3
4
7
6
5
5
5
5
5
5
5
5
5
2
3
3
6
7
7
14
9
6
15
5
5
35
12
6
57
38
33
66
52
23
133
90
34
180
129
63
178
124
70
115
111
156
103
191
255
86
144
225
157
220
255
205
255
255
106
101
69
87
66
41
45
32
22
169
121
76
255
197
109
150
108
46
67
36
23
74
49
25
7
5
1
103
69
37
131
95
44
92
65
27
46
35
23
58
42
28
107
78
41
90
69
29
104
70
40
115
82
48
111
80
36
113
74
41
112
73
40
102
65
35
115
72
38
133
98
54
51
38
25
20
14
14
24
18
11
46
34
19
52
33
32
87
68
49
92
79
47
72
64
32
61
56
27
44
43
22
31
28
16
36
28
21
23
16
12
65
44
27
96
73
34
95
76
37
94
69
42
91
60
37
100
68
41
107
82
49
110
87
44
107
84
40
83
64
34
43
31
22
16
20
20
39
29
29
79
59
39
98
75
53
100
79
53
99
83
51
51
35
15
49
43
30
69
61
48
83
73
57
82
67
54
69
53
39
67
55
34
64
56
36
44
43
29
25
28
17
15
18
9
23
26
17
30
22
20
16
14
14
12
12
8
23
14
11
41
29
25
54
43
36
59
52
39
47
46
31
23
27
13
14
17
6
8
9
7
7
8
9
11
8
5
18
14
10
14
13
7
21
22
10
35
38
25
40
60
82
255
255
255
255
255
255
151
138
129
154
150
153
255
255
255
255
255
255
58
36
28
172
181
194
255
255
255
255
255
255
131
131
112
46
45
49
100
90
87
90
74
73
55
40
35
24
27
29
103
91
88
164
155
137
143
142
124
155
156
151
218
202
193
240
232
219
204
195
179
141
144
128
67
63
83
255
255
255
255
207
164
197
220
230
231
255
255
220
212
212
25
12
11
28
11
10
29
18
21
30
22
18
23
17
12
14
14
11
22
22
19
20
20
20
23
23
23
18
18
18
11
11
11
10
10
10
8
8
8
5
5
5
5
5
5
8
8
8
10
10
10
9
7
8
9
5
7
5
5
5
7
7
7
8
8
8
7
7
5
8
8
6
7
8
4
9
11
10
11
11
16
10
12
10
8
10
8
2
4
3
4
0
2
11
8
7
8
13
2
10
13
5
11
12
9
16
15
15
21
21
21
24
24
24
22
19
18
24
15
13
32
26
23
35
27
22
25
19
15
15
15
10
22
18
11
26
18
14
32
24
17
33
25
20
37
29
18
44
36
20
53
44
30
54
45
31
54
45
30
59
54
32
65
62
36
87
76
48
125
115
63
198
162
100
119
71
58
134
120
72
200
156
94
116
95
54
103
87
59
87
72
56
45
40
28
24
20
17
12
10
15
10
5
8
12
3
8
9
2
3
5
8
7
4
4
4
4
4
4
8
8
4
11
11
8
11
11
15
13
13
12
10
9
5
6
2
4
5
2
1
16
7
9
25
18
19
36
33
28
55
48
35
66
56
41
78
63
47
91
74
51
93
82
56
86
74
53
88
76
42
99
85
46
99
82
58
62
47
31
47
37
30
96
83
62
105
88
65
54
32
20
62
50
33
131
96
67
173
135
91
184
139
93
171
127
88
134
98
70
101
78
55
118
99
66
102
77
50
45
27
14
22
18
11
22
19
7
25
24
2
82
68
34
127
92
54
255
255
255
255
255
255
48
38
19
46
20
17
82
43
29
135
89
49
182
118
72
211
139
85
212
147
80
205
155
80
217
174
99
196
159
98
133
107
67
92
77
55
56
48
31
36
32
21
59
54
34
58
50
34
34
29
29
27
24
17
27
26
16
23
19
17
19
17
15
20
16
9
12
12
4
11
12
9
13
13
13
12
12
12
13
13
13
15
15
15
18
18
18
21
21
21
27
26
26
29
25
27
25
20
21
21
22
17
19
22
15
16
20
13
15
19
11
17
21
14
17
21
14
14
18
10
14
18
10
13
17
9
11
15
7
13
17
8
18
24
15
22
26
24
18
20
20
17
20
17
17
20
14
19
19
13
19
18
13
23
19
17
26
19
21
22
16
20
13
8
12
6
4
6
3
3
3
3
3
3
2
2
2
9
1
1
22
14
10
25
25
22
34
25
23
57
48
33
75
68
46
107
80
63
159
122
90
178
144
89
153
123
81
99
86
54
123
97
63
167
124
76
181
128
71
182
130
65
205
148
84
219
162
94
189
139
73
153
107
53
166
115
64
148
113
58
104
78
39
78
54
23
91
63
34
105
70
38
114
75
41
129
88
48
137
97
50
131
96
47
100
73
34
74
47
30
61
37
29
51
30
27
37
23
23
22
15
17
23
12
5
37
21
12
69
42
30
69
46
43
62
41
25
38
25
10
8
10
8
14
11
8
32
21
3
44
29
11
53
33
21
72
46
21
96
64
24
111
74
29
103
65
37
85
50
23
109
74
42
93
69
34
43
32
16
25
17
8
11
8
2
6
8
4
16
10
7
171
22
187
215
10
250
167
110
17
82
93
78
255
241
194
225
178
122
79
15
67
37
128
255
42
74
226
23
5
24
10
5
5
4
4
4
4
4
4
5
5
5
5
5
5
3
4
4
3
5
5
7
3
4
7
5
7
47
24
17
59
33
35
10
9
2
53
38
13
125
80
44
152
89
90
54
82
249
45
147
255
43
85
125
109
174
255
214
255
255
153
164
157
108
87
46
69
46
35
175
128
70
241
183
95
96
67
30
41
41
17
33
32
17
79
49
30
82
62
22
44
31
15
39
32
16
58
24
4
102
62
39
71
61
38
40
32
13
92
69
36
112
78
52
126
88
54
119
84
44
74
55
24
34
23
7
149
107
53
146
108
59
33
17
18
5
2
13
4
11
8
25
31
8
41
30
17
65
53
34
33
28
22
22
15
5
63
41
16
84
55
26
77
52
19
73
46
12
115
75
41
140
102
60
138
103
65
116
87
52
103
73
40
112
79
39
131
91
46
156
112
64
186
143
87
191
146
87
158
115
68
103
71
45
53
29
20
40
19
14
12
16
14
54
49
37
83
70
46
76
63
31
62
46
34
61
48
40
69
57
46
73
60
47
62
50
38
43
38
24
37
34
18
28
28
19
16
15
7
11
10
11
15
19
8
23
27
15
22
20
18
14
10
11
18
16
14
28
31
22
38
40
27
48
46
33
50
47
36
38
34
27
32
28
22
27
25
15
23
20
13
22
24
14
22
26
14
27
31
17
31
33
18
34
32
16
45
44
31
153
183
205
255
255
255
249
235
255
23
17
36
98
84
67
233
255
255
255
255
255
214
191
170
255
255
255
255
255
255
161
168
146
70
77
75
87
101
94
40
38
42
43
48
47
154
144
150
222
202
208
213
206
198
170
196
172
160
180
168
169
185
187
202
191
187
151
137
125
124
128
126
149
159
151
111
85
81
255
255
255
255
217
173
255
255
255
255
255
255
255
255
255
7
8
7
13
12
8
15
13
15
36
28
24
37
29
19
20
20
14
35
34
25
40
33
29
34
26
22
28
21
18
15
13
8
7
7
7
2
2
2
6
6
6
7
7
7
5
5
5
4
4
4
10
8
9
10
6
7
9
3
5
11
7
8
11
8
8
8
4
2
10
6
2
11
10
5
10
9
9
13
14
15
12
15
13
8
10
8
5
7
4
5
1
2
10
11
3
17
17
6
13
9
7
14
9
10
18
17
14
28
24
20
36
26
21
45
34
30
45
35
31
39
34
28
32
28
22
17
16
14
3
4
5
18
12
6
32
24
18
34
27
23
32
25
21
38
30
25
45
37
34
45
37
37
33
29
26
29
29
21
43
42
26
60
57
38
83
73
46
145
136
84
220
187
120
142
100
64
168
146
90
209
166
100
129
107
68
98
76
54
62
49
41
23
23
22
8
9
13
11
8
5
13
9
1
16
12
4
19
16
8
20
20
12
12
18
10
14
16
14
18
17
16
20
17
13
20
18
19
20
18
12
22
18
7
24
21
6
28
27
10
34
32
16
43
39
22
60
51
33
76
64
43
81
69
45
85
70
46
87
76
49
74
70
46
58
48
28
56
45
21
52
48
28
64
60
48
91
82
63
114
108
80
85
81
58
37
28
23
91
76
58
168
135
98
197
159
107
183
154
95
145
116
68
80
67
42
3
4
1
65
45
27
125
94
58
145
94
61
123
68
49
86
44
33
68
32
25
57
27
24
60
46
24
86
64
30
255
255
255
255
255
255
122
87
52
137
94
57
167
116
72
197
143
79
216
161
83
201
153
83
152
116
68
115
88
48
131
103
43
160
133
67
130
104
54
105
91
58
76
69
44
53
46
32
46
46
23
50
42
27
63
53
44
53
49
38
35
35
19
29
25
14
28
21
21
25
17
17
21
11
6
19
9
5
20
12
8
22
14
10
20
12
8
16
8
4
15
8
5
19
11
7
25
19
15
30
24
24
31
22
26
29
20
25
29
22
26
28
21
24
25
17
21
22
17
18
18
16
14
17
12
13
18
10
14
16
10
13
13
11
12
13
14
12
16
20
12
23
27
18
22
26
18
19
23
15
16
18
10
18
13
11
14
10
10
15
15
15
23
22
22
27
21
24
22
14
18
17
8
13
13
5
9
13
5
9
14
6
10
13
5
10
19
13
10
22
23
18
30
25
26
60
41
31
90
75
53
121
102
70
163
135
86
143
130
81
199
166
114
152
131
87
199
158
98
238
179
103
233
173
97
202
152
88
165
127
71
115
86
40
106
64
37
85
53
27
103
72
38
79
55
20
46
29
19
28
15
14
24
13
4
40
26
16
46
28
14
51
31
15
50
34
17
41
29
7
29
15
4
29
13
3
33
17
14
31
14
13
26
11
20
7
7
2
18
7
11
17
9
13
24
7
13
17
14
21
28
17
10
31
20
7
9
8
3
4
6
7
1
5
14
7
9
10
19
15
12
28
22
8
41
29
11
66
45
15
87
60
38
88
56
37
96
62
43
56
34
20
29
13
4
20
5
9
8
8
14
16
10
12
95
32
8
210
42
172
106
72
255
180
128
64
159
181
184
198
199
175
255
255
244
178
108
60
43
149
255
17
135
255
27
9
25
7
6
4
3
3
3
1
1
1
3
3
3
5
4
4
7
6
6
5
5
5
10
5
5
3
7
10
28
18
13
76
34
26
47
14
37
69
13
50
119
44
68
185
49
165
17
101
255
75
132
212
31
42
42
49
102
182
139
229
255
160
179
216
128
99
46
44
42
18
145
108
52
198
149
78
95
67
29
4
15
11
62
30
17
115
81
46
48
41
15
34
27
8
71
49
15
96
61
38
90
67
50
17
28
25
55
34
28
45
30
8
86
48
24
122
72
44
106
73
39
77
47
21
99
58
36
136
101
49
92
72
32
77
54
38
54
43
22
33
23
11
50
29
13
63
29
24
83
53
41
101
64
39
145
96
51
191
134
72
217
151
83
231
161
88
236
168
91
225
163
89
186
131
68
172
111
65
160
99
52
158
109
51
169
127
63
160
120
65
155
117
69
168
126
77
175
130
79
178
132
77
141
103
59
97
71
47
69
49
34
50
35
21
65
52
28
71
64
34
70
62
39
67
60
49
56
50
36
52
43
25
46
39
26
35
35
21
24
28
12
18
22
11
6
14
10
11
6
4
25
28
17
36
41
28
21
22
18
2
3
4
19
22
13
29
34
20
36
38
23
38
34
18
37
31
18
31
25
19
24
16
12
30
24
21
34
28
21
39
33
31
44
35
38
44
33
34
41
34
31
40
38
31
36
34
25
44
40
30
189
219
236
255
255
255
217
207
219
140
149
158
127
148
140
6
64
115
255
255
255
251
233
215
255
255
255
255
255
255
86
83
63
102
91
95
175
166
174
235
228
226
197
192
187
66
71
70
103
85
94
187
171
176
183
189
171
195
194
171
122
97
86
138
122
115
209
200
192
103
103
91
151
145
123
164
134
102
255
255
255
255
235
187
255
255
255
245
255
255
255
255
255
63
37
35
11
14
8
23
20
15
39
33
28
41
33
22
17
17
11
21
21
15
32
29
22
27
22
17
28
20
20
17
12
5
13
13
9
12
12
10
7
7
7
2
2
2
1
1
1
2
2
2
7
7
7
7
7
7
8
8
8
11
11
11
12
12
12
10
10
7
10
10
3
14
14
5
15
13
9
17
14
10
17
17
14
17
15
16
14
11
12
7
7
7
9
13
3
22
20
11
18
18
15
20
20
14
20
20
11
35
27
20
46
36
30
46
41
33
39
40
33
21
24
18
15
17
14
5
1
2
20
14
11
24
22
18
27
27
23
26
26
22
22
22
19
27
27
23
30
30
27
27
27
26
19
19
21
18
18
17
31
31
27
43
45
37
63
58
42
138
128
83
197
172
113
137
98
73
159
135
93
196
157
99
123
100
69
75
59
45
34
33
21
11
16
2
8
7
8
18
14
12
27
23
17
31
27
19
31
27
19
32
25
19
27
23
14
23
18
12
22
18
11
25
21
17
26
23
20
28
25
15
38
31
18
49
41
27
57
52
33
61
59
37
67
62
41
76
67
46
77
73
46
71
67
37
68
60
37
65
61
38
41
44
18
30
25
5
42
28
18
34
33
18
18
17
10
5
20
21
20
13
2
74
61
52
111
95
76
124
105
77
114
98
61
65
58
32
69
53
48
104
76
65
140
104
80
175
131
88
190
144
93
217
173
109
233
182
113
222
158
103
189
127
87
148
102
67
110
76
46
98
70
40
143
104
61
255
255
255
255
255
255
109
70
39
108
72
42
105
69
42
109
77
45
110
84
46
113
84
44
92
69
43
65
32
17
106
72
41
117
87
41
114
91
46
119
106
69
91
83
50
60
53
30
22
21
12
22
26
19
56
52
40
76
72
62
56
58
42
35
36
20
29
27
21
27
21
24
22
15
16
20
12
10
20
12
8
19
12
8
17
9
5
16
8
5
16
8
5
15
7
3
14
8
3
17
16
9
22
19
18
24
18
21
26
19
22
28
21
24
27
19
23
24
16
20
20
12
16
16
8
12
15
7
11
18
10
14
20
11
15
17
11
14
11
9
8
11
14
8
12
15
8
16
13
10
21
13
15
25
17
21
22
19
20
22
22
19
22
22
16
21
21
12
24
22
15
24
18
17
20
13
12
17
9
5
16
8
4
14
8
5
12
10
5
12
15
4
21
23
25
48
34
36
95
72
62
168
140
106
247
207
141
134
115
82
86
68
47
41
36
23
157
108
59
223
158
91
251
179
105
216
157
82
130
95
38
67
41
4
47
23
5
70
38
16
94
59
29
72
44
18
43
24
10
34
18
14
20
10
12
16
7
3
12
5
7
17
8
1
7
4
2
10
4
10
11
4
9
7
5
14
6
4
14
7
5
13
21
14
16
25
14
5
6
4
8
27
17
10
49
33
21
44
36
33
53
34
19
40
22
18
5
2
15
4
3
15
1
1
7
4
3
6
7
4
5
7
5
3
5
5
5
18
15
4
47
35
15
56
35
17
41
21
10
8
7
4
8
2
4
7
5
7
8
7
1
36
7
5
191
63
66
180
22
249
64
163
255
169
140
126
255
255
255
36
29
15
255
255
255
255
254
188
99
57
255
8
187
255
37
28
50
4
4
7
2
3
3
4
4
4
4
4
4
6
5
5
10
7
7
12
8
8
12
6
5
7
4
2
5
4
4
63
21
14
180
59
83
144
27
118
72
31
125
142
106
238
126
169
255
123
134
144
91
91
93
87
120
182
104
201
255
157
189
253
165
118
71
59
51
22
107
79
39
203
151
83
193
137
77
97
62
32
88
56
23
82
64
37
11
11
14
31
27
15
51
27
15
71
42
35
78
48
25
98
57
31
98
63
39
86
53
25
102
59
30
92
55
27
102
61
35
146
97
47
114
73
39
69
44
20
116
80
38
143
98
53
128
88
44
112
75
24
149
97
38
177
114
57
184
122
69
169
113
63
184
127
72
193
133
67
203
136
62
248
173
88
255
188
99
218
151
70
179
117
47
201
132
62
226
153
80
202
147
77
152
116
61
111
84
43
85
65
36
57
44
22
58
45
24
134
107
63
114
90
50
39
34
14
71
58
40
113
85
50
87
64
39
68
57
36
57
55
33
49
50
34
41
36
21
38
31
16
30
34
17
21
26
13
10
12
5
11
10
11
5
3
9
31
29
16
46
46
32
33
33
29
14
15
13
21
24
15
29
25
20
39
30
24
36
28
19
32
26
18
27
25
21
20
20
14
15
15
7
21
21
14
27
27
19
32
30
24
38
33
26
41
35
27
38
31
25
36
30
25
36
32
27
50
39
35
141
166
184
255
255
255
238
222
227
131
138
132
129
138
121
15
46
91
255
255
255
189
190
211
255
255
255
246
241
224
137
147
140
73
102
103
51
68
64
19
25
20
110
101
92
208
200
195
242
239
245
213
214
213
179
196
193
191
204
196
129
131
127
81
80
90
132
130
113
96
92
78
72
72
46
101
91
65
255
255
255
255
255
254
221
255
255
182
255
255
255
255
255
144
119
118
26
27
24
23
26
19
36
34
28
30
22
15
15
15
7
22
19
17
15
8
10
11
17
14
27
21
24
21
19
17
17
17
14
14
14
8
8
8
8
2
2
2
2
2
2
3
3
3
10
8
8
20
14
13
23
15
13
23
15
14
25
18
18
26
18
18
27
19
17
29
21
15
29
20
15
24
15
10
17
11
6
20
11
12
22
15
18
16
12
13
13
15
4
23
24
13
20
21
17
8
12
9
7
7
7
28
21
16
44
36
35
21
18
16
21
15
16
23
16
12
29
22
18
37
28
24
40
32
25
32
29
20
27
27
20
23
23
18
16
16
13
20
20
12
20
20
18
12
12
9
16
16
12
23
20
19
21
15
20
15
16
15
40
37
31
110
102
61
158
144
91
81
50
26
109
103
63
164
132
72
87
73
45
40
32
25
7
10
3
18
14
14
22
24
15
26
26
18
32
29
22
35
26
21
31
18
14
31
14
12
33
20
13
33
26
13
32
25
13
36
29
20
38
33
22
45
37
25
57
44
32
66
52
36
74
62
43
78
66
47
73
63
44
59
53
33
48
45
20
43
36
16
55
42
28
58
50
31
38
31
9
35
21
7
49
34
24
50
49
30
54
48
32
73
68
49
83
81
59
55
58
41
9
15
4
45
33
29
93
68
53
143
104
70
175
131
78
200
156
87
222
177
102
214
167
102
177
136
85
151
120
72
153
126
74
153
119
68
152
113
67
144
108
61
138
105
49
157
122
70
203
159
96
255
255
255
255
255
255
43
34
25
44
29
18
31
20
11
21
13
3
50
25
12
108
66
35
157
103
59
162
111
66
170
125
74
167
128
75
171
146
87
161
147
94
110
100
62
71
61
41
44
36
31
49
41
37
43
37
33
43
40
36
46
46
36
34
37
20
22
25
16
18
19
17
17
20
11
12
13
10
8
8
8
8
8
8
7
7
7
7
7
7
9
9
9
9
9
9
7
7
5
7
7
3
11
11
2
14
14
8
12
12
10
13
12
13
16
10
12
15
10
12
14
10
12
12
11
12
10
10
10
14
12
13
20
14
17
25
16
21
19
11
15
13
10
12
15
13
14
21
15
18
27
21
24
27
24
26
25
25
23
26
26
19
22
22
13
19
19
11
23
23
15
27
27
20
23
23
20
13
13
5
11
11
4
14
14
6
15
17
7
11
14
8
7
3
8
11
14
7
42
34
17
111
90
57
219
182
114
255
219
155
204
171
116
137
112
70
200
146
86
255
185
112
195
135
66
105
75
27
122
73
33
130
73
40
126
77
44
123
85
47
108
78
42
73
53
29
48
31
19
35
19
14
21
11
8
9
1
7
5
6
11
8
6
8
8
4
8
8
4
10
9
5
7
8
8
12
11
11
16
8
2
14
4
10
10
21
15
1
32
17
13
34
14
11
35
37
23
15
26
13
67
48
35
37
27
13
16
13
7
11
8
2
8
7
15
9
8
6
16
12
4
23
19
11
26
22
11
14
14
9
2
2
7
10
3
7
7
0
8
5
7
5
4
2
4
7
8
5
15
3
1
84
18
18
215
51
134
74
77
255
152
188
255
87
71
63
255
255
255
132
156
167
215
211
197
255
255
255
211
132
183
51
175
255
45
35
73
3
7
13
7
2
2
2
3
3
6
6
6
4
4
4
2
1
1
4
3
3
7
2
2
8
0
1
10
2
5
61
5
34
221
65
165
48
87
156
58
76
118
59
61
217
21
80
184
37
36
29
4
3
14
80
96
147
125
201
255
191
231
255
221
174
120
92
80
34
13
11
6
108
82
43
171
127
77
161
115
64
149
97
50
53
31
17
22
31
18
18
12
7
59
34
15
82
51
25
128
76
46
157
96
55
148
89
43
127
75
31
94
61
31
49
38
18
101
59
38
152
110
49
128
86
43
140
85
41
153
106
45
159
106
46
189
115
62
227
146
82
240
165
90
215
149
70
200
138
62
178
125
60
183
127
69
167
106
49
156
98
49
155
101
55
149
93
50
141
90
46
124
88
42
117
96
45
110
89
46
66
46
23
29
24
8
16
10
9
24
9
15
87
58
42
149
98
64
163
116
70
135
109
63
122
96
60
157
121
81
137
108
71
79
63
47
50
43
34
34
32
21
23
24
15
26
16
17
29
20
15
24
27
13
12
16
10
11
7
7
17
15
11
21
21
9
50
42
31
46
41
34
14
3
0
34
36
26
31
31
21
34
23
18
30
23
15
22
20
13
21
18
17
13
14
12
12
14
10
14
18
10
20
23
17
28
27
22
33
27
16
34
29
12
36
32
15
40
31
16
45
33
21
52
40
32
62
48
43
128
146
168
255
255
255
255
255
255
152
143
138
155
161
145
36
62
87
255
255
255
255
255
255
255
255
255
77
67
72
174
164
159
228
231
219
250
243
230
240
221
208
197
184
164
102
107
99
70
57
73
170
165
175
255
255
255
255
255
241
178
185
153
129
132
114
130
132
111
95
93
100
136
136
133
184
178
163
88
128
137
255
255
255
212
206
216
174
209
235
255
255
255
255
237
237
21
37
32
21
21
17
30
25
20
21
14
11
11
11
5
26
26
17
27
21
18
7
3
4
20
16
17
24
21
22
16
16
10
18
18
11
11
11
11
7
7
7
8
8
8
13
13
13
23
18
17
27
20
17
27
19
15
25
17
14
26
18
17
30
22
22
33
25
25
34
26
26
35
27
27
31
25
23
20
20
13
18
15
12
25
19
22
28
19
24
28
22
20
31
29
23
35
31
28
39
35
23
40
36
20
45
39
22
64
54
41
74
63
51
68
60
48
57
49
38
58
50
40
58
51
44
43
41
34
33
33
24
29
29
26
22
22
19
14
14
16
16
16
9
20
21
15
12
14
10
18
17
7
20
18
12
14
13
4
16
19
21
35
36
31
95
90
52
140
127
86
80
55
35
100
98
65
152
123
75
75
66
44
30
26
18
10
11
8
31
29
20
39
39
23
41
33
25
34
23
18
26
16
11
25
15
13
26
13
10
30
22
15
32
29
19
39
34
21
50
44
24
57
49
24
63
51
34
63
50
38
59
52
32
51
49
30
38
34
21
25
21
9
21
15
2
35
24
10
52
39
20
76
59
40
79
60
41
63
38
25
60
32
22
62
48
32
56
50
34
41
31
22
22
16
16
15
17
6
71
63
48
108
89
70
127
101
69
129
102
62
113
89
50
107
84
42
122
98
47
126
101
53
104
84
52
79
63
45
87
70
48
93
77
50
57
47
20
62
58
35
106
83
53
152
112
71
184
136
90
182
136
84
255
255
255
255
255
255
34
22
18
17
10
8
60
19
10
152
80
52
216
130
83
228
148
93
240
171
99
214
164
91
178
148
86
189
169
101
184
174
109
147
137
90
102
92
65
80
70
56
74
66
52
86
78
59
97
91
73
80
77
64
47
47
38
27
29
18
17
18
16
13
12
18
10
12
10
7
9
9
8
9
11
7
7
7
2
2
2
3
3
3
1
1
1
2
2
2
5
5
5
7
7
5
8
8
4
12
12
10
9
9
7
4
7
5
4
3
2
1
7
4
7
9
6
12
12
8
16
16
8
18
18
11
18
18
10
26
23
18
31
23
20
30
22
18
31
25
20
31
29
22
29
29
22
26
26
19
25
25
16
25
25
18
24
24
22
26
24
24
29
25
25
31
28
28
29
30
32
18
22
20
13
15
14
16
17
13
22
22
13
25
19
14
29
19
19
30
20
18
23
14
12
28
29
19
75
65
30
130
107
66
160
133
95
169
139
92
247
193
116
255
255
172
255
255
147
171
114
58
45
17
10
68
35
23
69
39
26
58
35
20
40
28
13
29
17
4
19
7
4
10
2
4
7
3
7
5
3
7
7
5
7
4
2
7
5
1
11
4
2
8
4
4
2
4
4
2
4
9
4
8
12
13
17
12
17
17
11
16
19
11
7
45
24
15
40
33
31
35
18
2
49
38
26
25
17
25
34
17
18
31
17
16
21
14
21
12
11
11
17
8
11
15
8
14
18
8
7
14
11
8
9
5
2
9
4
1
5
1
1
3
5
2
4
8
5
8
8
4
54
16
8
202
66
57
190
39
207
32
106
255
93
111
152
56
44
54
244
224
203
249
255
255
63
44
40
255
255
255
255
174
24
103
97
255
46
72
172
15
3
15
5
4
7
10
4
11
8
3
10
7
6
7
0
6
6
6
8
4
2
7
6
7
6
10
8
10
5
63
8
57
155
67
255
93
114
133
65
74
129
154
93
161
131
129
166
64
61
57
55
39
39
44
37
116
74
133
255
208
235
255
252
214
157
101
86
30
38
30
17
104
73
34
143
108
65
136
105
56
151
97
51
60
29
15
17
1
1
50
42
21
54
29
22
73
38
25
99
52
29
95
51
25
93
51
24
75
40
15
48
24
9
43
20
7
90
46
27
130
93
49
145
100
53
173
119
69
164
103
59
174
109
53
211
138
73
228
151
82
200
130
65
158
102
44
151
97
39
155
102
51
170
114
63
132
87
50
102
71
46
75
48
30
78
50
29
90
57
38
56
41
30
25
16
3
92
57
31
78
51
22
34
27
11
41
28
24
103
71
44
181
134
81
197
151
96
175
148
90
146
130
74
145
114
70
131
102
67
81
75
44
40
42
23
21
26
19
11
12
14
2
6
4
24
14
14
29
20
12
21
22
11
13
10
7
17
17
4
22
21
14
34
25
18
51
40
32
22
24
20
36
27
22
45
44
29
29
29
19
25
20
15
10
13
9
4
8
9
7
7
5
4
5
3
4
3
2
19
13
10
31
22
20
36
28
24
39
31
27
39
30
28
39
29
27
44
35
27
50
42
30
50
44
32
47
45
34
136
157
172
255
255
255
255
252
255
66
77
96
164
164
151
180
173
163
255
255
255
255
255
255
56
61
50
255
255
255
175
192
173
95
129
114
66
99
85
62
75
64
79
69
72
185
189
181
255
255
255
255
255
255
255
255
238
113
129
114
30
27
14
157
152
134
255
255
234
208
208
196
120
129
121
125
124
130
144
125
120
158
158
148
215
182
160
117
133
156
255
255
255
255
255
255
61
29
35
19
17
12
24
17
12
23
15
15
11
11
10
13
13
7
19
13
12
20
12
16
8
6
4
15
9
13
28
28
22
24
24
17
13
10
8
17
11
8
25
17
11
31
24
17
30
22
17
18
16
13
13
13
11
13
13
10
18
18
14
21
21
17
24
24
20
29
29
25
38
33
30
36
31
30
27
27
22
24
24
17
31
31
23
42
40
33
51
46
37
59
55
40
66
60
46
72
62
46
72
60
42
72
61
38
79
69
47
85
79
61
78
74
58
67
63
47
64
60
44
57
53
37
46
42
29
40
36
26
35
31
22
33
30
15
28
24
16
25
21
10
26
25
15
19
15
12
18
13
8
12
8
0
22
21
13
20
21
17
34
35
26
77
75
48
119
107
72
125
110
75
140
125
87
133
108
74
60
53
37
19
17
13
18
17
10
40
38
27
51
46
29
42
33
28
28
24
19
19
21
15
22
25
18
29
30
23
34
28
21
40
29
18
56
43
26
70
60
36
71
62
36
67
56
34
51
43
23
31
32
13
17
18
9
1
1
5
7
7
3
43
34
17
102
79
48
135
109
68
131
106
69
117
89
55
111
80
47
112
82
53
92
70
46
48
33
23
11
15
11
69
60
39
113
93
59
122
93
64
97
73
46
70
58
32
52
49
26
45
47
30
53
55
36
56
55
36
35
36
28
16
22
15
67
58
37
100
82
53
83
62
44
33
21
9
59
52
29
93
79
55
108
88
64
104
81
53
74
60
32
255
255
255
255
255
255
52
29
25
47
18
8
195
101
65
255
214
132
255
249
141
255
247
137
255
225
129
218
184
113
166
152
97
142
134
78
115
103
63
90
78
55
70
63
45
64
60
42
69
65
46
77
73
51
82
78
56
83
79
60
73
69
55
52
48
43
26
23
27
18
16
21
21
22
18
21
22
20
23
24
22
28
26
26
31
25
30
25
19
26
18
16
19
16
16
16
14
14
14
8
8
8
5
5
5
12
12
10
13
13
5
15
10
10
18
8
12
14
8
11
7
3
1
6
6
6
12
12
5
15
15
8
16
16
8
23
23
15
32
30
24
37
31
26
36
30
25
31
29
22
26
24
16
25
21
14
24
22
16
22
22
19
21
19
17
25
18
12
24
18
13
27
22
18
29
29
28
24
28
18
15
19
7
19
20
8
24
16
9
29
18
19
44
36
34
53
50
31
56
48
27
31
26
5
15
16
15
31
34
22
53
53
36
88
79
54
153
136
81
255
247
143
255
255
203
255
255
186
240
152
84
73
29
11
17
7
5
4
9
10
2
11
12
1
9
12
8
10
9
11
7
7
11
8
10
8
9
8
3
3
2
7
2
13
2
2
6
2
2
4
2
2
5
3
5
4
7
13
14
17
21
20
28
24
13
33
23
12
29
22
16
43
28
22
39
24
28
37
16
9
38
29
14
12
5
2
31
24
15
47
32
23
48
31
19
30
25
14
3
13
4
24
5
4
23
10
5
14
6
5
16
7
5
13
9
2
7
5
4
3
4
7
8
10
10
8
11
9
87
27
20
240
65
128
77
65
255
103
133
224
28
39
69
96
71
50
146
133
100
219
243
255
96
126
162
255
248
230
255
255
173
205
28
219
72
120
255
15
55
93
12
16
12
11
7
13
2
7
9
9
6
7
3
6
5
7
7
8
4
5
5
8
4
5
8
6
8
98
12
90
144
77
255
84
54
47
175
160
161
109
49
116
129
135
149
77
77
53
68
40
24
43
50
163
21
113
255
200
206
242
255
225
153
113
95
55
33
21
13
114
81
45
113
87
56
85
62
25
120
77
39
79
48
29
67
34
18
57
42
19
41
18
11
48
21
13
52
29
11
31
18
8
19
13
7
15
11
10
21
10
8
43
19
9
75
32
18
111
63
38
134
88
44
130
94
48
116
75
47
116
75
41
112
80
32
101
63
24
83
45
22
87
52
40
96
63
40
101
60
38
102
65
31
72
50
24
45
36
23
19
10
5
35
26
15
75
32
15
56
32
20
44
31
13
85
55
29
67
38
14
55
33
17
95
67
44
122
90
42
144
108
63
101
81
44
46
48
20
72
60
38
96
68
49
62
51
40
29
31
21
14
12
11
4
4
5
18
13
14
19
18
7
28
27
14
39
33
18
31
24
17
19
14
9
20
22
21
31
24
22
40
26
24
36
33
28
10
1
4
52
42
27
41
39
21
24
19
13
13
7
10
4
4
2
13
13
9
19
19
17
15
16
13
16
14
8
24
17
15
25
16
19
24
17
13
22
20
13
23
23
15
26
28
19
31
35
25
33
35
26
29
29
21
27
27
21
130
154
167
255
255
255
255
255
255
27
18
33
124
108
80
192
162
123
181
180
171
77
68
59
204
207
188
196
190
180
165
157
147
228
227
208
255
255
231
255
255
255
255
255
251
226
234
214
155
174
160
39
56
37
93
80
86
173
171
168
255
255
255
248
255
255
127
160
147
90
69
73
117
100
91
83
73
69
177
174
166
64
71
85
201
189
153
175
193
178
255
255
255
255
255
255
228
170
155
10
20
17
20
14
6
27
18
13
18
15
15
17
17
14
25
21
18
38
27
24
46
34
29
41
39
30
42
41
31
34
28
22
29
20
16
34
26
21
36
28
23
32
24
21
23
17
12
15
14
11
13
13
10
17
17
16
21
21
18
23
23
19
24
24
20
26
26
20
38
34
26
46
38
30
45
38
31
44
36
26
46
38
26
51
43
31
61
53
39
73
65
47
74
67
50
66
58
47
61
53
45
61
53
43
64
56
42
67
60
44
68
63
47
65
61
45
59
55
37
51
47
28
47
43
27
44
40
30
36
32
22
37
34
22
35
31
18
31
27
13
26
22
17
14
8
7
7
3
4
4
4
9
20
19
9
20
19
10
28
29
21
49
53
43
88
84
61
111
97
70
111
92
62
84
69
45
33
28
15
7
8
8
32
31
21
48
44
36
49
45
34
26
29
18
25
32
22
35
34
27
43
40
27
52
51
30
59
54
31
73
58
35
94
73
50
99
78
54
84
64
45
61
45
29
35
26
13
21
17
6
29
21
8
54
39
20
94
74
38
153
123
70
202
170
104
185
159
96
151
123
71
134
106
52
134
111
58
119
101
61
76
56
38
52
36
22
87
68
51
115
87
62
117
88
56
90
65
36
51
38
15
27
22
15
14
15
6
17
18
5
28
24
7
8
8
5
20
15
10
48
44
34
71
65
45
61
52
22
65
52
39
78
62
39
79
62
39
60
52
38
33
32
23
17
13
8
34
28
17
255
255
255
255
255
255
68
34
31
150
74
44
255
204
136
255
249
141
216
181
90
169
144
75
158
135
76
143
126
78
123
112
72
102
92
57
81
69
48
61
54
35
51
48
30
51
45
32
52
48
34
58
56
42
63
58
44
75
66
48
85
76
57
82
76
60
63
59
48
39
37
28
34
36
24
36
34
21
42
38
26
48
40
33
47
39
35
41
32
29
29
21
19
27
19
15
28
22
19
28
25
24
20
20
20
7
7
7
14
14
6
26
18
14
11
12
11
22
20
21
17
16
12
6
6
2
9
9
9
10
10
10
12
12
12
19
19
19
24
24
24
26
26
26
25
25
25
25
23
23
26
20
20
25
18
18
24
18
16
23
15
9
21
13
5
21
13
5
18
14
4
25
16
9
31
20
18
35
25
21
27
24
22
27
21
21
25
15
15
27
21
15
46
43
32
45
43
30
52
48
39
39
28
21
14
8
2
7
13
9
14
18
11
21
21
16
28
31
18
84
74
39
240
185
99
255
255
190
255
255
191
255
188
92
123
58
26
61
19
14
53
22
9
38
16
3
22
10
3
14
5
5
14
4
11
4
6
11
1
8
10
5
5
8
11
4
8
10
1
2
7
2
7
6
9
18
7
7
21
20
7
4
22
13
8
20
15
1
24
17
11
47
22
21
60
32
24
70
43
23
80
56
25
13
15
4
38
22
12
37
29
35
51
34
31
51
25
30
20
15
9
10
9
2
10
4
4
7
4
3
18
5
4
7
5
8
5
9
8
13
9
2
7
7
3
50
14
16
181
49
65
195
13
202
41
128
255
122
126
152
31
31
29
128
106
88
58
44
21
128
142
158
214
234
255
88
89
88
255
255
244
255
182
19
177
74
255
54
97
196
18
8
9
3
8
10
4
8
5
4
6
9
5
4
9
3
5
4
5
4
6
7
2
7
8
0
4
152
3
133
205
53
239
155
109
42
183
151
120
61
31
118
181
172
166
68
67
68
55
30
24
48
77
237
10
128
255
153
110
67
255
217
203
195
207
231
48
63
79
96
75
53
95
73
41
97
65
31
136
82
38
111
71
41
76
52
31
30
14
4
26
15
14
37
18
12
30
20
8
10
10
4
2
4
2
6
2
2
13
5
9
26
14
11
44
27
8
66
40
14
72
43
13
46
37
49
26
55
102
13
59
114
22
27
48
36
16
11
27
17
8
49
23
18
61
42
32
45
26
7
42
30
18
30
11
9
24
6
8
10
7
2
31
25
19
72
32
12
80
37
16
94
54
26
116
72
36
102
59
26
130
83
52
110
85
46
78
59
31
110
79
52
119
89
47
99
71
38
92
68
43
88
71
44
48
42
28
22
10
7
20
20
11
30
28
18
26
30
21
21
23
11
24
24
11
41
39
19
41
41
25
29
25
25
33
21
29
35
18
17
29
21
16
14
17
15
35
25
19
53
46
29
34
31
19
22
14
13
13
7
2
9
11
10
12
12
21
10
10
12
16
16
16
25
23
17
28
20
17
22
16
15
15
15
7
15
15
6
15
15
7
18
18
12
20
20
17
16
17
14
12
15
6
17
19
13
123
149
157
255
255
255
255
255
255
56
60
42
130
115
76
243
212
162
165
145
134
73
69
62
162
165
146
204
202
195
255
255
252
255
255
255
198
213
198
88
106
97
48
34
35
130
122
115
148
146
134
158
165
150
91
106
81
56
56
56
154
135
140
91
65
55
92
92
75
61
61
66
103
99
99
161
167
155
217
225
205
184
200
201
110
112
82
129
131
112
132
199
220
255
255
255
255
255
255
53
27
25
17
14
8
25
17
7
37
29
13
48
40
26
55
47
37
58
50
44
57
49
45
54
46
42
50
41
37
43
34
28
39
33
24
36
33
24
28
27
20
21
18
14
16
13
8
17
16
9
19
19
11
20
20
13
20
20
12
20
20
12
20
20
12
21
21
13
31
28
19
45
39
27
52
44
33
51
43
32
48
40
28
48
40
28
54
46
34
57
49
37
54
49
38
47
45
39
47
47
43
45
45
41
43
41
35
47
41
31
53
45
33
53
45
33
48
41
31
43
41
32
38
38
30
34
34
27
26
26
24
28
28
28
24
24
24
16
16
16
10
10
9
4
4
2
4
4
8
14
7
1
25
14
3
24
20
9
15
16
8
16
16
15
26
23
18
19
15
12
26
23
12
25
22
15
17
15
10
35
33
23
44
40
32
53
45
39
43
42
24
33
30
14
41
36
19
56
46
31
74
60
37
93
76
45
102
84
53
110
93
64
118
101
68
103
86
49
83
66
34
74
58
33
74
58
39
90
71
47
125
97
58
160
125
77
177
135
79
181
140
80
158
130
76
98
78
38
85
68
34
98
80
45
73
62
42
55
49
25
117
89
60
127
94
60
116
86
56
93
72
37
58
53
25
25
27
12
21
18
9
34
29
24
10
10
15
19
15
17
9
7
7
25
20
5
44
34
18
39
38
23
30
31
25
61
55
38
75
71
43
69
57
42
43
30
24
16
13
8
34
30
24
46
36
22
52
45
24
255
255
255
255
255
255
101
59
36
229
144
102
255
224
142
221
192
95
102
97
47
79
64
46
90
75
52
89
83
50
76
72
39
61
60
32
52
52
35
40
41
28
34
34
26
33
31
25
33
32
22
42
36
29
42
32
26
48
40
24
59
51
33
72
63
45
76
71
54
59
54
39
44
39
26
40
33
24
41
34
28
36
29
26
27
25
16
33
30
22
29
22
18
23
15
11
20
14
10
24
22
15
29
29
22
22
22
19
12
12
10
29
21
17
17
17
17
21
17
18
28
28
21
21
21
17
18
18
18
15
15
15
11
11
11
11
11
11
13
13
13
19
17
17
22
19
16
23
21
13
24
21
12
22
18
10
20
16
7
21
13
5
21
15
9
17
15
13
16
14
10
22
15
10
26
16
10
32
20
19
33
20
24
28
18
21
26
17
17
31
25
16
43
40
29
22
18
11
43
37
33
45
41
35
34
31
21
15
14
11
13
13
10
17
17
15
18
17
12
27
30
16
59
49
23
210
158
86
255
255
176
255
255
188
255
250
137
255
164
92
233
139
72
194
117
60
132
80
41
79
47
21
44
14
5
31
11
5
22
13
10
8
9
13
6
6
8
5
7
2
4
2
3
4
12
17
3
4
5
22
8
13
21
9
10
6
5
7
8
10
17
33
10
7
61
34
15
15
18
10
79
48
33
41
30
22
36
22
17
41
26
31
50
31
12
50
35
34
41
6
34
73
20
29
45
18
24
6
4
11
10
4
7
16
3
6
20
5
3
11
9
7
5
6
7
100
17
47
230
48
141
102
52
241
115
157
238
64
71
88
79
58
49
97
80
61
51
71
80
104
128
134
244
255
255
82
79
70
186
201
194
255
238
127
231
53
226
114
90
255
43
14
31
10
8
5
3
6
4
2
4
3
5
9
9
8
4
3
7
7
9
2
6
7
49
11
19
230
48
152
230
73
188
92
56
29
114
91
94
63
55
82
227
206
192
79
75
78
58
45
45
41
101
255
17
138
255
80
62
142
219
165
195
249
255
255
147
157
174
59
41
31
48
43
32
71
52
25
162
101
46
125
79
45
79
46
35
136
81
50
132
71
40
97
50
31
20
15
11
6
8
3
6
2
4
10
5
4
10
6
2
10
3
7
11
4
5
14
10
1
9
5
8
71
22
113
60
65
185
37
74
194
47
48
127
43
16
9
12
12
2
25
13
7
42
27
18
27
21
15
28
21
10
10
7
5
16
5
13
27
11
12
46
29
15
72
45
18
87
47
29
76
44
31
143
93
51
197
129
64
104
80
41
24
0
7
111
70
35
175
118
69
187
130
68
164
114
53
150
112
68
109
91
55
58
45
29
43
30
28
67
50
34
78
63
36
69
55
31
43
28
18
27
17
12
36
24
17
48
41
27
39
34
18
36
21
11
25
16
8
14
17
11
8
8
5
47
37
33
50
42
29
30
26
18
19
12
12
6
8
7
18
18
13
19
19
15
22
22
19
29
26
25
37
28
24
31
21
17
21
17
10
16
16
8
10
10
7
10
10
10
12
12
12
10
10
10
8
9
8
7
10
9
15
17
14
134
159
162
255
255
255
255
255
255
255
226
176
232
203
138
206
198
150
105
101
98
38
48
42
81
93
79
60
73
60
9
24
21
86
79
69
133
133
123
145
145
137
116
119
111
95
105
98
86
87
95
48
49
61
113
99
96
138
126
123
240
235
242
108
95
86
170
169
170
113
121
122
45
30
24
158
144
134
176
198
176
215
240
224
2
11
15
182
199
184
34
68
91
255
255
255
255
255
255
110
70
64
17
17
16
25
23
18
37
32
22
43
35
24
43
37
25
41
39
29
40
38
30
41
34
26
41
33
26
37
33
25
32
32
24
27
26
18
22
19
11
19
15
7
18
14
10
17
15
11
16
16
10
17
17
10
15
15
7
12
12
4
9
9
3
10
10
4
16
15
11
25
22
16
36
32
24
45
41
33
45
41
33
38
34
26
32
28
21
27
23
15
33
30
20
32
31
20
33
33
22
35
35
24
32
32
22
25
23
17
27
20
17
31
23
19
35
26
22
38
28
27
30
22
25
25
21
17
19
19
11
19
19
17
17
17
17
6
6
5
1
1
3
5
5
5
11
13
5
20
13
5
27
18
13
21
26
15
16
19
14
31
31
27
58
53
47
61
51
45
58
48
36
55
40
25
75
57
42
78
61
43
67
54
34
66
54
36
63
56
28
71
56
29
80
62
33
98
79
38
125
99
55
128
100
59
121
95
56
109
87
49
97
78
36
95
77
36
111
93
52
133
108
63
152
116
67
161
124
71
158
127
74
137
113
70
107
86
55
85
66
44
58
54
33
22
17
11
20
15
12
28
25
15
71
59
29
151
123
80
164
124
83
116
80
52
72
52
25
44
35
15
18
18
10
7
8
6
29
25
15
37
32
26
5
5
10
17
12
14
21
16
5
53
35
16
57
40
24
37
24
11
20
8
4
16
21
11
30
27
14
29
34
24
36
32
18
61
55
39
56
50
34
44
33
19
46
33
18
255
255
255
255
255
255
168
96
55
210
142
86
217
179
101
153
149
65
73
86
35
78
76
44
87
79
49
72
74
49
53
55
37
36
38
25
29
32
28
19
23
20
18
17
12
21
17
13
27
22
17
36
30
26
25
21
16
15
15
7
17
16
13
30
22
8
53
45
28
56
53
38
44
43
31
28
26
20
15
15
12
7
7
7
6
6
6
14
13
15
15
17
13
21
22
20
17
15
14
16
11
8
21
15
9
24
21
14
20
18
13
31
22
21
22
20
21
16
12
14
28
25
21
27
27
18
25
25
22
26
26
26
20
20
20
14
15
12
12
11
4
17
11
2
21
13
5
19
13
7
16
13
5
17
13
7
16
15
9
15
15
12
15
15
15
16
16
16
16
16
18
17
17
21
19
20
13
22
22
5
25
23
3
27
25
3
28
25
10
32
25
15
40
37
22
27
23
17
43
34
24
54
49
41
51
52
37
31
32
21
10
10
2
11
11
13
22
19
19
23
29
21
25
24
18
62
41
28
166
127
74
255
242
139
255
255
171
255
255
142
255
218
113
255
182
93
217
142
73
160
111
54
89
61
26
69
40
17
60
32
10
30
18
4
7
4
4
7
10
5
10
11
12
19
10
10
38
19
3
66
38
17
51
32
22
28
14
7
3
10
22
16
6
2
31
13
6
38
36
23
27
20
4
59
41
30
18
4
5
60
31
30
67
38
33
32
6
52
155
45
87
142
34
75
123
35
74
15
4
4
2
4
7
9
4
4
6
6
2
8
4
4
44
12
3
162
30
76
163
29
227
109
141
255
150
155
194
46
20
34
223
177
137
171
132
105
127
121
135
93
66
38
131
183
225
165
184
195
58
72
77
239
227
170
233
111
86
155
55
255
72
55
143
21
3
8
4
4
6
3
4
7
7
10
5
3
8
9
7
12
3
5
9
4
96
16
36
255
95
134
178
59
183
60
73
100
91
102
119
45
21
20
238
223
200
96
99
105
41
39
22
31
95
234
18
159
255
26
94
178
132
101
121
223
255
255
237
209
212
203
131
69
171
109
57
97
57
27
113
76
35
124
83
47
93
67
32
123
90
54
166
106
56
170
97
54
33
12
10
0
6
2
4
3
5
5
5
0
4
6
5
3
7
0
1
4
7
6
3
1
22
9
7
92
37
176
52
70
193
36
77
198
72
72
179
61
39
19
4
2
6
8
7
5
24
13
2
27
16
18
9
5
14
5
4
9
6
5
5
12
5
8
9
2
5
11
14
4
31
19
10
94
51
40
173
116
61
165
111
51
103
68
39
154
99
59
143
95
52
145
103
53
185
138
76
211
152
79
189
151
84
101
89
44
73
58
30
75
54
32
90
71
38
98
76
46
98
74
46
82
58
38
68
47
31
72
53
36
79
60
39
65
56
27
41
32
15
23
23
13
8
18
12
10
14
8
47
38
38
51
41
33
31
29
12
26
19
8
14
5
2
11
12
13
27
24
22
34
32
24
39
31
23
39
31
24
25
23
13
15
15
7
12
12
12
6
6
8
7
7
7
7
7
7
3
3
3
0
4
8
4
0
12
13
13
13
180
209
210
255
255
255
255
255
255
47
29
39
51
67
70
118
130
121
93
82
73
151
140
126
158
160
154
132
138
136
113
119
113
93
103
91
36
46
36
39
26
24
66
60
70
103
93
96
128
115
105
65
65
50
71
80
78
72
54
60
255
255
255
82
77
64
100
85
100
142
132
141
85
89
96
33
14
7
117
120
102
225
235
211
80
53
64
193
206
191
141
135
154
255
255
255
255
255
255
122
88
77
19
19
13
26
26
19
27
27
22
23
23
18
21
21
13
21
21
13
25
25
17
30
30
22
33
33
26
31
31
24
24
24
22
17
17
17
13
13
13
14
14
14
18
17
17
18
17
17
15
15
15
12
12
12
8
8
8
5
5
5
1
1
1
5
5
5
10
7
7
16
12
12
24
20
20
30
26
26
31
27
27
24
21
21
14
10
10
14
10
10
24
20
17
25
22
16
20
20
14
16
16
9
17
17
8
13
13
7
7
7
7
10
10
10
18
15
12
21
17
10
25
17
17
27
19
23
17
17
8
20
20
14
20
20
20
8
8
2
2
2
4
10
10
8
15
17
4
23
18
17
26
25
19
21
31
19
21
26
22
34
35
27
61
51
39
54
44
25
80
67
45
94
76
51
97
80
56
84
71
44
71
60
34
69
59
36
86
73
45
110
88
61
137
108
70
174
138
82
183
146
87
147
115
68
104
80
41
85
66
25
105
79
31
141
105
59
162
122
77
164
126
74
149
115
59
135
106
53
114
93
48
73
59
32
38
32
19
39
36
26
21
23
13
19
18
10
52
46
31
106
88
59
157
128
86
146
117
71
106
79
51
56
38
19
26
19
8
24
21
8
15
17
11
13
15
4
26
21
15
30
25
22
10
10
13
5
3
7
31
22
7
58
40
30
38
27
23
24
11
11
35
18
10
21
20
10
24
28
8
48
50
28
51
38
27
49
37
31
24
15
16
4
3
14
25
22
20
255
255
255
255
255
255
206
131
65
209
151
88
183
156
86
124
131
55
75
78
39
82
55
46
67
55
42
45
51
37
31
32
24
19
19
14
18
22
20
13
17
15
18
14
9
21
17
12
28
21
17
38
31
26
29
29
20
15
15
10
11
11
14
3
7
14
17
6
6
28
25
11
29
34
18
18
23
10
10
14
2
8
11
7
10
11
8
11
9
13
9
9
9
19
20
18
26
26
22
21
18
15
22
14
13
28
19
17
31
22
20
26
17
19
17
14
15
16
15
15
28
20
23
32
29
22
27
27
18
27
27
25
31
31
31
23
23
16
13
7
7
12
2
7
10
7
2
13
7
7
13
10
11
15
15
15
17
18
15
16
16
10
13
13
5
13
13
5
14
17
12
15
21
22
20
22
24
26
20
18
27
21
16
26
23
15
35
30
15
64
53
31
89
76
49
91
76
48
93
77
45
94
76
52
85
73
51
58
55
38
33
27
24
18
10
12
20
15
17
8
18
9
13
17
17
33
22
29
57
44
26
104
91
39
181
156
79
201
161
82
198
146
69
196
140
62
186
121
52
186
123
59
109
79
38
81
47
22
105
53
27
84
46
17
17
3
1
13
4
4
45
16
16
69
34
12
105
64
24
120
74
36
117
76
43
117
76
44
84
46
18
57
30
16
67
39
25
55
37
28
28
18
13
66
42
22
47
18
20
27
4
3
15
6
3
130
14
94
151
37
175
109
56
148
151
28
137
19
2
8
1
6
4
10
3
2
7
4
5
12
4
2
122
43
26
191
36
153
27
110
255
96
157
255
53
86
104
157
118
100
228
184
136
93
36
29
142
110
71
88
88
85
35
52
72
181
209
231
74
75
73
194
185
157
232
185
76
192
25
232
128
67
255
42
17
45
7
2
18
3
3
3
5
5
9
5
7
12
4
3
8
4
2
11
132
26
48
255
121
119
120
31
196
119
128
132
58
70
86
84
84
78
175
168
142
87
89
87
140
141
134
119
80
157
19
129
255
21
60
154
56
17
106
90
202
255
176
174
190
211
138
77
209
134
73
192
121
69
88
49
32
89
60
43
40
23
18
69
47
36
116
83
51
182
122
69
83
39
13
24
12
15
13
11
17
12
7
9
9
5
4
5
4
1
4
2
7
3
5
10
29
7
8
136
32
173
136
94
169
123
126
228
121
60
168
88
56
34
4
5
5
6
5
4
11
2
10
17
4
10
16
6
8
10
2
4
8
8
5
45
27
12
67
41
20
52
33
17
43
31
18
91
54
32
132
88
41
130
80
37
160
106
48
153
108
50
75
54
20
32
21
11
87
51
23
221
158
90
206
164
95
61
54
19
51
45
25
72
61
39
81
64
39
76
54
35
77
61
31
94
75
40
109
90
45
109
90
52
103
81
54
89
78
49
55
48
30
37
22
17
14
8
5
10
14
7
37
34
35
44
34
32
35
27
18
29
26
14
27
20
14
17
8
5
12
12
5
22
17
10
29
20
15
26
24
17
16
16
8
12
10
6
10
8
10
5
5
7
6
6
2
5
5
5
10
10
10
11
12
10
9
12
9
14
16
12
170
201
207
255
255
255
255
255
255
129
142
150
151
169
170
215
244
239
255
255
255
202
213
184
46
43
34
38
32
28
47
46
54
84
73
57
106
98
73
100
87
65
103
99
89
87
79
67
96
88
63
52
49
30
28
17
3
58
44
51
255
255
255
85
93
98
75
60
56
198
172
148
208
198
174
109
118
109
89
114
101
207
212
191
153
138
145
73
96
81
152
172
198
255
255
255
255
255
255
109
82
59
18
24
14
22
24
17
21
19
17
19
16
16
20
16
16
19
16
14
19
18
14
22
22
19
21
22
18
17
20
11
16
20
8
15
20
10
13
17
14
12
16
16
13
15
15
14
13
13
11
11
11
5
5
5
3
3
3
6
6
6
1
1
1
7
7
7
13
11
11
13
12
12
7
11
7
2
9
2
10
15
9
15
21
13
10
17
8
6
11
8
7
7
7
15
13
13
15
15
15
12
12
12
16
16
10
15
15
10
10
10
10
7
7
7
15
15
11
14
15
8
24
18
18
26
16
18
19
17
11
25
25
16
25
25
22
10
10
4
8
8
4
15
15
13
17
18
11
25
17
13
26
15
14
13
16
10
11
15
11
25
28
18
62
49
37
64
49
35
65
61
40
80
78
55
58
60
37
41
42
24
37
35
24
52
42
31
92
70
50
109
82
48
132
100
51
164
127
64
153
118
55
144
105
56
122
83
47
128
101
56
184
142
90
194
143
90
151
107
59
113
86
43
85
69
30
79
65
32
74
53
26
69
45
21
57
38
15
31
24
11
2
4
20
23
26
25
49
43
31
99
77
55
96
76
47
58
47
24
44
33
22
34
19
15
28
12
10
27
18
5
18
14
8
17
12
8
20
8
10
19
17
16
9
13
5
9
9
4
25
19
11
50
34
27
28
16
9
29
16
17
32
13
14
10
8
5
41
30
16
48
38
28
25
26
14
37
38
27
47
38
31
36
21
16
37
26
24
255
255
255
255
255
255
211
151
85
179
135
81
166
139
77
108
112
48
72
71
45
71
46
46
40
35
25
17
26
17
11
11
5
8
8
2
12
15
13
11
16
14
18
18
13
24
21
17
30
24
23
39
30
25
36
31
18
32
24
16
27
16
12
20
11
6
12
12
9
4
7
4
18
19
11
20
23
14
18
22
14
14
18
11
14
18
10
17
17
17
16
15
16
18
21
15
23
27
20
25
30
21
23
25
17
24
22
17
24
22
17
18
20
13
15
19
12
19
21
19
17
10
12
32
24
26
29
27
21
29
29
23
30
30
28
27
22
13
19
12
4
10
7
8
10
10
10
11
11
11
13
15
12
11
15
7
10
13
2
10
10
2
10
10
2
16
13
8
22
19
14
29
22
13
39
26
21
51
29
30
59
33
39
66
40
39
94
65
44
150
120
82
170
143
94
159
131
84
145
115
69
137
107
63
129
103
62
103
88
51
79
64
41
64
52
32
52
45
32
34
29
20
15
6
5
20
17
24
34
26
23
42
40
20
80
75
36
108
96
56
146
111
56
197
141
68
219
147
70
244
158
76
174
118
58
103
62
42
129
76
51
153
96
55
55
22
11
37
14
2
73
28
17
87
49
18
92
62
28
61
39
15
51
32
11
87
60
33
112
78
47
63
40
26
42
28
19
21
19
18
68
39
15
79
50
20
38
15
12
14
4
7
27
2
4
203
34
137
122
31
162
178
27
143
130
19
164
10
2
7
7
5
8
6
8
10
14
8
10
47
22
12
183
60
59
134
28
246
84
173
255
66
136
174
82
31
18
211
190
167
187
122
37
172
88
47
185
100
33
207
146
89
73
62
35
151
173
178
166
194
201
85
88
73
232
230
196
220
109
67
172
46
255
85
52
174
22
4
7
4
5
10
4
3
11
6
2
6
11
0
13
21
5
13
165
30
95
255
106
175
103
62
172
87
84
84
16
41
65
100
80
57
150
149
135
70
76
76
48
65
58
179
132
150
108
97
255
50
54
158
35
39
122
27
137
255
72
107
181
100
68
41
104
66
30
157
95
45
162
104
58
115
68
27
81
44
7
107
72
39
59
41
25
117
88
53
127
79
38
83
45
17
48
28
14
36
24
19
34
25
17
26
17
10
12
9
10
8
10
11
79
24
21
237
80
128
187
114
120
149
89
172
167
35
106
109
62
34
10
4
3
7
5
6
5
7
4
8
5
7
16
2
1
19
7
4
28
14
5
67
44
31
56
35
20
55
40
22
11
4
2
66
46
21
104
74
37
86
52
25
142
90
49
121
79
36
134
81
39
104
63
35
132
94
54
203
160
91
162
132
71
58
36
20
34
28
18
41
34
18
57
38
17
58
44
21
57
44
19
80
68
36
82
70
36
74
62
32
84
68
45
99
88
60
90
80
54
74
55
33
48
32
12
26
20
12
29
28
27
30
27
21
37
25
20
33
27
18
31
25
17
26
18
14
17
14
8
22
14
10
22
17
12
16
16
11
5
5
2
3
1
3
3
3
5
3
4
9
5
5
7
7
7
7
9
9
9
11
12
9
11
14
5
15
18
10
101
123
136
255
255
255
255
255
255
52
83
96
33
35
38
46
39
54
77
48
31
229
228
208
210
190
165
184
171
157
105
105
108
60
52
32
89
89
63
71
68
41
68
74
60
41
41
24
16
7
25
54
53
58
127
123
101
130
129
125
255
255
248
218
214
198
101
105
104
90
90
83
211
211
190
220
222
201
151
145
136
126
132
114
153
167
170
29
17
19
135
175
191
255
255
255
255
255
255
137
107
82
24
24
22
21
20
20
18
16
16
15
12
12
13
9
9
13
9
9
15
12
9
16
13
7
12
10
0
9
7
3
9
5
5
13
10
3
15
13
5
10
9
7
8
7
7
8
7
7
8
7
7
5
4
4
3
3
3
5
5
5
7
7
7
11
11
11
12
11
11
8
7
7
8
5
7
10
4
13
8
4
12
8
8
11
6
10
4
3
4
5
7
5
5
9
8
8
8
8
8
13
13
13
14
14
8
12
12
9
8
8
8
13
13
13
15
15
12
12
12
9
16
13
11
24
15
14
25
20
17
28
28
20
30
30
22
19
19
14
16
16
9
16
16
10
11
13
5
23
15
11
28
22
17
31
31
23
35
37
29
41
45
30
83
70
40
108
85
62
63
50
38
39
33
21
21
15
8
9
5
8
3
2
8
47
33
25
83
60
44
84
71
34
113
96
41
139
108
56
114
82
37
138
102
48
164
117
62
188
145
85
200
143
90
153
105
63
106
68
36
88
62
37
46
34
12
48
36
17
55
41
17
75
54
23
85
55
20
59
28
13
26
11
11
30
24
8
65
47
26
92
65
39
53
38
15
17
13
2
17
15
10
26
18
20
31
17
15
25
10
5
31
13
9
35
18
14
29
14
11
22
11
9
10
8
6
9
15
10
15
17
12
41
29
25
35
22
26
26
17
24
17
10
17
20
14
11
41
24
19
31
22
23
4
13
2
17
23
14
33
36
27
39
34
26
50
37
28
255
255
255
255
255
255
159
127
57
131
106
50
135
115
65
94
85
42
65
62
42
53
49
37
45
40
33
37
33
31
26
22
20
18
12
13
20
13
16
22
17
18
24
20
10
26
22
10
29
26
25
36
31
27
37
32
21
35
28
19
32
21
19
26
17
9
20
19
10
12
12
6
5
10
5
12
6
7
9
6
11
8
10
7
8
12
5
7
11
3
10
14
6
16
16
10
16
8
8
24
16
17
23
21
19
18
21
15
18
22
14
20
24
16
19
23
15
4
8
7
21
19
18
33
29
32
35
31
34
36
36
31
24
24
20
23
15
9
24
16
11
12
12
14
11
11
11
7
7
7
5
5
5
7
7
4
9
9
4
9
9
7
10
9
8
22
16
15
39
28
19
68
44
24
109
80
47
140
114
69
165
136
83
178
145
91
190
152
97
197
156
101
154
119
67
128
99
54
124
96
52
131
102
56
151
121
71
158
133
79
140
121
73
122
109
65
101
89
55
75
59
47
38
29
29
11
5
8
35
21
24
49
31
31
74
55
36
100
87
58
122
109
70
170
139
81
220
165
88
255
200
101
255
186
94
149
101
52
149
92
36
228
145
73
171
101
42
125
65
25
147
81
47
128
78
44
83
55
28
48
31
15
37
26
16
36
25
16
83
58
28
62
40
15
60
28
18
94
42
24
96
59
31
55
43
15
14
7
5
8
4
6
45
8
28
222
41
182
64
31
129
213
28
183
107
29
151
1
10
12
5
9
9
11
9
7
18
5
1
141
57
23
225
57
139
73
112
255
94
163
255
31
71
86
135
118
84
188
170
130
230
120
24
255
234
76
255
189
91
255
255
123
159
143
106
56
70
61
173
223
243
85
89
110
179
191
197
255
236
157
214
27
230
128
90
255
40
20
71
7
10
12
8
9
10
5
7
7
5
6
5
67
11
72
220
33
172
228
55
176
62
21
81
31
12
16
19
33
49
148
154
148
180
186
181
130
156
166
139
167
171
76
59
150
109
17
191
32
86
200
17
70
145
60
133
255
55
95
203
50
27
18
50
30
11
73
41
11
125
78
41
120
78
38
96
64
27
100
69
28
70
48
20
6
10
14
117
85
50
150
96
48
90
58
21
33
20
14
31
18
18
34
22
12
36
12
6
74
20
11
154
48
29
252
75
142
45
24
128
103
37
170
173
24
129
159
73
23
31
11
7
18
6
5
15
1
4
4
3
10
3
2
5
7
2
3
35
17
8
80
47
30
53
32
15
13
15
6
37
24
17
38
34
20
64
45
24
65
48
25
72
53
18
41
21
11
138
84
39
164
105
58
118
81
32
137
106
59
140
110
64
79
60
21
57
43
14
73
50
19
78
58
25
63
54
30
52
44
32
52
43
34
39
30
22
28
20
5
33
21
1
57
46
22
78
73
43
96
82
50
90
72
42
62
48
26
40
34
18
43
40
27
50
43
29
47
40
25
35
31
19
25
22
16
17
18
11
25
17
11
26
17
12
15
12
9
3
3
3
5
4
2
8
6
2
11
10
8
11
11
11
7
7
7
5
5
5
7
7
7
10
10
10
13
13
13
51
67
80
255
255
255
255
255
255
88
89
99
39
77
105
31
25
43
69
42
35
225
230
224
205
180
152
184
182
177
87
101
104
21
33
32
42
53
48
21
18
18
31
36
35
48
54
52
109
108
103
89
96
74
133
134
105
76
90
106
153
168
159
220
203
187
230
220
192
106
108
79
73
65
87
224
206
205
243
227
217
179
181
164
115
137
140
53
63
64
55
80
98
255
255
255
255
255
255
182
144
124
13
7
9
11
6
7
13
9
9
10
9
9
8
8
8
9
9
9
10
13
8
11
12
3
10
7
1
8
1
2
5
4
1
5
2
3
7
4
9
9
7
3
12
12
15
8
8
10
7
4
2
7
4
4
5
5
5
6
6
6
4
4
4
6
7
4
7
5
10
11
10
13
14
15
13
12
15
7
9
13
1
10
13
6
10
14
2
7
8
7
7
7
7
8
8
8
8
8
8
11
11
11
10
10
2
9
9
1
10
10
10
15
15
15
13
13
12
8
8
7
10
10
5
17
12
7
23
18
14
25
27
20
27
28
17
26
26
21
26
26
24
26
26
19
27
29
23
34
31
24
43
32
24
43
31
21
36
34
19
60
64
41
132
115
71
135
104
73
56
40
21
49
34
26
40
25
18
19
14
18
26
19
14
65
48
33
57
44
25
74
67
32
147
124
66
173
129
77
117
74
47
113
90
50
138
104
56
147
106
55
119
75
36
61
40
11
86
51
41
80
50
29
38
25
13
46
34
16
64
47
21
80
58
27
89
68
35
97
69
41
58
38
16
45
35
11
86
67
42
97
69
45
56
36
25
34
23
20
24
13
15
21
8
13
25
21
22
9
13
9
29
21
9
36
22
9
36
23
10
27
19
4
23
14
3
22
15
8
20
16
4
34
22
8
40
30
17
35
27
14
46
30
20
57
34
27
40
24
11
26
20
19
24
18
5
36
21
11
46
28
17
68
49
34
78
58
43
255
255
255
255
255
255
172
142
72
150
125
70
120
104
65
70
63
40
49
47
31
43
40
20
38
33
18
35
32
24
32
31
21
23
21
12
17
12
11
14
13
20
16
15
13
20
17
6
21
21
15
23
23
19
25
26
21
28
25
22
31
26
28
26
26
21
25
28
21
29
27
22
21
19
15
11
10
8
4
7
5
7
7
7
8
10
7
2
5
3
0
3
3
10
5
7
18
14
15
5
5
7
11
7
8
10
10
11
12
8
9
11
5
7
5
3
2
23
21
15
35
32
26
34
28
26
34
28
27
31
27
22
19
15
10
18
13
6
26
20
16
15
15
12
7
7
4
4
4
4
8
8
6
8
8
1
9
9
5
2
5
2
5
1
3
22
13
14
46
35
23
110
85
48
192
152
90
224
187
108
197
176
98
151
141
79
154
143
86
122
111
69
46
37
27
51
38
21
96
77
47
123
102
65
122
104
71
147
128
86
140
122
83
123
105
67
111
97
51
100
87
50
58
46
29
20
13
8
24
14
11
43
27
25
60
42
34
79
59
42
85
71
48
97
87
53
132
114
68
215
171
99
255
219
122
237
175
82
185
125
42
241
157
68
255
187
93
227
148
70
204
134
67
170
117
55
137
94
46
117
76
42
94
61
35
51
29
6
119
77
39
115
63
32
82
36
24
74
43
29
42
39
18
20
19
1
14
4
5
4
9
8
49
40
121
153
143
255
184
231
255
192
177
255
69
83
206
6
5
4
7
0
3
13
2
5
46
7
1
203
71
64
146
28
237
80
165
255
97
126
171
7
18
28
134
113
94
187
122
60
255
198
54
255
228
109
144
76
27
255
204
37
226
182
110
98
84
72
82
125
169
185
205
221
8
26
49
255
255
245
255
155
30
192
59
255
81
52
180
10
3
23
3
2
4
3
5
5
19
5
7
144
14
127
235
51
192
157
69
67
29
36
40
49
29
19
58
56
64
185
203
203
205
220
209
73
87
98
74
90
94
67
87
144
63
111
245
28
101
210
9
41
84
54
131
255
55
98
223
21
12
3
31
15
9
31
18
12
47
31
19
58
38
24
71
41
20
95
55
24
111
67
30
126
79
38
68
34
20
90
57
30
91
58
20
14
13
0
9
4
8
30
20
22
105
32
36
123
40
44
150
58
40
183
20
202
76
122
186
19
101
218
125
40
213
226
82
68
60
24
8
23
5
6
15
4
7
5
2
12
5
1
3
3
1
8
17
13
11
49
25
13
70
38
11
48
25
16
11
17
5
8
22
7
45
18
10
70
53
29
16
13
20
72
48
27
62
34
13
160
107
60
159
105
35
129
88
44
147
107
70
72
50
17
82
64
42
125
96
51
114
92
43
74
62
30
40
35
24
36
30
19
54
45
28
49
35
11
41
24
14
28
15
23
18
18
3
68
63
43
109
93
69
100
80
56
68
54
37
54
49
35
60
51
35
61
49
34
46
38
24
25
26
15
16
20
12
21
18
9
27
15
11
16
7
7
9
9
9
9
9
9
8
8
8
9
9
9
11
11
11
12
12
12
11
11
9
11
11
5
10
10
2
10
10
5
37
54
64
255
255
255
255
255
255
147
120
88
182
149
131
147
130
123
76
84
80
171
180
174
249
238
205
181
171
177
106
106
119
80
82
83
84
88
84
47
54
56
43
50
52
46
47
58
127
123
115
63
63
64
110
110
96
93
114
130
47
71
73
106
106
121
176
170
183
212
230
234
127
154
148
28
6
13
137
125
106
183
183
164
103
112
120
84
96
99
26
34
46
255
255
255
255
255
255
229
180
163
4
5
8
5
7
10
8
7
10
3
4
0
4
9
3
6
8
3
3
8
2
5
7
2
3
7
3
3
7
4
4
4
2
6
0
1
5
4
7
7
7
10
13
12
15
10
9
3
7
3
1
4
1
1
1
1
1
3
3
3
5
5
5
11
11
11
15
15
15
15
15
15
13
14
11
12
15
6
11
15
3
10
13
5
11
14
5
12
13
10
14
14
14
16
16
16
15
15
15
10
10
10
7
7
6
11
11
7
8
8
7
11
11
11
13
13
13
8
8
8
7
7
6
14
9
7
25
15
15
29
25
22
33
27
20
38
31
23
39
33
27
31
28
22
24
22
16
26
19
13
26
20
15
21
17
15
32
29
16
67
71
43
158
138
89
133
99
73
4
7
9
37
33
30
49
35
30
43
29
21
106
86
63
125
97
66
82
61
37
58
58
33
153
129
73
196
140
78
114
63
35
21
25
10
27
30
13
47
38
15
28
14
12
34
29
18
80
53
46
53
29
8
45
36
23
57
41
21
62
38
18
53
27
12
53
38
17
91
65
39
94
64
32
69
53
25
73
56
39
87
62
39
54
30
15
4
3
11
15
10
12
20
9
8
19
20
14
30
30
10
44
36
20
50
40
17
56
44
18
48
38
14
34
32
12
35
32
16
45
31
16
58
45
26
73
61
41
74
58
41
82
64
45
77
62
36
67
53
27
74
57
33
91
71
40
122
91
54
156
114
77
163
119
83
125
86
56
255
255
255
255
255
255
196
160
103
143
113
70
104
84
55
75
63
44
51
46
32
42
37
24
34
30
21
21
21
18
22
21
19
16
17
10
14
8
8
19
11
17
24
19
17
25
24
18
21
21
16
14
17
10
11
16
12
11
12
10
21
18
19
24
23
21
22
26
18
27
29
21
32
25
22
27
21
20
20
18
18
16
16
16
12
12
12
8
8
8
7
7
7
10
7
8
21
12
15
24
16
21
12
7
12
7
5
8
8
8
8
13
13
13
24
20
18
32
28
24
30
26
20
21
19
12
24
21
21
31
22
24
26
18
12
23
18
7
25
22
16
19
19
15
9
9
7
8
8
8
4
4
2
13
13
7
19
19
9
15
17
7
14
13
8
27
20
15
62
52
37
142
106
63
169
123
71
72
71
46
79
43
27
114
77
62
153
112
83
143
94
68
127
79
53
118
84
45
43
24
13
103
77
40
72
44
22
56
36
21
42
46
35
31
24
20
108
81
44
115
102
59
60
51
33
30
22
9
15
16
1
20
23
8
26
24
18
44
34
26
53
42
26
59
50
33
72
65
43
106
94
56
182
146
87
216
173
106
164
132
74
141
105
53
198
144
77
192
140
79
108
78
39
59
48
15
75
56
24
88
57
30
85
44
25
138
78
33
156
94
38
88
44
17
31
15
5
10
4
3
9
12
3
15
10
4
10
11
6
21
9
13
46
78
197
31
177
255
73
109
120
51
186
255
14
133
255
20
5
1
9
4
7
21
3
4
141
60
12
213
55
145
29
93
255
100
144
221
75
86
90
81
73
82
178
151
138
255
175
97
255
255
104
65
80
66
255
239
121
188
173
145
139
74
47
167
144
131
71
87
124
189
221
255
129
117
107
143
163
168
255
232
147
230
59
191
115
119
255
18
73
144
4
11
21
3
1
4
52
8
15
188
12
178
152
36
237
119
100
95
57
44
36
62
50
56
55
41
38
201
213
205
153
159
156
123
133
149
103
113
118
100
73
49
51
53
119
27
93
177
3
31
80
55
122
255
61
91
226
22
3
8
4
1
5
12
4
7
12
9
7
14
8
8
31
15
4
57
28
14
76
46
25
127
82
43
169
102
54
138
84
37
62
33
7
20
20
11
26
13
8
2
7
29
207
69
54
115
45
27
85
41
32
137
21
221
113
146
190
87
93
137
69
85
237
242
71
109
121
40
32
52
18
12
12
8
4
2
7
10
0
7
12
2
7
11
8
5
5
17
8
8
42
21
1
57
39
17
45
19
8
44
24
14
49
39
22
38
29
19
62
42
34
64
39
19
57
27
21
132
88
52
167
113
48
136
96
48
174
127
79
89
56
34
113
86
55
117
87
45
82
57
31
72
48
13
27
14
8
27
18
7
50
43
26
88
68
39
90
63
43
44
26
24
15
12
21
8
5
11
64
57
45
89
73
55
63
48
34
47
38
24
58
51
38
61
52
37
54
40
24
31
29
18
18
22
14
17
19
8
25
13
9
13
3
3
4
4
4
4
4
4
5
5
5
10
10
10
12
12
10
16
16
10
17
17
9
15
15
7
14
14
6
14
14
8
29
41
50
255
255
255
255
255
255
88
80
66
156
135
118
171
149
138
129
123
112
132
143
125
188
189
176
195
194
197
119
126
117
108
116
99
96
99
86
93
64
57
65
55
48
41
29
25
128
127
106
60
43
24
91
84
68
124
138
144
126
144
157
185
200
196
14
1
18
148
154
182
161
196
232
89
148
186
60
67
85
119
96
69
114
124
122
98
106
113
84
54
54
255
255
255
255
255
255
255
217
193
10
8
10
5
7
7
10
10
13
13
14
5
9
7
8
7
3
9
7
7
10
11
11
11
13
7
10
11
4
7
10
5
7
10
8
9
12
13
12
12
15
9
11
11
4
15
10
7
11
8
5
9
8
8
7
7
7
5
5
5
10
10
10
7
8
7
9
11
5
10
11
8
10
10
10
12
12
12
14
14
14
13
13
11
14
14
11
12
12
11
11
11
9
11
11
5
10
10
6
8
8
0
7
7
1
9
9
3
4
4
2
8
8
8
14
14
14
13
13
13
16
16
16
21
18
19
29
20
22
34
25
26
33
25
22
36
29
23
42
33
24
38
30
18
24
24
11
19
19
9
18
15
10
21
18
12
38
34
22
64
64
41
129
116
72
148
118
84
101
74
47
56
37
24
17
12
21
58
51
27
141
116
82
128
99
59
112
88
55
78
58
34
139
117
68
178
123
62
104
65
32
53
44
31
79
59
41
100
69
42
92
59
40
70
47
35
31
18
17
46
32
24
63
36
22
79
44
22
77
47
25
56
31
16
54
33
23
100
68
43
105
75
28
74
49
29
80
56
46
104
75
49
88
63
39
90
65
43
97
69
41
99
65
37
99
63
37
108
71
46
111
78
50
98
78
43
83
70
37
74
59
31
57
46
25
53
46
27
57
48
27
67
64
34
78
64
39
65
47
27
65
48
23
70
57
22
91
75
39
105
86
54
99
79
45
102
81
44
111
94
51
93
79
34
65
52
15
255
255
255
255
255
255
145
125
70
99
84
39
69
65
37
63
62
38
71
59
34
73
54
34
68
53
39
60
48
41
49
43
36
39
34
27
33
28
27
31
28
29
31
31
28
33
33
27
29
29
21
24
23
21
22
20
21
19
15
17
14
9
12
7
5
6
11
11
9
18
17
13
22
22
16
26
28
20
27
31
23
27
31
23
24
28
20
21
24
18
20
21
19
18
18
18
17
16
15
23
21
20
23
22
20
18
18
18
19
15
16
25
16
17
28
20
17
28
22
21
26
23
18
20
20
17
26
23
25
35
26
26
27
19
11
15
14
5
16
17
13
18
18
18
7
7
7
14
14
14
15
12
9
24
15
18
34
23
24
32
25
21
36
30
26
46
35
31
69
57
47
146
113
77
242
183
109
255
230
139
255
213
137
239
198
130
243
201
123
243
202
126
196
145
92
210
145
88
248
184
119
255
221
137
242
194
122
210
170
112
155
121
78
116
90
47
133
104
48
114
100
60
59
50
33
31
22
7
22
22
5
17
20
11
15
20
12
22
26
24
31
33
25
38
38
25
46
40
27
46
36
18
63
52
29
101
85
50
113
96
54
80
63
24
90
66
20
130
101
45
85
62
32
4
7
5
21
7
7
35
19
10
122
52
27
185
111
51
137
89
34
41
24
7
2
2
7
23
13
16
32
18
18
37
14
11
24
5
9
14
5
8
50
73
186
34
199
255
68
122
191
44
222
255
21
113
218
22
7
12
20
7
10
30
9
7
218
84
68
156
14
240
89
152
255
86
111
142
14
37
39
202
168
151
255
205
116
255
174
96
255
192
64
163
108
31
255
255
150
210
165
123
13
49
82
255
211
152
34
34
53
150
189
238
213
218
227
25
37
40
255
255
218
255
199
76
159
62
255
45
127
255
14
22
45
10
5
1
87
15
25
209
18
205
68
57
255
73
62
56
83
83
90
62
75
73
128
125
116
187
183
189
66
80
96
115
105
121
121
135
141
72
59
51
141
132
97
65
35
31
19
63
128
58
121
255
66
80
232
26
1
4
3
4
7
5
4
6
11
3
6
12
4
7
9
8
6
7
6
4
6
2
1
19
14
3
46
21
10
58
27
21
44
24
15
28
9
9
35
28
15
58
10
27
254
80
87
36
42
112
54
122
214
163
186
255
155
180
220
138
139
164
47
121
253
178
50
189
166
31
95
75
18
29
4
9
0
9
10
6
9
3
7
7
3
6
7
5
5
12
4
5
26
14
5
40
29
10
50
36
10
34
32
13
11
18
12
7
7
9
45
34
25
70
45
31
41
15
6
118
72
39
106
64
23
99
73
38
173
133
76
145
101
50
119
77
29
72
47
22
51
35
30
75
55
31
58
36
19
47
34
17
38
33
16
65
55
19
100
79
42
87
66
35
24
10
8
12
18
14
23
21
14
67
54
37
69
49
31
62
51
36
59
53
36
52
45
26
48
35
21
36
29
23
22
25
19
15
19
9
23
13
8
15
5
4
1
5
6
2
8
3
11
12
8
14
14
8
13
13
5
15
15
7
16
16
10
15
15
13
14
14
14
16
16
16
21
30
36
255
255
255
255
255
255
75
44
62
126
110
113
161
149
133
158
150
129
160
161
134
204
205
203
164
180
182
38
45
26
82
78
54
108
116
84
145
107
87
135
124
93
137
125
93
164
156
119
62
53
32
42
36
43
80
100
99
78
104
117
173
180
185
92
117
132
56
17
13
124
80
75
90
78
64
76
41
4
102
49
36
55
70
50
84
112
102
132
116
117
233
255
255
255
255
255
255
255
255
25
16
13
13
10
7
13
12
10
15
17
10
12
17
7
11
11
2
10
13
4
8
18
5
9
19
8
6
13
1
7
13
4
11
14
4
17
16
5
20
13
7
21
12
8
18
13
14
10
10
10
5
5
5
5
5
5
6
6
6
10
10
10
7
7
7
6
6
4
6
6
2
8
8
6
11
11
9
12
12
7
11
11
4
11
11
7
10
10
9
10
10
4
8
8
4
8
8
4
9
9
3
10
10
2
2
2
4
6
6
8
9
9
9
13
13
13
13
13
13
17
17
17
22
22
21
26
26
22
27
27
23
23
23
18
21
21
18
30
27
21
39
31
24
33
29
18
18
21
11
16
15
10
26
25
19
37
33
21
52
47
28
83
80
49
124
105
73
123
98
73
77
60
44
44
36
11
71
62
37
99
76
57
68
48
33
60
53
34
57
38
24
134
114
71
171
123
69
105
75
36
53
43
19
38
32
13
45
45
22
40
24
15
20
12
10
52
31
25
70
34
27
82
39
22
78
45
18
58
39
18
41
34
21
68
48
37
97
60
40
89
68
31
68
52
19
66
51
29
101
68
41
123
82
52
122
91
54
112
91
49
130
105
56
156
120
66
157
112
63
135
97
53
102
80
42
72
61
37
60
51
32
56
49
28
60
51
24
57
47
20
53
48
18
55
40
23
38
24
9
42
30
7
68
51
27
74
53
34
44
27
13
5
8
9
45
45
28
71
55
32
74
46
36
55
33
30
255
255
255
255
255
255
88
79
42
69
67
38
52
58
36
50
57
37
53
57
36
59
57
41
62
57
45
57
52
38
53
50
34
47
46
32
42
42
32
39
39
31
38
38
29
36
36
30
31
32
27
31
34
28
31
34
29
29
30
28
25
25
25
16
16
16
9
4
6
11
6
6
18
5
9
22
14
13
26
22
18
29
25
21
32
28
24
35
31
27
36
32
28
34
30
26
31
27
23
33
29
25
36
33
27
30
32
21
26
28
19
27
24
19
29
26
22
30
28
24
25
25
17
19
19
16
25
21
21
28
20
17
20
12
6
9
9
1
9
13
11
16
16
16
9
9
9
11
11
11
34
25
26
32
20
26
27
17
20
37
28
23
54
47
39
57
49
35
59
56
40
74
69
52
110
89
57
154
132
79
166
147
99
122
113
69
93
83
42
119
107
60
141
130
79
172
152
83
203
179
105
188
164
94
148
127
76
148
129
80
149
129
80
129
114
63
108
91
49
84
70
57
43
37
32
15
13
12
13
16
7
5
2
13
11
8
8
15
8
12
25
15
13
40
36
25
45
44
36
52
41
28
66
52
33
82
68
38
106
84
52
100
77
43
83
60
24
127
93
39
129
102
43
38
22
8
36
22
12
101
49
26
183
98
47
149
107
46
67
50
15
101
44
25
113
55
30
97
48
23
96
50
24
97
52
32
62
31
19
9
10
3
73
48
160
48
149
255
56
69
119
39
165
255
24
43
101
7
7
12
22
14
3
130
52
28
232
44
154
57
87
255
124
157
201
78
93
99
100
64
40
255
230
172
255
165
27
67
23
115
224
201
119
255
255
141
255
255
114
245
195
96
228
183
109
255
243
125
196
164
123
76
93
119
193
219
239
96
96
95
188
200
177
255
255
217
253
124
163
131
112
255
40
45
106
52
14
17
108
21
36
225
45
178
67
89
255
10
13
28
134
141
149
74
78
75
188
206
184
133
113
129
68
60
69
93
90
95
85
107
104
33
21
17
72
91
92
117
113
93
60
36
78
59
113
255
64
100
255
33
11
35
3
5
2
0
2
2
3
3
1
5
3
2
4
5
3
5
2
4
7
3
10
9
8
13
7
0
10
13
4
10
30
24
19
29
23
15
21
19
12
75
10
48
213
91
226
105
179
255
59
152
255
32
112
215
85
107
121
143
147
146
146
184
245
139
132
255
184
62
205
70
12
49
4
4
3
1
8
1
2
2
2
2
7
5
4
5
7
4
4
3
15
8
6
15
7
6
16
10
11
29
9
1
26
17
16
36
27
28
34
24
25
63
36
25
132
82
49
133
86
47
45
31
25
43
25
5
133
90
38
189
132
70
189
128
72
119
73
41
73
43
21
75
56
32
92
68
39
89
56
31
53
31
16
40
23
11
53
50
18
91
77
38
71
50
25
12
6
0
8
3
4
75
58
40
90
69
48
62
53
36
58
52
34
52
41
21
39
32
18
30
24
21
23
22
21
13
18
9
20
14
8
22
9
7
15
13
5
17
16
12
21
17
10
21
13
4
20
9
5
20
8
10
20
8
12
19
7
11
16
7
10
14
10
12
7
14
17
255
255
255
255
255
255
108
123
97
20
19
30
153
126
124
221
200
192
239
234
238
216
215
226
181
205
210
50
44
25
54
39
26
86
90
63
157
134
112
119
122
90
56
68
58
59
68
63
48
44
46
22
25
31
71
91
91
118
120
123
115
118
110
80
76
85
33
14
14
146
107
75
159
118
84
134
105
71
78
43
37
22
18
28
104
131
121
122
120
123
148
194
207
255
255
255
255
255
255
40
27
19
15
13
11
18
15
18
21
16
21
22
22
21
23
25
19
17
20
14
9
14
5
10
17
9
10
14
2
12
13
4
13
13
6
14
11
5
14
7
8
15
8
14
14
13
16
9
9
9
5
5
5
6
6
6
10
10
10
14
14
11
16
16
10
15
15
7
11
11
4
8
8
6
9
9
1
12
12
5
15
15
9
14
14
10
10
10
7
9
9
5
10
10
8
8
8
8
7
7
7
4
4
4
9
9
9
7
7
7
9
9
9
12
12
12
12
12
12
11
11
8
8
8
2
13
13
8
22
24
13
24
25
15
20
20
17
21
21
18
26
24
22
31
23
19
27
18
12
20
17
14
26
26
22
33
29
17
37
31
18
35
37
25
53
50
31
78
71
45
77
73
43
71
67
37
75
57
24
117
86
43
157
121
69
173
132
77
145
107
59
174
135
75
210
149
91
168
110
61
93
48
25
29
18
9
72
49
22
93
54
30
90
50
31
73
38
21
57
33
11
41
29
10
8
9
2
18
14
16
41
37
14
86
66
39
75
38
17
52
36
21
68
56
23
74
58
23
91
62
34
96
65
37
68
48
21
49
38
12
96
78
45
126
102
67
118
95
59
86
67
35
77
53
25
68
54
28
37
24
15
26
25
11
41
32
17
34
27
13
22
23
2
44
36
26
30
20
13
31
23
13
58
49
36
33
24
21
28
32
20
28
29
12
32
40
24
49
53
25
51
47
27
48
41
28
255
255
255
255
255
255
49
48
36
42
48
36
37
44
32
36
38
29
34
34
28
35
39
30
32
40
27
29
34
22
41
36
27
50
42
34
51
43
34
47
42
30
43
44
31
38
42
34
36
37
29
37
32
27
37
27
24
34
22
20
28
21
18
25
22
21
24
18
21
18
7
11
7
7
7
15
11
12
19
11
15
22
14
18
28
20
24
34
27
29
36
31
29
35
31
27
33
30
27
34
32
30
38
34
32
37
32
29
32
29
25
27
26
23
26
26
25
24
24
19
14
14
9
11
11
10
20
18
18
21
15
13
18
10
5
11
9
5
11
8
7
18
15
12
17
17
12
5
5
6
41
29
33
36
25
26
11
15
5
25
29
13
32
35
22
26
30
12
31
36
14
40
38
28
43
29
28
52
33
27
49
38
22
33
31
17
29
26
13
50
44
23
72
72
48
65
74
43
48
57
31
24
28
10
7
11
11
23
22
8
43
39
25
53
49
35
46
41
33
40
35
38
23
24
17
14
4
6
22
14
2
26
17
9
17
12
7
4
10
7
12
4
4
31
20
16
37
38
32
56
48
35
89
69
53
114
92
70
129
105
79
125
102
73
110
84
58
149
104
63
147
119
63
78
72
31
45
41
15
147
81
42
179
115
54
84
58
15
145
68
36
219
129
61
229
132
58
184
109
45
121
78
27
99
59
15
87
43
17
34
7
6
114
54
205
64
129
255
68
55
174
51
125
255
26
6
34
4
6
12
35
14
11
212
66
78
165
28
237
84
136
255
96
110
124
12
30
52
223
183
129
255
255
145
143
87
55
108
118
112
116
114
58
176
161
61
255
188
81
255
250
121
255
255
159
212
151
71
255
224
156
69
86
88
101
121
140
179
194
199
34
46
31
242
248
209
255
170
28
194
35
255
81
73
211
87
7
75
122
17
140
203
62
155
38
54
197
112
137
158
106
139
135
107
137
139
145
155
144
106
86
98
39
46
47
56
61
62
57
78
75
54
47
45
4
15
38
61
65
62
96
73
29
78
63
232
73
122
255
57
32
91
9
6
5
2
3
2
7
2
3
6
4
4
2
5
4
6
4
2
12
2
10
4
6
9
9
4
17
4
2
12
6
6
5
3
5
1
4
4
10
39
52
122
137
134
255
133
54
188
165
112
71
209
178
165
171
164
166
84
78
86
46
51
53
156
147
255
148
149
255
36
59
116
1
8
11
7
5
1
8
7
7
6
5
7
4
3
12
10
11
10
23
21
12
32
23
8
45
32
11
55
39
19
39
26
18
42
26
21
71
44
33
99
58
34
86
64
33
80
49
32
116
69
39
109
65
30
110
69
27
136
91
41
162
116
64
169
118
65
128
82
39
87
57
25
96
66
36
110
74
45
118
71
53
75
44
28
35
32
16
80
69
35
111
84
51
45
33
17
12
8
5
84
66
43
99
77
56
62
54
38
59
52
32
47
36
16
28
27
16
19
17
16
20
15
17
14
17
12
15
12
12
23
12
15
25
14
18
29
13
18
29
15
13
25
16
12
23
14
13
21
10
12
19
7
11
17
5
9
16
4
8
17
4
8
12
2
7
255
255
255
255
255
255
216
194
187
146
140
122
65
66
73
97
75
89
170
147
145
195
178
169
187
221
225
62
53
39
40
41
43
64
46
61
79
63
62
68
74
60
53
60
65
45
68
87
47
61
76
15
18
29
66
42
46
63
57
56
80
91
85
87
71
77
54
51
30
65
82
89
177
176
185
209
200
205
159
117
114
31
27
67
105
123
133
130
143
163
158
178
188
255
255
255
255
255
255
39
24
15
18
18
19
19
19
23
21
20
22
26
21
22
26
18
20
25
14
17
18
12
14
17
13
13
18
15
15
17
16
16
14
14
14
12
12
12
11
12
12
11
16
14
11
15
13
11
11
10
11
11
7
14
14
7
19
19
12
21
21
12
21
21
12
19
19
13
20
20
17
16
16
12
10
10
8
8
8
8
8
8
8
8
8
8
7
7
7
5
5
5
4
4
2
2
2
2
3
3
3
7
7
4
12
12
9
8
8
7
7
7
1
10
10
4
13
13
11
10
10
10
3
3
5
2
2
7
11
11
4
17
19
8
14
14
12
16
16
13
19
19
18
25
21
15
32
24
15
25
21
18
23
23
17
32
28
14
40
36
25
38
34
31
39
27
18
55
47
25
69
68
44
62
60
39
84
80
52
104
90
58
116
92
59
104
81
50
70
62
32
111
97
44
149
119
70
161
117
73
156
106
67
123
77
43
83
54
24
60
39
18
40
25
12
25
20
9
12
13
3
31
17
10
61
38
19
65
46
27
58
43
33
53
43
28
47
24
5
78
46
23
104
65
40
98
72
45
62
50
28
48
31
13
43
31
13
28
24
15
79
74
44
36
30
14
25
35
17
39
31
12
73
55
26
84
62
28
59
32
25
14
8
1
14
8
11
8
10
11
13
17
3
45
41
35
18
8
14
27
12
3
53
46
28
33
24
24
17
27
10
41
40
24
48
44
17
52
34
8
45
23
8
52
39
22
255
255
255
255
255
255
42
41
37
32
36
26
34
34
23
35
31
21
34
30
19
29
21
17
21
19
13
18
19
15
21
22
19
22
25
16
24
28
16
29
31
22
34
31
26
33
26
21
32
22
16
29
18
18
25
14
14
18
12
5
19
16
7
21
21
14
26
24
23
32
19
25
24
16
19
8
13
11
12
12
12
15
15
13
18
18
12
17
17
10
20
20
12
23
23
15
25
25
17
26
26
18
28
25
22
31
24
24
29
23
20
27
25
18
24
24
17
17
17
12
10
10
13
9
9
10
16
18
17
16
15
14
16
8
8
10
5
5
16
8
0
26
17
10
31
26
17
21
23
19
28
16
20
37
28
24
20
24
13
13
15
7
16
16
10
13
13
14
6
5
8
17
25
13
26
28
17
36
33
27
32
32
23
28
29
24
19
20
15
14
16
3
25
24
14
20
15
15
2
4
7
15
5
4
19
8
3
19
8
6
10
2
3
5
7
10
10
13
14
16
15
16
18
10
12
26
14
13
29
17
15
34
22
22
36
24
20
30
18
10
27
14
10
27
12
14
6
10
13
19
17
9
45
37
25
74
60
40
101
86
61
115
103
74
123
103
65
152
110
59
165
124
67
110
94
48
68
51
18
138
77
32
228
140
66
255
179
82
255
195
85
255
182
80
234
158
69
205
131
58
165
108
50
161
100
39
103
60
23
99
19
69
128
69
255
60
105
255
89
67
229
79
112
255
33
17
34
67
33
11
150
61
25
223
49
153
44
85
255
141
155
195
78
87
76
44
40
46
255
214
141
255
236
121
65
76
100
34
55
53
219
207
111
255
255
151
255
181
64
227
228
123
255
255
177
132
107
91
227
163
66
139
132
141
110
120
136
196
223
251
127
137
152
140
150
140
255
255
200
231
71
143
89
73
255
22
37
49
86
31
134
156
80
141
69
117
195
75
107
134
71
55
49
37
39
47
93
89
94
133
125
129
62
77
72
90
101
93
99
115
116
91
98
111
12
15
4
42
45
44
62
64
41
60
44
161
91
119
255
90
44
139
19
3
7
5
4
3
13
6
5
8
4
6
8
4
5
5
4
4
11
6
8
2
5
7
8
4
5
21
5
7
20
5
8
10
2
2
5
14
16
5
87
176
128
101
255
255
177
122
211
210
224
176
158
156
154
154
150
143
150
144
144
137
137
143
37
129
75
134
255
5
98
180
10
9
17
5
11
11
2
9
7
7
5
2
11
7
5
34
21
18
44
24
14
38
21
15
37
25
15
31
17
13
21
8
5
45
24
14
57
38
17
20
17
10
69
35
18
124
76
41
120
75
43
91
59
34
65
47
22
43
35
12
26
22
9
93
66
27
108
73
32
87
56
27
56
39
17
54
46
17
123
83
52
123
79
55
54
31
14
51
34
6
118
87
48
73
58
29
26
23
10
83
63
40
99
78
56
72
59
43
51
43
24
33
25
10
19
19
11
14
14
14
19
14
14
14
17
11
12
13
12
17
14
15
22
15
15
29
16
16
27
17
15
19
16
14
13
16
10
11
14
8
8
10
7
5
5
5
5
1
1
8
2
4
16
8
5
255
255
255
255
255
255
215
197
201
213
208
196
197
203
179
162
178
164
114
142
149
204
215
214
117
143
145
73
76
75
54
58
69
58
71
77
57
72
71
15
19
15
64
63
56
88
89
76
99
107
100
58
70
62
43
30
23
69
53
49
166
148
131
190
171
164
143
141
121
30
51
49
106
68
54
154
117
100
168
148
117
51
64
83
39
33
39
91
110
131
129
158
165
255
255
255
255
255
255
24
11
9
16
16
20
14
14
14
14
14
14
14
13
12
17
10
11
23
8
12
23
17
18
21
20
20
19
19
19
17
17
17
16
16
16
17
17
17
21
21
18
24
20
15
24
15
10
25
13
11
27
15
12
28
17
13
28
17
14
24
13
10
19
8
9
14
5
8
13
8
10
11
11
10
5
5
9
4
4
7
3
3
3
2
2
2
3
3
3
2
2
4
3
3
3
8
8
4
11
11
4
12
12
4
12
12
4
8
8
6
5
5
4
6
6
6
5
5
5
5
5
12
4
4
10
3
4
5
11
12
4
17
19
7
13
13
10
18
14
15
25
21
22
30
21
18
34
26
20
29
27
23
30
26
21
33
26
14
37
36
25
37
38
32
35
27
17
43
34
21
50
42
27
54
52
35
58
59
41
52
52
39
45
42
37
34
31
32
57
45
29
91
78
31
93
85
47
88
65
40
140
97
54
173
116
70
105
63
31
35
24
5
25
17
10
12
4
9
38
28
8
94
62
31
116
72
43
98
59
37
54
25
17
28
30
12
74
57
26
75
50
23
60
40
17
61
45
19
55
38
22
61
40
21
88
60
38
65
45
31
32
40
13
68
55
42
65
47
39
41
29
18
38
38
13
57
44
18
71
43
37
38
24
22
10
13
7
10
12
10
29
31
22
32
32
24
14
14
11
22
12
11
30
30
13
32
29
26
29
16
18
53
44
12
81
63
29
82
59
29
77
53
29
96
70
50
255
255
255
255
255
255
58
53
41
42
47
31
33
34
22
29
26
18
30
29
15
30
24
15
20
17
15
15
14
14
20
19
15
15
16
6
10
10
6
12
12
13
17
12
14
18
7
11
17
6
9
9
4
6
7
7
11
14
7
8
11
7
2
8
9
2
17
15
11
26
18
22
29
23
26
17
17
17
10
10
10
11
11
7
11
11
2
7
7
5
5
5
4
10
10
2
16
16
8
17
17
9
18
18
11
23
23
16
24
24
16
24
24
16
23
23
15
21
21
15
18
18
17
15
15
15
16
20
18
11
11
11
13
5
7
2
2
2
8
6
6
16
10
10
32
22
20
37
28
22
27
21
12
22
16
10
27
30
23
17
17
15
15
15
7
15
13
8
11
8
10
26
20
17
36
32
25
32
32
25
32
29
26
34
31
33
25
24
34
17
13
11
21
22
13
21
24
17
17
8
11
10
11
8
7
8
7
8
2
9
6
7
8
8
7
4
5
5
1
4
4
6
9
10
8
21
22
17
30
30
26
39
39
31
45
38
30
56
37
25
67
46
35
65
50
39
52
36
24
41
18
14
21
8
12
11
12
5
40
33
20
70
64
46
99
93
62
129
102
56
170
126
70
179
140
81
163
124
72
186
134
66
251
177
84
255
219
107
255
218
109
228
174
86
203
154
79
202
146
72
213
140
68
254
164
74
183
124
65
152
59
203
97
97
255
52
81
181
73
56
237
84
113
255
74
63
109
129
79
30
216
89
81
153
55
244
79
138
255
106
120
133
40
53
55
86
40
20
255
195
101
225
187
110
124
116
90
215
153
48
49
69
50
255
255
186
254
175
83
160
137
84
255
242
137
226
189
123
170
139
126
182
155
136
15
30
43
132
159
203
217
245
255
25
27
30
237
243
229
255
183
60
151
35
255
52
64
186
104
23
151
155
16
230
37
63
172
23
7
31
50
55
49
41
41
22
98
94
82
166
160
146
39
45
45
34
44
41
72
81
77
110
120
140
47
73
86
30
29
34
55
62
55
31
44
134
67
127
255
107
44
172
27
7
9
5
4
8
17
4
7
4
6
4
4
4
3
0
2
1
7
4
3
9
5
3
35
6
10
80
7
78
81
14
111
49
10
72
4
11
20
16
64
136
190
94
255
255
219
184
144
138
137
138
113
98
119
107
93
85
90
80
146
144
137
227
137
149
137
123
255
18
91
169
11
5
10
10
0
2
15
3
6
4
10
2
16
13
10
44
19
13
21
15
9
1
1
12
27
18
14
49
28
24
91
57
39
102
75
47
40
33
17
74
40
25
91
54
25
40
24
1
27
7
9
30
12
4
39
25
18
13
4
4
38
20
12
63
42
18
49
30
7
53
30
16
28
12
12
34
18
26
49
34
18
104
74
37
83
59
36
66
40
20
110
75
41
81
64
35
35
34
12
73
55
27
107
89
63
78
65
48
42
34
18
29
22
10
16
14
7
18
15
14
21
14
15
15
17
10
14
15
13
14
12
11
15
14
8
21
18
12
12
15
9
10
10
8
7
8
6
5
10
2
8
11
5
8
8
8
11
8
8
14
8
9
15
8
12
255
255
255
255
255
255
130
110
100
141
140
154
167
170
182
175
173
176
124
121
118
90
109
117
126
138
135
37
50
58
53
43
39
90
85
71
112
109
96
77
77
62
43
49
48
77
60
63
192
174
170
255
255
255
247
255
255
164
209
206
21
60
69
134
115
109
188
179
182
115
124
129
42
50
45
43
48
47
142
159
136
72
56
53
92
97
114
65
73
93
113
143
151
255
255
255
255
255
255
33
15
17
11
5
11
11
5
5
10
6
4
7
11
5
10
12
11
16
14
8
18
18
12
20
19
20
19
16
25
17
14
23
19
15
17
26
17
13
29
18
13
28
15
11
25
13
9
25
13
11
27
15
17
26
14
18
20
8
12
13
1
5
8
4
0
6
7
4
10
7
7
8
8
6
1
1
3
8
8
5
11
11
10
10
10
8
5
5
4
5
5
1
9
9
5
14
14
8
17
17
10
18
18
12
15
15
13
9
9
9
5
5
8
3
3
9
5
5
1
9
9
13
14
14
11
19
15
8
26
18
13
30
24
17
30
23
18
34
25
21
41
32
24
43
38
24
42
39
22
38
35
24
35
31
22
28
22
15
24
26
18
28
34
21
34
34
23
47
44
33
60
50
34
64
54
32
56
49
24
47
45
18
31
32
11
46
39
29
94
72
42
125
103
50
134
108
69
138
92
62
155
108
60
163
110
64
97
57
26
24
20
4
14
15
7
35
31
15
99
69
40
147
94
63
113
70
48
71
52
30
83
54
28
55
30
17
20
15
11
25
13
5
52
35
16
37
29
13
65
41
22
108
68
45
103
61
31
89
52
26
41
20
17
48
42
13
68
53
20
78
57
27
75
54
29
53
32
23
32
16
10
33
22
19
35
31
27
38
31
24
72
60
45
55
37
16
52
29
3
87
55
33
105
75
51
96
67
45
80
52
22
76
50
21
82
51
31
71
51
29
65
50
32
78
59
43
255
255
255
255
255
255
77
62
43
60
57
36
31
34
23
21
21
18
29
27
16
35
29
13
31
26
13
21
21
15
21
22
20
19
24
12
18
23
11
22
19
18
26
14
18
24
8
14
18
8
12
16
10
12
17
6
11
20
7
10
14
12
6
20
18
13
31
21
21
26
18
22
26
23
24
18
18
18
10
10
10
8
8
2
5
5
3
4
4
4
3
3
3
4
4
4
3
3
3
2
2
2
7
7
7
12
12
12
14
14
14
13
13
13
11
11
11
10
10
8
12
12
8
15
15
13
18
18
18
17
10
10
20
8
4
15
7
3
18
10
7
14
12
12
8
7
7
21
11
7
24
19
11
16
18
10
19
22
18
23
21
21
20
20
13
23
17
14
30
22
24
34
22
27
31
23
27
26
25
21
28
26
13
32
27
15
34
28
35
26
24
12
23
24
5
31
31
31
55
30
32
61
50
32
58
52
26
26
28
13
15
14
13
10
3
9
5
3
5
3
2
2
12
15
5
23
21
16
27
21
17
33
24
7
52
39
19
78
59
36
90
74
46
84
76
42
79
73
41
69
57
32
51
38
26
38
26
22
11
7
8
32
25
22
62
64
51
100
85
66
141
111
72
182
152
92
198
167
106
193
161
95
177
147
82
158
134
73
140
122
65
130
108
57
161
122
63
187
144
70
187
127
57
223
144
97
167
145
208
50
113
255
17
115
252
60
81
101
61
55
177
31
157
255
95
130
199
157
77
26
153
24
184
33
139
255
152
173
211
66
89
100
110
60
21
255
219
125
255
252
150
72
47
37
137
96
79
255
249
108
255
253
69
255
255
184
183
104
41
153
102
72
255
172
89
160
109
46
136
121
68
84
51
26
91
80
101
80
89
109
148
180
212
112
141
161
134
137
126
255
255
198
190
53
160
101
110
255
86
31
62
167
56
255
90
85
187
120
92
94
85
77
84
64
69
74
124
133
124
212
220
213
50
73
74
43
48
44
58
65
70
57
50
58
61
72
73
17
42
53
73
70
63
34
19
89
50
144
255
101
54
206
29
8
5
4
5
13
13
4
10
5
5
4
2
6
3
4
6
5
4
7
7
3
8
12
81
8
34
113
40
200
94
46
181
90
46
196
15
11
35
22
26
60
239
82
173
255
158
131
65
26
43
171
143
148
125
116
115
36
26
34
69
71
66
228
103
89
168
61
255
39
59
131
13
5
13
70
10
73
95
17
106
80
18
86
16
7
20
39
11
8
27
8
6
24
8
7
56
33
21
112
69
48
127
83
50
76
63
33
83
55
32
98
64
31
34
24
9
39
23
11
48
22
12
66
43
29
95
65
41
118
76
34
141
90
36
128
80
29
102
62
22
100
61
28
68
41
15
46
26
10
6
5
7
64
48
13
105
76
45
98
70
42
87
56
30
70
53
34
42
38
16
80
63
29
122
105
75
68
58
41
46
35
25
38
31
19
19
18
7
18
16
11
20
11
15
16
13
12
12
16
9
9
13
7
11
15
7
13
14
11
3
7
5
5
6
5
5
5
5
7
11
4
12
15
9
13
13
13
12
8
10
11
7
7
17
8
10
255
255
255
255
255
255
158
140
127
48
48
57
91
89
104
69
63
62
9
8
14
45
50
50
79
78
67
61
50
35
41
42
35
38
27
38
129
127
136
199
218
229
225
255
255
191
223
220
74
117
118
84
43
40
205
178
176
223
203
195
162
153
142
35
40
50
106
97
92
150
131
127
69
58
56
50
46
38
112
118
105
139
137
116
7
27
38
47
42
29
55
80
98
255
255
255
255
255
255
50
24
19
16
5
10
17
8
5
15
8
5
6
11
0
3
12
7
7
13
3
15
12
7
18
15
10
19
19
11
22
19
12
29
18
13
33
18
14
31
16
13
20
11
11
7
10
8
2
10
6
4
12
8
2
14
10
2
12
8
4
9
5
7
7
4
14
2
5
12
5
7
4
4
5
7
7
7
11
11
8
7
7
6
5
5
4
6
6
3
9
9
8
10
10
8
13
13
10
15
15
15
13
13
13
8
8
8
5
5
5
5
5
5
12
12
7
18
18
16
24
24
24
31
27
25
36
26
25
38
29
25
42
36
30
48
41
37
59
53
42
67
65
43
64
62
35
60
52
29
49
41
25
31
30
16
16
18
8
11
13
6
18
18
10
33
37
18
49
51
29
57
52
37
55
45
35
50
41
32
41
38
24
36
35
19
74
67
42
112
87
46
123
99
49
142
110
68
130
86
43
110
78
30
113
76
42
81
47
26
20
16
5
51
39
20
87
55
32
123
75
45
104
68
39
8
5
10
87
62
46
94
62
26
41
25
10
21
10
12
19
18
5
44
24
14
56
34
20
59
46
22
31
25
4
60
43
30
99
61
35
69
44
18
17
13
1
14
16
2
42
38
21
53
40
34
37
25
31
8
10
18
31
21
14
37
24
13
73
60
39
91
71
39
80
56
29
106
73
39
136
93
63
123
84
46
114
76
45
104
66
45
80
47
34
41
19
14
22
8
2
20
15
12
36
24
16
255
255
255
255
255
255
92
75
48
82
69
48
44
39
29
30
27
20
40
37
27
45
41
27
39
37
20
34
33
18
31
30
21
26
31
21
29
32
23
34
31
26
35
29
26
39
29
27
41
28
26
34
24
21
26
21
14
20
20
11
22
24
14
28
25
20
27
21
21
18
18
18
18
20
19
14
12
13
9
9
9
8
8
2
5
5
3
4
4
4
2
2
2
3
3
3
4
4
4
5
5
5
3
3
3
4
4
4
6
6
6
5
5
5
5
3
3
8
2
2
15
7
7
22
14
14
20
13
13
14
9
7
9
9
3
3
5
3
14
10
6
15
12
11
18
10
11
13
3
4
6
2
2
4
10
10
17
17
17
22
18
18
17
17
9
25
17
13
25
19
19
12
12
16
8
10
7
12
14
9
17
19
11
29
25
17
38
29
29
40
32
17
43
36
14
53
50
38
80
67
44
88
77
40
116
97
62
118
101
57
92
78
43
65
58
35
27
30
14
7
10
10
17
17
6
22
20
13
25
14
13
34
27
10
73
57
35
122
96
60
165
127
69
182
140
74
171
139
79
119
103
60
69
63
39
53
48
34
26
24
20
2
4
5
21
21
17
40
38
31
62
48
34
89
76
45
115
99
65
114
100
67
95
90
58
78
79
49
70
74
44
80
74
42
107
78
42
158
133
127
184
177
214
170
202
255
153
236
255
92
187
255
102
132
173
119
113
107
81
81
161
61
215
255
120
149
223
139
32
128
36
99
255
130
202
255
146
165
174
37
37
42
231
180
120
255
242
113
114
109
55
255
234
123
154
118
94
255
243
114
255
255
101
255
247
126
111
42
9
251
145
96
252
151
52
54
60
78
174
162
87
101
140
131
61
80
82
55
50
53
87
111
136
131
162
200
28
12
23
250
252
241
247
177
80
147
61
255
64
115
225
187
20
192
94
63
123
85
94
86
53
75
80
33
57
61
106
90
68
206
211
204
77
97
108
71
84
94
59
79
96
31
46
62
21
11
23
91
97
93
95
97
97
6
55
128
63
140
255
102
50
205
26
6
11
13
7
8
11
6
7
9
5
9
11
3
11
13
5
9
10
5
5
16
4
4
100
18
114
95
105
255
67
80
143
97
97
255
27
32
70
27
16
49
227
68
182
255
178
255
220
240
255
255
255
255
211
230
230
199
189
185
4
1
7
252
123
46
168
42
255
53
54
132
31
7
28
122
29
175
94
36
167
129
48
210
32
27
73
23
5
3
10
6
5
19
14
2
80
46
28
121
73
44
68
41
26
89
56
43
114
66
31
76
58
26
23
19
11
30
21
8
58
33
15
75
51
32
82
62
26
107
77
26
135
93
40
156
106
57
175
117
63
155
103
46
110
77
29
98
68
27
91
54
28
122
76
38
150
105
63
104
76
46
80
50
27
69
46
25
55
39
11
109
90
51
108
94
66
39
33
17
44
36
28
42
33
24
21
21
7
17
17
8
18
13
9
15
12
8
9
12
7
7
7
7
9
10
10
5
6
5
0
0
0
2
2
2
9
11
7
10
13
7
13
15
12
14
14
14
13
4
7
14
4
6
14
5
3
255
255
255
255
255
255
137
128
113
24
5
2
68
55
50
104
113
100
49
62
34
20
14
38
123
132
143
203
197
195
250
247
241
190
216
211
67
110
105
81
46
49
172
151
150
209
199
191
179
176
167
79
88
86
78
50
51
171
136
134
169
150
151
70
77
92
69
57
53
120
112
118
100
98
96
31
40
36
52
42
41
152
168
158
52
49
44
74
88
81
83
97
112
255
255
255
255
255
255
74
47
35
9
12
11
7
8
7
14
6
5
16
8
6
13
7
8
16
7
9
21
10
13
26
15
11
28
19
6
29
20
7
30
20
14
22
18
17
12
12
12
11
6
7
12
5
7
7
7
7
10
10
10
8
8
8
9
9
9
11
11
11
13
13
13
16
11
12
9
4
8
5
2
5
15
9
10
14
9
9
9
3
4
10
7
7
12
10
5
10
10
7
9
9
4
14
14
8
11
11
11
6
6
6
12
12
9
17
17
11
24
20
14
36
27
26
41
31
32
40
32
27
41
31
23
43
34
22
48
41
31
55
51
41
65
61
44
80
72
50
85
71
54
72
57
46
53
43
36
33
30
23
17
17
9
6
6
2
4
4
10
18
16
16
29
21
16
34
26
16
35
31
21
39
33
26
47
35
29
49
43
30
59
59
38
92
84
50
113
82
39
131
100
46
154
125
72
103
70
39
73
51
19
98
62
34
60
31
20
29
25
20
73
50
30
71
44
24
57
37
17
45
37
23
64
39
31
75
58
32
61
46
11
15
15
8
22
20
12
27
27
15
6
10
10
12
6
8
58
34
21
89
52
34
80
45
24
74
47
32
55
46
19
43
24
13
44
20
15
53
41
34
10
7
8
49
44
23
35
23
17
43
32
10
71
50
22
91
68
43
77
52
24
65
47
24
84
64
38
82
49
31
57
36
12
60
38
10
59
38
21
37
22
17
26
12
10
20
8
5
13
15
15
29
20
16
255
255
255
255
255
255
111
90
45
114
94
59
84
72
49
58
50
32
47
39
27
50
41
29
43
35
26
42
38
26
47
39
26
41
36
26
37
34
24
41
36
26
44
41
31
43
42
34
41
38
33
39
34
30
33
34
27
27
31
23
24
28
21
19
24
19
15
17
15
12
15
11
10
12
10
11
5
10
8
8
7
8
8
6
7
7
3
5
5
5
7
7
7
12
12
12
14
14
14
11
11
11
5
5
5
2
2
2
3
3
3
5
5
5
14
9
9
23
15
15
27
19
17
25
18
12
22
14
6
15
9
7
5
4
3
11
9
1
8
9
4
4
8
7
14
11
11
15
11
11
19
13
13
21
16
16
21
18
18
20
20
19
20
22
15
26
23
17
27
20
17
21
20
19
20
23
17
19
21
15
21
22
20
30
31
26
42
39
36
53
44
41
64
46
38
83
60
48
119
104
71
119
108
70
45
32
25
99
83
51
125
105
63
122
98
65
87
68
42
48
34
19
39
32
11
34
28
14
42
27
18
70
57
36
121
85
59
171
117
65
203
152
85
194
149
89
208
158
92
150
117
69
76
65
40
55
55
40
31
31
22
9
14
9
7
5
7
7
8
7
24
23
22
43
36
27
54
47
33
62
53
42
68
56
45
68
52
46
62
44
43
50
44
36
57
52
47
255
255
255
217
231
253
131
165
210
168
215
255
68
98
147
42
51
60
91
92
86
64
96
150
177
255
255
174
179
233
84
19
140
60
142
255
138
180
230
85
97
103
141
125
110
234
208
171
215
153
68
141
80
17
255
255
149
140
113
109
170
100
49
202
144
49
63
49
49
179
96
45
255
177
114
209
110
16
115
131
132
128
118
46
185
220
197
87
107
78
137
137
137
107
110
117
124
160
208
79
92
117
134
148
148
255
255
224
246
119
93
43
149
255
221
151
143
79
26
52
28
5
8
74
62
63
46
59
58
103
81
73
175
174
160
28
38
42
39
39
51
52
56
66
24
22
27
53
70
90
90
84
89
85
97
94
85
153
229
56
129
255
103
27
176
39
11
76
31
10
21
17
7
3
9
6
5
2
6
7
5
5
9
8
4
8
18
3
7
124
29
170
102
107
255
96
21
65
100
109
255
26
52
102
41
69
160
182
94
255
202
79
184
96
56
55
199
173
156
147
122
112
226
215
199
32
38
37
255
144
14
168
42
255
64
58
148
45
9
63
115
87
255
33
102
177
112
107
255
42
67
144
20
8
7
9
8
13
14
10
10
68
40
18
110
64
33
100
57
29
124
68
39
102
53
29
55
38
19
11
12
10
11
12
6
55
30
13
95
62
45
99
70
34
123
70
31
131
69
39
88
61
28
105
87
41
130
104
59
136
105
60
150
115
58
167
129
62
168
125
63
119
89
47
75
56
27
110
81
43
123
96
52
129
106
65
125
104
69
70
55
35
29
18
7
36
32
24
36
31
22
22
19
10
11
11
8
14
8
2
17
8
7
11
10
8
7
8
7
5
7
4
0
2
2
4
5
3
6
9
3
13
15
11
11
14
8
10
12
8
11
11
11
13
4
7
13
2
5
11
3
5
255
255
255
255
255
255
161
166
152
37
64
69
73
53
37
165
160
136
229
231
208
209
231
207
97
125
104
68
46
52
136
124
131
143
139
148
112
125
132
25
58
63
80
35
32
164
136
138
190
177
176
144
140
136
54
61
58
42
21
19
115
105
101
97
112
123
46
32
33
172
168
172
216
217
208
184
184
170
103
93
72
122
131
103
111
131
128
37
35
41
75
124
135
255
255
255
255
255
255
102
63
43
10
14
11
4
10
12
13
10
11
15
12
15
16
13
18
19
11
15
19
14
15
20
12
14
22
10
14
21
12
15
19
15
17
12
13
13
7
9
9
8
6
7
15
10
7
20
12
8
19
10
10
17
6
8
16
4
8
15
4
7
16
8
10
23
10
11
15
7
10
8
7
7
13
4
7
8
7
6
4
6
2
13
4
7
16
10
7
5
8
3
9
7
7
16
12
12
12
12
5
19
19
12
24
24
17
30
26
21
39
28
24
42
32
28
41
34
26
45
38
25
50
41
29
51
43
34
54
48
38
58
55
36
63
61
37
66
55
41
51
34
28
36
22
21
24
19
17
17
15
12
13
12
11
6
6
6
15
15
13
25
24
16
27
24
19
28
25
19
26
24
15
31
25
15
46
34
24
60
48
28
79
75
48
114
103
66
130
96
55
125
95
52
99
83
38
120
86
50
130
83
44
104
58
28
29
12
8
60
38
20
80
49
27
56
32
22
18
15
13
23
15
5
20
23
3
32
31
21
58
36
19
20
14
10
46
35
17
78
52
33
118
70
51
148
99
65
165
118
69
139
100
60
118
80
54
74
43
27
18
19
10
21
21
8
59
43
25
73
53
47
26
28
14
48
39
21
36
25
20
34
22
18
69
47
29
84
53
28
69
37
16
55
33
11
42
27
10
42
16
18
48
37
18
27
24
8
19
23
9
14
8
7
27
12
9
46
28
21
50
33
17
61
46
32
255
255
255
255
255
255
184
143
75
163
131
68
117
98
58
84
72
46
60
53
35
52
41
34
39
30
27
32
30
24
34
28
20
36
30
15
36
36
19
38
40
28
41
37
30
39
34
28
41
37
31
44
38
34
43
35
37
40
32
36
34
26
30
27
19
23
22
14
15
19
16
10
16
12
7
13
9
8
11
11
4
11
11
2
11
11
8
11
11
11
14
14
14
14
14
14
12
12
12
11
11
11
9
9
9
9
9
9
13
13
13
19
19
19
27
24
24
30
26
26
24
24
22
19
19
13
14
14
6
14
10
9
15
4
5
16
8
0
10
13
2
7
18
5
7
21
8
7
21
8
8
19
10
17
20
16
28
23
23
28
23
24
24
24
21
25
25
20
30
21
17
29
23
20
34
35
28
32
28
24
26
20
17
27
27
21
29
33
25
40
44
36
57
53
44
84
63
50
130
106
75
167
144
100
105
85
58
52
37
19
96
72
43
133
102
66
138
101
60
129
92
59
109
83
54
82
60
46
87
59
49
130
97
59
176
121
70
186
144
74
83
86
46
94
58
31
178
129
74
145
115
65
87
74
49
61
52
39
30
24
13
9
12
7
8
12
10
17
14
11
21
21
10
18
22
10
22
27
13
29
29
19
37
32
18
43
35
17
46
36
20
40
37
22
96
85
93
255
255
255
151
173
177
75
82
97
180
206
244
62
68
80
60
59
48
99
97
81
28
46
122
255
255
255
177
201
202
48
94
194
106
157
255
92
119
144
55
64
63
201
199
185
144
131
126
96
57
18
129
89
12
161
157
128
196
159
134
131
53
16
166
78
37
252
137
74
255
157
88
237
137
56
122
44
42
166
161
108
112
97
48
164
167
123
122
163
149
14
13
11
79
73
68
82
117
158
119
152
179
13
22
17
211
224
219
255
255
212
85
32
114
218
210
208
62
47
41
19
37
54
40
36
39
61
61
53
91
70
64
162
152
136
36
48
46
26
29
52
47
55
64
48
42
40
86
96
117
91
99
99
22
19
34
106
179
255
75
160
255
64
52
148
20
26
99
29
15
48
3
4
1
5
7
3
9
13
3
6
12
3
2
6
8
42
4
26
219
46
155
193
136
255
207
138
139
148
86
255
17
42
89
80
91
246
255
69
232
255
255
167
252
251
238
251
250
242
249
247
238
195
198
198
67
59
65
241
153
13
166
51
255
67
64
164
72
36
100
98
104
255
29
67
103
87
108
255
29
107
207
5
2
5
4
9
8
7
8
5
42
23
10
73
35
16
72
33
7
61
25
20
28
13
6
4
9
6
21
13
8
9
11
17
25
12
11
65
32
20
85
63
25
125
86
34
167
107
50
202
134
70
170
114
59
58
38
24
80
68
43
105
77
37
92
75
31
63
58
20
44
41
10
80
63
25
133
106
59
109
89
52
78
66
46
61
49
32
40
28
17
38
26
19
35
30
21
26
24
12
18
16
14
8
8
8
9
7
2
14
7
2
12
5
4
9
7
5
2
1
4
8
7
10
12
14
10
10
13
7
10
12
9
10
12
9
5
6
4
5
5
5
12
8
10
19
10
13
23
10
14
255
255
255
255
255
255
175
165
161
105
109
104
20
31
22
95
75
79
151
125
128
176
161
153
123
128
122
31
43
40
69
57
60
173
159
158
225
210
208
213
207
202
126
135
124
37
15
25
219
191
189
255
255
255
255
255
255
255
255
255
200
179
178
140
130
101
106
108
86
77
67
88
203
184
182
216
206
198
157
146
134
58
53
22
110
142
132
107
114
123
89
116
117
255
255
255
255
255
255
134
87
63
12
14
13
10
3
4
4
7
6
9
8
7
4
10
6
13
10
9
12
12
12
7
7
7
6
6
6
8
10
7
10
13
7
9
13
5
14
17
11
12
16
8
11
15
7
8
12
4
7
10
6
6
10
2
5
8
3
8
6
5
12
7
8
17
7
8
10
5
4
5
8
5
10
8
6
8
3
2
7
2
1
13
1
5
10
8
6
9
11
3
12
12
5
20
18
14
23
23
15
27
27
20
31
31
25
38
33
28
44
36
29
35
40
28
34
42
26
46
46
36
56
50
47
64
59
51
63
61
47
55
50
36
50
43
31
38
27
26
14
6
4
1
3
3
10
5
2
18
9
8
14
14
11
16
16
14
31
29
22
38
29
19
41
31
23
43
37
30
39
38
27
35
34
25
43
38
28
63
53
35
90
84
55
134
122
79
139
110
70
114
88
55
155
128
74
186
153
84
215
155
87
152
87
45
92
49
25
93
58
28
111
67
43
77
39
25
68
35
25
52
24
11
19
12
5
15
13
6
55
28
22
42
23
17
99
65
38
144
96
51
182
124
73
195
131
77
143
95
45
128
96
46
164
128
70
171
133
74
137
100
52
115
89
46
117
89
63
65
47
39
46
44
26
45
31
12
23
18
11
63
47
39
94
56
31
77
46
18
61
35
12
49
27
14
34
14
8
39
25
21
58
39
27
15
7
4
28
24
10
30
19
9
47
31
19
64
41
24
76
48
28
78
47
32
255
255
255
255
255
255
249
184
107
245
192
107
181
150
86
122
109
65
92
89
45
58
53
34
28
25
18
27
24
14
27
20
21
27
26
18
31
35
23
34
38
24
36
37
22
36
32
25
37
33
31
40
34
31
40
32
27
38
30
26
37
29
25
33
25
21
29
23
18
29
25
20
27
23
21
24
22
17
20
20
14
19
19
17
19
19
19
18
18
18
17
17
17
13
13
13
12
12
12
15
15
15
21
21
21
24
25
22
23
26
17
26
26
16
29
23
15
24
19
12
15
15
9
12
12
12
10
10
10
12
12
12
15
11
12
22
13
13
22
15
9
14
17
6
10
18
7
9
17
5
4
15
4
3
14
3
14
14
10
27
17
18
25
18
19
24
21
21
35
28
25
41
34
30
40
38
32
31
29
23
3
7
5
13
7
9
2
1
3
7
8
7
18
23
12
45
44
24
103
82
55
169
139
98
157
130
79
77
65
32
47
36
5
103
83
42
156
127
78
172
141
87
159
125
81
136
103
66
130
94
56
159
124
63
174
141
83
88
94
56
114
63
37
222
164
90
184
137
76
126
100
61
84
71
50
54
43
25
20
17
7
11
10
8
18
18
18
25
24
16
18
18
5
10
12
5
10
13
1
11
15
5
11
18
9
9
21
3
25
29
7
35
32
13
151
139
155
255
255
255
96
119
126
56
53
72
175
192
221
65
69
71
81
78
69
76
75
50
111
141
248
255
255
255
69
71
21
123
171
255
100
125
188
64
81
95
38
18
15
198
171
136
96
75
90
65
40
65
12
26
44
97
111
122
151
122
95
138
92
72
187
117
62
131
69
21
105
59
14
54
29
47
103
96
94
166
137
55
37
42
35
203
146
50
255
241
161
255
226
167
173
160
129
100
92
76
67
114
151
72
78
94
112
118
116
255
255
255
193
182
127
152
162
157
41
39
56
10
20
33
46
39
39
41
37
24
104
89
73
128
123
106
61
68
74
15
22
42
78
87
108
9
5
18
96
98
110
111
116
119
34
53
28
59
136
255
48
187
255
40
72
189
24
28
104
33
14
41
10
2
4
7
7
10
10
7
10
12
8
10
15
4
8
75
5
52
255
75
138
119
44
196
247
99
98
174
38
247
23
22
32
187
69
226
255
180
177
247
204
141
42
25
16
102
91
85
38
36
32
32
15
28
150
124
103
197
133
39
133
67
255
76
75
157
159
43
118
196
113
246
172
158
150
168
98
255
46
105
219
13
6
7
4
2
5
2
4
4
18
14
8
37
22
21
41
24
12
23
18
11
10
7
12
31
10
10
28
13
2
20
8
12
8
4
2
21
8
5
51
28
11
93
54
20
110
64
21
172
123
57
242
178
89
178
118
58
40
13
1
41
28
21
28
12
10
20
8
10
61
42
21
110
80
48
117
90
57
70
54
33
44
29
24
36
25
12
25
21
11
25
27
20
24
28
16
15
18
11
10
10
10
8
8
8
8
8
4
10
8
1
9
9
5
12
11
11
8
10
8
8
12
8
8
12
4
7
8
7
7
7
7
5
5
5
8
8
8
11
11
11
15
15
15
17
20
19
18
18
13
236
255
255
255
255
255
189
172
173
114
106
105
98
105
99
76
84
64
31
37
53
102
103
122
195
190
192
166
178
175
52
86
89
80
35
29
196
166
157
255
255
255
255
255
255
255
255
255
255
255
255
168
171
172
138
159
172
118
118
126
255
255
255
255
222
199
185
180
170
80
96
96
46
34
15
78
79
81
104
98
103
57
45
26
32
54
40
64
76
99
9
38
46
255
255
255
255
255
255
166
123
99
11
20
17
5
2
3
2
2
3
12
2
6
9
2
7
14
2
4
6
5
7
4
4
4
2
2
2
9
12
6
7
11
2
5
9
1
10
13
7
10
13
8
7
7
7
3
3
3
4
3
5
1
3
3
7
10
5
15
7
7
15
4
7
11
6
7
5
2
3
3
3
3
10
2
2
8
5
4
10
4
4
12
4
5
5
5
5
5
8
5
7
10
5
18
12
12
31
21
22
39
31
28
38
31
25
43
32
23
47
38
24
41
42
26
46
44
33
57
48
39
60
52
38
64
57
39
59
50
35
47
39
28
34
28
18
12
9
9
10
4
5
17
4
4
13
5
2
18
11
10
21
21
15
35
34
23
49
45
32
43
35
25
38
34
23
35
31
22
43
38
27
38
36
28
39
34
27
62
49
31
86
80
49
118
108
66
122
101
70
92
80
56
81
68
39
132
113
62
220
172
87
223
162
90
167
112
65
149
104
57
146
97
53
107
75
34
114
79
39
129
86
37
107
76
29
63
46
16
73
53
20
134
92
37
209
149
73
214
152
77
167
117
57
140
94
42
121
81
37
130
101
55
128
107
50
124
114
58
129
101
50
87
63
41
4
1
9
82
67
41
117
82
56
101
68
41
72
50
31
80
58
36
126
78
49
55
32
14
15
16
10
21
24
19
35
27
14
41
28
17
41
24
20
9
6
13
15
13
2
47
39
19
60
45
22
58
35
13
49
22
5
43
21
17
255
255
255
255
255
255
189
127
71
223
159
87
206
161
93
151
128
77
127
113
64
79
64
45
27
30
17
17
20
2
27
15
13
37
25
25
38
27
22
36
27
17
39
34
21
37
34
26
31
29
25
31
32
24
31
35
17
30
33
16
28
29
18
26
26
18
27
27
21
27
27
25
27
27
27
28
28
28
25
25
25
22
22
22
21
21
21
19
19
19
17
17
17
13
13
13
12
13
9
12
15
5
13
17
5
15
16
5
20
15
5
25
15
10
21
13
5
14
9
4
9
5
3
8
6
5
10
10
8
15
15
15
19
19
21
20
17
22
23
10
17
17
5
8
10
5
7
8
8
8
11
10
9
11
13
6
11
14
8
23
16
17
22
14
14
22
14
14
36
25
21
48
38
34
41
38
34
37
27
24
35
28
24
30
30
24
24
26
19
28
27
22
32
25
24
45
34
29
77
58
38
144
116
80
180
156
91
114
98
49
39
26
27
20
9
23
48
43
21
110
90
40
159
122
63
165
131
72
141
113
60
140
123
62
81
80
53
97
63
34
230
176
103
182
144
79
105
88
49
79
77
46
57
59
36
30
27
9
20
9
5
21
16
15
29
21
19
31
25
14
12
13
4
7
8
5
5
8
2
10
6
7
14
5
15
13
5
15
13
12
9
29
14
16
225
216
242
255
255
255
57
86
106
87
79
96
174
188
197
73
78
78
76
75
72
33
36
8
200
238
255
234
255
255
86
118
227
85
140
232
24
43
59
60
53
51
103
87
71
168
95
36
102
95
80
56
52
72
44
57
51
85
83
80
63
46
43
24
40
46
20
11
18
73
34
19
78
61
11
137
83
90
242
161
90
138
72
71
176
128
56
205
194
95
119
170
109
5
80
141
60
59
38
47
49
62
72
76
92
125
141
176
36
34
47
177
194
194
134
137
131
43
45
53
19
27
57
21
20
28
2
10
17
1
7
7
148
127
96
105
104
81
41
47
67
23
15
12
63
68
86
36
50
52
39
37
44
109
104
112
101
119
109
47
135
255
19
215
255
30
77
150
18
21
47
17
8
18
2
3
10
4
4
7
4
7
15
12
3
17
5
7
17
98
10
80
255
82
171
48
50
188
255
100
146
152
47
254
63
21
26
220
22
194
255
110
123
170
123
82
86
82
67
98
96
90
27
37
34
50
26
13
173
158
132
130
84
40
63
92
255
92
66
138
120
35
198
127
20
155
100
80
47
211
58
217
75
76
198
24
10
7
4
3
2
17
4
6
35
14
5
40
14
5
29
11
13
28
15
4
50
30
19
54
32
23
54
27
13
82
45
19
118
67
33
107
62
30
48
23
13
47
31
14
65
24
9
93
59
27
190
135
64
214
148
74
110
72
37
33
25
12
18
12
8
52
45
22
97
70
36
100
75
48
75
59
38
43
37
20
45
36
26
39
32
18
22
28
14
24
28
15
21
21
10
10
11
8
14
11
10
18
12
9
19
12
7
21
15
10
22
15
16
21
13
17
12
11
10
4
8
1
6
5
5
3
2
4
3
3
3
10
10
10
16
17
15
18
21
15
20
24
16
22
26
18
25
29
23
205
224
238
255
255
255
221
207
201
127
113
105
115
104
103
78
61
56
54
72
93
79
70
67
222
208
195
255
255
255
255
255
255
255
255
255
246
255
255
240
255
255
138
169
173
23
14
22
215
195
191
208
221
211
80
118
134
210
183
157
255
255
255
175
156
114
114
107
121
161
164
168
122
108
90
66
50
58
119
113
108
126
121
102
52
47
48
30
50
76
67
60
46
255
255
255
255
255
255
192
148
123
11
23
20
5
5
5
2
2
4
10
2
2
12
5
3
11
5
1
2
1
5
4
4
4
5
5
5
12
16
8
4
8
0
0
0
0
3
3
3
8
10
7
10
12
7
5
9
3
5
9
3
6
10
2
8
12
4
15
5
6
13
1
5
5
5
5
4
4
4
5
2
3
12
2
4
6
3
0
7
2
1
13
0
4
5
1
2
6
3
4
16
5
8
24
12
14
30
25
20
35
30
24
39
31
26
50
37
29
56
44
32
52
47
34
55
46
38
56
43
32
53
42
28
48
39
28
30
25
15
20
21
12
11
14
6
12
5
2
24
11
5
27
14
6
31
23
12
38
36
24
46
45
31
58
54
37
58
53
39
40
37
24
28
27
14
15
14
5
34
26
15
32
29
18
36
27
21
68
51
34
88
82
47
97
91
52
81
61
45
31
14
24
11
14
17
48
48
26
147
116
52
222
170
83
206
143
72
189
127
58
174
114
49
172
127
61
212
164
95
235
173
100
222
156
81
172
116
51
195
136
64
255
183
97
255
188
100
185
132
64
111
83
36
103
84
44
129
105
65
122
95
61
64
45
27
60
58
37
74
67
32
101
72
29
159
126
72
155
118
70
105
70
37
65
43
20
64
43
29
84
63
39
78
47
34
57
33
21
100
57
29
94
55
33
61
28
15
14
15
10
27
22
16
36
21
14
33
30
21
37
25
19
25
11
7
9
6
8
7
1
4
10
14
14
255
255
255
255
255
255
119
79
50
138
87
42
159
117
60
146
121
64
137
114
74
110
85
63
73
63
47
41
39
26
29
27
15
31
23
17
33
21
17
30
19
16
28
16
14
30
22
12
26
26
13
25
28
19
26
29
20
25
27
23
22
23
22
21
21
21
23
23
23
21
21
21
22
23
20
25
28
19
25
29
17
22
26
14
18
22
11
15
19
7
11
15
3
6
10
2
8
8
4
12
8
4
11
4
5
11
1
4
15
6
5
14
7
8
7
3
4
5
4
4
4
4
5
5
5
5
8
8
8
9
9
9
7
7
7
8
8
8
14
10
14
18
6
10
18
6
10
12
6
8
16
8
9
19
16
9
17
17
11
21
17
16
17
14
14
20
16
15
34
23
18
46
33
27
41
37
34
38
32
30
36
32
28
35
31
25
33
29
19
34
31
18
39
34
18
51
43
21
59
48
28
87
70
46
154
137
77
142
120
58
106
80
36
126
98
60
144
113
73
112
76
38
102
64
31
123
93
43
71
62
33
37
44
22
88
58
35
202
154
89
188
147
89
100
83
52
59
60
37
33
45
24
20
12
14
54
35
28
56
43
25
44
39
26
36
28
18
39
27
18
31
21
13
25
18
5
23
13
4
31
18
10
37
31
17
39
39
24
42
38
22
73
59
62
255
255
255
255
255
255
84
110
131
111
113
114
167
175
166
89
97
102
80
82
92
29
29
73
219
248
255
144
186
255
144
189
255
20
58
114
22
14
22
134
94
71
218
165
122
141
119
114
29
20
22
104
60
33
105
69
27
74
47
26
42
36
23
40
55
60
100
49
26
138
80
30
119
73
69
255
197
127
121
110
68
133
87
78
246
152
107
255
184
103
255
255
146
255
255
228
195
179
170
132
145
138
58
82
82
77
118
161
105
115
129
79
96
101
133
135
134
47
30
32
26
17
35
17
9
14
4
3
9
7
18
21
190
163
129
125
130
116
61
58
68
11
12
15
50
49
71
28
26
30
12
7
11
66
55
56
67
71
66
62
149
255
62
181
255
43
43
107
4
7
12
7
5
13
12
2
15
14
1
7
7
5
5
5
5
4
9
1
6
129
11
100
255
73
185
39
74
185
255
87
146
128
73
255
105
40
25
174
22
245
162
90
181
206
174
145
61
54
55
81
81
72
6
34
34
38
5
34
208
204
172
105
82
66
35
115
255
43
65
188
41
98
230
138
120
153
65
62
98
205
22
213
74
65
219
53
20
17
73
37
17
80
45
23
74
44
28
65
39
31
63
36
23
65
38
12
68
40
17
44
28
19
40
29
25
73
56
35
103
76
46
145
100
56
169
97
53
124
70
38
104
59
38
112
65
38
148
96
38
156
108
48
112
80
43
44
26
17
22
28
12
88
72
29
97
72
36
72
59
38
55
48
31
47
42
25
56
47
32
46
39
22
38
34
18
41
34
21
30
26
17
22
22
14
29
24
20
31
24
22
31
24
21
31
26
21
27
23
19
19
17
12
14
14
8
14
13
10
7
7
7
4
7
1
9
13
5
14
17
11
10
15
6
10
14
6
13
13
8
17
12
8
31
26
26
175
201
219
255
255
255
214
197
195
98
89
83
135
138
131
86
90
85
64
90
107
143
170
172
255
255
255
253
255
255
112
156
154
74
98
93
174
157
145
213
237
236
69
106
114
161
132
119
255
255
255
192
222
225
83
82
61
191
182
167
255
255
255
149
144
116
136
125
105
253
238
223
193
194
184
11
49
58
77
41
24
130
115
85
37
64
63
59
55
38
123
139
144
255
255
255
255
255
255
233
187
159
7
23
22
4
4
4
7
7
7
10
7
4
16
8
5
10
2
2
3
4
5
5
5
5
3
3
3
9
13
7
12
14
12
10
10
10
10
10
10
14
17
11
8
12
4
3
7
1
4
8
0
5
8
2
3
4
2
13
3
5
12
4
5
7
5
5
14
5
8
17
5
9
13
2
5
2
3
2
1
2
1
11
1
2
13
1
5
19
7
8
24
15
13
28
28
21
31
35
24
33
34
25
39
36
28
51
42
34
52
51
39
50
50
41
53
42
35
47
33
27
38
26
23
24
23
18
5
8
3
8
8
8
9
10
8
24
16
5
28
19
8
19
20
14
29
32
18
44
45
31
51
47
32
52
48
31
41
39
28
24
22
13
16
14
8
7
8
4
26
23
10
31
33
16
42
32
27
71
53
38
87
81
47
94
90
54
76
57
41
43
20
14
45
38
25
83
67
43
116
89
57
183
141
78
216
162
85
219
168
92
210
166
98
212
174
103
214
174
101
214
175
103
243
187
111
253
190
105
255
212
121
244
184
105
172
127
73
119
85
54
102
80
53
106
92
60
105
92
55
87
67
34
74
40
22
96
74
37
136
114
58
147
112
62
98
76
44
1
7
5
47
36
23
56
36
22
45
37
16
42
31
13
75
52
38
151
105
69
164
114
72
170
120
72
150
89
51
104
68
41
93
63
38
81
52
27
67
46
28
51
31
11
47
32
23
39
24
23
31
14
14
46
26
10
255
255
255
255
255
255
127
86
54
113
71
31
128
101
53
121
103
51
117
98
47
145
125
79
124
112
70
73
66
45
39
35
28
24
19
17
22
15
17
26
20
21
26
19
16
27
16
13
26
14
13
25
15
17
26
17
18
21
18
17
17
18
18
15
15
19
16
17
14
18
17
9
23
18
8
25
17
9
27
19
11
26
18
10
21
13
5
17
9
1
15
7
3
14
6
2
16
5
2
15
4
4
14
4
7
17
7
10
13
8
10
7
7
7
4
4
4
4
5
4
3
7
7
6
8
11
7
7
9
7
7
7
2
2
0
5
5
3
12
12
11
17
14
15
24
12
16
19
7
11
13
7
5
9
11
4
15
18
9
21
21
14
18
18
13
18
19
16
30
21
20
41
29
22
40
37
28
35
32
27
28
20
16
32
18
12
37
23
14
40
30
15
46
37
18
49
40
22
38
35
27
39
34
22
101
89
53
144
123
73
141
116
64
129
103
55
188
140
84
237
173
91
62
62
28
91
65
21
66
47
32
55
33
21
138
100
49
151
122
74
87
76
50
52
46
31
28
32
10
35
26
17
73
62
35
78
72
38
73
67
38
70
66
40
63
53
34
58
47
29
51
40
23
49
34
21
57
38
30
67
44
37
73
50
40
76
50
40
73
48
29
108
97
99
255
255
255
255
255
255
51
63
67
66
55
32
161
158
146
74
82
93
47
37
49
80
75
93
186
195
202
53
76
90
71
85
106
18
17
25
27
18
34
163
134
92
67
64
82
78
130
154
5
33
60
81
33
24
41
24
34
29
29
33
33
76
83
33
59
76
180
142
100
50
44
30
217
172
127
153
107
111
212
115
90
105
72
18
96
68
72
169
120
90
85
83
44
255
204
139
255
163
115
242
176
67
104
77
65
6
52
89
125
153
180
29
18
31
147
141
120
111
115
111
50
46
54
26
41
47
24
44
52
16
43
55
218
198
175
151
172
174
41
39
46
61
72
85
63
64
71
27
33
19
31
30
24
62
55
57
12
2
13
22
143
255
81
138
255
66
24
71
19
9
11
7
7
3
6
6
5
2
6
5
18
17
21
26
30
33
20
32
33
181
36
98
255
96
165
63
112
189
255
96
136
122
78
255
144
58
30
159
52
255
53
52
176
155
126
100
82
85
79
85
79
64
67
36
9
36
55
76
182
191
171
145
140
132
126
113
132
91
41
60
70
70
106
109
57
9
17
24
62
165
18
219
125
122
255
175
101
64
175
104
55
138
85
45
78
51
29
34
22
6
47
25
10
75
37
18
60
26
7
34
16
4
26
15
3
43
31
15
76
52
22
43
23
10
123
83
39
187
114
48
191
114
46
166
103
39
161
109
43
133
96
47
81
56
39
40
32
20
57
41
10
95
67
36
80
62
41
56
48
31
49
45
26
53
46
31
59
51
35
46
41
25
39
32
24
38
33
28
37
29
25
32
24
20
31
25
22
32
31
21
32
32
21
32
27
20
28
20
16
24
16
13
20
14
13
17
15
15
18
19
17
13
14
12
5
7
5
9
11
9
4
7
3
1
2
2
6
4
4
9
9
8
18
18
15
164
200
214
255
255
255
226
200
201
73
79
81
139
163
158
152
181
176
135
155
155
255
255
255
255
255
255
233
245
248
26
48
65
188
149
129
255
255
254
194
235
244
89
73
60
244
223
190
255
255
255
112
164
196
135
94
65
149
157
161
246
255
255
159
157
161
27
21
29
212
185
168
255
255
255
255
255
255
223
221
198
244
243
197
67
66
67
142
167
164
68
85
92
150
189
199
255
255
255
255
255
228
14
26
25
8
8
8
9
9
9
8
7
4
16
10
5
17
6
4
7
2
7
3
3
3
5
5
5
11
12
10
15
18
12
15
19
12
12
16
8
11
14
8
4
4
5
1
0
2
3
3
3
2
2
2
2
2
2
10
2
4
14
2
5
16
5
7
19
10
8
18
13
8
14
15
8
12
15
8
10
14
6
15
16
9
23
18
13
27
22
16
27
28
17
32
33
22
37
32
24
37
31
25
42
35
29
45
41
29
43
43
31
42
34
25
35
21
17
23
13
10
14
10
8
9
13
6
12
13
6
21
17
11
33
28
19
39
30
21
34
31
22
30
34
26
39
38
29
47
41
34
44
37
28
36
35
24
22
22
17
5
6
6
5
3
4
15
9
9
29
27
13
34
35
19
37
28
25
57
43
31
79
72
40
101
96
60
118
95
65
113
84
59
117
89
63
125
94
68
110
90
63
133
115
74
167
144
86
163
141
87
140
128
74
125
118
58
105
100
43
114
113
55
162
150
91
197
168
98
186
153
84
130
110
58
97
85
55
95
77
61
93
72
53
73
61
36
50
46
25
49
53
28
82
69
28
133
94
49
149
109
65
127
91
43
144
113
65
171
126
74
152
102
56
130
82
44
125
84
48
115
80
50
105
79
49
115
86
44
83
63
36
125
99
58
148
93
55
104
57
30
81
53
25
98
74
43
114
81
44
115
77
46
86
53
32
53
31
23
52
35
32
59
44
29
255
255
255
255
255
255
110
84
41
116
88
45
96
73
43
73
62
31
60
54
23
94
82
47
115
106
65
69
66
32
32
32
18
19
17
7
18
13
9
22
15
17
25
21
18
24
19
12
17
8
5
17
7
7
21
9
9
17
12
4
11
14
6
7
7
7
6
9
7
15
8
8
17
7
5
15
7
5
18
6
10
19
7
11
18
6
10
19
7
11
19
8
12
17
5
9
12
3
6
7
2
4
10
10
10
12
12
12
11
11
11
9
9
9
8
8
8
6
6
6
4
4
4
5
5
5
6
6
6
10
10
10
13
13
13
14
14
14
14
14
14
15
15
15
21
17
18
21
16
17
14
13
13
10
10
10
15
15
12
22
22
17
23
25
15
24
27
17
30
28
21
38
31
25
41
33
27
39
32
27
31
25
18
32
24
15
37
29
21
45
37
29
50
41
35
42
36
37
23
22
28
9
12
5
40
35
23
77
69
47
72
61
35
43
32
13
158
105
64
255
212
114
135
114
54
41
27
8
127
87
45
148
97
46
144
99
49
150
103
53
166
107
57
154
107
65
132
98
48
141
108
58
119
92
55
75
47
33
63
38
27
84
71
48
91
85
53
72
67
44
54
51
34
64
60
34
88
79
39
103
82
34
140
103
48
167
117
57
166
115
61
172
153
160
233
255
255
209
255
255
63
64
50
78
63
41
137
135
129
78
91
88
177
180
190
211
211
213
195
197
184
100
96
90
83
79
82
54
38
33
72
45
33
70
50
16
192
175
177
180
164
175
105
120
144
46
15
56
108
37
33
130
62
21
112
120
86
10
28
29
144
146
110
61
93
78
141
122
91
147
104
135
254
201
141
255
230
162
255
166
129
255
129
102
255
255
146
255
255
181
255
255
162
255
255
87
190
177
117
46
22
24
73
106
115
116
118
117
80
58
58
100
98
70
60
42
38
25
21
18
50
29
38
107
85
81
205
201
184
116
146
163
34
24
28
74
87
102
65
75
66
8
11
8
48
52
37
61
61
68
7
24
48
18
159
255
63
132
255
110
14
87
71
15
44
5
3
0
1
8
5
10
15
15
26
26
34
16
20
24
42
21
22
247
79
93
255
102
148
97
141
198
255
112
122
91
94
255
197
87
73
200
61
236
116
113
151
54
57
61
110
99
75
70
54
32
30
33
44
53
77
81
100
101
92
192
195
189
146
159
160
84
70
58
74
76
71
97
54
18
27
14
41
77
65
247
94
165
255
98
77
39
94
66
29
105
67
28
114
74
41
89
57
35
84
52
33
62
43
27
46
40
24
66
51
28
79
51
25
79
46
22
107
65
28
111
60
29
126
80
40
174
114
56
195
125
57
182
127
58
163
127
62
135
103
56
107
80
46
86
66
34
87
58
27
99
80
50
71
68
44
50
45
18
47
40
21
50
40
33
51
43
29
37
31
18
29
24
21
25
25
25
20
14
17
20
14
17
21
18
13
27
28
11
27
24
10
31
22
16
32
20
16
29
18
15
23
10
12
11
4
7
13
17
9
16
20
12
10
10
10
7
7
7
5
5
5
10
10
10
13
11
12
17
8
13
14
11
8
158
194
201
255
255
255
230
199
208
60
39
38
120
120
112
145
147
137
156
157
154
237
255
255
255
255
255
207
235
244
58
12
13
255
251
216
255
255
255
91
158
183
139
107
96
255
255
248
255
255
255
44
121
159
228
192
145
158
179
204
207
227
226
255
255
255
255
255
255
101
117
95
126
98
113
255
224
217
255
239
214
208
212
179
97
94
75
111
146
153
43
33
31
85
105
114
255
255
255
255
255
255
12
19
17
9
7
7
7
7
7
4
8
10
7
5
5
16
4
0
14
5
8
4
4
4
7
7
7
5
5
5
5
8
2
9
13
5
10
14
6
4
6
4
2
2
2
3
5
5
4
8
2
5
8
2
2
3
3
4
1
2
12
3
6
15
8
8
13
13
8
12
16
8
13
17
9
16
20
12
17
21
13
18
22
14
21
25
17
27
30
21
32
33
22
37
32
25
38
31
25
37
34
25
39
38
28
33
35
21
32
24
15
31
17
15
11
7
6
4
0
1
12
4
6
20
9
11
31
20
19
42
31
27
48
39
31
45
37
28
42
39
27
47
39
31
47
36
30
40
35
25
31
28
21
22
22
19
8
10
7
7
7
3
16
15
9
28
23
18
41
31
18
39
32
21
29
24
26
35
25
22
43
41
13
65
65
35
94
83
46
117
95
50
125
92
56
94
67
38
60
55
22
56
63
31
65
66
42
67
56
35
59
46
23
46
41
16
41
39
17
58
56
26
80
70
42
86
74
46
78
65
43
70
58
40
70
62
37
64
63
29
52
47
22
37
24
8
19
15
14
29
40
30
68
69
33
112
99
43
157
125
70
177
139
79
173
140
75
147
117
58
113
87
46
102
78
44
102
81
46
85
65
28
37
32
9
57
44
25
37
18
8
52
50
28
93
70
40
59
41
28
50
39
29
82
67
49
108
85
56
107
75
43
85
55
25
31
11
2
15
14
10
7
5
8
255
255
255
255
255
255
63
60
29
94
74
44
66
27
26
96
66
52
83
70
29
85
73
40
98
84
60
66
60
31
26
29
15
7
17
5
5
12
3
6
5
0
13
8
8
20
20
17
12
11
4
10
7
1
20
9
12
16
8
8
10
12
12
14
12
19
15
16
16
26
21
15
25
17
11
14
14
10
5
7
6
6
6
6
10
10
10
11
11
11
11
11
11
9
6
7
4
2
2
8
8
8
14
14
14
8
8
8
3
3
3
5
5
5
5
5
5
4
4
4
2
2
2
4
4
4
4
4
4
8
8
8
9
9
9
7
7
5
7
7
3
10
8
1
15
10
6
22
14
15
25
18
23
22
19
24
19
19
22
23
23
23
27
29
26
29
33
26
31
32
26
34
31
25
41
35
29
47
40
37
39
34
30
33
28
23
36
30
27
44
38
33
50
43
37
45
39
35
36
35
27
25
30
24
14
19
21
25
15
16
64
55
39
30
28
10
107
72
38
239
179
99
205
160
79
95
70
33
52
39
27
137
100
48
132
100
55
203
138
74
255
192
103
255
207
112
255
200
105
248
181
100
170
131
73
113
87
57
40
25
16
37
29
19
67
57
34
64
62
37
38
37
27
61
52
35
101
75
38
148
106
52
234
175
98
255
209
112
255
245
160
255
255
255
207
255
255
108
144
164
85
80
63
127
117
99
135
133
135
107
90
92
123
123
130
132
144
138
80
90
87
38
33
32
47
48
50
69
64
58
104
84
57
130
116
121
183
206
225
193
130
89
183
152
133
110
108
81
81
91
83
65
75
67
144
132
72
38
15
18
167
144
73
107
99
106
126
108
49
50
56
79
129
138
33
99
84
21
136
105
84
143
63
89
255
255
118
255
255
113
65
60
62
255
195
39
255
231
93
60
52
19
46
58
67
53
75
58
49
47
44
66
75
55
71
76
77
114
109
115
84
82
93
119
115
96
173
183
159
81
100
112
31
26
23
60
76
82
62
75
60
19
23
24
49
52
41
61
72
76
17
34
69
65
193
255
142
167
216
199
76
65
199
62
96
41
14
2
8
5
4
8
15
13
25
33
36
28
36
32
62
40
24
255
114
91
255
102
139
158
183
222
246
138
65
74
133
255
176
84
149
117
50
194
35
11
34
55
56
56
18
32
14
50
54
66
13
21
23
26
31
31
41
48
52
48
33
24
101
85
78
202
182
151
154
144
123
162
130
90
79
63
52
64
108
255
96
172
255
133
95
98
114
90
99
45
42
55
43
30
15
65
48
31
24
23
19
13
6
14
21
24
8
68
44
35
84
58
43
121
79
40
160
109
45
176
123
58
185
130
63
169
122
59
135
105
54
110
89
54
102
80
51
98
70
38
90
74
38
100
87
47
113
94
53
100
87
51
68
65
40
56
42
27
55
36
34
47
37
32
38
34
18
29
22
14
25
21
21
18
18
18
11
11
11
15
16
15
21
21
10
30
26
13
24
11
13
18
12
9
15
15
7
19
19
8
27
18
11
21
10
12
17
17
12
15
15
11
9
11
10
7
11
4
15
18
11
15
19
11
10
10
5
13
7
7
18
12
7
165
191
200
255
255
255
255
255
255
67
80
85
62
45
39
127
101
90
170
153
133
240
255
241
255
255
255
192
206
206
124
99
85
255
255
255
255
255
255
53
96
122
224
196
189
255
255
255
255
255
255
46
56
86
255
252
207
144
169
190
195
222
219
239
227
215
213
197
174
222
210
174
93
108
102
58
19
11
146
106
86
176
150
123
135
125
114
26
59
63
94
89
101
99
113
119
255
255
255
255
255
255
10
11
8
14
9
6
1
4
3
7
10
14
8
5
4
8
1
6
13
5
7
8
8
8
5
5
5
2
2
2
3
3
3
3
4
2
2
5
1
5
8
2
6
5
7
7
5
8
9
10
8
13
16
10
11
15
7
7
11
3
8
11
7
10
11
10
8
8
10
7
6
8
10
10
10
13
13
13
16
14
13
23
17
14
27
23
18
33
29
22
40
34
29
42
35
33
40
39
29
38
39
27
38
32
24
29
25
14
17
12
8
22
9
11
17
12
11
22
11
14
25
13
17
30
18
22
34
25
25
34
34
23
35
41
24
37
39
21
39
35
21
41
31
25
32
29
21
26
26
17
22
16
14
13
7
7
6
6
8
20
19
17
22
28
22
31
31
25
41
32
23
29
29
22
22
24
27
23
21
21
11
14
10
22
24
8
43
43
21
62
56
31
67
56
29
59
50
25
51
47
25
47
44
29
49
48
31
56
53
33
60
52
35
53
38
35
42
24
31
43
29
24
52
41
24
53
48
34
43
45
38
35
42
33
38
39
20
37
36
17
29
32
23
32
19
7
25
13
6
34
32
28
66
52
37
58
50
21
41
37
14
54
43
20
53
49
23
43
48
28
48
49
26
50
41
15
60
50
27
81
58
44
37
18
15
52
35
29
58
31
20
69
39
26
62
37
17
29
30
22
56
49
32
74
55
31
74
57
29
115
83
49
98
68
35
31
11
6
33
22
18
56
45
28
255
255
255
255
255
255
113
77
29
173
123
55
163
120
60
141
100
54
154
131
69
107
84
48
76
63
42
51
46
24
27
24
14
15
18
7
17
18
8
14
13
12
12
10
11
18
14
15
21
10
5
21
10
7
21
13
16
14
10
11
14
16
14
18
20
15
11
14
5
20
19
11
31
22
15
36
25
22
26
19
21
11
7
8
4
4
4
3
3
3
11
11
11
13
4
7
6
10
8
17
11
12
12
12
12
8
8
8
7
7
7
4
4
4
2
2
2
3
3
3
4
4
4
4
4
6
6
6
6
2
2
2
4
4
4
2
2
7
2
2
5
4
3
5
5
4
6
13
7
10
20
12
16
24
16
19
23
20
19
24
24
16
26
26
19
29
29
20
31
31
21
31
31
21
34
34
19
42
42
33
40
40
35
31
29
24
31
23
20
38
35
24
40
38
30
34
36
22
33
30
16
33
24
15
34
26
21
8
10
7
57
45
32
60
60
37
85
69
36
180
133
78
210
157
81
194
145
76
191
133
75
171
122
69
88
66
37
96
60
37
68
64
28
163
127
64
211
162
87
196
150
76
188
143
72
156
126
75
48
35
11
37
30
14
50
42
27
45
46
27
14
12
6
59
43
23
100
70
30
140
94
53
207
153
87
199
142
66
195
172
147
173
202
255
100
137
220
34
43
34
66
56
46
205
201
185
144
150
151
141
137
131
228
228
230
97
110
92
43
44
52
34
35
31
48
49
53
64
70
87
122
118
140
254
234
254
153
162
173
146
78
62
156
113
90
82
100
72
123
109
69
138
102
71
73
51
28
178
162
61
255
255
144
255
255
110
255
255
62
124
107
70
125
116
25
177
176
55
87
105
32
141
97
13
255
255
114
251
232
72
255
199
42
255
229
65
255
243
90
79
65
46
88
78
80
74
54
56
117
106
91
135
134
108
128
127
107
53
60
52
85
94
101
175
168
154
205
200
184
50
67
103
74
52
49
105
111
114
80
84
76
25
28
31
37
36
41
53
66
63
41
47
80
201
255
255
226
177
158
181
56
90
255
59
169
104
14
52
11
4
1
7
3
9
14
18
26
28
35
38
105
44
36
255
115
90
216
54
135
211
224
255
185
142
71
120
162
255
37
60
181
116
164
234
172
174
170
34
38
36
100
113
117
8
21
30
80
73
71
113
106
105
146
128
122
103
107
99
156
134
133
255
248
203
96
97
86
149
132
102
65
57
52
100
114
224
115
202
255
116
164
185
132
169
200
131
152
188
59
43
36
76
47
24
91
52
23
90
49
21
94
56
18
115
65
42
86
41
23
87
51
18
122
93
45
139
104
50
141
104
47
100
82
40
70
57
35
44
27
13
59
39
13
76
53
19
72
58
38
79
57
36
80
63
36
63
61
35
53
51
35
52
38
25
48
35
22
39
37
24
32
30
19
31
27
21
33
28
26
24
18
15
23
15
12
24
17
15
26
20
19
34
23
22
18
9
13
5
1
2
4
4
4
4
4
0
18
14
10
28
20
19
31
18
19
22
17
14
15
20
13
16
20
12
16
19
12
9
13
5
8
15
9
12
16
8
21
24
15
171
190
203
255
255
255
255
255
255
141
130
121
58
72
64
73
56
51
147
125
101
169
163
149
255
255
255
98
140
138
102
91
90
255
255
255
208
246
249
75
20
31
255
255
255
255
255
255
207
233
203
114
27
41
255
255
238
129
167
189
108
152
150
193
189
191
42
35
55
202
206
223
235
241
243
139
146
128
56
64
29
142
118
83
129
120
109
52
32
32
61
69
84
146
167
181
255
255
255
255
255
255
19
10
3
17
5
8
11
1
7
6
9
8
2
9
4
4
2
6
9
3
1
2
2
2
2
2
2
7
7
7
10
11
9
11
14
8
13
17
9
13
16
11
12
13
11
11
11
11
11
12
10
12
13
11
15
18
12
16
20
12
17
20
14
15
18
12
14
15
13
16
17
16
20
20
18
24
22
17
29
23
18
38
29
25
42
36
32
43
37
31
45
35
31
40
33
28
36
33
24
34
23
20
28
15
11
16
17
7
5
4
2
15
8
7
31
19
17
35
25
20
31
27
20
30
29
18
34
31
16
36
36
18
38
36
24
39
31
21
35
28
20
28
26
21
17
22
14
14
15
11
7
4
4
8
8
8
24
21
21
32
31
25
31
36
28
39
37
29
38
34
25
21
27
21
18
22
21
14
15
12
4
3
8
16
15
11
26
24
22
32
31
27
29
35
19
38
42
23
48
43
30
50
38
25
49
38
20
45
41
20
41
41
22
40
34
25
36
26
24
35
30
24
39
39
26
38
37
21
33
30
14
25
28
20
23
24
17
39
37
27
45
44
24
48
32
14
58
45
24
81
75
41
107
95
52
108
89
48
100
72
44
81
57
36
49
36
21
27
22
17
44
41
27
60
46
24
82
66
38
87
64
43
14
12
8
33
32
20
68
62
43
78
64
40
41
34
20
37
25
14
63
42
15
50
34
14
85
69
34
139
93
59
93
55
25
37
23
15
39
27
22
37
23
20
255
255
255
255
255
255
160
114
47
149
109
46
128
74
21
168
113
68
177
145
78
120
96
49
62
59
28
36
36
18
26
19
12
22
25
11
12
19
11
5
5
5
17
10
13
28
15
19
26
14
14
18
14
10
16
16
16
12
12
12
15
18
10
14
17
8
6
6
6
9
9
9
18
13
12
31
24
15
35
25
21
25
20
14
13
17
9
12
14
11
10
10
10
6
6
2
11
11
11
15
5
8
8
8
8
4
4
5
4
4
8
5
5
7
8
8
8
9
9
9
8
4
5
7
3
7
10
5
7
8
8
4
7
7
5
5
5
7
5
5
5
5
3
4
8
1
10
8
4
13
5
4
7
13
7
6
20
11
12
20
13
10
22
15
11
27
20
13
32
29
20
36
31
26
35
27
20
38
31
22
41
34
31
34
29
23
27
23
18
27
30
18
17
24
21
10
12
11
14
9
12
36
24
13
59
46
24
42
34
25
25
12
4
46
42
27
73
65
39
134
102
55
161
121
68
190
140
83
223
167
91
202
161
82
176
129
65
216
149
82
193
132
70
117
74
37
81
43
25
123
71
35
207
145
75
186
137
77
87
69
31
55
43
20
45
40
21
8
22
10
48
16
18
69
53
22
93
71
29
136
90
44
162
121
62
150
105
59
83
102
192
78
73
244
30
28
103
29
22
11
104
103
97
255
255
255
118
127
121
97
81
77
214
210
204
113
132
105
66
60
65
39
39
46
15
30
36
39
40
67
58
71
134
139
121
136
153
108
48
176
98
72
136
60
29
47
45
25
168
147
79
255
255
131
255
255
140
255
255
148
255
255
106
186
153
31
255
255
51
255
255
105
255
237
102
255
224
85
248
221
70
183
202
55
185
208
115
237
158
37
255
226
92
255
236
74
241
208
122
70
82
82
95
105
110
120
114
96
68
70
50
21
31
38
75
77
90
91
111
128
86
99
106
127
116
93
232
217
194
92
124
159
55
89
116
70
62
55
148
144
133
47
51
31
22
12
18
54
59
56
43
49
85
243
255
255
152
148
143
189
101
78
255
67
187
104
20
109
14
9
8
8
4
11
5
10
5
73
10
41
199
35
121
255
88
145
61
106
210
255
255
255
44
50
49
109
141
159
85
117
176
22
84
132
141
166
163
136
162
176
21
15
20
118
119
125
110
119
121
170
157
140
193
163
148
207
186
161
187
173
175
255
255
234
72
63
70
129
116
99
73
67
67
90
96
161
27
171
255
14
121
238
16
96
167
96
176
255
76
50
41
100
52
21
85
41
20
83
39
21
116
64
27
160
89
45
187
102
60
196
106
54
183
123
54
140
98
40
89
58
31
18
10
15
37
38
26
20
19
14
41
41
19
70
57
29
64
44
29
54
40
16
39
38
18
32
38
26
36
40
25
34
31
15
32
29
15
33
30
20
27
23
13
31
25
17
30
24
20
18
12
10
15
10
5
20
10
8
18
11
12
22
14
13
3
3
9
4
4
7
7
7
1
10
10
4
8
8
0
12
12
11
26
15
18
25
16
18
15
14
14
10
10
10
4
4
4
5
5
5
6
9
8
11
19
16
22
23
20
147
168
176
255
255
255
255
255
255
232
231
217
229
238
233
163
173
165
62
76
69
36
53
66
202
214
231
84
117
123
119
94
117
255
255
255
158
201
199
135
64
30
255
255
255
255
255
255
139
187
164
156
78
25
255
255
255
137
184
218
84
111
113
250
250
253
32
59
62
141
117
123
202
178
184
178
172
172
140
131
120
100
69
42
65
70
68
99
100
99
23
18
5
126
160
175
255
255
255
255
255
255
35
8
7
12
9
10
13
3
6
11
7
6
3
9
8
5
3
3
10
2
4
7
7
7
10
10
10
13
14
11
12
15
9
13
16
10
15
17
14
15
16
14
14
17
11
14
18
10
15
15
10
15
10
11
19
11
13
24
16
14
24
19
13
22
21
9
24
23
11
27
27
18
31
29
21
35
29
24
39
33
27
40
40
29
37
40
30
35
36
22
33
32
17
24
27
13
21
22
10
15
12
4
7
5
4
15
11
11
20
14
11
23
22
17
31
24
17
36
29
16
36
32
17
38
34
17
39
35
20
37
33
24
34
26
22
29
21
15
20
17
12
10
10
10
3
3
3
10
8
8
21
15
13
31
24
18
37
31
25
38
35
24
43
41
26
47
38
29
35
29
24
20
20
14
13
13
7
4
4
7
10
10
8
17
14
14
21
17
14
24
21
13
21
19
12
19
19
15
20
20
14
19
19
12
20
20
12
24
23
15
25
23
15
26
27
16
26
29
18
23
26
17
16
17
14
15
12
10
26
18
12
27
25
17
39
36
25
57
44
34
59
51
28
66
54
28
86
73
38
100
87
43
94
75
44
89
58
30
78
55
16
81
65
27
68
63
34
47
47
20
42
41
20
58
47
24
68
50
27
60
47
22
67
50
32
50
36
25
37
22
21
31
22
21
68
48
28
91
65
33
58
35
22
53
46
23
117
92
42
131
81
49
80
40
16
46
29
16
40
26
22
31
25
21
255
255
255
255
255
255
58
40
17
79
47
22
154
92
44
196
124
71
213
160
89
160
123
58
75
65
28
33
34
22
25
18
11
21
23
8
13
17
12
12
12
12
24
14
15
24
15
15
14
14
7
11
11
6
12
12
12
13
15
11
14
18
5
11
14
5
9
9
9
12
12
10
11
12
5
17
19
8
31
24
18
33
21
16
21
19
10
11
12
5
8
8
7
11
14
12
17
17
17
21
17
17
18
18
18
22
22
20
24
24
18
27
25
17
35
29
21
38
30
20
31
23
13
25
17
15
22
18
20
14
14
16
9
9
15
8
8
14
8
8
10
8
8
8
12
8
11
12
8
16
7
5
14
4
6
5
9
3
5
15
7
11
20
13
15
23
18
16
26
22
19
30
26
26
31
24
25
32
25
23
35
28
28
34
29
26
30
29
22
20
24
14
8
14
11
6
6
3
31
24
16
63
54
38
90
75
46
89
75
45
51
39
24
58
46
35
72
60
35
91
71
29
68
55
25
9
15
13
55
48
11
81
70
27
115
86
40
158
113
56
210
152
79
237
172
91
250
181
92
248
185
91
235
180
98
164
127
77
70
67
42
21
24
23
28
11
3
83
50
28
124
94
44
123
108
44
113
91
36
123
80
43
103
77
29
100
94
84
86
149
255
45
63
207
30
15
25
39
36
47
154
159
159
246
247
229
34
38
34
193
183
163
206
221
195
41
58
38
67
62
65
48
63
66
108
71
64
166
121
76
220
185
223
205
144
127
221
132
107
255
233
138
235
219
127
129
130
74
255
255
164
255
255
152
255
255
113
255
229
55
109
75
11
49
37
18
178
156
43
255
255
72
255
255
102
227
246
85
85
144
83
67
56
60
155
73
55
200
125
61
184
152
119
163
130
82
83
62
35
42
35
31
63
43
28
14
19
53
70
89
120
64
80
98
45
67
73
38
19
19
111
111
108
127
108
86
189
166
137
36
48
70
109
130
166
76
79
93
88
83
85
121
114
105
50
52
34
56
60
68
37
39
88
245
255
255
214
177
119
203
100
43
255
69
189
73
30
121
10
9
15
7
6
10
32
12
9
176
31
100
249
53
164
137
32
115
145
170
193
129
143
150
177
192
178
47
49
36
105
145
159
68
24
14
66
87
89
142
174
179
13
37
50
153
160
159
106
98
67
120
110
74
98
94
79
187
174
149
233
234
234
255
244
201
45
73
89
89
82
77
21
5
25
45
32
13
75
66
160
70
41
148
56
91
204
19
147
255
85
65
63
94
55
16
67
38
20
49
29
14
36
20
14
64
37
6
124
73
31
215
127
58
255
185
92
218
139
71
123
75
26
139
88
37
121
62
31
73
30
13
69
47
12
109
89
39
114
82
41
80
53
25
57
45
25
43
40
23
30
24
14
17
12
8
26
18
10
37
25
17
31
20
16
31
20
14
24
22
16
10
10
10
7
2
1
5
4
1
5
2
3
14
11
7
9
9
3
11
7
5
16
7
6
19
7
5
20
8
10
20
7
14
22
7
15
18
10
12
7
7
7
4
4
4
5
5
5
7
7
7
7
7
7
7
7
7
21
12
12
131
153
159
255
255
255
255
255
255
208
196
193
246
236
215
255
252
224
255
255
239
199
208
199
239
255
255
65
87
100
144
128
147
255
255
255
113
162
168
175
108
52
255
255
255
255
255
255
101
153
146
204
141
79
255
255
255
124
179
214
48
76
77
255
255
255
106
115
118
42
51
52
95
62
49
120
112
112
128
111
87
94
65
31
26
29
28
90
98
99
53
43
33
94
127
135
255
255
255
255
255
255
59
25
20
14
9
9
15
2
5
11
5
2
3
4
4
8
2
4
11
5
7
8
8
8
10
11
8
8
12
4
7
11
3
8
9
7
8
8
8
7
7
5
9
9
5
12
12
8
17
14
12
21
14
13
23
15
13
25
17
13
28
21
17
32
24
20
35
28
21
35
32
18
34
29
16
33
30
19
31
32
21
26
31
17
21
24
13
17
20
3
14
15
5
8
12
8
9
10
10
11
2
5
24
13
12
28
19
14
28
25
15
31
34
19
36
36
22
40
37
27
43
39
31
41
38
30
34
32
26
24
24
23
18
18
16
16
13
7
10
8
4
4
10
12
18
19
18
27
27
21
32
32
23
35
35
24
36
36
24
40
38
19
48
43
25
41
37
25
31
26
17
26
17
13
18
9
6
8
4
2
9
12
7
20
16
14
25
18
13
14
14
8
8
8
6
5
5
8
5
5
8
7
7
10
11
11
11
17
14
15
20
14
14
21
17
13
17
17
14
10
10
10
5
5
7
11
11
8
22
18
15
36
32
25
53
46
33
58
49
29
60
58
29
61
58
33
67
57
33
61
50
23
55
41
25
67
40
25
32
20
15
17
7
8
26
18
11
28
26
13
40
27
10
38
23
17
44
39
30
40
40
22
53
42
19
72
55
29
70
61
26
94
84
39
102
84
36
70
53
22
17
20
13
83
68
33
128
91
50
107
65
37
69
37
15
50
34
24
33
19
14
38
25
19
255
255
255
255
255
255
24
18
13
65
38
23
140
85
42
185
115
56
232
173
97
200
165
85
99
86
40
48
46
29
31
23
13
22
19
8
13
19
10
16
17
15
30
20
19
23
18
11
17
17
10
14
13
11
8
8
8
16
19
10
13
17
5
10
11
7
11
11
11
10
10
10
11
11
7
16
17
14
27
25
25
37
24
26
32
24
23
17
16
8
10
10
8
24
21
13
33
33
23
42
36
27
44
36
28
42
34
24
41
33
21
43
35
25
45
36
29
46
38
30
45
43
34
34
37
33
27
27
29
21
21
25
13
13
21
10
10
16
10
10
12
10
10
10
14
13
11
17
16
13
15
15
15
12
12
12
4
4
4
5
5
5
9
10
8
11
12
8
12
13
5
12
16
8
17
20
14
21
25
17
26
28
25
27
27
28
28
29
27
26
28
24
23
21
17
26
19
14
56
42
31
85
65
41
103
75
49
156
122
75
130
101
62
106
81
44
145
111
52
155
114
55
120
90
49
91
67
37
105
85
41
61
52
27
49
51
24
77
69
32
109
84
46
149
113
58
172
134
65
161
132
70
124
109
68
67
65
38
20
18
5
84
47
25
148
101
51
180
137
59
178
148
60
163
131
62
156
108
59
146
92
52
119
76
28
99
99
124
96
186
255
55
60
140
75
74
83
111
108
119
227
235
242
158
163
152
37
32
21
245
240
213
152
169
147
53
58
49
69
66
63
16
25
33
176
134
108
67
58
79
122
164
186
41
69
46
194
144
100
182
182
90
203
192
102
205
153
73
255
255
162
170
162
52
34
30
17
32
30
15
26
44
24
61
10
36
217
123
22
255
167
39
189
91
18
196
120
52
177
67
37
150
80
52
82
59
30
93
83
67
118
107
93
87
63
34
41
17
53
71
24
15
111
68
45
131
112
132
65
73
92
63
55
53
39
31
34
49
47
39
71
66
53
125
109
83
142
128
102
40
23
20
67
95
114
91
91
108
53
62
50
46
39
42
88
70
73
82
70
69
26
54
140
209
255
255
197
161
89
183
82
29
255
58
192
61
25
75
10
5
14
4
5
19
70
14
32
225
40
154
179
27
154
18
43
83
181
170
167
18
33
25
177
167
146
135
150
161
86
107
103
77
61
70
63
61
66
118
128
113
56
60
59
91
89
65
141
130
120
137
135
143
163
114
88
86
66
44
235
212
186
169
133
102
95
119
140
80
80
86
32
33
43
38
26
25
54
57
75
75
83
98
71
36
164
68
117
255
47
97
174
57
43
26
47
31
15
25
13
2
3
7
11
10
5
4
28
18
14
111
68
14
255
173
71
255
184
101
255
172
83
255
197
101
255
189
101
192
115
62
81
48
17
85
65
26
139
108
50
142
105
43
130
97
44
124
95
49
87
69
35
48
43
23
34
27
12
39
24
15
37
24
20
34
21
16
26
23
14
13
14
8
13
4
11
13
5
8
13
7
7
17
9
9
18
7
10
19
6
10
18
5
10
16
5
8
21
10
13
25
13
19
24
15
18
16
14
13
9
9
9
10
10
10
11
11
11
9
9
9
10
10
10
14
14
14
23
20
21
97
127
139
255
255
255
255
255
255
17
33
25
126
97
81
215
191
159
249
245
223
220
236
230
226
245
255
62
84
105
188
174
182
255
255
255
46
100
125
220
154
100
255
255
255
255
255
255
62
103
98
252
186
141
255
255
255
160
189
202
164
155
155
173
191
191
73
53
56
58
45
45
74
74
48
147
123
96
160
162
136
127
106
67
41
59
70
53
68
75
80
68
76
80
111
121
255
255
255
255
255
255
79
47
33
15
12
9
8
7
2
6
7
2
6
7
2
11
6
6
13
8
10
11
12
10
8
12
4
5
10
2
5
7
4
1
1
1
6
6
6
8
8
6
10
10
10
14
14
14
18
15
13
20
17
12
20
20
14
26
27
21
33
35
26
38
38
29
40
40
30
37
36
27
31
31
22
27
29
18
21
24
13
15
17
6
11
11
3
7
7
4
5
5
5
9
9
3
17
17
10
30
29
17
39
36
23
42
38
24
45
42
29
45
42
26
41
36
24
35
32
26
29
29
25
26
26
20
20
20
12
14
14
11
8
8
8
7
3
5
10
9
7
20
18
12
33
28
19
38
33
24
44
40
28
47
43
32
44
41
32
42
37
26
41
32
22
29
19
19
20
8
6
18
10
11
19
7
11
17
8
10
9
15
12
19
17
10
25
17
12
17
14
14
13
9
10
5
3
8
3
3
3
3
3
4
7
7
7
4
5
4
5
5
5
9
3
3
11
11
3
14
13
13
16
14
11
24
22
11
36
32
21
55
48
35
64
54
32
59
52
24
53
50
30
52
44
31
61
46
26
63
48
20
69
54
28
50
34
21
29
22
5
54
45
26
33
34
26
28
20
15
37
14
13
21
7
11
17
18
13
43
33
12
51
42
11
75
54
26
67
46
24
48
31
13
16
10
2
38
28
14
79
53
20
109
75
35
127
81
52
90
54
32
54
33
12
41
32
21
29
25
17
43
28
23
255
255
255
255
255
255
53
34
24
11
9
2
94
49
27
195
107
55
248
166
89
181
153
75
92
90
45
58
53
34
34
22
15
21
16
9
13
23
9
15
18
10
36
24
22
32
22
18
22
17
16
21
19
17
20
23
14
20
24
11
17
20
11
16
16
16
17
17
17
13
13
16
11
11
15
9
11
13
13
16
14
25
21
21
37
28
28
35
28
25
29
21
16
31
23
17
24
20
13
30
23
20
39
30
25
43
35
29
41
33
31
34
28
28
34
32
32
41
41
41
48
49
47
42
43
38
28
28
28
21
21
16
17
17
10
17
17
9
18
18
10
17
17
9
17
15
10
20
12
13
21
15
18
18
15
17
12
12
12
5
6
5
5
5
7
3
4
4
4
5
2
10
13
7
15
19
12
21
25
15
27
31
18
27
31
22
26
29
23
28
29
25
36
32
25
43
32
21
51
38
25
82
58
25
93
66
26
140
108
56
169
135
72
145
113
52
177
139
69
133
102
53
93
69
35
88
63
26
150
118
54
132
110
49
26
20
15
20
26
11
40
39
27
54
49
34
45
47
31
10
13
8
56
40
27
119
81
49
176
120
71
221
161
82
227
170
74
194
146
57
157
112
52
140
87
44
165
101
51
179
126
90
136
123
123
87
124
185
76
185
255
90
118
164
184
190
193
195
203
217
255
255
255
70
84
82
130
111
103
228
221
202
81
98
89
57
52
33
44
51
58
117
95
83
52
35
33
189
174
140
168
155
104
143
109
54
154
163
81
196
100
60
125
106
73
255
255
119
255
255
107
32
49
32
58
21
43
115
65
53
216
151
21
255
215
13
255
255
54
255
255
63
255
207
77
201
149
59
151
115
78
74
75
74
45
49
42
57
61
36
81
77
55
98
72
45
96
72
67
65
66
60
26
18
12
162
149
164
86
79
97
67
41
49
41
14
8
31
7
13
37
25
18
165
142
103
118
113
103
39
42
63
61
76
81
47
44
58
54
59
59
67
64
71
37
43
38
49
50
50
66
116
204
255
255
255
175
131
30
204
103
3
252
35
210
66
12
71
15
5
12
11
4
12
96
17
49
240
41
171
151
27
128
59
47
57
176
161
156
67
50
41
131
111
96
144
156
162
127
114
102
88
61
58
120
98
87
109
103
82
160
160
139
101
104
108
85
68
32
72
67
55
137
101
70
75
64
53
225
178
139
154
125
107
101
121
122
66
65
49
38
57
78
60
62
55
97
112
120
29
57
73
107
59
50
65
84
243
32
109
254
46
8
43
10
5
8
5
4
5
7
4
7
8
6
12
15
10
11
42
23
4
128
89
26
211
144
71
253
166
91
244
155
79
234
157
68
235
154
84
117
73
33
56
25
5
84
53
22
123
89
44
136
98
52
162
116
64
164
117
68
118
92
53
65
56
25
45
31
16
42
25
21
37
22
20
34
26
17
33
26
20
26
21
17
17
16
14
14
11
12
18
12
11
22
11
13
24
14
17
18
15
16
15
16
13
17
20
14
17
22
14
17
24
11
16
22
11
17
21
13
21
22
16
22
20
15
21
17
13
21
17
13
22
18
14
23
21
18
64
101
116
255
255
255
255
255
255
131
143
149
39
46
41
55
44
43
135
117
111
178
163
155
250
246
254
65
70
96
224
216
218
255
255
255
26
48
80
255
251
208
255
255
255
255
255
255
120
108
104
250
227
192
212
225
203
63
62
68
79
65
66
81
94
82
171
156
148
100
79
70
17
37
43
123
110
101
212
204
187
244
223
199
79
57
56
23
27
23
112
124
130
91
78
85
255
255
255
255
255
255
101
67
50
12
11
8
10
9
6
12
11
8
10
10
8
11
9
10
11
9
10
9
13
6
4
8
1
4
5
2
4
4
4
4
4
4
11
11
11
5
8
10
7
8
13
15
14
14
17
12
9
18
15
7
20
23
11
30
30
15
39
34
18
42
34
20
37
31
17
27
25
15
20
20
12
16
16
8
12
12
7
7
6
7
1
1
7
4
8
0
11
17
11
24
27
17
37
38
23
49
46
31
49
45
30
48
44
29
52
47
33
46
39
32
32
26
22
19
18
12
12
11
3
7
4
7
9
7
7
8
8
10
15
15
15
28
24
26
40
29
22
45
34
18
47
38
25
46
42
27
49
46
30
47
43
29
43
39
29
38
32
25
32
21
17
22
11
14
11
5
4
7
7
7
16
5
2
19
8
3
12
16
11
17
19
14
20
17
11
19
16
14
20
11
15
11
6
11
5
3
8
5
6
4
6
2
2
11
8
8
16
8
11
20
11
13
26
22
18
30
25
22
33
28
20
44
38
25
57
47
35
69
56
41
67
55
33
50
44
28
33
30
21
40
35
22
68
50
29
87
61
35
85
62
33
26
16
3
25
20
17
10
9
5
43
34
21
55
35
29
14
5
3
25
17
9
44
26
15
55
41
25
54
53
27
59
53
27
43
28
24
29
27
11
69
60
23
97
75
29
110
75
34
127
84
48
134
86
50
99
60
30
62
33
7
29
17
8
7
15
13
26
23
15
255
255
255
255
255
255
123
74
43
175
109
64
199
122
64
254
154
81
255
198
101
168
153
73
103
100
58
74
65
45
40
36
24
21
27
13
15
24
11
18
17
7
38
25
21
35
26
27
12
13
9
10
14
3
14
18
6
16
19
10
18
19
15
16
16
16
7
7
7
2
2
4
4
4
5
1
1
1
1
1
1
10
7
7
24
18
18
32
25
25
31
23
23
26
19
19
14
12
13
10
9
13
13
12
16
17
16
19
21
21
21
27
27
27
46
46
46
50
50
48
51
47
39
55
46
35
44
38
32
31
28
22
26
24
14
34
25
18
38
29
24
34
31
24
27
26
20
23
21
18
25
19
22
26
18
22
16
13
15
11
11
11
19
19
20
20
21
20
13
13
13
3
3
3
7
7
7
14
13
12
23
20
17
29
25
21
29
24
20
28
21
17
33
22
18
34
25
16
32
26
15
70
46
15
124
93
46
88
68
36
150
113
64
163
126
74
116
95
53
53
44
22
71
52
27
102
65
34
168
113
56
191
144
61
104
87
32
56
39
24
38
16
20
35
19
17
76
46
29
137
93
48
201
142
76
255
196
106
255
218
108
255
198
89
212
150
66
164
105
47
142
85
33
146
89
24
175
111
35
165
126
89
142
137
124
119
171
233
87
185
255
59
120
179
82
107
117
109
124
122
195
200
194
36
55
56
215
203
193
171
183
176
22
28
27
28
8
11
52
32
10
94
50
28
126
133
122
106
143
135
117
74
16
155
148
56
228
132
79
187
154
89
255
214
94
255
255
155
76
67
36
255
180
27
255
222
56
255
165
61
255
188
94
255
160
24
216
153
72
93
82
46
119
118
93
139
127
90
119
104
73
75
68
60
87
74
65
107
85
68
102
81
59
32
29
14
100
76
68
189
148
129
207
173
155
162
151
142
47
25
34
39
14
39
78
43
38
79
49
47
55
40
38
180
145
109
146
149
150
20
29
51
28
29
38
42
43
31
52
53
50
31
34
42
67
84
89
107
113
116
89
116
172
255
255
255
112
101
112
239
175
137
223
92
255
55
54
138
6
8
14
8
4
9
110
31
47
255
68
148
184
83
121
86
82
82
189
181
172
67
48
26
57
53
55
208
185
164
127
103
77
65
57
62
100
95
86
19
55
56
31
38
32
45
50
72
62
84
102
71
79
109
83
58
61
55
28
13
222
165
122
145
114
84
87
101
99
38
50
61
83
112
121
45
37
41
138
160
163
32
31
55
91
74
55
31
97
216
58
107
255
62
7
71
8
4
8
11
4
3
7
2
6
14
12
7
24
20
5
30
24
14
26
9
17
72
46
13
95
60
21
59
34
7
170
92
43
174
111
52
171
119
57
180
121
62
153
100
51
142
95
51
117
86
49
108
85
41
155
119
61
176
131
77
120
92
52
72
53
29
55
35
17
49
31
18
50
36
23
57
43
19
56
39
15
43
26
13
27
15
13
21
15
12
23
19
15
27
24
20
28
24
20
26
22
18
23
20
15
21
17
11
20
17
7
21
17
5
23
19
8
24
19
9
20
16
4
18
14
2
19
15
3
20
16
4
26
20
12
55
84
101
255
255
255
255
255
255
183
180
196
153
144
133
89
92
73
75
71
53
81
86
111
220
239
239
36
63
85
238
247
248
255
255
255
201
186
178
255
255
227
210
219
223
87
97
96
127
115
90
141
116
100
78
83
76
47
35
27
61
69
79
153
151
151
204
207
194
234
250
245
178
193
185
54
74
86
90
65
52
172
142
92
143
111
96
71
83
75
94
101
99
65
60
54
255
255
255
255
255
255
133
97
78
16
15
12
20
12
13
16
8
10
6
5
6
6
5
7
8
8
3
8
12
5
3
4
2
4
4
4
3
3
3
7
7
7
10
10
10
6
1
5
14
8
7
20
16
7
18
11
4
22
21
5
32
32
15
44
36
19
48
36
23
40
27
20
31
17
12
24
10
8
10
4
5
0
1
7
4
4
2
10
10
2
13
12
5
18
17
11
28
25
16
39
34
24
45
41
29
46
41
27
36
34
23
27
27
25
21
21
25
13
13
21
7
7
9
3
6
5
10
16
10
22
23
10
30
26
10
32
29
14
43
39
29
54
45
36
59
46
33
61
46
34
59
47
34
55
48
28
51
45
28
44
36
25
39
31
20
34
26
16
28
22
15
17
17
11
10
14
6
10
11
8
16
8
7
16
9
4
13
15
5
16
17
12
14
16
10
14
17
10
16
12
9
16
10
8
15
10
7
15
13
5
17
13
5
20
18
11
22
19
12
30
26
15
35
33
21
34
30
20
39
35
21
53
43
25
58
46
27
57
48
28
54
48
28
49
43
26
54
41
21
86
67
32
127
101
57
116
90
51
75
55
21
42
33
4
72
51
19
98
69
33
91
61
33
46
26
14
29
20
17
33
17
12
34
28
15
21
21
16
32
27
20
70
57
27
84
60
33
96
63
36
92
61
31
85
57
26
103
69
45
120
82
48
116
82
39
87
57
29
65
42
19
52
32
16
40
20
11
38
21
17
255
255
255
255
255
255
111
56
31
215
134
68
255
194
103
255
221
124
255
216
113
150
140
76
91
87
59
69
62
42
57
49
32
57
49
35
49
40
32
43
31
31
45
32
35
29
25
26
11
14
5
7
12
1
7
8
5
8
8
8
8
8
8
8
8
8
15
15
15
19
19
19
19
19
19
15
15
15
10
10
10
5
5
5
4
4
4
11
11
11
15
15
15
15
15
15
12
13
10
9
11
5
12
14
5
17
18
8
26
24
17
46
40
36
63
57
53
51
43
39
53
44
38
55
46
33
57
48
37
51
41
39
44
35
30
47
39
32
56
48
40
59
52
44
48
44
34
31
31
22
28
28
25
36
28
32
31
27
29
34
35
34
33
35
31
27
30
25
21
21
21
12
12
12
8
8
8
7
4
8
7
3
12
8
1
6
15
7
5
19
12
8
20
15
10
15
14
11
18
12
8
50
30
3
130
98
48
122
91
52
78
46
18
99
68
35
59
43
27
65
43
20
99
63
28
80
51
26
123
75
42
182
121
63
173
124
54
138
102
53
130
89
54
146
102
57
153
113
51
133
108
45
123
99
44
134
96
46
132
89
31
128
83
30
126
80
40
123
84
43
104
72
30
79
53
22
101
54
25
77
51
63
96
44
117
100
102
243
72
119
255
20
41
84
47
42
41
79
66
56
170
176
177
49
47
55
197
194
176
149
163
167
65
70
71
48
48
52
85
84
87
106
98
138
108
82
128
227
163
55
49
58
15
164
119
66
129
118
47
203
131
82
255
255
162
123
98
67
255
192
13
255
241
26
255
224
90
255
201
86
223
169
97
178
121
63
97
90
72
39
59
49
63
58
41
98
76
49
86
66
38
74
65
44
50
51
33
32
33
54
119
125
137
194
191
178
224
207
180
159
151
116
71
60
29
36
48
77
43
28
38
65
43
17
97
104
107
108
116
116
86
84
96
178
135
109
140
165
191
64
63
77
32
9
7
23
36
39
14
19
27
19
23
25
21
31
31
77
90
96
144
155
163
244
248
252
22
47
90
248
199
156
144
112
255
29
117
248
21
8
5
14
10
12
135
50
43
255
98
119
166
50
118
138
147
164
216
225
224
114
121
117
97
98
90
188
164
129
62
69
80
13
30
42
163
145
141
187
162
147
69
55
45
90
89
84
78
83
66
72
39
28
103
80
64
64
24
8
241
189
154
123
96
56
87
88
89
5
11
32
85
96
102
57
50
50
136
147
152
144
141
145
88
90
101
34
129
240
57
111
255
64
19
93
5
1
15
5
5
11
9
8
8
17
13
4
24
17
3
21
7
18
13
16
5
20
14
29
7
12
11
74
41
21
165
84
40
74
50
18
142
86
42
218
137
68
218
139
61
182
119
47
135
94
48
31
24
2
57
50
16
167
129
70
172
131
68
123
95
52
85
62
31
71
48
26
82
56
34
101
75
46
104
81
51
84
61
36
49
34
22
35
27
19
31
26
17
28
24
13
25
21
9
24
19
9
24
18
12
25
17
12
23
15
11
22
14
10
24
16
13
22
16
12
18
16
9
16
16
8
17
17
9
20
20
12
27
25
16
56
69
81
255
255
255
255
255
255
186
162
135
162
149
137
139
138
131
149
153
139
142
139
123
102
121
126
62
89
103
148
154
159
157
146
119
87
73
60
158
161
143
114
124
119
18
27
43
90
93
102
192
193
196
255
255
255
255
255
255
235
255
255
156
191
194
16
18
10
182
200
207
241
254
247
175
182
172
67
62
43
94
85
34
156
157
149
80
96
104
78
80
79
41
42
47
255
255
255
255
255
255
165
126
105
17
16
13
10
8
8
2
4
4
2
6
5
4
7
7
8
9
6
8
9
7
3
3
3
4
4
4
6
6
6
10
10
10
10
10
10
14
7
8
22
11
8
22
21
7
25
24
8
41
38
19
61
51
39
62
52
43
48
42
30
27
26
13
24
18
10
22
11
14
17
8
9
7
7
2
10
10
3
15
18
14
15
18
22
21
21
18
32
27
15
35
28
18
30
25
15
21
20
10
7
9
3
3
0
11
15
11
7
29
26
22
38
35
24
43
41
23
51
48
25
61
49
26
61
45
26
60
46
29
64
52
36
60
50
30
52
48
28
53
48
30
54
47
27
46
42
26
36
32
22
29
23
13
28
18
10
28
15
15
25
15
21
18
16
17
14
18
10
17
15
8
18
9
9
12
9
8
12
15
10
18
17
15
18
15
14
13
14
12
7
8
4
14
12
3
18
16
9
19
21
10
21
25
13
29
28
17
39
30
18
46
34
20
47
37
23
47
38
26
57
47
29
71
57
33
69
59
34
77
66
39
104
85
49
135
104
56
167
122
63
186
132
70
173
122
67
129
85
38
102
68
28
96
69
34
99
72
39
92
64
33
62
41
14
41
31
10
46
27
15
20
8
7
39
29
18
69
47
24
106
87
46
132
97
45
141
88
40
133
76
42
94
53
26
79
45
24
91
53
41
80
55
20
69
53
18
51
26
18
24
10
4
35
18
12
47
25
16
49
26
14
255
255
255
255
255
255
155
96
41
221
164
79
239
179
102
235
184
103
202
173
96
123
117
74
75
75
51
63
53
35
63
49
36
70
58
44
79
67
53
77
66
54
65
57
47
47
45
36
32
33
25
18
19
17
10
10
10
4
7
7
7
3
3
14
12
12
19
17
17
25
18
18
27
19
19
24
17
17
24
17
17
26
18
18
20
14
14
8
5
5
5
5
5
3
3
3
4
4
4
5
6
3
15
14
8
28
24
20
46
34
32
66
51
49
68
55
51
48
36
30
52
43
41
44
41
33
50
49
36
67
60
53
74
65
56
68
66
49
62
60
45
60
49
45
61
46
46
50
37
32
52
40
34
68
57
47
73
65
54
60
52
48
36
32
29
29
31
24
22
24
21
13
12
11
8
6
7
3
7
8
12
11
13
16
10
20
13
7
15
9
7
6
5
6
5
10
1
4
22
10
4
50
31
8
119
86
35
162
114
58
99
70
34
67
33
5
67
36
19
99
54
21
89
53
32
49
31
18
77
46
31
139
85
40
194
134
60
197
144
65
187
131
52
177
118
44
163
112
44
87
69
30
55
28
16
187
122
65
192
121
64
91
58
33
40
35
16
15
20
3
31
21
11
39
23
5
98
48
12
86
53
31
28
61
74
69
125
255
86
126
255
84
73
60
59
86
95
102
94
85
175
192
202
110
97
76
170
177
162
53
62
68
50
58
68
26
29
42
81
29
32
250
137
27
255
221
59
255
228
79
234
169
82
152
108
85
199
162
141
181
154
106
255
186
82
239
161
21
255
180
22
203
162
64
119
121
84
170
175
160
171
166
153
109
107
82
48
61
36
56
59
51
63
44
32
53
35
27
11
10
23
95
89
101
166
157
170
186
185
193
166
160
144
92
83
57
65
67
82
149
160
158
99
110
101
47
73
117
144
132
128
103
109
104
37
72
85
7
20
15
107
77
57
191
143
106
60
102
134
68
75
93
90
74
75
10
7
15
42
55
66
30
38
52
30
10
9
28
22
23
134
139
143
193
189
185
108
108
108
222
169
95
89
107
255
53
125
255
64
16
101
105
10
141
164
49
142
255
126
110
92
3
142
247
255
255
190
213
196
100
117
114
72
88
85
45
29
45
148
151
149
255
255
255
255
255
255
255
255
255
160
160
146
38
38
31
27
35
20
35
20
34
103
82
69
58
61
68
255
232
201
140
122
85
81
95
103
29
37
53
92
90
107
69
63
68
145
147
147
160
166
174
122
121
134
90
162
255
38
147
255
59
24
96
6
2
9
3
4
8
11
2
10
17
9
11
22
15
7
28
18
13
24
17
12
18
8
22
16
16
6
75
36
17
143
70
37
63
32
10
94
47
32
93
51
17
149
86
39
207
127
53
204
133
65
82
48
13
55
34
23
138
106
48
252
191
97
255
200
104
250
180
96
253
177
101
242
169
101
210
152
94
176
136
85
132
106
63
63
49
25
38
35
19
31
31
11
31
25
14
31
21
15
31
22
11
29
25
10
21
25
11
21
24
15
25
23
18
22
20
19
20
22
18
25
28
19
30
34
22
38
38
25
51
44
28
66
56
32
88
89
80
255
255
255
255
255
255
55
67
74
90
96
98
115
114
102
67
49
38
26
14
18
24
43
47
36
34
35
61
64
43
43
45
46
98
104
116
205
196
189
254
252
235
255
255
255
255
255
255
191
206
178
25
34
45
168
155
146
209
208
205
202
220
228
103
112
110
97
97
102
201
179
156
233
220
200
170
171
164
140
135
106
187
211
207
106
101
116
86
97
105
81
87
87
255
255
255
255
255
255
207
163
141
8
12
8
19
14
14
9
8
7
7
6
3
4
6
2
8
13
5
8
11
7
6
7
5
5
5
5
9
9
9
12
12
12
11
8
10
13
5
5
16
12
5
17
26
9
38
41
21
73
62
46
81
64
55
58
46
35
36
32
22
27
27
10
29
28
8
23
18
16
24
13
9
14
7
0
9
9
9
11
16
17
12
13
12
17
15
8
20
21
12
18
16
12
14
10
5
16
13
8
25
20
12
35
30
20
41
37
30
50
47
35
63
56
33
78
63
38
94
67
46
101
71
57
98
74
59
90
72
47
76
64
36
61
51
32
60
49
31
58
51
23
44
40
14
29
24
18
22
15
8
21
15
5
23
16
12
25
17
17
23
17
12
20
14
12
15
17
11
21
14
10
22
11
8
19
11
11
20
15
14
26
21
16
27
20
11
24
17
10
28
20
12
27
26
13
27
28
17
29
29
20
33
31
20
44
34
25
50
38
30
57
48
36
67
59
39
82
66
43
103
75
52
112
85
56
105
86
51
119
97
56
146
114
67
155
119
62
160
117
53
146
106
46
114
77
28
94
58
17
97
64
25
95
66
29
74
53
25
46
37
23
42
36
20
61
44
19
44
23
12
18
17
12
66
45
22
112
83
44
142
104
53
144
96
45
120
78
36
84
56
28
66
41
16
73
45
20
65
39
23
39
33
12
47
39
21
51
27
22
31
17
12
9
7
7
19
9
4
23
10
4
255
255
255
255
255
255
247
183
92
255
216
123
203
173
103
138
120
67
116
110
68
80
80
60
70
63
50
62
50
39
54
46
33
48
46
30
55
51
34
66
60
38
68
60
38
62
56
38
53
49
37
38
36
29
21
21
19
10
9
9
7
7
7
8
12
12
16
12
12
14
11
11
6
6
6
9
9
9
4
4
4
4
4
4
13
9
9
16
12
12
9
9
9
4
4
4
1
1
1
2
2
2
17
13
13
32
26
24
46
34
31
51
41
40
42
37
33
31
24
20
54
41
40
31
28
24
12
13
8
42
41
29
64
59
51
63
55
51
47
41
36
46
40
30
55
49
43
54
44
37
64
58
45
82
72
58
79
61
51
52
41
31
33
27
22
35
30
29
35
37
30
23
23
18
11
8
10
10
10
10
16
12
9
25
18
11
32
25
20
33
29
19
29
32
19
33
36
23
48
36
24
76
55
20
118
89
41
163
117
61
125
91
48
89
69
34
122
84
38
112
72
34
63
47
23
48
35
15
70
45
17
118
76
27
162
105
37
183
127
50
185
133
58
175
124
61
144
104
58
148
87
41
152
115
53
151
109
53
255
169
73
175
112
56
74
45
14
79
45
18
86
58
23
84
56
29
115
69
32
141
72
35
115
66
52
140
121
255
153
137
255
145
144
119
100
110
112
141
137
131
154
173
189
121
109
94
108
114
101
18
31
29
38
41
37
84
53
18
255
180
76
255
234
104
99
98
86
190
142
82
252
193
133
252
222
192
144
153
154
60
44
75
197
137
56
185
130
61
167
126
84
87
87
75
27
35
41
38
43
31
31
37
22
47
39
22
54
37
26
34
23
30
79
89
93
165
155
165
194
184
183
178
180
168
118
131
112
31
27
24
92
116
122
71
117
118
78
113
97
12
57
44
56
71
80
128
163
200
113
93
86
7
21
41
31
28
32
21
48
55
138
124
104
178
142
114
20
57
90
14
22
32
74
60
54
58
62
83
32
25
28
42
50
66
45
64
77
17
24
31
158
162
170
214
206
197
128
127
124
255
223
165
167
148
255
86
66
168
42
27
112
38
70
161
92
118
238
255
206
237
87
105
165
255
255
255
135
160
148
96
85
88
27
24
36
111
117
147
6
40
53
255
255
255
111
146
167
255
255
255
202
199
194
45
45
49
25
38
29
39
21
37
141
120
101
74
110
127
255
255
250
197
202
167
90
111
102
59
65
75
113
114
121
80
93
92
43
48
30
41
80
111
47
66
78
76
168
255
37
185
255
52
27
89
5
4
9
10
5
2
7
6
7
10
2
2
20
8
7
26
10
4
18
2
4
14
5
12
16
9
4
60
31
12
127
65
38
120
60
32
90
54
28
64
41
16
72
40
15
178
107
49
226
144
72
187
124
70
125
83
40
139
93
42
199
140
70
255
204
106
255
239
119
255
255
132
255
255
119
255
193
84
223
158
72
184
138
76
82
60
24
48
36
13
42
35
15
39
32
25
37
32
25
34
32
24
31
26
13
29
21
14
30
20
13
28
20
12
26
22
15
26
27
13
31
26
11
38
31
16
50
42
24
60
51
27
64
55
25
82
87
81
255
255
255
255
255
255
24
28
24
101
86
73
127
130
110
110
109
98
50
62
53
137
130
137
255
255
255
255
255
255
255
255
255
255
255
248
128
158
149
55
34
32
157
136
141
218
204
207
255
255
255
255
255
255
195
195
200
73
56
41
142
118
99
186
187
170
155
162
152
35
32
42
194
181
183
255
248
245
197
189
180
81
100
95
149
163
187
30
43
38
145
151
151
255
255
255
255
255
255
244
198
174
6
11
7
22
13
12
5
5
5
10
8
9
10
9
10
10
11
8
7
8
5
8
10
6
7
7
7
9
9
9
10
10
8
10
5
10
11
5
11
15
15
11
22
28
14
50
47
25
77
60
43
57
43
31
35
28
5
37
30
23
36
35
21
38
37
16
32
30
18
28
20
11
17
8
7
5
7
11
11
11
7
15
15
12
20
21
18
29
24
18
36
29
16
38
34
18
44
41
23
54
48
26
60
51
27
64
55
33
72
61
39
81
62
44
86
64
45
94
69
42
101
77
48
103
84
53
100
83
52
94
75
43
96
74
47
96
75
48
75
63
42
47
41
23
24
16
14
30
20
8
41
28
17
40
32
24
33
32
13
32
32
7
36
29
12
29
28
15
29
23
12
38
28
3
43
34
14
44
38
23
51
44
24
61
49
32
72
56
42
73
57
41
67
51
35
67
52
33
72
58
36
74
57
39
72
52
38
69
60
38
76
75
41
95
87
42
135
109
58
172
134
78
169
131
76
137
101
59
120
89
48
120
91
51
94
69
29
83
51
13
61
43
16
63
49
24
82
61
37
80
55
31
70
39
18
48
21
3
66
47
28
47
39
13
52
36
14
44
22
19
48
38
20
105
73
38
123
90
44
123
86
44
100
63
35
66
42
21
49
35
16
57
40
22
55
37
19
26
18
8
15
17
4
36
27
13
47
26
24
44
25
20
22
12
5
10
4
7
8
5
7
255
255
255
255
255
255
255
222
125
224
186
105
133
118
60
78
76
41
69
73
46
48
45
29
55
38
22
47
39
23
35
36
18
29
31
14
28
28
19
33
29
17
40
34
22
43
36
24
47
38
31
42
35
28
29
27
20
18
15
13
8
8
8
12
14
14
15
13
11
14
5
14
16
5
14
18
13
12
25
18
18
32
24
24
27
21
21
12
9
9
5
5
5
7
7
7
3
3
3
1
1
1
17
15
16
33
25
21
47
33
26
50
43
42
40
40
40
4
8
12
59
45
42
43
37
32
13
15
16
35
29
32
24
18
19
6
8
6
23
22
16
38
36
17
47
49
29
52
51
29
65
65
51
49
46
43
58
51
45
56
49
37
24
14
5
42
30
29
55
49
45
40
35
31
44
34
33
50
38
38
48
38
35
47
41
32
53
47
36
66
53
43
71
58
40
68
58
32
89
74
42
128
96
51
171
116
68
235
162
85
255
191
93
163
113
58
46
20
8
94
65
29
70
50
10
51
41
13
51
31
19
75
45
32
102
55
34
127
76
36
116
77
34
75
57
26
75
34
17
227
147
78
173
140
65
54
37
19
211
146
70
192
124
56
211
144
65
206
142
63
176
109
54
139
81
37
143
87
31
179
106
43
147
95
77
112
104
255
111
85
222
51
52
47
73
46
17
152
149
146
89
101
107
106
97
91
65
66
56
30
48
45
46
37
27
128
81
38
216
134
9
142
97
21
213
129
14
156
72
53
29
31
93
112
45
30
179
122
66
130
115
102
75
50
35
114
88
68
92
77
56
32
26
30
27
15
24
45
34
30
37
12
15
14
33
53
86
106
115
158
169
167
176
188
182
133
136
132
71
62
54
49
69
64
91
117
118
84
112
118
18
46
62
80
59
34
121
98
91
171
166
156
123
154
151
98
141
168
40
9
7
70
82
92
91
95
89
77
86
77
110
78
47
187
135
109
48
64
92
47
36
40
28
18
1
32
38
39
52
62
72
30
44
42
7
10
17
93
103
100
223
224
220
183
168
150
94
89
61
240
207
140
242
122
158
159
49
146
46
50
84
76
47
173
116
34
183
221
121
41
107
109
86
241
239
225
140
168
159
139
119
109
74
90
97
104
105
120
92
78
85
255
255
255
48
61
72
255
255
255
248
255
255
92
105
123
88
106
110
102
91
96
180
162
143
47
66
93
255
255
250
194
213
183
104
133
137
80
87
114
165
167
167
78
75
61
65
78
101
98
123
157
82
82
92
73
146
255
44
190
255
57
43
102
34
19
7
3
13
8
5
7
2
0
5
5
5
4
4
8
6
3
4
3
3
8
5
5
4
1
7
17
8
7
56
31
15
94
51
22
90
50
21
58
29
4
42
20
7
117
67
22
160
90
35
169
110
57
146
91
48
114
67
32
86
48
21
112
75
38
81
60
27
58
56
25
102
89
37
170
128
65
245
170
79
246
175
95
124
87
55
78
52
32
64
48
31
51
45
26
42
43
14
29
37
21
22
25
17
29
16
16
31
17
10
25
19
11
28
24
15
33
24
10
35
22
10
39
31
22
46
39
25
46
37
20
35
27
14
60
70
77
255
255
255
255
255
255
19
38
39
105
83
64
190
176
156
255
249
231
254
251
240
213
231
230
99
116
108
48
31
58
162
149
173
240
235
246
255
255
255
249
233
207
239
232
206
217
207
184
151
156
134
133
138
123
143
158
170
187
152
124
91
87
101
213
205
199
241
235
223
150
151
146
47
53
61
129
86
80
173
126
115
90
71
51
108
132
138
114
111
111
67
91
92
255
255
255
255
255
255
255
227
200
9
11
11
21
10
11
17
14
10
18
16
9
14
16
8
9
13
5
2
5
1
9
10
8
10
10
10
7
7
5
6
6
6
8
4
12
13
7
12
14
20
13
23
27
14
52
43
27
77
61
40
72
58
41
46
46
26
52
48
36
51
44
31
42
36
22
38
31
21
27
19
13
12
12
7
23
10
9
28
14
15
31
18
16
37
27
19
47
38
26
54
46
30
57
48
31
60
49
28
66
51
27
70
55
34
78
65
45
90
74
52
95
75
57
87
71
50
77
65
36
69
61
28
64
57
25
71
56
37
86
61
46
101
75
47
91
76
38
76
62
43
63
54
32
34
27
19
42
39
20
41
36
24
31
27
11
19
16
4
19
16
13
31
23
21
36
33
25
49
47
28
62
56
32
73
63
32
90
72
40
111
81
49
135
98
61
154
119
74
159
124
75
151
113
63
143
108
57
147
115
64
148
118
69
143
115
66
148
117
65
153
117
63
160
121
65
185
146
77
191
156
74
169
134
62
142
100
60
111
73
44
112
82
46
95
62
33
82
54
30
72
55
34
63
47
26
66
46
21
59
28
13
39
17
14
71
42
24
98
65
31
37
25
12
19
15
8
53
36
17
120
89
49
151
97
48
120
78
32
73
49
13
47
25
5
51
28
15
61
33
12
56
31
14
26
13
11
19
15
7
22
22
10
34
27
11
45
28
24
50
33
23
34
21
15
17
8
12
11
5
12
255
255
255
255
255
255
144
126
64
95
80
35
65
60
33
54
53
35
53
49
31
37
28
22
13
13
4
19
19
13
17
18
13
14
15
10
18
15
14
22
12
13
16
9
11
13
6
2
31
20
17
37
27
24
32
26
21
25
25
19
18
20
15
14
15
11
4
5
2
3
4
4
5
7
5
17
18
14
18
18
18
9
9
9
10
10
10
8
8
8
2
2
2
8
8
8
9
9
9
7
7
7
17
17
17
28
20
16
40
26
18
44
35
31
45
41
39
14
17
16
48
35
28
59
46
36
32
25
21
17
17
17
51
44
46
41
33
36
12
11
7
22
18
15
34
34
23
52
50
38
44
37
28
45
44
41
66
60
58
41
39
24
44
38
31
50
37
29
61
54
48
31
27
18
40
36
31
43
39
35
41
37
33
45
38
32
59
44
38
74
53
45
75
56
43
74
55
42
102
77
59
148
118
74
187
153
86
242
186
108
255
248
134
255
255
146
255
184
94
80
63
19
66
41
21
58
45
15
23
15
12
66
42
18
22
16
7
27
14
9
72
47
23
106
65
32
172
100
57
205
150
74
102
85
39
56
44
28
103
73
34
178
115
63
210
142
74
205
142
70
209
141
72
191
127
63
189
125
56
237
151
68
255
176
124
147
156
255
44
57
191
39
37
28
98
74
55
140
139
140
31
46
56
63
46
41
48
48
42
60
72
72
92
86
83
116
88
71
113
41
64
154
88
34
223
135
5
198
127
67
247
173
113
255
199
137
180
140
105
95
70
50
55
38
34
45
38
21
35
29
17
26
15
12
4
21
40
61
76
108
111
124
142
139
148
149
121
132
122
67
75
58
40
43
46
118
135
126
111
132
123
54
86
83
75
59
38
105
71
63
184
159
131
131
128
94
34
46
36
8
22
12
31
19
32
67
83
103
96
107
116
73
59
61
19
24
42
85
75
87
92
95
88
231
195
170
70
99
121
15
12
32
16
17
14
22
24
27
11
16
19
65
70
82
82
88
94
171
183
162
198
215
211
22
14
43
134
144
138
77
69
66
218
127
128
186
49
255
151
26
170
13
64
102
137
123
251
188
101
224
50
24
76
190
183
168
153
181
175
159
133
121
118
141
141
57
72
79
145
135
128
255
255
255
14
25
32
255
255
255
250
255
255
45
40
49
53
73
69
82
18
17
142
113
94
81
25
40
255
255
212
146
141
110
105
111
98
108
120
138
252
255
255
2
13
4
141
146
157
46
60
72
49
51
51
56
93
186
45
145
255
54
134
255
72
76
188
49
31
86
13
8
17
6
6
8
5
2
9
5
7
8
2
3
6
6
4
5
6
4
6
5
4
11
7
2
9
21
10
5
22
7
2
19
2
6
27
13
5
79
45
13
109
52
12
112
60
14
147
88
46
139
78
44
70
40
18
80
50
24
134
84
50
190
130
75
177
118
67
64
39
19
158
118
54
239
173
86
150
111
67
110
83
58
91
67
47
85
62
36
80
58
25
61
45
21
34
31
18
24
16
13
18
14
7
16
12
10
18
14
10
23
11
5
26
15
7
29
27
20
32
25
14
36
25
7
45
29
14
70
66
61
255
255
255
255
255
255
129
136
118
55
72
59
64
53
49
159
143
148
186
180
189
224
237
243
255
255
255
255
255
255
248
247
233
188
188
167
128
125
110
21
27
19
56
74
80
89
106
103
54
57
49
183
197
199
222
255
255
255
255
255
91
98
100
29
29
45
158
159
156
206
215
213
176
203
203
53
71
65
99
69
38
123
89
75
45
56
55
76
102
93
52
50
55
218
255
255
255
255
255
255
255
232
14
21
18
17
18
14
25
15
14
22
12
10
11
11
7
7
8
7
7
7
7
9
9
9
12
12
12
5
8
1
7
9
1
10
9
6
12
8
13
15
22
12
22
24
10
36
31
22
67
51
30
97
82
51
58
54
37
35
37
19
70
61
35
53
40
27
29
26
17
16
11
8
22
12
13
29
21
18
33
29
22
41
33
21
45
38
21
50
43
29
56
43
32
60
45
28
67
52
25
82
62
31
97
79
47
108
90
54
115
89
50
124
92
49
131
100
49
128
99
52
115
89
47
99
74
40
85
60
33
79
56
30
79
59
29
75
50
19
84
63
34
76
58
27
42
29
15
41
32
11
25
17
8
26
22
12
10
6
3
8
8
13
10
8
13
16
17
12
45
38
34
76
58
43
125
96
57
163
125
73
173
135
81
177
140
82
192
154
88
207
165
95
213
168
96
201
159
85
186
149
76
177
147
69
186
156
74
207
166
85
205
157
86
187
143
86
171
133
68
147
109
46
114
84
31
118
90
35
122
91
35
140
100
42
106
67
25
70
44
19
49
33
15
37
25
7
42
29
21
21
5
8
39
29
21
64
38
15
89
55
34
65
38
23
43
29
6
95
67
34
141
93
42
127
76
26
76
45
15
45
18
2
48
21
7
56
31
20
38
18
11
17
1
8
44
28
18
40
25
21
26
22
15
30
25
14
39
28
19
50
39
26
44
35
22
27
18
10
12
10
4
255
255
255
255
255
255
79
68
35
63
47
27
55
55
44
44
47
32
40
37
19
31
28
18
16
10
12
7
3
4
3
4
7
7
10
2
16
15
9
23
15
12
23
14
12
20
15
10
20
15
9
31
20
20
31
23
25
30
30
22
31
31
19
11
8
8
9
8
10
8
9
16
11
14
14
16
17
14
9
9
9
11
11
11
13
13
13
12
12
12
10
10
10
8
8
8
8
8
8
9
9
9
18
18
18
28
20
16
37
30
19
43
35
25
46
37
32
25
25
23
27
21
17
55
44
34
65
57
46
52
48
45
1
1
0
48
43
41
44
42
34
3
6
4
17
16
18
11
9
13
30
33
26
54
50
51
44
34
31
50
51
40
58
57
47
56
48
33
67
58
53
21
21
10
18
18
18
6
6
4
7
7
10
21
15
17
35
27
23
35
30
14
50
38
28
63
53
43
70
73
52
76
82
50
89
87
43
111
96
54
166
128
74
255
236
131
255
255
166
255
192
87
46
39
15
63
49
20
32
16
2
37
28
20
69
36
33
79
40
26
81
50
18
121
67
35
145
83
43
135
107
39
66
57
26
45
28
9
119
87
42
138
108
49
114
84
39
89
60
28
121
89
44
152
117
61
157
116
55
194
138
61
247
192
153
234
255
255
63
115
194
37
32
15
86
77
63
129
129
136
54
67
70
108
94
90
67
62
55
49
52
50
95
87
74
71
38
21
77
69
79
151
123
65
159
136
98
122
118
110
149
132
110
132
100
56
62
29
15
39
30
7
43
36
27
21
16
27
52
61
73
111
118
138
146
156
184
125
138
151
83
84
76
46
29
36
88
110
114
107
137
144
52
95
93
34
19
23
58
17
5
119
100
74
182
181
153
139
150
125
95
103
86
87
88
89
56
32
15
71
51
43
36
36
52
32
49
70
42
61
72
53
79
88
78
97
107
113
105
101
116
73
61
229
193
162
62
86
88
39
54
63
53
60
77
67
77
75
60
67
61
37
22
15
51
54
71
168
190
169
107
124
124
84
98
84
143
142
134
49
52
59
177
149
128
209
77
117
189
57
255
75
41
144
157
18
175
161
30
231
26
37
110
183
174
160
121
146
142
157
135
119
86
113
108
49
73
82
163
153
147
255
255
255
18
10
17
255
255
255
237
255
252
44
51
50
59
78
77
83
22
15
129
98
80
74
12
37
255
230
185
137
120
98
118
108
101
86
92
120
255
255
255
18
21
7
156
163
170
38
50
49
58
58
57
27
62
134
27
67
162
36
82
125
31
73
142
47
51
121
18
17
44
8
7
5
8
6
5
5
5
7
4
3
6
4
5
8
6
4
4
5
1
1
5
1
5
8
4
6
5
4
5
5
5
5
5
6
3
43
24
8
79
36
15
83
37
13
105
56
27
103
62
34
92
44
24
123
76
32
136
98
60
61
42
27
64
56
45
100
70
33
125
85
41
145
105
54
104
82
27
115
90
41
100
72
40
85
54
32
90
55
38
91
58
37
57
45
24
33
24
15
20
16
6
15
10
8
14
8
8
15
10
6
21
12
8
27
21
15
24
23
8
36
27
10
73
51
23
125
103
65
255
255
255
255
255
255
188
160
150
144
131
119
93
104
87
28
61
78
144
124
116
183
155
141
154
160
178
135
146
142
53
76
88
53
71
63
106
120
121
129
144
139
121
154
174
78
102
111
166
157
158
251
255
255
31
23
52
255
255
255
171
155
145
101
111
108
104
103
100
245
233
217
246
244
227
156
167
148
70
73
70
101
79
63
63
59
42
48
52
46
52
50
51
195
255
255
255
255
255
255
255
255
23
25
21
24
18
19
21
15
16
17
12
10
12
8
8
10
7
8
10
10
10
10
10
7
10
10
8
7
12
4
17
14
9
21
13
15
21
17
15
27
28
11
29
28
15
26
23
23
48
39
23
89
75
39
76
66
45
71
70
45
81
69
41
42
28
18
4
10
8
21
12
12
37
27
21
45
42
30
52
49
34
61
54
36
66
55
36
67
53
33
66
55
30
79
68
38
113
96
58
145
119
75
167
130
74
185
134
67
198
137
67
214
146
69
226
155
68
226
152
72
207
138
74
174
117
63
151
104
54
134
98
52
102
77
39
82
55
26
90
67
34
86
63
21
61
49
22
50
40
21
32
22
13
30
25
15
21
17
15
18
17
14
14
7
15
28
32
24
47
34
16
83
58
25
130
103
58
137
110
61
125
106
58
94
82
43
73
64
32
74
66
32
104
92
55
135
107
65
141
100
59
138
94
54
158
115
67
173
136
68
160
127
57
132
96
42
120
83
29
118
76
33
92
56
21
109
71
20
140
100
38
128
84
41
76
44
17
28
14
1
7
7
13
33
24
19
55
38
30
73
44
21
91
54
27
62
32
16
32
21
9
52
29
25
56
40
19
128
82
50
124
74
28
89
53
21
53
27
14
38
21
16
37
24
24
31
14
13
11
8
4
24
2
4
59
35
25
21
12
10
37
27
17
35
18
11
29
11
6
36
24
9
37
30
17
25
17
9
15
11
2
255
255
255
255
255
255
79
65
29
67
48
27
60
55
47
44
47
36
35
31
25
29
29
24
28
27
23
28
22
21
25
17
15
22
14
12
26
18
17
33
21
21
36
26
23
39
31
27
37
29
27
34
23
26
30
24
24
29
29
20
33
28
19
9
8
7
6
7
8
5
3
3
17
21
19
13
13
13
8
8
8
12
12
12
15
15
15
18
15
15
17
11
11
16
8
8
15
8
8
14
11
11
17
17
17
30
24
19
38
34
22
46
36
27
46
34
30
26
26
24
4
7
6
25
14
10
45
35
25
61
55
49
40
40
31
30
22
21
66
59
52
42
43
33
17
21
13
30
34
26
39
41
33
24
19
21
34
31
32
57
51
47
38
38
27
58
51
42
58
50
43
24
24
18
14
14
10
12
12
8
14
14
21
21
17
20
53
42
39
45
40
32
45
38
29
66
56
40
69
63
36
81
67
46
97
71
57
91
70
54
87
74
53
195
148
91
255
255
165
255
255
165
237
169
76
47
21
14
96
58
33
57
29
22
21
6
6
1
8
13
31
20
7
116
67
34
187
113
59
170
124
48
119
89
40
125
83
50
123
90
55
95
79
42
110
91
43
90
68
24
88
72
24
82
65
17
90
67
25
103
81
45
147
139
171
255
255
255
111
149
194
37
38
27
70
67
61
116
114
122
81
82
74
63
65
74
84
75
52
88
81
72
110
110
120
142
151
163
165
170
166
146
136
122
90
76
66
48
25
22
36
26
22
46
37
17
39
49
34
36
22
24
155
136
130
180
180
193
117
126
144
70
67
83
32
45
54
67
84
96
111
135
145
56
92
97
55
34
47
118
63
49
143
111
89
180
174
140
143
147
123
66
81
72
75
70
61
30
24
29
72
60
60
121
109
85
63
39
24
15
24
49
110
155
177
143
172
176
136
161
161
96
101
94
43
39
31
63
31
19
168
120
101
201
171
142
31
46
44
100
107
118
44
56
78
32
35
37
38
31
47
76
60
68
134
130
103
170
185
173
52
36
43
61
8
62
230
150
98
137
113
114
163
142
100
216
159
68
194
22
255
104
72
246
140
18
103
151
53
234
69
71
112
196
192
188
125
158
165
195
186
175
98
125
128
71
93
95
176
168
158
255
255
255
48
41
43
255
255
255
226
239
230
13
29
38
62
76
71
54
2
32
120
95
81
50
15
51
255
232
182
139
123
98
138
129
117
71
79
105
255
255
255
48
45
28
156
170
176
51
61
58
58
57
71
14
89
195
37
131
255
36
134
255
56
93
196
45
56
113
15
20
42
4
2
7
11
3
3
10
5
12
7
5
4
4
7
8
4
6
6
5
2
5
4
0
5
4
5
5
5
4
8
4
3
9
1
5
7
16
10
4
36
18
7
41
22
1
37
21
14
67
32
20
124
70
32
145
84
33
187
108
60
220
126
64
177
98
48
93
43
13
83
44
24
94
59
35
93
60
20
108
75
21
102
76
33
55
38
8
44
26
12
73
50
30
74
60
28
54
40
24
35
27
8
25
20
9
16
11
7
9
11
6
21
11
7
25
20
12
25
31
5
54
41
16
128
85
44
171
128
76
217
252
255
135
201
255
201
198
195
222
214
218
186
185
184
153
165
165
127
155
145
54
28
0
255
255
255
255
255
232
236
245
244
34
62
71
184
165
145
211
237
228
90
126
155
165
142
109
255
255
255
186
218
234
130
70
37
255
255
255
252
219
199
219
214
209
85
93
95
128
111
93
229
193
164
255
255
240
255
255
215
225
199
139
113
90
68
40
45
34
46
73
85
92
150
168
255
255
255
255
255
255
25
22
21
20
17
14
19
19
15
18
23
13
15
21
11
20
17
12
25
19
14
24
20
14
22
15
10
22
17
9
31
21
16
33
24
19
36
34
23
40
35
23
34
25
18
23
18
21
24
25
15
56
47
17
61
49
21
61
55
28
46
39
19
6
4
2
27
16
12
46
37
25
64
55
36
74
65
41
79
68
41
83
70
41
83
67
37
80
64
36
98
77
45
157
120
70
220
167
100
245
180
103
237
167
84
228
157
74
228
160
79
235
168
83
232
161
81
224
147
77
208
131
67
177
112
51
150
102
42
140
102
47
125
89
48
118
85
49
122
91
54
111
83
39
81
60
28
62
52
30
55
46
24
38
27
11
14
9
17
34
30
31
50
41
31
49
45
32
60
48
25
96
66
26
116
92
49
70
46
25
43
31
17
29
19
8
12
10
14
32
30
27
31
18
15
21
6
3
25
13
13
43
27
27
65
53
42
51
40
22
17
11
8
26
17
3
73
56
20
89
58
31
66
39
24
89
53
26
96
66
35
43
29
10
59
39
26
29
8
8
31
14
14
51
30
13
75
53
32
67
51
26
39
27
11
21
10
11
6
4
13
27
15
10
67
52
37
117
74
45
65
38
11
32
27
12
21
13
8
7
11
3
7
6
12
20
5
10
11
8
5
26
5
2
55
28
21
67
36
19
78
42
25
65
34
19
60
34
18
51
33
15
35
25
13
20
12
6
12
10
4
255
255
255
255
255
255
111
94
46
96
72
38
87
67
50
79
68
51
72
59
46
61
55
46
46
50
41
39
40
37
36
31
31
36
26
24
40
30
25
43
37
31
45
39
34
45
37
33
43
35
33
38
31
30
29
29
21
27
29
20
31
23
20
15
10
7
15
13
8
19
7
1
27
22
18
16
14
11
12
12
12
16
16
16
21
18
18
24
17
17
22
14
14
19
11
11
19
10
10
22
14
14
21
18
18
30
28
21
37
33
21
47
35
31
46
33
31
28
24
19
16
16
11
16
12
12
34
23
22
54
44
36
50
47
37
12
20
11
40
31
30
60
53
49
32
29
27
16
18
15
18
14
13
5
7
6
34
33
31
17
14
12
47
46
37
60
52
42
40
32
26
16
16
10
17
17
8
21
21
15
18
18
17
11
11
7
35
27
20
63
55
50
63
53
46
44
38
28
49
31
24
59
30
27
54
40
38
50
43
39
50
43
26
80
64
39
206
154
91
255
255
155
255
255
137
131
85
38
70
33
13
91
47
29
105
54
27
110
52
17
83
35
4
96
51
16
217
138
67
242
167
81
159
118
58
99
79
48
54
53
30
43
31
21
77
62
38
83
61
34
69
53
23
60
44
19
65
52
27
45
45
26
184
188
228
255
255
255
99
130
160
47
49
44
71
63
63
134
129
133
67
61
45
32
36
50
43
52
53
95
93
80
63
63
62
49
54
51
57
46
39
55
30
7
49
25
39
39
32
22
19
18
28
94
72
79
179
163
143
216
210
189
178
174
166
64
66
69
96
91
84
56
76
80
80
113
120
50
38
58
112
56
46
140
104
91
162
144
124
128
133
115
53
70
58
24
20
30
85
58
40
72
40
19
139
109
85
210
188
156
178
183
145
43
66
54
59
28
19
64
80
88
156
186
194
22
20
27
42
88
106
5
29
43
39
37
30
57
58
50
185
143
120
183
162
129
34
48
57
130
138
152
54
65
96
89
94
99
64
76
69
49
28
7
224
222
208
79
91
99
91
100
116
255
144
35
255
255
83
236
151
109
186
126
4
178
166
130
207
84
76
108
88
255
147
102
92
227
128
184
145
166
184
228
229
227
128
161
177
227
207
200
101
121
133
84
112
119
211
217
210
255
255
255
97
96
89
255
255
255
198
208
197
28
35
32
48
64
57
55
42
48
110
100
82
71
10
29
255
247
196
115
98
80
152
142
137
43
49
70
255
255
255
144
162
168
147
145
148
28
28
26
60
74
90
2
110
236
47
132
255
34
67
119
15
45
75
2
29
54
9
11
21
15
6
10
12
5
12
5
4
5
1
4
1
1
4
3
2
6
6
3
7
8
5
5
12
5
5
14
7
5
14
3
3
12
3
2
8
14
8
8
13
10
10
6
7
10
1
5
13
40
15
8
96
52
17
153
89
35
189
116
53
212
132
64
223
138
58
225
144
53
238
151
64
232
146
71
197
120
55
173
106
42
173
120
52
146
104
42
91
62
16
113
76
22
147
107
44
130
95
51
106
74
39
86
60
27
57
39
9
34
20
6
28
15
7
34
27
11
59
50
14
108
80
41
183
126
65
179
129
67
138
190
255
55
123
255
120
103
89
196
192
191
235
234
232
227
208
203
207
191
176
96
110
104
255
255
255
255
255
231
255
255
255
88
45
31
255
255
255
243
255
255
91
96
94
255
255
227
255
255
255
74
119
135
204
132
92
255
255
255
243
182
140
255
245
221
255
255
236
164
153
115
34
11
30
178
135
132
247
195
169
186
168
114
145
143
107
11
37
37
17
28
48
9
36
59
255
255
255
255
255
255
36
24
17
15
16
4
19
14
10
23
18
7
25
27
15
35
34
19
41
37
21
41
37
23
39
32
23
40
27
21
47
35
25
50
40
29
48
38
25
35
27
21
26
21
17
24
17
18
10
7
2
27
28
19
47
43
26
35
34
17
6
1
9
38
31
16
60
45
21
81
63
35
81
67
34
72
60
26
72
56
25
76
59
28
84
66
34
99
75
39
143
101
48
213
150
75
249
173
87
239
158
73
210
143
68
170
123
59
144
106
51
137
96
43
124
84
42
108
74
34
119
80
34
133
90
39
124
88
30
114
73
15
118
71
21
130
82
39
142
97
55
132
93
52
88
58
29
63
41
18
72
62
27
47
31
11
32
28
10
55
44
28
61
52
32
57
46
20
83
66
32
137
104
45
151
116
60
99
64
33
75
46
24
69
43
24
49
37
24
8
9
0
35
25
20
53
33
19
48
25
11
52
25
14
87
55
36
127
91
48
121
84
37
80
47
19
85
58
29
81
43
18
43
13
6
40
37
20
18
17
9
55
50
29
58
38
20
32
11
18
49
39
22
46
46
35
38
40
23
32
27
24
17
17
12
30
21
4
38
33
15
52
38
18
60
33
22
73
47
37
59
38
27
61
45
24
48
34
17
20
13
14
9
7
10
25
16
14
15
12
11
17
12
10
49
24
18
69
35
20
58
31
15
41
22
8
36
20
5
31
18
4
18
12
1
11
8
7
10
10
10
255
255
255
255
255
255
169
135
69
154
117
59
129
104
57
105
94
53
89
79
46
74
61
40
55
50
32
39
43
28
37
40
29
42
37
26
45
37
23
46
39
23
47
42
26
49
45
29
47
44
30
40
39
29
33
34
27
30
30
27
34
25
24
26
22
16
22
20
12
19
13
5
30
21
13
22
17
14
17
17
17
15
15
15
16
14
14
12
12
12
7
13
13
7
14
14
11
14
14
21
17
17
26
22
22
31
31
23
35
30
20
39
31
30
41
31
28
38
26
22
31
21
16
27
22
17
31
22
19
34
27
18
42
36
28
42
41
33
23
25
18
28
26
20
28
22
23
4
5
3
16
15
10
16
14
12
21
20
16
23
22
26
52
50
40
54
46
32
31
23
21
4
2
6
13
10
4
26
21
13
28
20
19
31
28
27
31
27
22
49
41
39
59
54
46
67
50
44
54
40
32
15
12
12
11
12
3
13
12
7
27
17
10
35
26
21
87
65
41
255
225
122
255
255
172
255
176
78
17
12
7
53
21
7
55
28
17
58
30
18
68
35
15
112
53
24
217
127
109
255
214
185
159
143
105
43
46
21
5
18
7
8
7
3
18
24
15
21
24
18
16
20
18
12
12
16
4
3
4
49
36
30
240
248
255
243
255
255
51
77
100
64
63
55
127
120
114
148
152
152
15
27
38
43
29
39
47
33
22
74
66
45
23
15
27
37
18
26
41
22
38
38
21
26
22
27
43
124
123
121
197
188
182
198
199
178
134
138
111
53
48
47
55
72
75
97
129
141
84
97
111
29
64
75
125
85
88
160
141
121
168
165
147
75
93
77
43
48
37
54
40
39
93
54
35
140
104
77
180
152
117
169
149
131
152
139
135
123
132
116
117
91
72
105
94
74
45
30
27
76
122
142
118
153
160
58
83
86
41
65
65
44
76
74
23
44
56
17
13
13
207
175
155
172
155
119
12
8
24
106
111
115
57
68
68
56
50
49
61
65
81
163
169
169
165
174
176
57
45
38
32
48
120
255
241
24
198
159
67
255
215
137
205
165
172
51
38
16
231
186
123
165
23
167
191
192
255
207
104
59
9
33
75
218
218
202
78
121
126
182
165
140
26
56
60
17
28
27
238
239
233
255
255
255
166
153
146
255
255
255
152
168
169
48
52
62
28
49
56
70
32
45
94
95
80
128
62
25
255
255
205
77
69
58
145
141
143
65
54
63
156
160
164
83
94
107
68
87
88
31
55
59
82
112
135
41
136
255
69
123
255
45
38
88
4
7
8
11
0
1
9
4
0
7
8
4
4
6
2
3
4
3
6
7
2
6
6
2
4
6
3
5
7
2
3
5
1
9
5
1
8
5
3
4
3
1
5
4
6
16
2
6
8
6
1
5
3
2
2
4
4
8
5
5
26
12
3
46
24
5
63
40
12
91
58
21
134
82
33
170
104
43
202
122
52
228
140
66
236
148
74
230
142
71
241
156
74
255
176
81
244
165
78
255
179
83
255
178
79
226
154
80
186
125
77
163
115
71
128
95
51
90
64
30
64
44
17
69
51
19
113
82
37
148
106
55
190
127
57
166
117
49
164
212
255
172
223
255
126
124
107
46
34
40
136
119
113
157
148
157
193
198
210
153
148
145
255
255
255
255
255
255
239
255
255
212
163
127
255
255
255
196
225
235
135
63
41
255
255
255
255
255
255
67
77
100
253
198
165
255
255
255
255
255
194
53
45
56
194
191
178
242
255
235
205
226
203
117
130
110
28
15
18
112
113
75
146
140
115
78
55
63
73
66
67
26
43
65
255
255
255
255
255
255
74
48
35
16
13
3
15
14
10
23
16
11
37
19
16
41
27
17
45
35
20
52
40
26
53
43
28
52
42
29
50
42
29
45
35
25
30
20
12
20
15
10
13
14
9
7
7
2
18
10
15
8
16
13
14
20
11
25
19
13
51
44
27
68
60
32
88
73
42
94
76
45
69
56
26
51
38
11
48
33
11
59
40
15
99
70
36
154
110
56
189
140
68
189
141
68
157
107
49
101
64
24
73
49
24
62
43
24
49
37
21
35
20
9
41
25
22
28
13
15
41
26
17
41
34
8
50
48
24
67
52
23
79
51
17
98
61
18
127
86
37
133
92
47
94
61
30
76
55
24
80
67
31
51
37
21
65
57
21
74
53
18
66
45
19
64
43
20
82
64
36
139
105
50
131
88
49
67
48
24
72
54
27
66
40
20
59
35
23
38
20
15
15
12
8
38
25
13
56
41
14
81
65
37
98
79
50
98
75
47
102
76
39
102
76
39
110
77
46
104
64
41
92
54
34
60
42
18
31
27
18
45
38
18
41
28
18
59
42
18
88
60
28
86
52
33
45
21
19
25
18
6
69
47
23
77
49
18
60
36
20
42
12
5
60
24
12
64
38
19
55
30
7
45
28
14
25
23
15
18
14
6
25
17
11
29
17
19
10
4
5
12
3
7
17
7
11
9
10
10
3
10
6
5
4
4
14
6
10
7
10
6
7
4
5
4
5
4
9
7
14
255
255
255
255
255
255
190
141
65
182
142
65
153
125
63
107
96
45
75
68
32
52
44
27
38
30
21
29
21
13
17
18
7
15
21
9
15
20
9
22
19
10
32
25
17
37
29
21
38
30
20
39
31
19
42
32
23
43
31
26
38
27
19
26
22
15
17
17
15
13
13
13
24
18
13
21
17
17
15
15
15
10
10
10
13
12
12
7
11
11
4
11
11
4
10
10
7
13
13
17
18
18
29
28
28
33
33
26
36
30
25
35
31
30
34
34
27
42
37
32
41
29
28
25
16
13
15
7
8
13
10
7
26
22
16
35
31
26
35
30
31
20
18
19
22
19
15
15
11
11
10
14
10
20
21
15
10
11
10
21
18
15
34
30
20
45
36
23
34
26
21
16
12
12
20
14
10
37
29
17
55
45
31
62
50
38
57
49
40
43
39
34
28
28
20
54
43
32
71
53
49
41
28
25
16
12
11
22
16
13
31
22
9
38
35
24
53
48
26
182
132
72
255
255
163
255
255
128
140
86
24
24
8
3
15
6
10
24
7
7
123
61
31
99
11
99
155
83
166
255
255
255
189
216
205
11
13
14
16
10
2
18
15
8
13
14
15
8
3
8
8
3
3
10
7
5
35
31
15
120
96
81
255
255
255
194
241
255
70
81
87
113
112
100
203
198
188
120
130
133
86
78
76
48
51
42
44
58
46
25
41
50
26
21
21
17
8
15
60
56
64
147
144
146
198
200
199
155
163
165
88
76
66
33
36
46
81
95
103
89
117
121
49
88
91
48
12
14
77
42
32
69
86
84
141
109
114
148
164
154
64
25
42
120
79
67
109
71
56
161
127
102
224
191
162
209
201
182
137
159
151
48
89
93
9
55
70
66
10
17
96
88
73
125
97
87
166
147
122
165
211
229
103
149
148
91
121
123
26
58
52
70
100
103
28
37
40
8
8
21
226
203
181
168
151
119
37
42
60
59
60
82
31
31
39
24
23
29
63
69
49
165
159
128
71
82
78
72
93
86
233
110
61
255
255
33
22
7
16
255
222
79
74
30
151
45
81
157
160
128
90
196
124
32
188
177
225
128
98
77
35
51
79
202
209
198
74
121
135
157
148
125
31
67
79
9
26
28
234
237
228
255
255
255
210
201
198
255
255
255
99
121
126
61
64
71
13
41
50
71
20
11
51
49
37
246
188
154
255
251
214
42
39
40
138
142
145
84
72
78
113
116
123
59
44
51
40
35
37
7
34
35
91
114
126
23
107
229
85
92
255
46
24
73
7
7
12
3
4
4
7
2
7
4
2
7
5
3
7
4
5
4
5
7
5
3
3
3
4
2
2
5
6
4
8
2
1
5
1
2
3
3
4
3
3
6
5
3
2
9
6
2
10
5
2
9
4
3
6
6
4
7
2
4
4
4
3
4
3
2
6
1
1
16
7
7
33
13
2
49
24
8
68
33
9
90
50
22
120
77
35
137
84
35
163
100
43
211
139
58
242
162
75
235
158
77
226
149
64
189
126
48
128
90
39
120
91
50
113
91
50
107
85
41
98
75
35
108
83
39
151
111
52
168
114
52
183
110
40
144
97
42
66
163
255
105
182
255
150
139
124
97
97
83
50
44
33
105
67
63
198
166
150
255
224
213
255
255
255
255
255
255
134
182
199
253
210
178
255
255
255
153
190
207
244
171
144
255
255
255
233
255
255
118
65
46
255
255
230
255
255
255
255
255
255
162
175
157
25
5
28
250
223
223
255
255
255
251
215
194
126
98
84
164
162
128
157
138
115
89
70
64
25
24
10
88
103
121
255
255
255
255
255
255
93
63
56
7
10
6
12
14
16
30
19
23
41
22
21
47
32
27
60
43
36
68
48
36
65
50
34
55
46
28
50
40
24
39
30
18
24
18
7
20
14
2
11
7
3
7
10
10
13
13
11
11
6
3
16
10
10
39
40
20
57
50
28
53
46
28
52
45
29
39
27
13
10
6
10
8
7
5
30
20
13
73
51
32
138
97
51
177
123
57
170
121
59
117
77
39
40
18
3
82
63
40
110
73
51
97
59
36
95
60
26
142
97
47
193
129
69
197
126
63
174
104
48
171
108
55
159
99
53
103
50
25
24
5
7
40
29
11
95
65
29
104
70
34
72
48
17
81
62
23
87
71
24
98
80
39
110
83
40
92
62
29
83
56
29
97
68
41
85
59
33
109
81
41
111
75
40
24
27
24
44
31
19
40
24
11
61
34
17
45
28
14
18
15
7
11
8
6
17
14
23
28
28
24
5
9
4
31
24
12
51
39
17
59
46
17
75
54
20
88
57
29
91
57
32
46
29
19
25
26
19
13
12
9
22
15
4
51
36
10
87
65
22
107
74
37
96
57
30
56
26
14
24
19
17
80
50
28
112
62
29
106
57
30
101
70
36
100
70
34
84
52
24
54
30
12
27
14
5
22
14
8
28
16
10
19
14
14
22
17
15
27
15
14
25
9
11
24
12
14
26
18
10
23
13
0
20
10
13
11
12
4
2
4
7
4
6
5
16
13
12
255
255
255
255
255
255
183
122
53
176
124
56
162
122
66
137
112
62
103
87
47
53
50
29
33
36
25
31
28
22
22
19
17
20
11
14
18
7
10
15
7
10
12
14
13
3
7
4
6
3
1
16
6
4
21
13
7
20
13
7
18
12
7
13
10
7
9
9
9
15
15
15
27
24
20
25
23
13
12
16
8
5
9
3
10
12
10
4
7
5
5
7
8
3
5
7
5
8
2
14
15
11
26
26
26
34
34
26
40
34
28
36
28
28
31
29
26
33
37
29
38
38
31
27
23
22
15
12
13
7
8
9
7
6
5
12
13
3
18
13
11
12
8
14
7
6
5
17
14
10
18
12
14
10
7
7
7
6
8
29
28
25
44
40
34
57
49
36
61
48
36
47
39
31
43
40
32
47
47
34
57
54
36
62
52
35
57
46
37
45
41
34
29
27
23
23
18
13
49
44
39
55
41
37
46
32
27
42
31
20
44
38
22
55
42
32
62
42
26
83
64
34
255
202
113
255
255
140
255
178
78
89
52
14
6
4
18
36
15
12
211
123
47
138
85
167
132
50
139
255
255
255
169
216
222
26
20
9
9
11
3
7
5
13
10
3
7
10
8
12
11
7
5
14
15
15
35
31
8
171
152
151
255
255
255
199
250
255
134
143
128
79
76
53
148
139
142
86
101
114
101
89
81
55
58
45
41
43
42
26
20
34
85
76
74
164
154
139
160
155
142
83
82
73
36
35
35
31
46
47
79
105
106
74
110
113
50
69
65
73
55
51
95
88
71
119
131
105
90
88
78
138
148
137
137
116
108
152
152
143
195
162
147
205
183
153
166
165
143
128
151
130
73
107
96
66
9
7
156
93
83
226
169
137
235
185
164
167
138
125
59
35
28
92
112
106
84
87
91
237
255
255
125
165
146
103
107
116
65
61
51
55
73
82
10
17
17
21
17
24
236
212
181
166
147
123
30
24
22
34
42
53
17
11
15
16
1
7
110
105
82
142
131
114
97
104
89
16
71
130
255
255
13
255
255
75
178
146
62
203
162
76
152
88
62
56
32
151
26
34
76
120
83
43
89
99
140
80
90
101
43
46
56
215
219
209
71
114
131
169
164
138
45
74
92
38
42
53
212
214
211
255
255
255
197
200
184
255
255
255
41
50
62
51
63
87
8
41
68
89
89
106
223
191
180
254
216
187
193
184
164
82
103
128
173
188
203
52
44
41
117
122
135
43
45
39
34
35
27
22
29
39
83
96
109
13
98
233
86
84
255
49
16
66
10
4
8
7
7
7
7
10
10
5
8
6
5
6
8
7
5
4
9
2
3
8
4
2
4
5
2
4
1
2
2
5
5
2
2
5
4
2
4
5
4
6
7
2
2
8
3
2
7
3
3
5
3
5
6
4
5
5
1
6
3
3
6
2
0
7
2
2
8
3
1
5
5
0
4
7
5
5
25
12
12
30
15
16
33
25
17
46
25
4
66
30
5
93
53
18
114
65
23
87
49
12
162
109
54
150
94
30
94
49
12
72
48
26
60
46
18
104
78
37
136
98
46
144
99
44
175
121
52
196
126
55
180
107
43
97
62
23
52
122
236
116
177
255
197
183
190
212
207
188
124
121
108
60
43
36
76
59
48
170
127
122
255
255
255
255
255
255
74
122
153
255
255
240
255
255
255
97
136
144
255
255
219
255
255
255
163
192
186
167
88
57
255
255
255
254
255
255
255
255
255
255
255
255
198
199
169
92
86
79
185
157
152
243
216
193
236
222
208
138
122
100
98
95
77
138
135
128
22
13
10
108
129
138
255
255
255
255
255
255
98
61
54
7
7
11
15
13
12
33
17
11
34
28
15
45
44
20
64
51
28
74
58
30
84
67
33
85
71
38
76
65
40
57
48
31
44
36
27
31
23
7
20
14
8
17
13
13
4
10
7
8
20
7
17
21
11
33
34
17
44
37
18
55
52
31
79
69
51
92
70
50
77
61
37
48
42
24
65
44
30
128
93
48
167
116
52
137
86
40
64
36
15
19
17
15
94
65
35
152
98
47
182
123
55
194
130
61
217
151
74
233
167
85
216
146
66
220
150
70
218
157
71
205
155
68
181
134
61
163
103
52
109
64
34
46
37
17
70
49
26
95
56
26
118
73
32
143
96
44
131
93
38
136
101
40
161
107
43
153
96
44
144
96
49
157
108
52
146
94
43
105
72
41
82
52
32
37
28
22
73
51
24
75
51
26
71
39
20
29
15
12
28
22
2
89
55
21
132
83
38
151
101
45
139
96
43
134
87
38
137
86
42
141
85
48
135
76
43
113
66
27
87
53
23
35
15
4
15
13
5
11
14
5
22
25
4
21
15
10
17
14
6
62
48
20
99
60
29
113
67
29
156
93
48
171
103
41
149
91
31
92
59
18
44
30
11
28
13
8
14
3
3
21
13
10
20
5
7
21
17
8
55
40
20
88
57
31
95
55
31
80
43
21
53
24
13
26
16
16
21
21
17
29
23
16
42
22
17
64
29
11
77
37
17
75
38
19
68
33
23
255
255
255
255
255
255
156
94
32
158
101
42
144
106
50
159
128
75
132
112
69
60
56
32
38
36
21
38
30
20
27
26
16
25
29
18
24
25
14
29
21
15
34
23
23
26
17
19
20
7
12
18
5
10
12
10
10
12
12
12
15
15
15
10
10
10
4
4
4
13
13
13
22
18
16
32
23
18
27
21
16
17
10
6
11
7
9
7
3
9
10
4
7
11
4
5
8
4
7
12
12
7
16
17
14
23
23
19
31
29
25
32
24
19
31
22
18
31
27
24
34
35
28
32
34
29
26
26
25
18
18
18
12
12
12
11
14
11
9
8
8
8
2
7
4
4
4
8
11
6
20
19
15
23
23
18
17
20
14
10
11
10
31
31
25
48
46
33
59
52
35
51
42
29
44
38
28
40
36
29
39
36
31
34
34
28
34
30
27
31
25
24
29
26
24
23
21
20
13
18
14
30
21
18
40
30
28
49
39
34
60
45
34
67
45
31
66
49
32
62
63
33
162
120
63
255
196
101
255
227
113
255
168
80
87
64
18
89
48
18
255
167
38
63
104
255
66
28
116
255
255
255
115
158
171
28
30
15
14
14
11
19
18
9
10
15
15
2
4
4
7
5
12
13
10
15
21
18
13
216
206
209
255
255
255
135
182
215
34
38
56
87
94
113
154
148
165
145
153
171
93
84
98
75
73
77
106
104
110
152
144
138
104
103
88
27
17
14
65
76
72
79
105
94
60
89
86
28
20
40
55
38
39
90
82
58
134
132
105
133
143
115
73
91
66
6
29
15
132
96
80
131
145
125
91
83
76
73
63
54
175
152
125
115
111
80
58
45
37
110
90
89
240
212
207
255
255
255
255
247
225
198
218
186
133
163
140
66
70
61
62
44
38
156
129
109
181
173
163
203
255
255
118
148
127
60
77
82
12
14
29
4
25
46
31
32
37
65
56
47
231
205
172
124
108
91
36
32
33
49
62
71
43
43
45
42
36
41
170
159
141
48
53
48
102
123
140
229
114
65
255
255
86
160
141
61
255
255
125
255
255
132
255
203
125
204
166
139
136
164
179
12
46
62
72
89
125
70
83
94
44
42
45
235
234
215
48
85
101
187
186
158
43
53
68
44
38
51
171
163
175
255
255
255
140
141
145
255
255
255
250
255
255
255
255
255
201
199
201
233
237
226
160
158
137
46
55
84
216
206
200
52
43
36
183
212
229
92
112
127
66
70
82
10
7
8
36
32
15
20
24
31
79
93
102
10
122
251
86
77
247
54
6
58
6
0
2
10
6
1
7
3
5
7
7
2
5
5
5
5
5
5
4
4
4
5
5
5
3
3
3
3
3
3
1
1
1
4
4
4
3
3
3
4
4
4
1
2
2
5
2
2
8
5
5
5
1
1
6
2
2
6
2
2
5
2
0
4
4
6
1
2
8
2
1
5
5
2
7
12
8
7
21
9
8
24
11
4
32
21
8
42
24
7
51
19
5
57
22
5
55
23
2
69
36
13
160
99
45
170
105
40
117
67
25
61
40
22
56
32
10
105
74
32
143
104
46
158
111
46
181
120
50
186
110
48
119
65
19
47
29
13
23
127
255
50
173
255
163
145
151
255
252
250
255
242
242
247
235
230
219
212
207
90
103
110
181
192
203
255
255
255
34
52
87
255
255
255
255
255
255
44
89
100
255
255
255
255
255
255
101
120
120
223
154
106
255
255
255
211
255
255
255
255
255
213
201
175
226
218
198
175
169
156
66
60
38
88
97
115
197
196
189
176
150
124
104
91
63
155
169
175
12
13
18
112
137
154
255
255
255
255
255
255
108
73
60
17
13
13
22
18
7
40
30
12
41
41
22
55
49
24
93
69
36
130
99
45
162
121
63
146
111
60
85
68
33
41
37
16
40
36
31
45
36
31
34
22
7
28
14
7
40
32
10
43
37
14
35
31
15
24
19
11
17
13
5
28
28
15
41
46
25
51
47
27
62
45
18
91
70
40
139
100
50
175
125
50
154
101
38
85
47
29
24
21
8
120
73
45
168
101
55
156
104
47
135
99
30
140
111
42
156
125
63
136
103
48
102
75
31
101
73
41
93
73
42
72
58
28
85
81
34
128
85
47
100
60
26
54
32
14
59
44
29
124
85
48
140
94
50
147
98
49
132
81
33
146
94
39
174
108
49
179
113
52
174
116
57
169
113
53
164
109
51
124
76
32
44
22
8
72
51
36
71
43
15
53
30
14
37
23
18
30
25
12
107
74
30
179
122
55
208
144
74
225
155
79
223
151
66
202
138
58
196
137
61
193
130
55
171
112
41
129
83
31
69
42
15
18
13
6
14
15
8
13
11
11
17
15
2
34
25
7
11
6
7
49
40
12
103
67
27
142
84
42
142
84
39
108
64
22
60
35
9
6
7
10
26
24
14
41
31
14
43
29
12
51
28
11
76
45
25
78
50
23
76
55
27
79
56
31
75
55
30
80
50
22
55
24
10
20
14
13
44
35
23
100
70
39
178
115
67
222
142
77
226
140
65
196
116
51
148
89
41
255
255
255
255
255
255
180
109
43
191
126
55
153
106
48
149
117
72
124
111
69
62
62
32
36
37
21
29
31
20
12
11
11
11
11
3
15
17
6
17
16
7
26
18
13
25
18
19
21
15
14
21
7
8
18
4
9
18
9
12
21
17
18
22
22
22
12
12
12
10
10
10
2
5
4
15
9
10
26
17
19
26
16
20
19
7
11
18
8
11
21
9
13
20
10
13
18
7
7
19
14
5
15
19
6
16
18
16
29
25
28
37
28
26
36
27
22
36
27
23
37
31
24
31
33
24
28
29
24
25
25
21
21
21
19
17
15
16
13
9
12
12
9
12
11
9
10
10
10
9
16
14
13
24
19
18
32
34
26
25
26
24
10
10
11
8
10
13
28
28
15
32
30
20
31
27
19
24
20
16
16
15
14
7
8
7
13
14
7
17
13
8
13
12
2
15
17
12
11
8
9
13
10
7
37
26
16
63
43
26
73
51
33
66
55
43
62
62
44
55
60
35
66
53
28
156
103
47
255
175
82
255
214
99
216
147
64
110
51
7
242
126
94
96
208
255
113
118
135
255
255
255
127
162
172
22
17
2
31
34
14
8
8
6
29
18
8
36
22
10
32
25
15
18
19
10
8
10
21
225
222
230
255
255
255
104
136
160
51
68
63
43
41
40
100
96
95
107
111
107
114
98
87
122
116
102
59
64
58
66
63
61
93
115
104
79
110
102
56
58
59
108
70
61
149
129
103
102
104
82
74
90
76
73
86
75
36
47
39
26
8
19
87
73
72
113
104
90
139
123
106
63
81
70
50
48
50
61
60
60
68
53
28
82
74
66
124
133
113
115
127
127
97
67
59
74
31
10
65
75
46
15
50
34
178
180
163
98
117
108
62
41
36
105
89
75
82
105
102
101
182
185
107
119
109
74
87
77
50
39
39
33
36
43
38
55
60
58
60
54
189
163
138
83
74
64
19
13
13
94
103
111
31
34
46
110
94
71
157
153
149
59
40
31
29
58
147
255
252
22
255
255
112
130
131
56
255
255
214
255
238
123
196
171
99
175
153
109
191
198
211
160
197
214
20
75
117
22
22
33
68
68
65
239
235
207
11
29
39
166
161
116
29
25
40
44
43
58
150
141
159
255
255
255
53
56
50
199
216
217
120
118
100
125
117
109
123
111
85
127
154
140
76
77
105
166
217
239
250
246
243
180
205
219
53
52
43
216
239
246
167
185
189
46
47
45
68
66
50
54
57
71
85
102
110
14
126
246
87
75
244
52
7
58
2
3
2
6
6
3
1
1
4
7
5
2
2
2
5
3
3
5
2
2
2
5
5
5
7
7
7
3
3
3
4
4
4
2
2
2
1
1
1
4
4
4
2
2
2
2
1
1
6
5
5
4
0
0
4
2
2
4
2
2
5
1
1
8
7
7
4
0
0
5
3
3
8
6
2
10
7
6
15
4
1
22
8
4
23
8
5
28
15
5
35
18
4
36
16
1
31
12
4
57
29
6
142
84
33
178
108
52
133
82
34
106
68
32
107
70
32
130
83
35
135
82
24
134
84
27
142
88
33
126
65
23
46
17
4
43
13
21
12
98
237
32
136
255
74
28
38
145
136
140
219
216
231
246
255
255
255
255
255
255
255
255
233
219
204
255
255
255
45
32
63
255
255
255
255
255
255
58
64
75
255
255
255
255
255
255
51
79
96
255
224
163
255
255
255
107
161
179
255
255
255
20
44
64
87
74
64
138
139
142
84
94
95
15
4
5
134
120
119
187
160
134
83
69
40
118
133
153
92
97
95
58
83
106
255
255
255
255
255
255
131
98
80
22
22
12
23
28
4
43
33
29
43
37
28
71
58
28
133
102
53
154
116
58
116
86
42
119
84
40
90
62
34
26
15
5
26
27
12
45
44
28
27
25
20
46
31
29
68
40
39
61
31
31
39
24
12
20
18
2
14
15
3
17
14
7
27
24
18
55
42
24
114
93
45
170
136
76
178
130
65
159
103
41
107
62
29
2
14
12
138
101
50
190
127
75
165
114
63
114
87
45
87
57
38
73
49
35
34
28
14
5
13
13
27
37
8
37
22
5
26
18
11
12
15
6
59
60
24
111
71
52
103
61
41
133
81
41
134
75
43
77
36
28
32
10
14
52
41
23
71
50
16
132
85
38
130
77
33
125
85
37
134
93
36
126
80
22
135
87
36
143
90
29
108
63
18
100
59
26
81
46
18
78
53
26
123
75
38
143
88
44
134
90
46
78
48
24
67
33
34
80
42
35
38
9
9
34
8
4
75
43
24
104
62
34
114
63
30
140
77
36
181
109
52
203
128
62
208
134
65
226
153
77
236
162
81
205
132
56
137
77
31
55
17
12
21
19
20
22
18
9
12
5
16
16
18
17
12
15
7
28
21
8
69
49
26
105
66
45
122
71
49
105
60
38
64
34
22
15
2
5
13
20
8
33
14
10
28
27
15
87
55
23
76
35
15
43
25
11
108
69
24
204
127
55
251
165
75
234
164
81
198
141
72
169
120
60
145
105
44
255
255
255
255
255
255
198
126
56
184
128
59
121
79
29
127
93
50
138
112
66
112
96
55
78
73
48
55
53
35
42
41
23
26
30
16
15
19
7
13
18
7
15
18
11
14
10
18
12
12
11
9
9
1
7
3
4
9
5
3
15
2
7
23
19
20
18
18
18
15
15
15
17
17
17
14
14
14
7
7
7
11
11
11
8
8
8
11
11
11
5
5
5
12
12
12
14
7
8
13
5
5
16
15
3
27
20
9
36
29
20
44
35
25
45
37
29
43
38
31
47
40
33
45
40
32
42
39
34
43
39
35
44
40
36
41
36
34
36
29
31
32
24
28
30
21
25
29
21
24
26
21
23
27
20
22
35
31
27
38
36
30
34
33
28
25
25
19
12
12
6
3
3
3
7
7
7
3
3
4
5
6
4
13
14
9
15
12
10
15
14
15
10
10
11
13
9
6
27
24
26
35
30
22
54
39
21
79
58
33
100
75
47
115
88
55
113
85
51
97
65
40
89
49
34
127
72
42
206
127
56
255
175
80
171
136
85
103
5
104
136
74
223
72
177
255
93
71
98
255
255
255
174
198
205
89
62
32
72
60
24
57
41
19
69
51
24
71
52
27
67
47
19
45
36
5
17
27
10
255
255
255
255
255
255
111
126
158
68
72
93
51
61
83
116
127
136
85
95
102
105
96
95
110
116
120
77
104
108
51
99
93
39
44
41
85
50
45
187
167
141
114
128
105
31
35
44
93
56
45
92
67
41
139
113
82
223
194
160
203
188
155
126
123
102
108
106
95
115
120
107
62
96
90
66
99
102
63
97
103
18
57
76
26
45
64
51
82
87
79
101
108
110
102
101
153
100
93
179
130
111
111
117
98
165
161
151
70
98
87
93
75
63
59
45
41
67
30
50
105
169
182
116
123
138
97
121
127
11
16
11
40
51
61
20
39
45
41
35
31
183
153
134
84
81
73
37
35
33
104
114
120
87
83
70
208
210
197
49
67
76
76
92
98
223
109
76
255
210
48
186
155
74
248
255
138
255
255
208
152
107
47
60
75
41
133
103
66
177
170
182
255
255
255
122
141
165
52
44
43
81
79
74
233
234
210
34
34
53
139
142
109
55
56
63
78
73
76
142
141
149
255
255
255
92
89
101
224
244
255
168
174
192
160
173
191
199
203
201
180
206
208
118
150
152
115
170
194
183
155
127
154
173
175
210
234
249
105
111
116
223
253
255
40
52
58
59
65
54
65
70
84
85
105
113
14
123
247
85
82
249
55
13
56
6
8
13
8
5
8
4
2
1
8
4
2
2
5
2
4
6
5
6
6
6
7
3
4
1
4
5
8
8
10
2
2
6
2
2
6
2
2
6
0
0
4
1
1
3
3
3
5
1
1
2
4
4
3
1
1
1
3
3
3
2
3
3
5
5
5
5
4
4
3
2
2
8
7
5
9
5
4
8
2
7
8
2
7
8
5
8
10
2
3
13
9
1
10
11
4
7
8
5
40
17
4
112
67
24
154
93
47
143
77
32
129
76
39
128
81
40
164
98
44
151
81
31
129
67
27
108
58
25
72
31
7
19
7
4
32
15
16
49
102
230
117
217
255
150
161
169
96
118
107
65
27
20
132
98
95
167
133
128
205
186
182
226
218
213
255
255
255
69
40
24
255
255
255
232
255
255
94
26
7
255
255
255
255
255
255
146
125
108
255
255
220
255
255
255
228
215
194
255
241
204
10
12
32
92
91
101
183
180
173
255
250
241
234
230
230
128
137
127
70
73
38
37
45
59
71
64
80
67
49
61
37
46
62
255
255
255
255
255
255
163
122
105
26
29
19
23
23
13
34
25
26
47
38
24
94
78
30
136
103
55
85
53
26
60
49
37
115
85
50
73
46
19
37
28
20
37
32
17
46
38
24
20
24
10
53
47
32
49
41
30
49
34
31
52
31
21
55
32
20
62
40
27
64
48
27
75
63
34
105
85
40
144
117
55
165
124
64
135
80
29
106
56
25
56
32
28
99
73
31
205
141
78
150
98
54
70
51
15
37
24
5
12
4
5
27
18
8
48
42
26
56
52
24
61
48
20
74
44
30
54
41
28
35
18
18
24
31
1
89
62
36
117
78
58
154
107
66
183
124
66
139
91
53
59
39
28
15
9
14
50
32
17
100
64
32
66
39
8
34
26
4
28
17
10
16
7
12
25
16
3
79
57
27
87
58
29
96
60
28
95
67
32
109
76
38
83
57
27
26
17
17
148
112
63
255
205
108
255
255
140
255
255
144
255
236
130
255
227
115
255
249
121
255
255
135
255
255
140
255
255
142
255
255
137
255
255
134
255
255
147
255
255
149
255
255
135
255
255
132
255
255
131
255
240
117
255
190
83
212
122
48
116
54
25
48
23
17
16
15
9
90
56
15
138
76
31
112
53
17
84
44
30
67
40
20
84
55
17
127
85
34
185
121
56
225
147
65
244
166
73
255
187
84
255
181
85
215
118
54
135
73
28
152
101
43
103
68
30
30
28
6
72
60
24
90
60
40
55
28
18
255
255
255
255
255
255
179
112
52
174
115
52
157
105
43
156
110
50
152
117
60
131
108
55
103
96
53
77
76
49
70
66
44
62
60
38
51
50
31
48
41
27
48
36
31
45
33
34
38
28
24
33
23
17
31
19
18
27
18
19
19
16
15
13
12
8
11
10
14
10
7
10
10
10
10
10
10
10
7
7
7
5
5
5
2
2
2
5
5
5
17
17
17
22
18
19
15
10
11
4
10
8
11
2
7
22
15
7
29
27
17
38
36
28
49
42
33
53
44
35
56
47
38
59
51
42
57
52
42
54
50
38
53
49
37
51
49
36
48
49
33
44
45
32
38
38
31
31
31
29
28
28
26
30
27
24
36
31
24
42
37
27
48
43
34
47
43
32
40
37
29
32
32
25
24
25
16
19
17
10
20
17
12
24
20
16
28
24
18
29
27
18
29
26
16
39
34
25
53
47
41
53
45
27
63
53
31
85
70
45
134
100
56
209
146
72
254
171
85
237
160
81
251
167
77
255
220
95
255
241
95
255
186
83
52
101
149
92
56
222
57
76
246
41
80
178
90
97
150
203
255
255
195
213
227
148
135
121
100
88
47
114
81
34
163
118
53
162
117
53
141
99
43
121
80
34
99
68
38
255
255
255
255
255
255
79
117
148
53
87
83
26
63
66
129
134
130
97
112
110
116
121
115
123
114
100
76
59
61
135
117
100
154
154
129
108
125
98
115
125
111
67
20
15
187
145
132
181
148
118
209
192
168
205
192
173
157
143
125
110
103
86
68
72
67
87
85
81
110
113
106
92
101
107
86
94
109
95
101
119
133
142
161
150
172
187
133
174
185
112
154
172
79
115
138
59
69
87
113
84
97
187
147
138
142
129
122
92
100
92
101
89
83
62
38
41
42
36
61
158
195
215
102
110
131
91
120
133
40
49
65
52
43
39
67
48
45
14
2
13
213
177
156
78
78
71
48
50
49
86
97
110
171
162
149
129
134
118
146
146
139
30
60
133
255
206
39
130
90
23
229
174
42
86
130
113
255
255
149
150
129
109
51
65
85
162
100
70
112
95
98
255
255
255
148
180
201
100
110
107
194
193
192
237
252
236
97
98
99
135
146
122
132
120
108
188
173
161
131
123
115
255
255
255
56
47
49
216
247
255
69
66
63
108
114
122
142
136
127
111
110
119
135
147
143
25
26
46
162
157
128
96
105
98
231
254
255
143
150
154
182
204
214
51
78
87
11
29
33
57
60
65
74
101
110
12
126
255
84
81
252
65
9
45
10
8
10
5
5
11
5
3
12
10
5
9
5
5
4
7
5
4
7
7
7
8
4
4
9
4
3
4
8
8
4
7
10
5
5
9
6
6
10
7
7
11
4
4
8
3
3
5
3
3
6
2
2
3
6
6
6
2
2
2
2
2
2
2
2
2
2
2
2
4
4
4
7
7
7
4
4
4
3
3
5
5
2
8
4
2
6
6
2
5
8
2
5
8
2
3
6
2
4
31
15
4
80
47
18
121
75
29
144
86
35
101
52
18
56
30
14
141
82
40
112
61
31
96
49
23
71
33
11
38
13
6
17
10
4
26
22
7
38
86
210
137
222
255
205
201
213
185
192
186
87
108
119
25
54
68
41
34
19
47
39
43
107
112
132
255
255
255
86
55
17
255
255
255
200
216
207
251
191
150
255
255
244
162
202
182
123
99
63
185
191
167
115
112
105
16
15
30
131
125
103
132
125
74
66
63
58
113
113
132
248
230
230
255
246
235
242
218
209
204
190
165
127
95
68
47
39
39
33
34
47
47
51
52
255
255
255
255
255
255
197
156
138
23
23
22
17
15
4
20
25
14
53
50
24
114
91
44
125
90
47
60
38
18
72
58
33
47
30
8
43
25
12
49
34
10
55
38
20
78
51
32
106
76
38
108
80
34
103
81
31
120
97
44
145
114
58
155
117
68
139
102
60
116
83
46
105
74
42
99
71
33
103
79
36
125
86
45
107
60
23
84
50
34
34
17
17
131
97
60
179
121
64
72
43
18
55
34
26
53
24
19
36
20
14
70
48
35
62
46
29
24
21
9
36
22
14
45
28
13
29
24
8
51
35
13
21
15
8
42
36
6
45
31
17
51
41
24
110
76
42
91
53
27
55
42
14
25
18
4
68
36
25
69
41
27
39
23
13
70
40
19
122
80
38
200
136
59
255
185
86
255
177
82
207
128
55
168
101
46
151
98
54
176
120
72
253
180
105
255
233
130
255
246
131
255
238
122
255
201
96
252
196
88
255
220
108
255
222
116
255
209
111
255
209
113
255
227
130
255
229
130
255
207
113
240
194
108
236
189
99
217
174
81
212
177
90
255
223
121
255
255
141
255
255
156
255
255
164
255
251
128
251
141
60
149
72
25
208
133
59
255
205
105
255
190
97
215
137
58
164
109
43
213
157
67
255
215
96
255
243
114
255
244
119
255
232
118
255
224
118
255
233
119
255
247
121
255
238
116
227
143
72
56
42
17
94
74
33
98
65
33
47
48
18
80
49
39
42
17
12
255
255
255
255
255
255
169
96
48
168
108
52
143
97
42
132
93
36
129
99
43
110
89
47
77
68
32
58
50
24
56
46
30
62
53
36
62
56
41
57
47
36
54
40
32
54
39
29
52
38
26
48
33
26
43
28
23
39
26
21
34
26
21
22
21
11
9
10
8
4
4
5
3
3
3
4
4
4
2
2
2
2
2
2
1
1
1
10
5
7
14
9
10
8
14
10
16
22
20
22
19
20
23
19
20
22
22
23
21
21
25
24
24
26
32
29
27
43
36
30
50
41
31
57
48
33
61
53
38
62
54
40
61
53
43
59
51
43
57
49
37
56
48
38
54
49
40
50
48
38
47
42
31
45
38
28
44
41
31
46
45
36
48
45
33
47
43
32
47
43
29
47
44
27
45
42
27
40
38
25
33
32
20
29
26
18
32
27
20
39
31
24
45
33
29
51
39
33
52
40
27
52
41
18
62
55
34
87
65
41
183
121
63
255
183
88
255
177
77
255
189
79
255
191
74
255
197
78
243
146
53
139
114
120
127
171
255
160
229
255
192
235
255
188
199
202
187
202
239
204
246
255
207
247
255
166
191
221
90
87
74
153
95
43
222
144
67
224
143
67
207
134
60
164
108
43
117
84
63
255
255
255
243
255
255
32
58
90
44
27
33
61
58
57
167
148
138
104
115
105
115
97
79
213
185
175
127
136
130
51
67
54
40
55
48
37
16
10
89
51
32
215
186
153
209
210
187
72
99
82
15
17
12
57
30
35
30
14
13
75
51
38
35
45
31
111
110
101
100
110
120
74
79
104
82
73
83
90
72
62
124
95
67
164
124
95
185
150
134
173
157
159
148
154
166
83
109
118
28
35
49
66
78
82
108
116
108
17
36
31
98
111
118
39
43
59
29
48
63
157
185
199
72
79
98
66
99
118
43
55
74
58
30
21
82
65
61
56
38
20
226
189
165
37
36
32
61
71
70
52
58
70
201
192
182
22
18
15
156
171
200
218
106
53
125
122
70
255
247
76
255
255
112
213
131
26
243
201
120
172
136
125
151
115
106
159
130
129
52
40
46
205
209
226
157
184
204
250
252
255
231
237
235
221
240
223
214
216
210
255
255
255
255
255
255
251
255
255
88
95
89
255
255
255
87
73
68
219
255
255
44
61
62
46
64
55
40
35
29
58
58
43
60
57
57
147
136
103
160
147
110
79
67
62
112
137
151
161
168
176
68
46
38
72
112
132
100
138
164
107
140
166
121
160
180
30
141
255
81
85
255
61
8
60
5
3
3
2
7
5
2
10
9
7
7
8
9
4
3
7
5
3
3
3
3
3
7
5
3
6
3
5
7
3
5
7
3
5
4
1
5
2
3
4
4
4
5
5
5
2
2
2
2
2
6
5
5
5
3
7
5
7
2
1
6
3
0
5
4
4
5
5
5
5
5
5
4
4
4
7
5
5
8
5
5
6
3
3
3
3
3
2
4
6
4
5
11
1
7
8
3
5
8
17
8
8
45
27
9
66
33
8
116
63
24
146
89
50
34
26
24
145
91
54
59
24
2
18
11
8
24
15
3
19
13
10
17
10
11
27
17
5
64
49
177
72
133
255
115
105
159
176
152
149
190
168
157
169
156
151
109
108
124
29
37
59
64
76
90
201
217
218
165
131
115
226
223
220
51
85
99
68
60
51
95
103
97
93
90
75
41
44
49
62
79
80
100
115
116
201
219
214
255
255
255
255
255
255
255
255
255
149
163
162
62
57
58
143
138
122
190
181
167
165
148
147
170
148
127
22
14
19
59
53
47
47
44
48
207
255
255
255
255
255
244
196
179
20
16
23
17
7
7
12
17
8
37
42
24
100
83
43
122
94
49
53
34
25
20
23
13
36
27
21
73
47
22
109
72
22
155
109
42
206
150
72
217
157
79
195
139
68
173
125
62
170
125
68
169
129
75
143
111
56
120
92
43
111
80
40
92
61
31
60
41
21
55
43
25
106
72
35
112
73
25
69
46
25
30
16
23
114
89
53
129
87
44
62
41
20
48
41
15
51
32
20
29
26
18
53
36
21
18
9
8
4
9
11
36
25
19
25
20
3
44
31
22
65
46
18
44
27
17
33
32
14
48
38
20
92
74
40
96
69
32
60
27
13
57
37
11
52
33
10
40
19
15
99
64
27
166
105
51
207
135
58
255
182
76
255
226
98
255
225
106
255
205
107
255
207
119
255
231
139
255
250
144
255
255
148
255
255
151
255
221
124
195
161
84
135
118
58
97
87
44
97
91
45
134
119
60
160
132
74
152
122
74
134
109
68
123
105
63
116
101
59
110
95
58
105
88
52
98
82
45
97
82
48
106
88
51
113
97
50
129
118
58
158
146
70
229
198
103
255
255
160
255
255
165
255
255
158
255
255
175
255
255
169
255
255
153
255
255
146
255
255
130
255
254
127
255
220
116
252
180
92
195
142
67
142
108
53
110
92
46
111
102
46
148
132
55
219
184
83
255
209
110
220
139
85
100
47
32
67
32
27
20
24
14
74
43
29
48
28
18
255
255
255
255
255
255
128
63
24
148
86
39
148
87
39
143
90
35
138
104
46
110
90
51
60
50
25
38
34
14
28
22
9
32
20
10
40
29
17
43
38
21
44
41
26
45
41
23
46
42
24
43
39
27
39
35
27
38
34
24
36
31
26
33
24
25
26
18
19
22
19
17
18
18
16
13
13
13
10
10
10
10
10
10
10
10
10
14
11
11
12
17
14
8
17
14
11
12
11
14
12
12
18
18
18
19
19
22
15
15
16
13
13
9
17
15
8
24
18
15
33
25
22
44
36
25
53
45
31
56
48
38
57
49
41
60
51
48
61
51
49
58
49
44
57
49
39
58
50
36
56
48
36
54
45
36
52
43
37
49
41
37
50
43
36
52
45
37
56
47
39
59
47
38
58
47
40
52
48
41
44
44
36
39
37
29
41
33
23
42
33
22
35
31
19
27
24
13
31
18
8
39
31
15
55
48
31
90
53
30
208
132
67
255
189
82
111
85
23
91
59
16
146
76
34
157
78
29
49
26
4
37
114
217
75
205
255
92
146
242
89
95
97
107
102
77
183
195
197
255
255
255
255
255
255
232
255
255
89
83
92
168
104
51
184
146
117
111
110
110
152
123
102
138
103
44
25
28
64
245
255
255
176
244
255
108
121
108
137
151
139
91
102
95
167
137
125
109
116
107
148
135
114
183
144
132
45
42
34
80
58
47
129
109
87
186
178
158
202
217
199
136
182
172
43
18
27
159
116
109
137
114
110
104
87
90
39
34
32
47
42
47
102
110
116
134
133
137
76
79
80
37
31
48
84
142
193
129
219
255
133
211
255
29
114
197
82
133
196
70
109
176
131
71
86
158
111
82
41
36
34
103
68
51
66
48
51
167
138
133
135
126
118
74
29
5
3
48
73
147
189
206
53
56
61
46
87
113
31
34
47
49
47
49
96
88
83
129
110
83
213
186
160
30
34
35
71
86
93
125
91
63
190
188
171
161
148
134
58
88
162
255
205
15
175
83
39
255
255
110
255
196
46
235
188
111
188
108
52
170
91
5
111
79
31
147
129
124
77
38
40
141
151
170
22
28
58
62
53
68
98
98
108
209
220
204
116
134
135
141
140
132
84
88
87
190
206
221
152
158
174
207
208
217
169
187
182
172
203
211
16
33
44
73
66
60
133
114
116
184
159
152
121
116
108
127
117
84
184
166
130
96
82
74
54
60
53
50
87
103
177
189
197
58
70
73
57
65
70
84
97
110
174
210
232
95
196
255
60
122
255
48
24
86
12
3
5
7
8
10
5
8
5
6
8
8
5
4
1
10
4
2
2
2
2
4
4
4
4
4
4
2
5
4
3
7
4
6
7
2
10
4
3
3
2
1
4
4
4
4
4
4
3
3
4
5
5
5
7
4
3
8
4
1
10
7
5
9
6
5
4
4
5
3
3
6
2
1
4
8
5
4
3
2
2
0
1
1
2
3
3
4
2
2
1
2
8
3
3
5
4
3
5
5
2
3
15
13
4
18
9
7
80
39
13
158
93
55
68
48
24
131
79
46
65
34
14
5
9
5
13
16
10
20
14
14
19
7
15
28
16
7
51
69
184
45
133
255
83
70
142
189
170
162
204
179
170
160
139
134
84
68
58
38
26
24
86
104
99
88
108
98
27
18
37
90
110
113
11
21
38
87
115
126
170
191
206
224
248
255
255
255
255
255
255
255
255
255
255
137
139
135
39
51
65
180
176
188
242
237
240
226
227
225
116
132
132
64
52
52
188
187
185
191
183
177
194
179
153
69
66
57
122
124
129
92
81
86
172
216
252
255
255
255
255
235
210
40
25
28
38
26
10
30
27
9
36
26
12
74
61
29
96
79
36
59
38
24
55
27
15
117
78
40
142
99
44
178
129
62
205
147
76
184
131
61
146
105
50
105
75
36
56
38
19
29
22
11
21
12
9
40
29
16
51
38
17
87
64
31
87
64
25
48
41
8
14
15
11
94
59
33
134
95
40
58
38
7
38
32
18
95
71
30
87
57
29
44
22
11
43
34
21
39
34
7
57
50
24
61
37
13
42
21
12
23
13
11
17
18
16
67
48
30
149
119
62
191
157
88
167
135
91
122
95
61
112
91
54
156
131
75
171
133
76
119
78
43
122
81
42
183
120
63
243
165
83
255
212
108
255
246
126
255
255
138
255
249
136
255
202
108
207
149
80
192
153
87
220
180
104
228
187
103
211
174
92
191
159
83
161
132
72
118
95
56
95
77
53
94
78
54
96
84
63
100
91
69
105
95
66
104
93
65
104
90
67
104
88
65
95
79
54
87
73
49
88
74
54
87
72
51
83
72
50
84
73
56
82
67
51
76
63
46
82
73
53
97
83
59
125
109
66
224
201
110
255
255
160
255
255
174
255
255
149
233
191
95
168
153
68
199
177
85
227
187
90
186
147
78
121
95
60
86
72
42
68
61
29
57
49
19
46
33
11
40
25
15
46
35
20
72
58
24
127
117
49
195
151
81
188
125
62
139
97
44
88
73
36
89
62
28
62
31
13
255
255
255
255
255
255
77
40
17
114
68
29
158
91
40
180
109
46
178
122
51
152
111
56
109
81
47
72
61
35
44
41
19
24
21
5
17
10
5
24
18
13
29
27
19
31
32
16
40
37
23
51
45
35
60
54
40
63
57
40
58
54
42
47
45
39
36
34
28
29
31
18
25
26
13
24
20
12
22
16
11
18
16
9
17
17
10
20
15
8
23
13
10
21
9
11
12
7
7
5
4
1
12
12
12
13
13
17
10
10
7
11
9
2
13
5
2
19
11
8
24
15
11
29
18
13
35
24
18
40
31
26
43
35
31
46
38
34
50
42
38
51
43
39
48
42
35
44
42
30
43
43
31
47
45
38
50
43
37
51
43
35
54
47
39
58
50
42
61
52
47
62
52
50
61
52
45
62
51
40
60
48
40
55
45
38
47
41
33
35
33
25
21
22
16
14
13
9
34
14
8
34
31
20
51
46
30
80
48
27
193
130
62
251
182
77
122
81
25
55
39
29
90
50
41
128
69
39
51
32
23
45
121
245
129
181
255
178
169
226
167
162
173
127
131
140
78
75
76
84
93
115
255
255
255
255
255
255
82
72
99
135
98
47
97
127
168
60
23
88
141
131
172
129
106
64
30
10
68
200
255
255
148
200
250
109
124
119
87
90
84
104
103
106
164
131
120
45
48
46
100
74
56
136
100
93
33
40
45
103
94
87
84
104
99
29
69
74
33
39
41
119
57
46
182
154
141
111
126
103
99
85
91
140
136
144
94
101
112
93
103
124
130
127
139
64
44
41
121
172
210
250
255
255
255
255
255
255
255
255
255
255
255
110
189
222
159
231
255
86
203
255
34
119
230
199
54
69
202
117
86
61
64
68
94
99
103
145
122
118
7
29
33
88
64
55
18
48
76
171
215
250
69
65
70
64
106
145
39
28
21
58
73
91
67
66
56
190
167
142
226
211
180
9
18
30
41
57
70
176
146
120
104
121
114
206
196
181
62
43
136
212
151
36
255
255
75
113
143
45
255
241
113
93
106
59
142
87
44
90
48
22
42
61
38
105
120
110
37
24
24
156
177
213
169
189
216
238
237
239
180
181
180
255
255
255
197
218
220
205
153
137
255
255
226
136
162
172
113
118
143
61
34
13
157
139
138
120
130
146
36
29
28
125
116
114
88
91
89
117
102
92
160
155
147
72
61
31
220
199
173
74
61
66
27
14
21
92
132
139
178
196
203
11
15
29
33
51
59
45
71
80
89
99
104
98
188
255
66
212
255
29
65
138
9
5
2
2
7
10
7
2
2
7
8
11
5
4
7
10
3
2
1
1
1
1
1
1
3
3
3
4
4
4
5
5
5
3
6
5
9
7
5
7
4
3
4
4
4
7
7
7
7
7
8
4
4
7
10
1
7
10
4
7
15
2
7
8
2
2
0
1
3
1
1
3
3
1
1
6
3
1
2
1
1
2
2
2
2
1
3
5
7
2
75
27
10
177
60
19
182
58
22
86
21
17
9
5
0
8
8
2
40
24
4
113
60
31
109
58
29
110
56
23
56
33
3
14
5
11
13
8
12
11
11
13
14
8
13
25
12
3
50
67
178
79
109
255
74
6
101
120
111
84
208
204
172
182
185
165
163
171
160
147
147
119
58
48
18
89
114
136
222
249
255
255
255
255
255
255
255
255
255
255
161
189
191
40
48
43
115
96
92
192
160
145
249
233
205
255
255
233
172
179
144
13
11
22
135
127
138
234
214
188
255
255
214
221
216
180
98
114
102
112
112
100
191
183
164
161
169
159
43
35
38
53
62
65
139
179
229
255
255
255
255
255
227
60
46
29
51
42
11
46
39
20
57
43
24
97
81
41
126
97
55
111
72
40
98
63
32
91
63
26
74
55
15
74
54
33
21
16
5
73
56
38
128
93
49
124
82
41
101
63
40
111
74
53
109
73
46
57
38
17
35
24
15
35
21
11
59
38
27
59
26
17
4
3
14
97
57
33
140
99
52
51
31
13
42
35
20
74
51
13
77
48
28
46
26
18
33
27
10
64
50
19
115
84
33
112
79
31
78
58
31
70
44
26
136
103
66
224
179
110
255
239
147
255
221
143
219
182
122
172
134
88
98
63
32
93
73
30
159
129
60
236
188
101
255
250
139
255
255
149
255
255
153
255
255
151
255
248
139
255
219
123
231
176
101
177
136
81
149
123
77
145
129
78
136
122
65
118
103
50
105
89
49
93
78
48
77
65
38
62
50
27
57
44
29
67
55
45
87
76
63
100
87
61
93
80
50
85
73
50
81
69
49
76
64
44
74
62
42
70
59
39
63
54
36
59
51
38
60
51
37
60
51
35
53
48
36
54
48
38
58
50
41
63
51
45
68
61
47
85
80
50
105
96
58
104
89
53
89
75
42
83
71
41
85
75
44
84
79
46
87
81
48
81
73
41
66
60
34
53
52
35
45
45
29
44
38
25
36
28
15
22
19
13
34
29
15
52
40
22
57
55
32
74
72
35
84
64
26
67
44
21
66
52
32
88
75
28
103
68
25
255
255
255
255
255
255
97
55
27
69
39
16
85
52
21
137
88
42
168
117
44
193
139
66
182
127
69
140
102
58
92
77
38
56
51
21
27
24
11
11
12
9
15
15
7
24
20
6
31
26
16
40
36
15
53
47
17
62
58
25
68
65
33
59
59
35
41
40
26
29
24
16
16
18
7
12
11
3
13
7
2
10
8
1
10
10
6
12
8
3
20
11
11
30
18
20
31
23
26
19
18
18
2
2
2
14
14
17
20
20
20
22
18
11
17
9
7
14
11
13
17
15
12
19
13
14
22
14
17
27
19
19
32
24
20
34
26
22
35
27
23
39
32
26
44
38
31
47
39
34
45
37
33
46
38
34
49
41
35
50
42
32
51
43
31
53
45
33
55
47
35
57
49
37
61
51
40
66
52
40
67
52
39
63
49
38
55
45
35
46
38
30
46
34
25
46
37
27
48
38
28
34
37
23
45
36
19
62
36
20
160
111
46
234
172
81
142
98
38
32
23
25
37
12
36
137
58
12
100
50
7
97
84
148
195
172
255
145
179
251
119
120
103
94
91
94
90
92
101
114
134
162
255
255
255
255
255
255
37
34
86
82
57
35
111
129
220
53
29
100
133
162
249
124
127
114
10
30
100
177
239
255
121
164
218
64
76
90
63
81
92
176
171
169
161
140
126
29
32
31
119
90
69
142
112
89
56
47
28
113
98
82
124
89
73
210
190
170
181
188
165
77
84
76
53
64
61
106
92
103
185
183
180
129
159
153
94
110
117
102
96
90
67
32
9
169
230
255
255
255
255
255
255
255
171
238
253
141
155
145
255
255
255
143
148
130
139
165
160
49
44
32
132
141
153
144
27
73
255
168
110
88
60
72
34
29
30
122
95
94
184
153
135
158
135
115
100
124
152
191
227
255
45
47
25
62
111
146
31
31
43
30
60
82
50
57
50
205
179
165
255
255
225
40
61
65
102
58
28
149
144
118
42
22
28
198
202
191
160
143
144
255
207
77
255
228
68
153
94
56
223
215
126
94
86
68
89
61
33
12
11
33
42
59
46
95
112
114
28
22
6
164
196
239
134
175
188
43
42
54
149
149
134
218
234
227
123
156
165
172
132
116
185
203
183
16
36
58
84
73
85
83
108
100
49
72
89
74
71
79
111
102
102
119
120
117
50
46
50
145
141
134
117
105
99
122
110
99
255
231
214
70
57
56
55
51
41
112
128
116
112
130
139
38
55
67
72
95
102
113
140
152
105
119
144
52
111
216
34
226
255
16
87
166
11
10
13
5
5
4
4
2
6
4
7
2
7
4
10
5
4
7
3
3
3
2
2
2
3
3
3
4
4
4
5
5
5
2
2
2
9
4
3
8
5
4
4
4
4
4
4
4
4
4
5
4
4
7
8
4
9
12
4
10
13
2
8
6
3
5
4
3
2
1
1
2
3
2
3
4
3
2
3
4
4
0
4
4
1
4
3
32
8
6
255
122
32
255
174
51
255
175
41
247
88
38
18
9
5
7
7
6
14
8
5
46
21
5
61
28
13
58
30
10
22
15
7
4
5
4
3
8
11
5
11
5
8
6
12
24
9
10
53
72
184
85
160
255
143
169
222
125
131
127
30
23
22
135
135
122
235
238
227
255
255
255
255
255
255
247
255
252
137
156
139
10
30
14
142
124
131
242
223
206
255
245
220
255
235
211
197
196
179
149
159
155
55
54
62
140
141
138
255
255
255
255
255
255
194
217
195
7
32
54
223
200
188
255
255
255
255
255
255
210
209
205
115
102
85
129
143
135
47
49
48
80
91
84
99
133
177
255
255
255
255
255
255
68
56
29
40
35
15
34
24
19
60
46
22
111
93
39
124
87
42
70
42
10
29
21
11
49
30
19
86
62
33
113
87
44
169
125
61
232
162
83
232
157
80
195
133
63
161
114
55
160
115
53
155
109
48
139
93
44
109
69
40
75
50
25
75
53
30
61
41
13
57
39
32
123
74
37
100
65
36
35
30
24
39
32
19
61
39
14
79
47
28
37
21
10
27
19
19
62
41
29
50
34
17
76
60
38
215
163
102
255
239
155
255
255
167
255
255
163
255
211
142
161
125
82
148
124
80
179
157
102
140
109
69
124
101
64
194
164
105
255
210
131
255
204
117
230
192
101
213
181
95
181
153
81
135
122
66
102
99
57
92
91
53
99
96
58
105
94
61
94
78
50
80
66
44
72
62
48
62
54
42
48
42
32
35
34
25
32
32
20
38
35
24
55
51
41
66
59
43
63
55
39
60
54
42
55
50
39
46
44
30
36
36
23
30
31
20
27
28
18
22
24
12
17
21
12
17
19
13
16
18
11
18
21
12
26
24
15
26
26
14
15
19
13
12
18
15
25
22
21
37
33
29
37
34
25
35
36
24
41
39
32
53
47
43
59
51
47
61
54
44
64
59
39
67
60
38
67
58
40
61
56
41
62
55
43
60
54
37
49
49
29
56
50
34
69
51
34
62
47
22
68
50
19
75
49
21
58
36
18
68
52
30
111
86
41
141
87
31
255
255
255
255
255
255
129
77
39
151
97
47
153
95
40
130
80
39
72
50
17
77
55
18
110
77
34
122
87
55
97
76
39
58
53
19
32
31
20
4
1
11
18
15
15
24
17
14
20
19
15
26
22
10
29
25
9
33
24
8
53
40
11
64
53
28
52
48
28
40
33
20
19
26
12
5
12
5
3
7
4
5
3
1
6
6
6
4
4
4
9
9
13
12
12
12
19
19
13
27
27
24
14
14
14
3
3
3
15
15
14
24
21
17
24
16
15
20
14
17
13
14
11
13
18
12
12
19
13
14
19
12
19
23
10
23
27
13
25
29
17
29
33
19
38
35
24
48
34
32
51
36
35
50
38
32
50
38
31
49
37
29
49
37
29
51
39
31
52
40
32
52
40
32
52
42
35
54
48
41
58
54
44
61
56
45
63
53
44
63
51
42
69
53
37
75
58
42
65
59
42
55
54
26
59
44
22
73
48
28
138
91
25
216
151
59
185
136
64
84
124
181
101
158
234
100
109
189
80
19
34
88
16
111
173
59
255
47
80
192
142
141
119
98
95
103
35
37
44
163
200
255
255
255
255
200
255
255
59
39
25
50
31
92
104
181
255
37
91
116
174
221
255
106
135
135
105
138
202
248
255
255
156
188
222
86
96
93
74
74
61
172
142
126
123
119
109
177
161
144
192
183
165
48
62
69
86
81
69
42
48
31
226
217
193
144
156
146
164
171
158
17
43
28
31
18
22
113
83
93
142
146
136
104
125
116
69
50
45
13
47
94
96
167
236
255
255
255
244
255
255
51
81
86
27
19
28
94
66
71
255
255
255
143
143
126
97
122
129
99
119
109
67
65
57
79
81
102
245
138
121
197
105
75
65
80
106
82
83
67
65
74
65
43
70
54
180
217
231
204
244
255
16
17
10
65
111
115
65
43
20
63
57
49
85
76
59
209
182
160
255
255
255
49
53
68
211
183
144
57
90
80
159
136
122
190
203
178
174
154
113
120
87
39
46
29
24
204
127
32
144
174
111
7
22
32
34
27
4
29
38
39
58
69
67
77
75
76
24
47
55
129
167
203
109
133
150
68
67
67
155
144
128
170
198
201
51
88
97
193
197
195
131
159
159
48
36
46
105
67
64
162
134
133
133
132
145
39
16
20
142
135
134
79
85
80
62
67
60
82
78
66
66
51
52
228
221
211
196
172
148
32
40
52
33
51
46
94
105
104
44
42
46
35
65
72
74
85
89
128
151
159
69
82
92
105
168
255
75
204
255
37
64
118
5
8
12
1
2
8
1
4
4
1
7
6
2
7
7
4
5
11
4
4
4
4
4
4
4
4
4
4
4
4
7
7
7
2
2
2
10
2
2
9
3
1
1
2
1
7
3
2
8
4
0
7
5
1
2
7
4
7
8
7
5
6
7
1
3
5
3
4
4
5
5
5
3
3
3
4
4
4
4
4
4
4
3
3
6
6
4
57
15
13
255
159
40
247
101
30
255
149
35
255
109
48
21
2
7
7
10
5
10
10
2
10
8
6
8
3
5
4
8
4
2
1
8
4
4
4
3
4
7
7
11
7
8
10
15
15
1
13
60
60
167
114
171
255
202
200
229
250
247
220
197
206
181
53
71
55
71
48
37
119
99
98
210
206
202
238
252
246
220
232
232
212
204
209
161
156
155
130
139
129
100
109
102
7
17
13
38
23
29
46
68
86
142
140
144
148
146
156
147
136
151
255
255
255
255
255
255
255
249
227
60
49
35
139
123
120
234
199
178
223
193
168
142
111
76
87
82
76
61
64
76
82
83
79
117
163
198
255
255
255
255
255
255
116
77
36
93
57
25
69
40
16
93
69
31
121
85
34
94
52
19
30
12
15
21
24
19
13
16
6
40
27
11
111
80
34
176
128
62
180
123
67
122
86
49
124
102
63
137
113
59
118
95
41
101
81
39
121
91
43
110
69
48
72
47
34
61
38
17
10
7
11
119
83
39
108
64
19
47
25
9
15
18
19
48
34
29
82
50
35
77
49
27
35
26
9
83
69
38
195
154
93
255
239
136
255
255
172
255
255
192
255
255
171
237
194
117
150
123
70
75
65
36
41
38
24
71
59
38
127
113
72
172
146
98
192
161
104
181
150
92
140
114
64
109
90
47
100
86
47
86
74
42
70
58
34
64
53
34
63
54
34
64
56
38
78
69
53
80
71
55
71
63
49
56
50
38
36
34
22
17
17
8
10
10
3
18
18
9
29
29
18
45
45
34
59
57
45
48
44
32
30
28
22
28
28
26
25
25
25
21
21
21
17
17
17
12
11
11
8
5
5
5
4
4
5
5
5
5
6
6
4
7
7
6
9
9
11
11
11
18
18
12
12
12
4
7
7
4
6
6
2
15
17
10
24
26
14
28
29
22
29
29
24
29
29
27
33
33
31
37
37
33
49
50
42
62
60
49
72
60
44
69
59
42
67
60
46
71
60
43
68
64
38
83
78
49
102
80
47
110
81
32
140
101
38
137
92
39
107
69
31
107
77
32
141
92
43
144
82
33
255
255
255
255
255
255
146
95
51
135
89
34
180
121
57
208
145
70
205
147
72
185
132
69
135
91
47
95
65
38
97
70
41
67
54
25
40
37
24
13
13
3
21
21
12
33
25
22
28
25
16
31
23
8
27
16
10
13
6
8
27
10
3
50
33
16
63
52
34
64
53
31
38
41
15
12
20
8
1
7
5
2
5
4
7
5
4
3
3
3
6
6
8
8
8
12
4
4
8
22
22
16
21
21
19
5
5
5
14
14
8
22
22
14
26
18
20
24
16
20
15
17
13
10
13
7
8
11
5
12
16
10
14
18
11
15
17
10
20
18
13
26
21
19
31
24
24
35
30
28
40
35
31
40
36
32
41
37
33
44
40
36
46
42
36
44
40
30
43
39
27
45
41
29
45
41
29
46
42
30
51
47
35
57
53
41
62
59
44
65
61
44
66
56
36
60
47
31
53
44
27
62
48
30
73
52
44
106
77
44
155
110
42
159
110
40
166
132
88
131
199
255
43
85
134
33
132
255
56
30
37
66
132
255
131
165
255
94
116
159
85
81
53
129
122
136
44
47
52
204
255
255
238
255
255
60
98
95
99
97
129
172
222
255
210
255
255
92
106
161
197
255
255
89
86
79
176
211
255
215
255
255
39
58
86
36
31
53
43
50
69
165
129
124
91
105
121
255
255
226
80
84
77
153
176
178
118
134
117
87
82
82
252
251
227
34
26
26
187
205
192
36
47
44
89
69
76
136
121
124
113
107
102
97
83
62
8
75
117
144
251
255
140
219
255
190
226
223
171
206
183
105
115
109
133
158
152
176
184
185
255
255
255
91
106
71
53
60
89
56
47
65
94
106
117
78
105
114
111
31
57
255
123
28
40
23
82
131
136
117
134
96
73
143
122
107
161
219
222
204
246
244
5
15
17
104
137
121
96
71
49
56
63
58
90
86
76
227
197
167
255
255
255
52
43
45
194
179
140
70
63
59
194
188
171
192
197
164
78
62
32
157
126
94
221
162
95
169
161
104
81
113
91
57
40
22
85
58
39
98
62
43
112
77
58
104
70
50
115
85
62
186
198
217
140
152
166
76
78
68
157
150
135
180
214
219
74
78
83
192
210
211
38
68
68
121
111
119
92
104
106
149
165
172
160
172
180
43
46
58
115
113
111
34
27
19
58
44
31
43
29
17
26
25
47
252
250
230
89
51
28
83
78
84
104
87
65
175
156
130
149
138
122
68
75
73
38
18
20
112
132
135
79
111
135
9
127
255
70
113
255
56
9
47
6
7
6
5
1
14
5
3
17
10
0
6
8
4
8
5
6
8
7
7
7
7
7
7
4
4
4
2
2
2
5
5
5
7
7
7
8
5
4
8
3
2
5
7
3
5
9
5
3
9
5
6
6
2
10
4
2
11
3
4
2
3
6
2
2
6
4
4
4
5
5
5
5
5
5
4
4
4
7
5
5
10
5
5
9
5
4
41
9
14
255
129
43
255
136
26
255
162
36
227
78
47
12
3
7
16
7
10
8
6
7
2
3
9
1
4
13
3
6
15
3
6
8
2
2
1
1
2
3
8
13
7
7
11
14
7
4
11
77
24
124
96
123
255
136
121
195
174
159
158
163
159
161
161
173
169
131
148
132
35
48
48
98
71
51
163
130
102
138
106
93
123
114
110
100
120
113
82
111
110
166
187
203
190
216
230
147
190
204
255
255
255
255
255
255
255
255
245
26
37
32
88
63
63
161
118
116
205
155
124
182
154
118
80
71
49
75
70
67
204
174
147
152
117
80
56
46
40
88
92
108
27
45
40
144
176
201
255
255
255
255
255
255
231
148
58
228
145
58
176
112
41
145
96
42
135
81
33
113
63
29
97
63
33
87
60
29
68
36
10
71
55
17
81
62
21
116
84
55
84
59
43
45
38
22
38
34
26
50
32
27
36
26
30
69
57
32
123
91
34
124
77
50
76
45
30
71
41
15
104
65
26
137
91
32
103
70
25
83
60
26
94
65
27
102
58
24
109
64
31
94
65
25
151
115
62
255
230
141
255
255
177
255
255
183
255
255
160
218
173
97
94
64
28
21
17
12
26
20
17
30
18
13
33
32
27
29
26
21
50
44
18
87
73
40
106
85
47
96
71
41
77
56
38
66
50
40
53
39
37
36
23
26
21
10
13
24
14
17
31
18
14
28
18
11
32
28
21
13
10
8
11
11
9
10
10
4
11
12
8
14
11
10
21
16
11
26
24
16
32
32
25
42
42
36
38
35
29
19
15
11
4
2
6
4
4
2
5
5
3
10
10
10
13
13
13
15
12
12
12
9
9
7
7
7
3
3
3
4
4
4
3
3
3
1
1
1
5
5
5
12
12
9
12
12
7
13
12
4
16
13
5
18
16
8
16
16
2
15
13
1
15
12
4
15
14
8
18
18
18
17
17
16
18
18
15
23
25
21
39
35
24
40
37
22
40
42
25
61
51
30
72
61
41
96
90
53
139
120
61
184
139
63
211
142
66
193
125
58
184
114
53
182
112
48
158
98
42
104
66
37
255
255
255
255
255
255
178
113
52
165
113
46
121
77
36
108
74
44
118
82
35
139
103
47
139
115
62
116
93
51
99
73
41
61
53
29
20
28
12
3
5
2
12
14
6
29
25
23
32
28
23
36
29
10
34
19
13
15
8
8
16
8
2
26
14
5
52
36
22
80
61
41
65
57
28
32
34
14
13
15
6
14
13
9
16
11
7
9
4
4
7
4
4
10
8
8
6
2
0
19
17
11
25
20
17
12
9
8
13
13
7
24
22
17
25
17
21
21
16
17
17
17
15
10
12
8
7
11
7
13
11
11
12
7
10
12
4
8
20
11
16
25
17
21
26
21
21
22
26
19
24
27
18
28
28
20
32
32
24
36
36
28
39
39
31
39
39
32
40
38
30
45
39
31
49
39
31
50
36
25
52
36
24
56
42
29
56
46
30
54
47
32
51
45
29
43
36
20
32
23
17
48
23
11
62
40
25
113
75
14
160
101
26
97
63
21
102
109
131
182
255
255
36
11
65
74
189
255
106
81
105
174
110
255
195
125
187
105
103
80
73
69
43
152
144
154
58
69
56
232
255
255
255
255
255
173
161
160
202
223
255
185
255
255
86
143
206
122
190
255
154
246
255
84
46
20
128
178
255
133
209
255
52
84
113
32
33
46
46
32
34
179
141
122
54
56
80
255
247
206
18
20
29
154
198
200
79
68
55
94
100
89
197
206
187
123
104
91
145
158
151
103
81
85
145
119
108
110
97
84
103
81
62
42
17
67
161
255
255
131
227
254
49
55
54
150
151
152
167
203
191
49
83
76
23
18
22
101
61
65
238
227
213
118
97
113
129
148
164
99
116
110
30
57
51
58
39
34
87
80
71
255
136
43
184
75
24
60
95
102
67
41
17
32
42
48
76
152
171
198
230
235
10
29
33
125
154
151
77
58
38
55
55
44
64
70
59
250
217
179
243
241
235
123
90
46
118
99
70
38
68
67
126
148
148
149
122
102
195
145
74
235
183
94
153
132
69
55
78
61
50
23
21
133
109
87
146
118
90
164
150
125
185
171
145
156
143
120
65
63
53
233
246
255
158
177
189
45
31
26
139
132
116
198
232
229
89
58
44
143
165
153
61
42
44
109
134
139
31
8
14
97
112
108
128
142
160
110
130
144
97
113
125
56
60
66
38
27
14
28
20
24
39
27
14
236
233
204
124
96
56
72
86
110
59
63
83
28
14
27
126
97
72
54
56
47
11
28
34
71
79
83
106
134
155
29
151
255
67
123
255
52
4
48
11
4
11
11
8
9
8
7
13
8
1
9
12
3
6
6
5
2
6
6
6
5
5
5
4
4
4
1
1
1
1
1
1
4
4
4
8
8
6
5
7
6
5
11
7
5
8
7
5
5
5
3
3
3
4
1
2
13
3
5
4
6
5
2
8
8
7
7
7
4
4
4
4
4
4
4
4
4
10
7
7
10
5
5
7
4
7
8
5
14
219
57
106
178
57
136
216
50
135
173
29
72
28
21
7
14
6
7
1
7
12
3
3
7
5
3
5
8
2
1
9
4
7
7
3
4
3
5
4
5
12
0
8
7
10
15
4
17
54
38
128
48
141
255
76
77
187
185
187
186
231
225
214
255
255
255
255
255
255
255
255
253
173
189
168
49
79
61
255
250
243
255
255
255
255
255
255
146
170
185
246
248
255
218
220
232
15
43
52
255
250
221
245
255
255
255
255
255
218
215
199
154
153
125
79
108
112
161
166
165
255
255
253
255
255
247
220
199
174
120
106
86
46
60
60
87
96
88
59
48
40
51
84
93
22
17
50
251
255
255
255
255
255
238
157
62
255
160
58
242
145
55
166
101
41
118
77
27
106
73
24
105
76
28
106
68
28
105
57
25
115
66
24
138
92
31
158
106
44
149
100
48
126
87
43
82
49
26
37
29
13
30
24
11
77
62
38
150
107
63
138
93
55
66
47
21
92
64
21
140
91
38
137
83
31
114
63
31
97
45
18
95
53
24
99
60
27
180
123
63
255
203
103
255
255
157
255
255
169
221
185
106
109
99
52
64
53
27
29
17
5
12
15
14
2
4
4
8
13
11
17
10
11
27
27
22
41
37
29
50
47
33
55
53
33
54
51
31
51
47
32
45
43
31
28
27
21
13
11
11
22
18
17
19
15
9
25
23
17
19
18
10
16
16
11
12
12
6
11
12
13
9
12
12
3
5
5
10
8
6
26
22
22
31
27
27
24
20
20
18
18
18
16
17
17
20
17
17
26
24
22
25
24
19
24
24
18
20
19
19
12
9
9
14
11
11
15
12
12
11
10
10
8
8
8
2
2
2
6
6
6
2
2
2
5
5
5
8
8
8
7
7
7
2
2
2
8
7
7
11
10
13
11
9
17
8
9
13
10
15
5
15
17
9
19
18
13
15
15
15
13
13
13
15
15
15
24
21
22
33
20
18
24
17
13
22
32
16
57
49
28
73
59
46
95
87
49
161
147
71
252
186
93
222
132
61
148
95
42
169
104
42
163
92
36
106
58
17
45
26
22
255
255
255
255
255
255
175
89
32
241
145
58
255
164
76
208
130
52
126
89
31
70
61
29
24
15
8
33
28
17
41
31
15
26
26
20
17
18
14
23
19
11
22
17
7
19
16
16
25
22
19
45
34
21
51
35
23
44
34
11
57
46
14
62
48
10
61
44
7
84
62
31
91
73
39
52
46
21
13
13
5
8
8
9
13
11
5
15
12
7
12
8
4
11
5
6
10
1
1
18
11
9
28
19
18
27
18
15
26
18
16
29
21
23
21
13
17
14
15
10
18
17
15
12
11
13
10
13
8
16
11
8
15
8
8
17
11
8
22
20
15
19
19
12
16
16
7
15
15
7
18
18
10
22
22
14
26
26
18
27
27
19
26
27
18
29
32
22
35
36
25
40
35
26
43
35
28
43
35
27
42
34
24
44
35
21
48
36
24
51
40
31
52
43
32
52
40
31
37
24
26
60
29
4
82
54
17
126
76
15
191
119
38
128
89
41
111
148
225
154
254
255
58
99
192
109
199
255
148
101
134
238
141
234
169
154
181
133
131
117
127
130
109
93
97
88
131
133
127
59
121
215
217
255
255
155
180
201
87
192
255
100
181
255
73
67
70
99
183
255
146
255
255
9
7
17
94
168
255
74
149
249
29
42
59
27
29
32
31
27
23
195
161
142
26
25
47
247
219
177
33
10
31
110
135
135
144
136
101
51
73
74
96
114
97
97
87
73
90
103
104
113
100
97
99
82
73
82
70
58
90
50
24
86
159
208
193
255
255
30
10
8
69
109
113
172
146
139
203
200
199
155
142
143
172
184
175
162
174
161
246
250
226
125
125
109
112
132
117
119
104
77
55
51
43
77
85
79
20
53
59
246
135
47
223
100
31
42
88
113
51
18
12
60
35
53
91
152
191
203
232
242
14
35
47
111
143
148
69
57
39
47
54
31
68
54
72
255
254
225
169
179
186
130
96
60
81
81
84
63
84
93
41
60
78
75
47
39
76
51
24
39
47
51
79
59
53
149
125
103
190
176
158
164
148
121
86
80
60
18
10
18
145
125
120
255
217
204
255
255
255
255
255
255
24
49
69
54
59
60
131
128
115
227
255
249
124
101
75
124
143
123
99
111
98
50
75
72
29
36
12
94
81
69
144
141
143
137
147
158
141
155
167
152
161
175
153
151
166
121
116
126
148
136
125
227
224
213
255
255
236
52
54
48
113
110
109
105
83
90
107
79
49
27
35
34
31
58
72
60
66
58
102
126
155
14
149
255
50
138
255
40
12
50
8
9
10
14
7
2
10
10
1
2
7
9
12
4
7
2
1
2
1
1
1
3
3
3
4
4
4
4
4
4
1
1
1
1
1
1
5
4
1
4
5
4
2
8
5
4
4
4
7
7
7
3
3
3
5
5
5
12
7
8
2
7
5
5
5
7
10
1
4
1
1
1
3
3
3
4
4
4
8
5
5
8
4
4
1
3
4
41
13
10
255
109
165
255
159
120
255
143
176
255
67
118
47
21
2
8
8
9
4
2
7
2
2
7
0
0
6
2
2
8
5
4
8
10
2
5
7
9
7
4
9
2
4
4
0
18
9
22
50
41
118
119
108
255
165
105
171
64
64
60
116
116
110
206
187
173
249
224
205
255
246
218
255
255
232
223
216
186
255
255
255
255
255
255
216
218
213
135
99
63
255
255
255
185
204
221
131
82
66
255
255
255
220
255
255
255
255
255
255
255
255
255
255
255
242
236
216
72
49
29
128
144
150
255
247
235
255
255
255
255
255
255
239
230
204
157
130
117
21
40
53
25
7
10
79
67
43
101
241
255
166
255
255
111
74
31
143
84
25
199
117
46
174
100
44
128
84
33
113
74
22
101
64
22
106
66
29
139
92
48
164
105
55
196
129
65
246
171
85
255
197
101
255
193
101
212
142
76
141
86
49
87
50
33
57
43
26
148
109
71
135
95
54
66
37
17
71
42
21
105
67
36
82
50
19
44
17
11
55
44
21
203
132
62
255
255
129
255
255
184
255
255
193
255
241
147
166
129
83
61
45
31
24
15
16
1
6
9
9
12
4
31
29
19
45
38
31
47
34
27
43
29
18
39
32
21
42
39
35
39
39
36
28
30
24
20
21
10
17
18
4
24
25
6
17
20
7
21
22
14
28
26
19
28
24
14
22
21
7
15
15
1
19
17
8
24
20
18
24
20
20
23
19
19
23
19
19
22
20
17
17
17
12
9
10
7
7
6
6
2
6
6
10
11
11
24
23
23
32
29
29
34
30
28
31
27
23
26
23
23
20
16
16
17
14
14
15
14
14
8
8
8
5
5
5
1
1
1
4
4
4
10
10
10
13
13
13
13
13
13
11
11
11
9
9
9
10
9
9
15
12
14
16
12
11
22
21
20
27
25
12
30
26
17
29
26
21
25
25
21
24
24
20
26
26
22
40
32
26
49
36
22
48
44
27
57
59
34
79
67
41
81
65
49
92
79
43
157
138
66
255
192
99
240
144
63
101
49
16
71
47
18
76
48
22
76
40
25
66
29
10
255
255
255
255
255
255
93
40
19
165
84
17
255
151
63
255
188
86
255
182
76
230
165
69
184
136
60
146
101
45
115
78
28
88
64
25
56
44
20
34
33
17
27
31
17
23
27
17
31
24
14
63
38
14
79
56
21
92
69
32
114
84
36
122
94
43
97
78
17
86
68
18
105
84
40
71
64
33
20
20
14
15
13
18
13
7
10
5
7
2
5
5
5
10
8
10
8
5
11
4
3
1
14
11
12
19
13
16
14
7
10
14
12
13
11
11
11
17
20
15
24
26
20
20
17
19
15
11
12
16
11
6
15
13
8
16
16
14
15
15
13
9
11
5
8
10
5
11
12
6
13
16
7
19
20
7
25
20
7
27
19
9
26
18
11
28
20
12
29
23
13
28
26
12
30
30
16
33
32
22
35
32
23
36
32
21
39
33
22
47
37
27
54
43
24
63
51
35
69
48
37
125
82
27
153
106
35
157
101
37
193
118
44
96
83
71
80
168
255
84
179
238
81
166
255
66
142
166
58
126
255
131
131
255
95
118
152
145
136
127
163
161
148
41
41
44
13
26
27
84
146
255
156
255
255
163
155
144
102
131
255
142
165
255
145
157
147
52
105
233
221
255
255
31
7
24
140
221
255
54
140
237
5
25
55
38
20
17
30
25
33
217
189
174
45
32
39
242
203
162
72
31
5
36
56
69
145
125
93
50
29
36
76
89
79
59
61
67
52
79
77
104
91
84
84
57
59
98
84
60
55
87
138
255
255
255
225
255
237
167
154
135
144
138
130
255
255
255
217
235
228
113
130
120
54
72
63
125
122
107
183
194
177
42
44
25
42
29
31
95
87
82
80
54
53
156
109
65
249
206
142
255
255
185
165
124
126
80
122
148
7
22
36
14
40
59
130
173
212
181
211
212
52
72
99
143
166
168
149
131
136
181
167
177
225
213
215
255
255
255
169
183
194
174
160
144
176
148
118
123
92
72
63
44
49
106
86
83
182
154
121
221
195
150
204
185
151
119
103
77
39
51
73
182
184
202
255
255
255
255
255
255
255
255
238
255
238
206
239
202
187
104
98
117
123
90
58
59
56
50
120
112
103
241
255
248
151
146
119
91
101
92
87
117
102
40
45
52
88
62
75
143
135
124
172
165
153
69
70
83
86
89
103
65
72
72
55
49
50
100
95
85
225
215
210
180
169
138
255
255
230
142
143
152
92
98
107
35
43
68
49
57
75
55
78
84
70
98
108
60
67
64
69
84
113
21
167
255
36
146
255
36
8
33
4
5
13
9
2
3
1
2
5
2
10
2
9
10
7
3
4
2
1
1
3
1
1
3
4
4
0
7
7
4
5
5
3
4
4
2
2
5
1
5
7
6
1
4
3
3
3
3
7
7
7
7
7
7
8
8
8
6
5
5
2
4
6
2
7
8
11
3
3
6
4
4
4
4
4
3
3
3
6
5
5
7
5
5
10
7
2
143
56
45
255
223
209
255
145
218
255
167
250
255
87
236
102
23
26
10
4
3
7
4
9
1
1
5
0
0
2
2
2
10
5
7
5
8
12
10
5
11
8
3
5
4
5
5
7
7
9
20
51
36
102
137
132
255
212
198
255
212
220
211
134
147
140
39
60
64
51
62
67
101
70
54
181
152
144
224
210
202
255
255
255
255
255
255
148
163
157
255
229
179
255
255
255
96
148
169
243
195
162
255
255
255
118
175
191
255
255
255
113
104
103
222
217
227
255
255
255
255
255
255
195
185
145
18
15
9
133
135
147
218
210
210
173
155
132
150
147
139
89
61
50
69
80
86
18
22
4
49
143
255
90
234
255
29
40
58
36
18
17
94
58
24
133
72
29
120
62
23
108
56
21
100
51
28
99
51
22
115
67
16
144
93
32
173
112
49
203
129
57
234
148
67
255
174
82
240
160
82
175
119
59
129
86
46
83
51
23
123
93
60
81
65
37
68
51
25
130
89
44
178
114
64
187
103
49
228
136
68
255
237
132
255
255
193
255
255
213
255
255
180
250
192
115
105
83
48
29
19
12
16
7
7
34
17
21
23
18
20
25
22
26
30
26
25
31
27
23
27
24
16
17
18
4
7
13
5
2
10
7
7
7
13
5
11
15
4
5
2
7
7
4
15
14
4
7
4
2
10
8
8
14
14
14
10
10
10
12
12
9
16
13
7
18
14
8
19
15
10
20
17
15
17
16
14
16
16
10
16
16
8
7
7
2
5
5
6
7
6
6
9
7
7
12
10
10
12
12
12
12
11
9
16
13
9
13
10
7
14
13
13
12
11
11
16
16
16
17
17
17
14
14
14
14
14
14
12
12
12
12
11
15
19
17
22
20
20
20
20
20
14
20
20
12
20
20
12
20
20
12
22
22
16
28
27
24
34
32
26
34
31
21
34
27
22
35
26
20
36
28
18
37
29
18
44
37
24
59
47
30
65
56
32
79
73
42
104
89
57
130
98
68
145
104
67
159
116
65
179
124
66
196
144
65
215
150
64
155
85
37
57
21
18
19
14
7
38
24
14
66
34
15
255
255
255
255
255
255
27
15
10
53
31
13
127
66
18
218
120
43
255
166
62
255
191
75
255
192
75
255
183
74
243
166
71
194
136
56
137
97
38
96
72
31
81
67
35
75
60
31
64
47
18
80
56
24
117
86
38
138
104
55
121
85
35
113
75
38
114
83
37
107
77
28
122
95
45
85
78
48
33
29
25
20
12
18
20
14
18
18
14
11
22
21
17
26
21
19
29
23
25
27
25
26
25
23
24
33
26
29
43
35
39
51
43
47
48
42
45
39
38
37
35
41
32
29
32
27
21
21
21
19
18
13
17
17
10
16
16
13
14
14
12
9
11
5
10
8
6
18
13
10
19
14
4
20
11
3
19
10
4
21
13
5
26
17
12
27
16
15
24
14
12
22
16
9
23
19
10
24
20
9
26
22
10
31
25
13
32
25
14
32
24
17
33
27
17
50
45
32
100
69
30
172
116
46
158
105
41
128
82
33
137
74
32
46
86
122
20
186
255
54
104
131
79
170
255
89
104
145
159
238
255
198
213
239
116
110
118
100
86
81
184
176
160
72
77
67
95
100
111
67
175
255
113
230
255
130
74
14
67
70
255
29
62
165
207
201
173
62
103
214
240
255
255
48
31
53
178
255
255
57
119
211
43
47
47
40
36
35
90
77
69
227
201
184
109
68
53
242
195
156
47
34
11
55
42
36
161
142
122
16
17
16
71
67
59
67
68
73
87
102
90
97
70
66
105
73
58
21
34
73
253
255
255
255
255
255
198
237
223
181
205
199
49
87
79
225
230
215
93
117
104
17
8
18
59
60
64
211
214
209
182
205
202
97
115
121
13
31
49
93
76
42
150
136
106
198
198
166
201
226
189
147
153
134
58
114
153
93
130
156
86
73
71
37
33
32
91
120
150
221
230
243
255
255
255
207
212
211
120
108
108
38
46
41
58
44
48
220
215
190
151
147
145
149
129
103
205
190
153
237
218
176
219
192
148
155
122
74
39
4
43
75
91
130
172
165
186
255
236
239
255
255
255
255
255
255
255
250
217
205
166
140
77
63
52
45
39
54
79
59
68
91
32
40
92
72
51
51
44
31
158
155
154
171
196
189
154
150
141
32
36
30
54
80
71
14
41
59
235
213
215
184
199
215
255
255
255
163
168
173
115
119
116
104
101
96
126
118
120
106
97
83
151
148
152
207
197
168
129
113
96
70
73
55
121
104
93
53
24
42
42
49
68
49
58
54
56
67
70
74
82
93
48
39
45
30
182
255
37
152
255
39
7
28
1
8
12
11
8
9
1
8
10
5
7
7
12
10
7
10
7
2
6
6
2
7
7
3
7
7
3
7
7
5
5
5
3
8
8
4
11
11
8
9
9
8
3
3
3
2
2
2
7
7
7
10
10
10
8
8
8
4
4
4
3
3
5
4
7
8
9
9
7
13
8
9
8
8
8
7
7
7
8
8
8
7
7
7
15
11
8
206
73
88
255
176
255
255
255
255
255
255
255
255
101
255
117
14
66
14
8
19
10
7
4
4
4
8
2
2
6
3
3
7
7
7
4
8
8
8
4
4
4
0
0
2
8
5
5
1
11
12
40
30
91
139
136
255
228
217
255
255
255
255
255
255
247
236
222
193
170
163
136
68
63
39
73
69
79
175
159
155
255
255
255
255
255
255
52
82
96
255
255
255
255
255
255
11
57
84
255
255
246
255
255
255
79
138
152
255
255
255
139
128
124
32
22
29
146
138
145
232
216
209
236
234
216
165
181
164
62
76
64
62
33
39
87
68
39
143
147
139
139
125
115
64
82
90
51
55
66
17
122
255
48
204
255
8
43
75
19
12
24
32
14
7
72
38
13
77
36
7
71
31
18
65
30
22
53
26
10
44
19
4
55
31
10
57
30
8
51
20
5
80
46
8
169
106
42
174
107
51
157
99
47
166
119
63
159
113
61
86
55
31
27
34
27
79
69
39
126
98
46
226
166
82
255
232
116
255
255
140
255
255
167
255
255
155
235
191
102
111
91
49
55
48
23
20
22
9
5
10
5
6
8
4
19
12
14
15
14
10
22
13
13
17
14
12
12
12
10
8
8
14
7
4
13
9
5
3
8
8
8
8
13
17
4
14
12
6
10
7
10
10
4
10
10
4
4
4
2
7
5
5
6
5
5
5
8
10
10
11
15
14
11
15
14
12
13
12
12
14
12
12
13
11
11
13
8
8
6
6
6
4
13
13
9
10
10
10
11
8
13
13
11
13
14
13
13
12
12
12
10
10
8
8
7
10
12
11
13
15
13
17
20
20
20
24
24
24
25
25
25
24
24
24
24
24
24
25
25
25
27
27
26
29
29
22
27
28
19
31
31
22
32
32
24
34
31
24
38
30
23
40
31
21
42
33
25
45
36
29
44
37
31
44
35
29
44
36
27
47
37
29
53
40
32
63
51
37
73
63
44
85
75
49
108
95
59
135
112
71
174
135
75
214
165
79
240
185
85
251
181
84
227
158
72
172
118
49
133
70
32
74
39
24
21
17
11
14
9
8
21
8
0
255
255
255
255
255
255
10
2
0
4
5
2
17
10
8
65
23
12
116
55
10
174
96
31
218
125
44
238
143
55
242
152
67
235
159
73
213
147
66
193
126
56
175
114
50
139
94
41
91
62
28
95
69
33
143
99
48
112
81
41
7
6
2
80
59
31
117
85
33
153
112
48
148
121
65
85
84
53
37
37
24
26
26
20
25
26
19
29
29
19
38
33
28
44
34
30
53
38
33
59
40
38
68
49
46
77
60
51
73
58
46
65
50
39
53
41
32
46
37
32
44
41
35
36
34
29
31
25
28
27
21
24
20
14
12
17
17
12
21
21
18
19
21
17
18
15
8
20
17
12
12
15
13
8
5
5
8
4
7
5
5
3
7
7
5
9
8
4
11
8
9
13
8
3
14
10
6
18
13
8
22
15
5
25
16
4
23
17
10
19
16
13
15
12
20
40
19
22
138
79
29
188
113
42
140
74
30
98
52
14
85
56
22
7
95
183
29
199
255
71
56
49
69
171
255
21
83
198
40
151
255
134
117
98
105
109
97
139
130
124
185
183
161
38
45
45
38
42
54
80
200
255
121
255
255
138
83
87
128
80
255
45
25
87
186
160
113
44
18
142
198
255
255
85
96
124
143
243
255
24
74
152
64
63
59
66
47
52
133
107
98
229
197
183
171
134
116
231
196
167
17
32
50
36
29
34
126
122
120
57
52
63
58
54
47
124
128
115
97
91
80
89
59
53
88
54
17
132
194
239
255
255
255
128
162
161
60
57
53
216
220
208
82
97
96
219
216
203
152
152
151
187
187
187
150
153
147
198
198
192
97
120
115
136
149
137
121
147
134
132
148
138
90
123
118
31
67
58
41
38
31
63
28
32
43
109
156
19
83
120
54
35
45
108
79
74
119
104
110
115
115
116
66
74
80
40
40
51
126
127
144
157
160
172
138
145
144
255
253
223
255
255
249
81
98
105
61
51
36
119
115
96
146
143
159
232
233
250
255
255
255
255
255
255
255
255
255
255
247
218
167
113
75
8
25
55
96
96
107
54
27
32
72
86
88
82
49
24
170
125
117
185
166
172
104
111
128
83
92
107
247
248
247
141
161
166
182
184
192
63
68
77
50
51
50
83
61
63
255
255
255
157
186
199
255
255
255
246
255
253
127
134
146
113
122
130
75
86
93
60
60
50
125
127
149
181
175
169
181
173
172
80
79
70
117
112
89
71
43
23
14
22
45
8
35
52
32
27
41
12
29
57
18
24
29
20
171
255
48
163
255
40
22
49
5
9
10
9
8
8
6
5
3
4
2
5
5
7
11
4
5
8
5
5
6
6
6
6
5
5
5
7
7
7
4
4
4
5
5
7
6
6
10
5
5
5
5
5
4
7
7
4
7
7
3
5
5
1
4
4
0
5
4
2
8
1
4
13
3
11
12
6
10
10
8
6
3
8
5
4
7
8
7
5
5
4
3
3
12
5
4
151
41
95
255
135
255
255
250
255
255
138
255
196
124
255
80
2
66
9
6
15
7
4
7
7
1
5
3
6
7
3
8
14
3
4
5
7
4
6
3
6
4
0
2
7
9
2
4
2
4
7
57
7
63
162
38
255
113
63
211
199
177
150
255
255
248
255
255
255
255
255
255
255
255
230
189
175
144
65
70
48
151
169
163
255
255
255
38
50
71
255
255
255
254
255
255
87
27
8
255
255
255
255
255
255
33
63
86
255
255
255
255
251
221
215
207
193
101
86
89
67
80
93
235
224
223
255
255
255
255
255
255
247
255
248
215
212
191
220
224
208
167
155
139
66
81
97
97
106
116
19
113
242
32
188
255
14
37
77
17
13
23
10
10
7
24
13
10
43
23
5
46
25
21
26
19
10
13
8
3
8
8
4
31
20
4
52
37
15
67
36
21
68
34
22
91
62
19
130
90
37
142
90
46
148
95
49
143
97
50
112
74
36
81
52
27
73
56
24
116
93
40
178
145
64
224
188
94
255
210
116
236
185
109
152
123
68
65
56
26
30
25
14
15
14
8
3
1
5
2
6
4
6
4
2
13
3
12
5
3
2
9
4
8
1
6
7
2
2
6
5
5
12
8
8
13
11
11
4
5
8
1
4
8
11
4
7
9
4
4
3
5
5
9
5
5
7
7
7
1
8
7
5
6
9
9
5
8
8
8
7
5
7
5
5
7
7
8
7
7
7
5
5
3
5
5
5
4
4
7
10
10
8
17
17
12
20
18
15
21
17
12
21
19
13
25
25
17
26
26
18
24
24
18
23
23
19
31
28
23
43
34
29
48
36
32
47
36
32
43
34
29
37
34
27
34
34
26
36
36
28
40
40
28
41
43
25
43
41
28
47
41
34
49
41
37
50
42
38
50
42
38
51
43
37
52
43
37
52
44
34
54
46
29
57
48
30
54
48
30
53
48
32
58
53
37
67
62
42
85
74
48
120
99
55
161
129
72
195
152
81
235
174
76
251
179
71
228
156
63
190
126
53
152
102
40
121
70
23
96
48
16
72
39
23
28
21
5
9
3
5
8
5
4
255
255
255
255
255
255
6
2
9
3
7
10
10
10
5
17
7
4
26
10
5
50
25
11
82
39
10
123
61
19
163
86
30
191
114
43
202
131
52
199
126
53
189
120
46
166
115
44
116
85
36
110
77
37
129
84
41
41
31
12
90
53
25
141
93
40
152
109
52
163
120
60
135
110
64
73
71
45
52
44
31
59
52
40
70
64
47
77
70
52
75
67
51
71
61
45
70
56
42
68
49
41
66
51
39
61
51
33
46
38
18
39
31
18
34
26
17
39
29
20
41
37
31
32
34
23
29
32
26
27
21
26
17
7
8
7
7
11
15
15
15
22
22
22
25
20
17
31
21
19
26
22
26
16
16
17
10
9
10
4
7
9
4
8
13
5
8
15
5
6
13
5
5
8
7
7
8
12
5
2
19
11
5
18
12
6
13
9
10
10
8
16
5
11
29
49
15
11
165
94
25
181
102
25
126
72
44
116
101
100
80
101
111
55
84
217
42
200
255
87
60
86
107
190
255
74
51
166
123
154
224
119
140
150
46
14
24
186
184
163
145
151
125
66
66
72
69
63
76
86
175
255
107
252
255
128
97
136
127
90
255
113
89
72
128
106
78
175
146
140
196
255
255
184
255
255
39
117
216
63
71
117
95
82
65
81
56
36
179
150
132
218
189
178
232
207
191
204
188
160
41
64
75
60
51
45
125
125
111
77
64
47
21
19
14
159
163
147
74
58
50
111
73
62
14
50
92
204
255
255
147
200
192
118
93
85
144
135
134
255
255
255
156
170
169
241
240
224
170
163
144
114
105
91
65
68
76
143
147
152
81
107
114
171
201
189
79
106
105
16
10
17
38
23
19
35
27
39
71
68
70
107
105
115
97
111
155
71
88
115
97
65
64
102
68
41
72
92
120
162
156
158
166
161
158
108
111
120
43
32
11
107
98
95
166
154
142
248
235
198
205
201
185
133
121
117
255
217
195
255
255
255
255
255
255
255
255
225
194
142
108
72
38
28
133
120
120
37
39
17
72
77
86
126
97
85
56
49
48
131
106
106
34
56
74
178
155
143
131
98
81
60
70
84
115
122
120
87
93
86
213
212
204
103
125
130
195
187
184
49
49
64
16
4
23
148
120
117
255
255
255
36
56
63
255
255
255
204
217
207
33
39
60
16
7
8
86
80
68
153
155
148
163
170
184
133
126
109
209
192
184
155
146
143
103
93
76
79
58
34
60
41
32
29
45
55
53
76
94
91
119
143
77
94
112
50
183
255
52
184
255
77
41
104
36
17
4
11
5
8
7
1
1
7
4
1
4
7
6
5
8
9
6
6
6
2
2
2
2
2
2
4
4
4
5
5
5
4
4
5
0
0
3
2
2
4
6
6
2
10
10
7
8
8
4
5
6
3
2
6
0
7
8
1
14
4
7
17
5
6
14
4
12
6
8
1
4
6
9
7
5
2
5
5
6
3
6
4
3
7
5
52
6
51
162
91
255
74
187
255
125
183
255
107
105
255
32
2
24
6
8
7
5
5
2
10
5
2
5
5
6
3
3
8
3
3
8
4
4
4
2
6
8
4
6
3
7
1
5
2
9
7
47
9
56
127
126
255
156
183
255
72
87
79
56
47
59
146
137
158
221
196
202
255
255
255
255
255
255
255
255
241
249
254
233
255
255
255
132
66
35
255
255
255
197
255
255
175
118
80
255
255
255
255
255
255
127
35
16
255
255
255
255
255
248
255
255
255
255
255
255
189
188
174
31
5
7
214
172
149
255
255
255
255
255
255
248
236
217
141
147
137
192
185
177
67
79
88
119
120
126
27
96
221
29
171
255
16
51
98
18
13
24
4
13
8
6
6
5
8
4
11
10
7
15
10
7
9
8
12
16
66
38
27
105
63
31
127
73
28
158
84
37
158
83
39
98
42
22
79
48
13
87
50
26
75
44
27
108
80
45
168
115
55
119
78
27
94
73
36
152
119
73
166
128
80
140
112
76
130
112
82
107
92
66
63
56
35
25
20
12
8
2
5
6
6
6
11
11
11
10
8
11
7
4
11
9
5
12
3
2
3
6
4
5
5
3
6
8
8
13
8
8
15
7
7
10
7
7
5
4
4
3
5
7
4
8
12
10
11
12
12
10
10
10
6
6
6
7
7
8
8
8
8
5
6
6
3
3
3
9
4
7
8
4
10
3
2
1
1
1
7
8
8
10
16
14
13
23
20
17
31
27
23
36
32
22
37
32
19
34
30
15
31
30
19
32
32
25
34
34
27
38
35
28
42
35
25
46
39
23
48
41
26
48
40
28
48
40
29
49
41
29
51
43
31
53
45
33
54
46
34
51
43
33
49
41
34
50
41
38
49
40
34
47
37
28
49
38
28
50
42
33
52
45
39
56
49
46
54
50
41
51
48
32
57
48
36
61
49
36
66
55
37
73
63
43
89
76
49
129
109
64
192
150
80
248
180
92
255
184
89
252
168
73
211
133
55
150
82
36
97
47
24
79
42
15
79
41
13
70
43
19
52
29
17
17
12
5
2
6
6
4
3
5
255
255
255
255
255
255
2
5
4
4
8
5
8
7
6
13
5
6
20
7
5
29
13
6
37
18
1
62
27
2
100
44
12
131
64
16
148
81
16
157
91
28
170
100
33
195
121
41
182
114
38
143
94
27
80
60
20
17
14
8
104
64
22
128
87
41
117
87
52
120
90
49
99
81
48
54
51
31
43
29
25
56
39
28
74
59
45
83
67
55
78
62
50
67
54
41
60
54
40
50
48
35
32
34
21
19
21
14
16
15
15
39
31
27
37
31
23
37
30
20
40
35
28
34
37
27
30
33
27
27
19
19
16
6
4
2
2
0
5
5
5
14
14
14
18
15
19
24
17
20
25
21
28
22
22
27
21
19
22
12
13
14
4
8
12
7
10
17
12
12
17
12
12
12
12
12
13
20
13
10
16
10
2
8
10
2
5
2
8
7
13
22
7
12
31
53
23
2
175
98
28
209
113
28
81
74
86
82
139
202
76
130
220
101
82
211
76
211
255
68
70
87
126
177
255
80
79
148
63
50
62
33
21
29
142
130
127
125
133
121
52
67
71
34
37
68
63
63
80
107
165
255
153
255
255
155
167
255
83
124
255
171
148
118
6
17
17
255
255
255
136
196
255
243
255
255
121
155
183
18
25
68
69
39
4
24
2
20
213
174
144
168
149
142
253
239
211
137
125
107
62
88
97
93
80
73
118
122
105
98
79
65
4
13
7
140
130
124
89
69
61
127
87
63
70
144
189
156
227
242
93
102
97
142
162
157
130
161
152
203
226
221
66
76
71
174
190
188
49
81
83
79
93
104
80
86
96
162
162
165
93
91
95
183
202
189
69
69
64
73
76
75
114
127
132
134
161
161
123
155
145
113
99
95
70
70
102
124
150
161
149
151
136
62
79
79
131
150
168
58
50
28
108
112
122
135
137
150
82
76
82
73
63
63
97
88
63
175
174
157
97
120
131
175
116
84
255
220
167
211
190
155
78
71
84
91
71
74
30
26
33
73
70
46
86
93
108
96
75
69
23
51
72
179
171
169
82
45
35
137
120
121
112
91
78
131
115
121
162
143
126
115
123
131
97
107
111
97
97
96
213
207
191
150
165
177
213
190
166
147
123
101
137
115
89
252
214
186
255
255
255
217
189
165
255
255
255
253
255
249
166
165
163
155
137
120
155
159
151
86
103
97
63
59
75
91
94
107
195
189
185
208
202
198
50
43
39
79
63
52
96
88
85
76
92
99
74
101
119
58
92
116
24
18
26
94
186
255
24
197
255
57
104
255
73
37
112
29
4
25
9
5
5
15
2
3
16
1
1
10
3
2
7
7
6
7
7
7
5
5
5
5
5
5
7
7
7
5
5
4
3
3
2
2
2
1
7
7
5
5
5
5
5
5
5
7
4
5
5
5
5
14
10
8
15
11
7
8
6
1
5
3
8
10
5
10
13
3
10
10
3
2
5
4
3
7
5
5
8
5
12
34
7
14
193
20
189
116
46
183
154
5
184
132
36
193
29
4
14
5
8
8
3
5
4
9
8
3
3
2
3
6
2
11
4
3
4
9
4
4
6
7
6
8
3
7
7
2
6
1
11
6
34
18
60
117
120
255
255
224
255
255
255
255
215
204
185
113
108
98
59
45
24
87
99
109
203
200
199
255
255
255
255
255
255
255
255
255
145
90
63
255
255
255
145
204
206
240
181
140
255
255
255
240
255
245
142
63
30
255
255
255
170
150
145
155
153
152
255
255
255
255
255
255
255
241
215
116
117
98
18
14
14
122
80
60
131
77
45
99
87
71
131
118
114
22
28
38
67
69
70
67
121
233
39
194
255
23
61
118
16
12
24
10
12
7
7
8
4
3
5
12
7
2
7
12
4
8
42
29
14
131
66
25
144
80
35
174
109
50
219
145
66
241
166
68
255
187
81
255
200
97
250
174
87
211
136
66
166
105
45
139
97
37
142
101
52
144
113
69
169
131
88
137
104
67
100
81
57
80
70
55
50
41
21
23
15
3
8
9
8
7
9
4
8
8
4
9
9
5
11
11
9
11
11
11
8
8
8
6
6
6
8
8
8
11
11
11
10
10
10
6
6
6
2
2
2
3
3
3
7
7
7
8
8
8
8
8
10
10
10
14
11
11
17
7
7
9
7
6
4
7
6
3
4
5
7
1
3
9
9
2
11
8
5
2
13
12
12
24
21
12
34
30
21
39
35
26
41
37
28
43
40
33
47
43
34
48
44
34
44
41
31
45
39
32
47
39
36
45
38
34
45
37
33
48
40
36
48
43
38
44
45
38
42
46
38
41
45
37
43
45
35
49
44
33
53
43
32
56
42
33
58
42
35
56
40
35
50
36
32
42
32
28
38
31
24
42
37
24
50
46
30
55
51
37
58
50
41
58
47
35
58
48
31
63
52
40
69
58
38
81
69
42
97
75
51
115
90
56
157
127
69
225
169
82
249
170
74
199
128
51
134
84
34
80
46
21
33
12
3
24
11
10
47
31
17
50
31
12
31
22
14
20
7
8
8
4
2
6
7
8
10
7
10
255
255
255
255
255
255
8
7
4
5
9
5
4
7
6
5
4
9
7
1
9
10
1
7
13
6
8
26
10
12
51
14
11
78
36
10
97
47
8
116
55
9
147
68
16
194
101
24
208
123
51
149
96
46
63
39
17
67
48
29
73
46
13
135
84
40
146
111
72
108
99
59
75
67
35
42
38
22
27
27
19
30
28
12
32
29
17
26
19
17
29
21
19
29
23
22
23
23
14
23
22
17
13
7
10
10
8
6
32
24
19
49
41
34
44
39
29
43
35
22
42
37
27
34
34
26
26
25
21
23
17
14
20
10
6
13
4
1
13
3
4
7
9
8
11
8
12
18
9
15
17
17
22
18
18
18
18
15
17
17
14
18
13
12
17
15
15
17
16
16
16
15
15
15
14
14
10
19
12
13
16
12
15
9
14
13
10
5
14
12
10
20
24
18
22
60
32
8
168
85
27
199
114
24
81
96
127
62
172
255
47
106
238
119
119
236
73
155
255
48
46
32
88
84
95
114
117
123
31
51
60
144
120
108
138
150
149
4
20
25
63
71
82
95
110
132
56
59
68
12
32
91
179
222
255
164
150
213
31
94
179
189
173
163
115
132
137
255
255
255
236
255
255
194
233
255
187
241
255
12
38
64
74
64
60
83
74
56
227
181
144
111
98
101
255
245
214
80
65
58
123
150
143
128
123
112
48
57
56
105
74
58
26
26
29
95
74
71
146
113
94
121
72
19
113
181
210
78
123
118
48
63
59
45
29
29
31
28
43
163
166
172
48
64
76
173
205
211
49
75
72
73
65
54
100
95
88
214
220
227
120
124
123
210
227
214
160
177
158
158
171
160
121
130
123
53
57
51
36
26
32
155
66
49
14
94
134
141
174
186
31
55
48
57
98
114
148
181
191
24
18
7
93
106
129
44
46
66
73
91
107
130
134
134
157
159
153
182
189
205
77
112
125
206
158
145
220
184
146
78
80
65
37
22
5
106
97
78
95
114
116
129
141
140
43
14
10
117
121
137
147
113
99
104
101
109
146
108
81
131
129
122
255
254
248
213
213
201
109
106
90
55
69
71
35
55
64
44
50
61
223
222
206
112
125
129
195
184
148
120
96
75
37
26
41
165
146
128
255
255
254
203
193
177
252
255
255
180
185
184
37
54
78
43
41
50
54
82
93
120
126
120
166
168
159
150
139
134
183
164
149
125
116
106
57
59
63
90
91
94
78
91
107
42
69
84
37
25
23
104
136
154
70
99
118
70
146
237
65
158
255
36
75
166
54
46
113
34
20
53
2
11
7
4
3
5
5
2
4
1
1
1
2
2
2
6
6
6
8
8
8
6
6
6
4
4
4
7
7
7
8
8
8
4
4
4
5
5
5
4
4
4
3
3
3
5
2
4
8
1
4
14
2
4
8
2
2
2
8
1
3
9
10
4
2
16
7
2
12
4
6
7
5
7
4
11
3
5
15
6
9
53
15
64
144
130
255
207
255
255
236
247
255
106
159
255
31
30
45
2
8
9
5
2
6
8
6
4
5
1
10
6
3
15
17
16
7
42
30
15
38
24
12
13
7
7
7
5
6
2
6
4
40
12
52
115
86
255
217
175
255
255
255
246
255
255
255
248
220
212
200
163
141
123
103
83
21
20
30
134
122
129
221
211
193
255
255
255
169
127
94
255
255
255
108
163
175
255
218
169
255
255
255
181
236
228
164
87
39
255
255
255
204
215
201
129
139
129
31
27
25
132
122
115
230
194
173
219
186
161
139
126
105
24
28
24
133
109
84
80
55
36
135
124
125
83
81
89
96
101
101
35
108
216
27
197
255
22
78
144
14
14
28
10
8
8
9
7
6
5
9
7
8
1
11
18
0
4
57
29
14
167
87
36
135
82
31
147
101
41
178
127
58
175
136
61
226
170
81
222
154
72
167
114
53
112
83
40
65
40
21
92
74
32
176
131
79
153
117
74
107
85
53
72
55
28
51
43
27
36
32
25
17
14
8
11
8
6
14
9
9
13
11
10
12
12
8
11
11
12
10
10
10
10
10
10
10
10
10
12
12
12
15
15
15
14
14
14
8
8
8
2
2
2
2
2
2
3
3
3
3
3
3
3
3
3
3
3
4
6
6
4
8
8
14
5
5
7
8
4
9
8
3
12
5
3
12
7
4
14
13
8
21
23
18
24
32
26
26
36
31
25
40
36
31
44
41
33
48
43
36
52
42
38
51
41
36
48
39
34
45
36
32
41
32
29
39
32
28
40
32
28
39
34
29
39
38
31
38
39
31
39
39
31
44
42
35
49
43
38
47
39
35
43
35
31
43
35
31
45
37
33
47
40
33
49
41
29
50
37
24
49
33
23
48
34
27
49
39
29
50
42
28
51
43
28
51
42
26
50
41
20
56
48
24
68
57
39
81
74
40
105
92
48
128
104
58
144
115
55
177
140
55
226
162
63
203
123
46
112
63
24
51
29
4
10
5
8
19
8
1
23
12
4
41
24
15
72
45
36
88
56
39
82
49
29
54
30
16
26
15
8
8
7
11
255
255
255
255
255
255
4
8
5
4
7
6
4
4
4
4
4
4
3
3
3
1
2
1
5
7
5
8
7
2
17
3
2
31
14
6
40
18
10
47
20
3
61
26
10
86
39
21
113
50
11
177
100
53
175
128
60
119
96
38
97
76
41
130
86
60
152
122
80
111
105
50
65
57
25
34
26
21
21
23
12
29
25
9
31
25
21
19
19
19
13
13
15
13
7
10
22
14
18
30
26
21
29
24
17
35
27
18
51
40
30
53
45
34
48
41
29
45
38
24
42
35
27
36
31
20
32
25
13
32
21
15
32
18
7
23
14
2
22
14
2
22
14
2
18
12
5
15
8
1
13
10
15
14
12
11
12
10
10
13
13
14
17
17
17
16
16
15
12
13
11
21
14
16
15
14
17
15
14
22
18
14
24
11
15
19
16
9
16
28
4
14
36
17
11
62
26
8
138
71
28
141
89
26
132
94
145
167
213
255
110
74
140
103
69
100
51
57
77
76
81
91
81
75
85
120
120
122
53
88
95
177
154
133
140
156
151
86
75
74
68
64
78
82
93
108
86
97
114
96
98
103
221
212
210
126
110
105
53
74
166
255
198
175
163
182
252
255
252
201
255
255
255
139
162
197
179
232
252
54
65
81
49
46
56
58
47
41
211
171
141
61
56
67
255
249
224
35
31
22
140
192
192
41
57
60
78
64
50
69
44
31
57
49
42
68
41
39
196
150
123
56
47
75
152
229
240
75
116
103
81
103
105
98
124
126
50
91
87
163
177
172
7
17
24
141
162
164
43
64
58
76
98
93
125
139
137
213
229
237
95
108
104
164
173
172
67
71
56
28
22
9
32
54
66
82
102
115
105
102
105
98
28
62
70
168
204
76
88
95
119
115
114
112
137
155
142
172
189
57
50
60
113
114
142
121
122
133
37
50
68
26
13
15
142
128
114
214
217
242
58
95
105
174
144
145
255
255
234
71
90
110
120
97
97
71
86
85
158
137
126
96
93
98
109
86
69
94
77
65
213
209
205
205
207
202
198
179
150
255
255
255
253
252
235
255
255
245
160
175
185
62
91
121
38
34
50
21
22
20
230
226
210
98
105
103
178
187
171
110
93
79
79
67
38
161
147
134
94
96
95
74
58
48
182
190
186
255
255
244
53
56
68
51
53
56
17
26
38
156
154
145
132
143
133
121
129
139
73
70
68
160
156
144
92
84
77
72
72
82
22
29
46
48
60
77
47
72
72
76
83
86
65
53
30
65
163
255
34
185
255
36
93
206
44
53
124
24
18
45
4
8
6
2
7
2
4
7
2
1
4
3
3
3
3
2
2
2
5
5
5
7
7
7
1
1
1
2
2
2
7
7
7
9
9
9
5
5
5
3
3
3
2
2
2
7
4
5
13
2
5
11
2
3
4
5
4
3
11
4
1
11
10
7
11
2
6
8
11
5
7
4
9
4
5
4
1
5
23
10
13
11
106
200
106
255
255
178
247
255
171
218
255
129
255
255
32
111
175
14
8
7
7
3
4
5
5
11
8
4
8
21
10
12
69
37
26
84
37
20
75
41
15
35
21
3
9
7
5
6
3
5
36
12
45
59
111
255
65
96
255
131
122
120
238
237
242
255
255
255
255
255
255
255
255
255
255
255
250
176
169
155
117
148
162
255
255
255
227
181
138
255
255
255
66
111
123
255
250
204
255
255
255
237
255
255
255
255
255
255
255
255
190
161
138
136
107
81
78
55
28
31
36
47
153
151
145
255
255
239
255
255
244
221
209
187
164
148
124
92
93
93
75
79
84
159
140
128
119
106
98
13
102
209
11
181
255
8
95
173
17
15
26
1
10
13
11
4
4
10
8
7
4
7
10
18
4
10
49
21
1
181
103
38
183
113
49
141
89
32
129
90
38
109
72
32
50
29
17
44
35
18
13
14
5
29
25
11
88
70
36
163
127
75
184
143
85
107
86
54
48
40
28
33
25
12
25
25
14
24
20
21
24
19
17
21
17
9
19
16
10
17
16
16
15
15
19
12
12
17
9
9
11
9
9
9
13
13
13
17
17
17
16
16
16
12
12
12
11
11
11
8
8
8
8
8
8
8
8
8
6
6
6
8
8
8
12
12
13
12
12
17
11
11
19
11
11
14
12
13
13
14
15
13
16
16
15
18
18
21
21
21
26
29
27
31
37
34
32
38
36
30
38
38
31
41
37
34
46
35
35
44
34
32
36
30
25
31
25
20
29
23
22
27
24
24
26
26
26
27
27
27
29
26
25
32
26
22
32
24
20
33
25
22
37
28
25
36
29
22
36
31
20
37
33
23
38
36
27
36
39
29
34
40
28
39
40
29
45
40
29
50
40
27
52
39
28
49
37
30
46
36
28
45
36
24
41
35
20
39
35
24
50
46
32
64
58
42
94
86
49
136
116
67
157
129
74
165
134
62
194
150
58
212
138
56
166
88
34
76
35
9
53
25
15
32
12
8
10
4
17
6
12
13
25
8
20
55
34
13
80
54
31
88
57
29
84
49
21
54
31
15
15
14
8
255
255
255
255
255
255
4
4
5
5
5
5
4
4
4
0
0
0
2
2
2
2
2
2
3
5
4
6
6
2
4
1
4
11
7
9
14
0
8
4
6
4
19
9
5
88
34
7
221
115
49
255
180
83
205
148
59
136
89
34
138
94
53
146
110
71
136
116
59
106
89
34
60
47
24
28
25
23
19
23
14
23
19
10
22
14
12
16
15
10
28
22
19
37
31
30
39
34
26
45
39
25
48
40
25
52
41
27
57
48
34
56
50
37
54
49
36
51
44
32
46
37
26
42
35
18
41
33
18
41
31
19
35
30
14
29
29
17
31
30
20
34
27
17
33
23
15
29
22
15
27
18
12
22
11
3
15
5
6
10
2
5
8
2
2
10
2
2
17
10
4
18
11
12
11
8
20
17
9
20
17
12
21
13
18
22
26
14
17
38
8
19
42
15
17
83
34
5
103
76
52
52
86
119
45
68
208
105
148
255
110
142
178
36
30
19
68
66
61
12
12
10
9
16
17
96
105
100
98
95
96
211
206
199
87
101
99
72
57
47
34
38
67
34
41
43
49
53
62
142
139
143
189
181
188
37
13
36
105
10
150
219
170
124
62
164
255
201
121
41
255
255
255
102
113
126
109
153
166
44
53
60
39
25
36
24
28
39
217
185
158
7
4
13
255
249
223
32
31
33
119
163
172
114
91
64
125
108
88
49
41
35
60
53
55
101
73
71
197
138
106
78
161
205
155
226
236
62
91
95
42
50
67
38
43
38
26
28
29
171
203
189
40
52
61
126
140
146
98
98
114
86
83
94
75
71
76
125
144
149
57
49
53
165
193
193
72
109
103
49
82
82
28
41
53
33
22
24
59
31
29
51
106
158
45
136
175
89
80
60
98
112
96
64
96
100
69
93
114
49
42
37
53
45
17
29
21
20
100
101
89
79
99
121
154
127
118
255
255
255
30
49
42
136
137
135
255
255
229
117
63
39
112
94
92
116
81
54
241
233
213
255
252
235
155
140
121
249
236
222
255
255
255
255
255
255
250
234
209
255
255
255
141
126
101
158
149
133
103
100
83
223
219
210
156
154
139
87
67
59
205
197
191
77
92
84
255
255
255
182
161
167
137
127
138
159
147
154
40
36
34
72
59
44
90
103
109
255
255
249
73
36
16
113
97
83
140
114
81
237
201
179
32
54
78
158
169
176
70
68
59
112
118
107
187
187
182
54
42
47
60
82
103
74
99
118
57
77
84
84
85
96
77
89
105
114
215
255
44
218
255
50
54
145
12
19
29
5
9
12
4
8
5
12
7
4
15
4
3
10
6
5
7
7
7
5
5
5
4
4
4
8
8
8
5
5
5
3
3
3
4
4
4
7
7
7
8
8
8
10
7
8
14
5
8
15
4
7
13
4
6
9
6
7
5
8
9
4
6
6
7
6
6
8
8
4
11
7
12
12
2
5
12
6
9
26
13
12
30
50
114
62
236
255
28
205
255
67
77
120
89
4
74
70
255
255
91
255
255
7
75
146
26
5
15
17
4
1
10
2
13
33
20
13
60
31
15
40
21
8
62
27
12
47
19
6
7
3
5
5
0
7
34
9
40
140
90
255
217
179
255
177
167
140
42
36
24
99
105
117
179
184
190
255
255
255
255
255
255
255
255
255
245
230
210
218
228
206
253
238
236
255
255
255
208
221
206
255
255
255
255
255
250
37
74
87
122
104
74
107
123
124
148
139
136
223
203
186
193
181
158
138
133
104
41
35
26
79
86
93
104
106
96
128
132
117
134
128
102
49
20
1
67
71
52
30
27
15
18
4
16
25
75
174
44
209
255
5
111
198
20
15
20
2
14
14
2
4
10
5
5
1
5
1
2
21
11
10
104
49
20
226
136
48
230
147
65
136
79
36
74
49
17
105
80
42
78
54
27
81
65
36
28
26
16
89
73
30
145
117
61
160
131
76
111
93
50
53
46
28
34
25
23
25
18
13
19
21
9
20
20
17
24
23
25
26
27
24
26
27
21
27
25
22
28
24
23
28
24
18
28
24
16
29
25
17
32
28
21
31
27
17
29
24
15
28
22
18
28
23
20
24
20
13
19
16
8
16
15
8
16
16
10
20
20
19
23
22
21
26
23
21
28
24
19
29
25
17
29
25
17
28
25
17
27
28
18
28
32
23
32
36
24
39
41
28
46
42
32
49
41
33
50
42
35
48
38
30
39
32
22
26
27
18
21
24
17
23
24
21
25
25
22
29
26
21
32
26
21
31
23
20
29
20
16
29
20
17
29
22
20
31
26
20
26
24
16
20
22
10
20
25
12
24
27
16
27
27
15
31
25
11
34
26
13
38
27
19
33
29
22
32
32
24
35
36
26
36
40
27
36
40
29
35
39
30
38
40
31
47
44
33
56
54
34
60
59
37
93
81
47
129
104
59
105
72
37
84
55
17
127
86
27
153
85
39
99
46
15
10
12
7
68
41
23
50
29
10
28
16
28
11
18
2
21
15
22
35
32
26
30
24
20
64
44
24
74
44
21
50
24
15
16
13
9
255
255
255
255
255
255
4
4
4
4
4
4
4
4
4
3
3
3
5
5
5
6
8
7
4
9
8
5
5
8
1
4
6
4
5
10
12
6
2
14
1
5
51
26
7
161
80
33
255
155
71
232
158
61
130
92
37
76
48
29
76
55
38
89
69
33
89
72
27
72
56
22
47
37
24
26
25
26
15
19
5
11
9
2
18
12
10
29
24
11
39
32
18
48
40
26
55
43
28
61
46
31
59
47
33
55
47
33
51
48
37
47
48
35
48
45
34
44
37
29
42
34
24
41
32
25
34
26
24
29
25
19
25
26
17
26
25
18
26
24
19
23
19
15
22
17
13
27
20
14
31
20
10
31
17
5
36
22
2
42
27
5
43
25
2
40
22
1
34
21
2
31
15
4
36
18
2
44
23
2
41
22
1
44
25
9
55
25
2
63
21
13
65
27
12
106
59
20
115
117
114
92
159
249
77
118
234
12
36
117
183
194
191
100
109
113
125
117
111
61
62
77
90
84
76
111
127
117
86
100
102
182
195
188
56
84
101
88
95
94
31
28
38
52
56
51
49
42
39
137
126
108
48
39
38
20
69
139
215
92
73
27
34
27
209
203
252
109
132
139
170
175
166
140
151
153
113
118
124
79
69
68
78
61
65
57
55
66
242
214
190
75
60
49
255
255
223
69
70
68
110
136
142
93
89
70
46
47
41
39
34
14
34
40
34
155
110
99
167
88
62
94
176
220
75
114
119
9
12
2
14
26
23
50
60
66
110
126
131
178
220
209
51
56
68
82
106
102
14
18
16
33
51
46
43
62
55
98
128
129
106
112
108
141
180
173
15
31
27
13
10
14
14
9
18
25
23
38
59
63
99
57
146
195
53
91
116
119
112
105
83
60
59
81
81
97
81
81
106
75
69
68
107
97
75
62
48
50
111
113
106
104
106
121
193
177
183
231
244
234
55
44
44
74
94
86
212
186
158
218
176
166
162
136
131
255
238
198
251
255
247
255
255
246
187
189
180
255
255
255
178
170
159
234
227
217
182
162
135
189
176
155
239
240
225
158
158
153
119
112
98
194
193
189
204
182
153
255
236
221
138
131
123
91
70
70
249
243
241
87
67
53
150
143
140
206
183
181
43
49
58
49
48
40
111
120
128
255
255
237
123
79
40
83
55
24
148
122
89
255
220
177
57
80
108
165
169
168
44
45
34
140
144
131
170
171
157
24
3
12
26
53
67
38
45
58
29
37
32
124
135
147
121
115
120
144
196
255
54
217
255
46
81
190
9
14
9
7
14
4
10
13
14
14
12
14
14
6
10
11
6
7
7
7
7
6
6
6
4
4
4
5
5
5
4
4
4
4
4
4
4
4
4
2
2
2
6
3
4
15
4
7
15
3
7
11
4
5
6
3
4
2
5
4
6
4
5
10
3
7
18
4
5
11
9
12
7
9
19
17
12
8
43
5
36
43
75
175
25
215
255
107
255
255
56
147
241
65
80
97
92
102
102
44
161
255
125
255
255
131
255
255
78
197
255
20
66
107
16
12
10
17
14
4
42
16
23
69
25
15
51
24
8
21
15
5
10
3
2
5
7
8
35
5
35
137
103
255
255
242
255
255
255
255
227
233
229
136
145
149
57
64
63
37
35
31
47
43
35
120
104
97
155
146
150
152
170
163
156
176
171
94
108
86
135
106
82
154
134
110
135
115
91
143
117
79
64
29
16
82
88
98
123
128
129
116
137
161
148
166
184
130
138
136
32
38
33
68
50
58
97
68
61
128
103
81
109
85
57
108
93
74
56
62
72
96
99
103
49
60
50
85
92
149
63
177
255
5
129
229
13
13
16
7
13
9
7
8
18
6
6
18
17
9
6
114
63
19
255
158
62
255
193
82
204
130
61
67
33
17
45
36
18
131
98
43
130
94
45
28
13
5
110
87
46
150
120
67
99
81
49
60
52
31
40
37
17
27
22
15
26
15
17
16
17
14
25
25
15
32
26
16
34
26
22
35
32
27
41
37
30
50
38
33
56
40
34
59
43
33
60
44
32
59
43
31
55
39
27
50
34
22
46
33
20
42
35
20
41
36
25
40
36
25
38
33
25
37
33
25
38
34
26
36
32
26
34
29
21
35
31
22
37
33
25
38
34
24
40
36
22
39
37
20
39
40
22
41
45
26
49
50
25
55
52
28
56
48
34
53
44
37
51
44
36
47
41
25
37
36
21
32
33
24
34
31
25
38
31
27
36
28
23
32
24
20
31
22
19
31
23
20
30
25
18
28
29
18
26
31
17
21
25
13
18
22
8
21
24
8
27
24
14
31
22
17
34
20
16
33
19
15
33
20
17
31
20
16
24
22
15
22
26
17
23
29
19
29
29
20
32
28
19
33
27
22
39
32
24
46
44
20
49
50
21
53
50
31
79
62
36
103
76
38
80
59
26
69
51
18
121
83
29
145
92
41
89
55
24
112
67
31
125
64
24
82
38
9
55
24
23
38
27
17
41
32
20
45
27
17
38
16
13
63
40
23
62
38
16
41
21
11
16
10
8
255
255
255
255
255
255
4
4
3
4
4
4
5
5
7
4
4
7
4
4
8
4
4
8
3
2
8
4
0
9
1
6
9
4
4
7
9
8
2
18
7
5
63
34
7
186
89
38
232
143
62
160
115
32
103
65
27
56
40
26
40
32
23
58
42
20
53
45
20
45
40
17
53
38
25
51
37
33
48
39
31
52
41
33
57
43
32
62
46
34
64
46
36
61
44
33
57
42
32
53
43
33
43
41
30
37
35
27
31
31
24
27
28
17
31
25
18
27
21
18
25
21
13
21
12
11
17
13
8
21
21
11
14
17
10
13
8
7
6
7
9
4
4
5
11
8
2
22
14
6
28
20
8
35
28
9
52
42
17
62
44
17
61
41
11
54
34
4
52
33
6
55
33
9
65
39
13
69
39
14
68
38
12
65
35
7
64
26
13
95
44
1
82
50
21
52
29
11
102
134
178
39
172
255
85
74
145
76
96
104
216
211
194
57
97
107
97
84
59
36
22
31
57
49
30
82
72
68
37
55
54
150
145
138
30
34
50
109
134
145
77
108
119
16
27
33
94
80
74
94
102
87
39
55
68
127
6
131
232
150
8
250
179
61
140
120
167
221
255
255
75
54
31
114
125
120
96
104
100
73
73
64
21
8
19
107
99
101
249
215
196
146
128
106
255
253
216
11
35
48
28
63
78
57
72
81
59
69
83
54
56
54
37
53
48
203
148
118
148
61
31
85
153
177
46
57
64
73
92
102
72
92
108
55
72
89
88
102
102
108
140
131
54
78
66
103
143
142
58
74
87
37
59
63
42
52
49
57
97
93
109
109
105
86
127
115
35
34
42
64
78
87
86
108
118
74
101
122
60
111
154
43
126
160
44
20
14
74
66
65
92
76
42
45
80
82
39
60
80
39
46
51
97
91
94
51
54
69
69
75
67
48
49
35
224
221
215
147
154
152
75
88
104
80
69
76
202
199
189
255
255
241
212
222
202
255
255
255
170
175
170
255
253
231
103
78
58
234
245
239
215
182
167
237
233
220
216
198
180
91
78
61
211
207
196
59
53
44
109
100
85
81
85
92
217
195
161
149
130
116
47
45
34
168
134
123
223
218
205
34
13
2
149
138
136
175
151
131
107
92
86
142
119
101
178
164
160
230
203
176
83
41
20
68
55
51
194
151
109
219
171
121
67
77
103
135
136
127
39
47
56
157
164
151
93
89
78
13
24
34
11
35
50
50
58
65
15
19
26
98
122
140
44
27
11
117
174
255
101
124
255
62
86
205
42
7
34
56
5
53
61
7
67
33
7
38
10
8
5
8
4
2
3
3
3
3
3
3
2
2
2
6
6
6
7
7
7
5
5
4
4
4
2
5
2
1
9
2
1
11
2
2
4
3
5
4
7
4
2
3
2
7
6
2
3
5
2
10
7
3
4
7
1
8
7
8
7
10
11
29
39
100
21
184
255
109
255
255
137
255
255
83
182
255
30
55
89
51
59
76
51
58
65
47
46
73
76
163
252
143
255
255
181
255
255
158
255
255
72
137
209
9
9
4
7
3
14
7
4
8
7
4
5
2
3
5
1
3
6
5
10
12
37
4
32
60
127
255
107
128
255
168
152
144
192
192
185
193
192
181
153
150
142
60
57
50
25
25
32
111
107
106
146
145
137
116
112
99
89
77
83
53
40
52
34
39
46
64
89
99
108
123
132
143
161
152
142
153
141
86
88
86
85
79
53
88
80
79
165
153
150
162
161
155
91
98
95
36
27
15
167
144
140
255
242
248
255
255
255
250
244
229
126
125
110
120
126
118
113
117
101
31
23
91
29
164
255
13
129
248
12
10
13
11
11
1
14
8
2
9
10
13
54
32
7
232
143
50
255
191
74
177
107
37
64
29
5
31
31
26
88
60
38
41
30
20
127
89
52
129
101
52
129
106
53
105
86
48
43
38
25
34
22
16
35
21
14
22
13
10
13
8
9
16
14
11
28
21
17
38
28
22
43
34
24
46
38
26
52
44
32
59
51
39
63
55
43
64
56
44
65
57
45
65
57
45
60
52
40
55
47
37
55
47
38
56
47
37
57
46
39
59
47
43
59
48
43
54
48
41
51
47
39
49
45
37
50
43
36
55
43
37
55
42
38
54
42
38
56
44
39
57
45
41
61
50
44
64
56
46
66
57
46
64
55
46
59
53
43
52
51
39
45
46
38
41
39
38
41
35
36
44
36
34
45
37
33
41
34
27
33
28
17
29
27
16
29
31
21
33
32
23
34
29
19
33
26
17
30
22
16
28
17
16
30
18
16
32
21
15
30
17
14
28
15
12
28
19
16
24
21
18
18
21
15
16
19
12
14
18
10
15
17
9
18
13
8
20
12
5
19
12
7
20
14
11
25
20
7
28
25
5
30
25
16
39
35
24
61
47
23
67
40
14
68
42
22
78
54
22
98
60
24
123
66
20
143
84
35
118
61
20
58
21
6
46
30
12
42
25
21
73
59
30
132
90
49
133
87
48
112
63
26
100
55
25
88
51
27
65
41
20
32
17
8
255
255
255
255
255
255
3
3
6
4
4
5
4
4
5
1
1
3
1
1
0
1
4
1
4
4
3
4
1
0
5
8
3
6
3
5
7
7
4
9
8
5
56
26
7
172
78
28
228
133
57
206
133
46
198
126
52
174
111
54
133
91
46
106
77
39
66
58
30
52
46
19
70
58
31
81
64
41
82
68
46
78
71
45
72
65
41
70
57
39
64
53
35
54
50
32
48
45
30
44
42
27
31
34
22
14
14
14
13
13
10
20
22
11
29
27
21
35
26
32
38
28
33
45
35
35
50
36
39
53
38
38
58
42
36
61
50
36
57
44
34
43
31
28
35
27
22
30
24
15
23
14
3
34
24
2
50
35
11
43
28
5
44
36
14
50
33
3
59
31
5
63
35
6
57
30
4
23
5
19
17
22
31
51
36
37
78
53
46
118
76
45
76
45
26
68
24
33
131
161
232
87
193
255
26
42
120
105
123
126
180
203
191
39
63
65
61
59
43
31
54
65
74
79
70
55
57
64
88
93
87
133
119
120
23
28
32
35
31
28
66
74
63
121
130
126
143
146
141
29
50
37
54
98
149
239
84
77
131
103
23
255
254
102
47
29
87
255
255
255
65
52
85
53
35
29
77
70
77
99
108
107
48
49
50
130
109
102
221
187
171
215
191
171
240
219
192
30
50
65
21
10
24
51
46
64
56
62
82
78
76
87
43
50
41
250
177
132
159
74
30
90
133
149
31
45
55
20
14
20
34
37
21
67
80
70
111
125
114
111
138
129
83
109
107
71
106
108
5
7
15
7
17
9
72
87
93
56
97
100
125
119
127
93
120
117
60
87
84
10
44
34
25
7
10
62
33
26
19
100
138
47
39
68
104
102
111
93
109
118
107
123
130
108
125
124
113
118
110
115
110
96
38
45
55
62
82
100
64
79
89
63
67
64
255
255
255
174
169
159
162
181
194
193
209
211
206
233
235
242
223
192
82
91
70
254
234
219
97
88
76
255
255
255
155
143
123
103
134
142
252
227
192
56
80
71
227
207
187
61
63
59
182
190
184
94
83
75
207
202
193
163
175
183
255
255
255
139
129
125
71
47
55
190
151
123
218
221
197
33
18
10
129
115
114
166
139
111
229
208
175
200
170
135
144
124
116
108
96
83
61
37
38
96
76
52
194
158
113
145
115
80
132
136
149
123
124
109
78
79
84
148
145
130
41
32
20
19
25
36
15
4
26
54
54
58
23
24
31
140
157
173
133
118
110
157
212
255
57
122
255
61
134
255
87
51
100
152
31
127
130
3
111
87
11
104
19
14
4
7
3
3
8
4
2
7
4
5
8
3
4
6
4
2
7
5
2
12
2
8
9
1
2
3
2
5
10
7
8
8
7
8
3
2
3
4
5
1
11
5
3
22
10
5
18
5
4
1
2
3
10
3
4
1
3
6
11
24
52
42
191
255
103
255
255
79
209
255
25
75
139
6
10
14
28
34
16
17
22
4
13
19
16
55
60
66
31
24
25
7
42
87
21
141
252
114
255
255
143
255
255
45
87
119
6
11
10
9
3
11
5
3
15
4
4
5
4
4
1
7
7
13
37
1
25
71
104
255
68
106
255
137
126
132
234
221
215
239
234
225
196
203
197
151
154
140
83
81
56
19
23
30
55
64
64
119
118
117
121
144
154
91
109
114
56
65
75
33
41
33
93
87
81
158
153
136
181
178
157
151
156
139
86
92
79
45
30
30
147
143
139
255
255
248
255
255
255
255
255
255
255
252
200
132
124
87
101
80
58
182
191
171
175
183
179
63
80
75
84
84
72
70
26
45
23
180
255
12
146
255
14
4
7
3
10
4
10
7
2
25
13
7
122
71
15
255
189
75
238
147
56
65
39
13
49
31
15
80
52
34
127
84
38
135
96
45
153
110
54
128
98
50
91
70
34
68
52
33
37
32
23
35
19
12
25
12
9
3
8
4
13
5
6
21
11
8
27
17
15
34
28
23
42
38
27
48
41
29
55
44
33
58
48
36
55
49
37
53
49
37
55
51
39
56
52
40
56
52
42
57
53
47
59
54
50
58
53
49
57
51
46
61
51
43
65
54
43
63
55
43
62
54
42
63
55
43
65
56
44
64
55
43
61
53
41
60
52
42
62
54
45
64
56
46
68
58
47
68
55
45
65
51
46
59
50
44
54
50
37
50
47
31
44
40
27
38
34
24
36
32
24
38
34
26
40
34
26
39
32
24
36
31
20
33
34
19
33
37
25
30
32
21
20
23
12
15
17
9
14
14
13
14
14
14
13
13
12
8
8
7
6
4
4
12
8
9
13
13
12
7
7
1
8
7
1
11
10
8
3
5
2
4
2
4
12
7
8
17
11
11
24
16
13
28
21
17
34
27
17
41
37
17
42
38
21
43
43
25
62
55
31
68
45
18
82
49
17
113
79
43
107
61
27
127
76
31
153
98
29
133
85
27
91
56
13
78
50
13
79
58
27
134
93
43
141
94
39
101
80
34
122
82
42
103
56
27
67
32
17
49
37
22
37
22
8
255
255
255
255
255
255
7
7
10
7
7
8
5
5
4
4
4
1
4
5
0
1
8
2
1
9
2
0
8
0
6
4
3
3
5
2
4
2
2
7
9
7
39
15
9
107
48
19
162
87
29
182
101
22
194
117
34
204
127
48
196
125
51
166
116
54
110
89
51
76
60
32
74
59
31
90
75
44
100
87
52
96
86
48
89
76
41
80
68
36
68
64
34
58
60
34
51
54
31
44
45
27
31
32
17
17
20
4
9
9
9
24
25
18
34
33
26
47
39
34
58
46
37
63
50
38
64
49
34
65
47
33
73
58
40
80
71
47
83
72
52
81
68
57
74
63
55
67
59
47
56
46
31
48
31
13
40
24
12
8
12
14
6
6
18
24
11
12
52
30
13
83
47
10
97
54
2
91
58
25
71
39
22
56
34
24
69
51
29
115
77
29
88
75
81
50
101
172
127
210
255
56
157
255
26
45
98
110
120
127
132
126
116
41
61
63
70
81
70
53
78
86
104
114
115
21
13
13
88
93
95
122
115
117
29
26
21
37
45
49
52
60
58
116
113
104
150
161
161
30
42
52
67
43
173
218
97
25
29
40
37
245
185
93
51
43
57
238
255
255
86
93
137
121
90
55
83
90
75
39
60
55
54
36
30
143
120
106
186
171
161
255
238
216
187
176
148
68
85
96
24
37
41
67
70
70
6
15
25
39
42
55
43
18
26
255
184
129
150
82
51
91
131
138
74
85
89
96
107
106
91
104
103
65
81
83
119
131
119
95
126
105
75
100
91
34
63
55
27
37
48
46
71
79
94
137
136
52
97
97
112
117
115
74
88
83
84
83
73
127
143
134
147
167
152
97
107
120
41
163
199
111
33
16
131
134
141
60
34
31
58
53
79
49
66
96
82
104
118
40
51
70
74
80
84
74
67
57
73
75
73
40
44
52
255
255
255
251
252
255
54
59
56
102
113
98
57
25
22
255
255
247
41
49
52
175
166
169
184
172
160
139
150
143
213
195
172
102
107
118
250
214
181
58
59
53
255
246
219
158
148
126
255
255
255
250
237
212
195
198
188
59
63
59
255
255
255
163
158
137
51
37
48
186
147
107
215
216
184
38
21
18
83
80
91
35
59
60
60
67
77
131
124
121
112
117
130
72
74
77
15
11
24
38
52
57
160
144
123
115
97
64
141
145
153
84
86
86
181
181
190
130
126
121
8
22
40
44
26
27
27
21
17
38
29
43
15
17
19
173
182
205
67
37
22
217
210
188
78
45
132
62
134
255
137
132
138
176
56
177
182
45
96
134
20
163
28
10
6
3
7
6
5
5
1
1
1
5
3
5
3
5
1
7
1
3
7
2
5
11
8
4
5
3
3
4
13
7
5
4
7
7
4
4
2
58
25
5
162
84
33
217
114
47
181
85
31
84
29
4
12
2
0
14
9
10
14
78
146
75
255
255
52
213
255
8
28
71
30
12
11
27
10
8
29
21
28
34
15
20
49
29
23
78
62
40
78
63
45
36
33
19
20
7
26
21
156
255
150
255
255
106
206
255
9
9
16
9
5
13
6
1
10
10
3
8
10
4
10
2
4
9
31
1
20
61
138
255
100
178
255
85
82
67
19
22
12
60
43
39
64
65
68
113
122
117
101
107
101
41
48
54
42
27
32
97
81
74
138
140
128
172
184
173
131
153
151
38
65
60
46
30
32
102
102
107
201
202
202
255
255
255
255
255
255
255
255
255
252
246
226
96
87
65
126
122
144
255
255
255
255
255
255
255
255
251
191
187
178
121
114
89
151
155
152
78
69
73
131
148
141
51
87
135
38
161
255
20
151
255
16
5
10
4
10
2
8
6
5
49
25
4
179
105
30
255
176
73
173
105
45
44
29
19
44
42
17
59
52
31
85
58
40
57
34
23
53
40
18
90
67
34
100
85
41
86
73
42
58
42
33
38
26
18
36
22
16
42
24
23
41
25
24
41
27
23
45
34
30
44
37
30
42
36
29
44
37
32
48
38
34
43
34
31
40
32
28
42
34
30
45
37
33
46
38
34
48
40
36
50
42
38
49
42
36
49
43
33
51
45
33
55
47
35
59
49
38
63
52
44
64
54
47
61
53
43
57
53
40
50
53
38
48
53
37
52
56
41
55
57
41
57
55
41
58
54
41
55
50
35
51
47
34
46
43
27
40
36
25
35
31
24
34
30
18
33
31
14
29
31
16
24
27
16
27
25
16
32
25
17
32
24
18
29
27
20
25
25
23
13
16
11
5
10
11
11
3
7
12
5
9
10
2
0
12
2
4
15
3
5
16
4
6
19
10
12
24
14
17
25
14
16
23
15
11
21
17
11
11
15
7
13
15
8
23
21
14
34
30
20
41
37
25
46
42
30
49
43
30
53
45
27
62
50
28
67
58
35
86
76
50
107
91
52
127
102
47
157
123
58
148
107
47
109
75
33
107
68
28
137
94
42
148
101
44
131
89
27
104
70
28
117
77
35
84
49
20
113
92
45
187
131
59
129
64
13
50
19
11
29
21
19
22
21
6
255
255
255
255
255
255
5
5
4
5
5
5
7
7
7
8
8
8
8
7
7
5
5
4
3
3
5
5
8
8
5
7
8
5
7
5
1
8
3
7
13
9
28
10
4
62
24
7
94
49
19
123
65
17
143
81
19
171
103
33
210
128
45
203
132
50
155
109
55
117
81
42
106
73
35
115
84
41
126
93
42
128
90
38
114
81
31
97
75
31
88
71
36
84
67
37
78
66
34
71
61
30
68
53
27
64
54
22
44
41
13
19
20
7
3
10
5
8
5
10
18
13
8
29
20
17
37
33
24
34
36
24
40
47
29
50
50
37
60
58
43
69
60
43
69
57
43
64
60
43
73
60
45
69
43
32
42
25
15
11
11
17
27
5
19
82
31
7
144
81
19
173
101
24
164
98
21
154
93
28
173
102
41
183
107
46
184
114
43
178
116
50
135
109
89
99
109
162
101
169
255
42
116
186
50
31
39
106
98
99
184
167
155
60
60
63
136
142
140
70
68
86
89
91
104
149
164
174
79
118
129
121
139
144
73
74
70
19
27
30
39
55
61
172
166
155
113
128
132
50
76
127
255
129
71
173
148
85
75
76
66
124
109
84
172
144
99
218
255
255
169
221
252
95
58
18
48
72
67
34
18
14
73
75
63
161
136
117
159
165
164
255
239
206
124
128
106
74
105
114
23
27
44
55
68
75
35
54
80
11
17
28
65
25
34
247
151
95
124
79
87
96
127
131
46
51
54
39
44
28
20
25
17
3
9
9
165
177
172
111
143
125
104
121
120
67
103
97
34
80
74
19
29
28
82
98
94
49
44
50
185
207
206
147
176
172
100
134
124
54
86
73
48
23
13
76
176
213
55
151
182
142
95
70
53
91
92
55
52
59
92
103
111
34
67
80
78
96
108
20
25
37
65
73
87
122
143
160
96
115
129
51
44
32
255
255
255
223
235
243
67
59
54
99
104
94
170
141
120
218
216
197
120
96
87
165
163
153
209
198
173
111
119
104
255
255
234
185
196
189
255
255
255
132
154
171
255
255
255
127
130
127
255
255
255
255
255
255
145
149
150
76
41
20
255
255
255
161
159
133
38
21
30
169
139
101
179
184
159
66
33
14
109
105
121
154
137
119
255
255
234
254
238
200
208
208
198
120
120
113
13
8
26
42
55
84
149
144
155
113
113
109
120
146
162
234
247
248
255
255
255
186
194
192
123
137
149
29
22
30
25
14
25
36
31
41
21
26
28
183
190
211
106
64
35
255
225
189
81
8
95
57
131
255
175
152
89
75
87
253
187
98
177
138
62
236
38
10
45
3
10
3
5
8
5
5
4
5
8
1
8
7
2
3
6
5
10
6
9
17
3
9
11
9
4
12
13
10
5
31
5
4
102
53
7
250
145
42
255
192
72
255
174
62
255
165
62
202
101
29
62
19
6
11
13
28
63
186
255
89
255
255
25
102
218
87
49
20
126
72
43
170
119
87
237
188
155
255
228
190
255
230
190
234
203
165
174
147
114
143
127
88
110
99
66
71
27
115
126
255
255
184
255
255
35
76
117
5
5
12
6
4
7
5
3
7
4
7
12
4
2
5
23
5
20
27
142
255
54
182
255
71
65
87
51
44
49
28
30
31
127
122
110
159
159
150
146
149
148
102
107
96
20
24
20
94
96
100
155
150
137
173
157
151
204
189
174
217
212
193
153
149
131
83
107
96
128
134
117
77
55
58
224
218
215
255
255
255
255
255
255
255
255
255
177
177
157
26
12
36
176
163
181
255
255
255
255
255
255
254
229
193
170
162
153
114
134
148
12
28
29
127
174
213
94
221
255
10
148
255
22
8
19
5
10
9
7
4
12
72
34
7
174
102
33
221
140
61
177
106
45
94
64
21
82
61
32
105
70
37
137
93
49
135
89
49
109
73
37
99
60
30
103
78
34
77
69
35
56
44
31
72
56
33
69
58
35
59
56
33
56
55
33
53
50
32
48
42
30
40
34
26
34
31
25
33
28
28
29
24
27
19
21
22
18
20
20
23
24
20
27
30
21
34
35
24
41
36
25
43
35
21
41
34
18
44
34
19
50
35
23
52
38
30
52
39
34
47
37
33
43
35
31
42
35
28
44
38
28
46
39
32
47
41
33
51
47
34
52
47
34
50
45
35
48
46
36
47
49
37
44
45
30
40
34
18
35
24
15
26
17
14
17
14
13
14
14
14
14
14
12
15
12
7
22
10
12
15
9
6
11
7
9
3
9
7
6
6
10
18
18
18
20
20
19
17
17
13
18
18
17
13
13
13
9
9
7
9
9
7
12
12
5
17
17
9
22
22
16
22
22
20
25
20
19
25
22
17
19
23
15
18
22
15
23
27
20
24
28
20
22
26
18
18
22
15
20
24
12
29
26
15
46
34
20
64
49
27
87
72
39
103
88
52
115
96
53
133
113
59
142
113
55
115
77
37
74
43
18
62
39
12
79
41
26
61
31
8
5
5
15
61
39
16
58
40
7
80
62
29
222
158
66
252
150
62
178
94
47
90
46
31
44
22
18
255
255
255
255
255
255
5
5
1
3
3
1
4
4
4
5
5
5
8
7
7
10
9
9
10
9
8
9
8
8
6
7
8
4
10
7
3
10
4
7
8
9
15
5
4
36
10
6
65
28
11
94
47
14
122
62
9
155
78
16
206
111
32
208
131
38
153
103
38
135
88
31
152
101
44
145
95
36
126
79
24
114
74
30
98
69
29
87
64
29
88
66
31
93
65
27
91
60
19
89
59
15
97
66
23
109
82
34
105
86
40
87
69
37
69
52
30
58
39
22
55
33
18
54
33
20
50
33
10
34
20
5
24
27
18
14
15
18
11
11
8
39
23
10
65
36
21
68
59
23
87
70
29
107
60
27
106
54
5
131
65
2
186
98
24
234
131
45
241
134
42
196
105
34
146
82
27
121
73
31
115
58
3
196
104
30
255
151
51
242
142
32
162
69
38
73
65
158
81
195
255
28
133
242
105
54
36
101
75
74
183
166
158
91
82
81
152
171
177
86
79
80
65
69
80
169
197
198
168
164
169
106
144
154
119
124
117
76
81
78
72
85
92
183
180
165
39
55
60
29
84
168
255
163
11
127
84
71
151
125
75
91
120
145
232
213
133
59
135
189
217
255
255
34
49
68
52
71
73
41
44
34
45
33
31
186
165
148
85
105
104
248
217
178
62
81
59
124
140
133
100
79
66
95
91
62
56
61
71
30
17
12
72
37
25
247
134
75
101
18
42
51
75
76
7
5
13
43
34
46
87
79
89
114
122
122
191
222
211
85
126
108
92
98
101
52
47
49
77
70
82
105
110
118
129
144
145
53
71
68
182
214
206
51
79
70
34
19
12
46
39
44
55
93
117
31
165
206
116
73
70
99
96
96
120
76
53
148
141
116
38
36
19
128
169
194
127
153
179
91
105
121
40
54
59
102
84
58
177
172
145
158
146
119
255
255
255
157
184
202
18
28
42
113
115
113
180
155
145
199
198
189
180
157
135
242
241
226
255
249
237
211
224
222
255
255
255
188
209
217
255
255
255
202
223
234
255
255
255
170
165
152
255
255
255
255
255
244
124
123
115
87
68
37
255
255
255
160
160
138
49
30
29
159
138
111
141
157
151
59
35
20
142
152
174
162
137
119
128
113
96
18
38
46
218
204
183
106
107
103
165
191
215
240
255
255
241
255
246
175
177
151
184
180
150
208
203
178
107
112
82
101
111
115
135
159
178
13
35
66
19
7
14
26
32
33
10
21
18
164
183
204
123
67
32
203
177
151
130
53
127
37
171
255
163
103
5
60
118
255
146
43
148
123
80
255
49
20
68
4
10
1
5
7
7
7
0
4
34
14
9
61
24
8
73
19
14
76
17
12
109
41
19
140
66
24
160
75
20
246
126
37
255
210
73
255
237
95
247
145
51
117
69
24
210
128
48
206
117
45
92
39
4
25
74
116
116
255
255
16
219
255
209
123
39
255
255
216
217
208
175
76
86
63
182
184
171
206
204
182
171
164
143
195
177
153
67
48
53
123
120
111
221
213
200
244
209
164
57
108
255
185
255
255
100
200
255
11
9
3
12
0
10
7
7
10
6
4
5
8
2
8
28
5
15
36
123
255
26
165
255
45
9
67
85
79
69
146
130
104
185
169
153
240
228
211
255
255
255
255
255
255
255
255
255
255
255
255
185
186
149
139
140
136
196
187
164
240
210
193
255
255
255
255
255
255
255
255
255
136
136
122
68
65
43
87
65
58
196
157
121
255
255
239
255
255
255
255
250
223
110
103
78
69
73
88
180
158
151
198
168
138
156
151
130
125
146
146
93
108
116
20
75
111
107
255
255
48
185
255
18
14
36
4
8
20
19
8
10
63
34
18
114
67
18
196
120
47
243
150
64
195
131
51
165
117
44
165
113
46
163
108
47
118
74
28
122
89
36
124
84
42
96
65
29
65
55
32
87
72
43
89
70
39
69
57
30
44
42
23
35
37
20
26
29
18
13
14
13
4
2
8
3
5
5
10
10
10
8
8
8
4
4
4
8
6
6
15
17
7
20
19
8
28
20
13
31
23
15
33
25
17
34
28
19
33
31
21
35
32
23
36
32
24
39
30
23
40
27
19
34
27
14
33
29
13
36
32
19
38
34
26
43
36
28
46
34
25
45
31
21
43
32
19
39
31
18
36
26
18
31
19
15
26
14
11
22
10
6
18
7
2
11
4
1
1
1
1
4
5
4
7
8
12
11
12
18
11
12
12
17
11
12
21
18
10
27
27
21
31
31
27
23
23
19
19
19
17
22
22
22
25
25
25
24
24
24
24
24
22
23
23
17
22
22
14
23
23
15
24
24
15
28
22
17
32
21
22
36
24
28
38
26
30
35
24
27
27
15
19
24
12
16
24
14
17
24
18
17
32
22
22
46
35
28
61
49
32
69
57
31
66
54
26
66
54
26
84
70
34
106
91
46
105
88
42
82
64
22
87
57
21
94
56
33
58
32
12
17
15
15
43
25
20
85
56
24
46
17
15
72
70
22
171
113
32
185
108
40
124
68
34
51
24
15
255
255
255
255
255
255
7
7
4
5
5
4
5
5
5
3
5
4
4
7
5
9
8
8
9
9
8
5
11
5
5
10
2
6
7
6
6
4
4
5
4
7
7
4
10
7
1
14
14
1
13
24
8
12
46
17
4
85
31
0
162
76
16
198
121
37
151
99
28
149
94
31
154
98
33
137
84
26
114
67
19
99
60
24
93
58
26
98
58
25
106
63
25
99
61
18
76
47
17
44
29
3
38
29
4
56
38
13
71
51
22
74
54
32
75
50
30
79
45
15
91
57
18
103
71
31
110
80
41
109
84
42
103
86
39
90
76
31
90
64
23
119
72
28
170
108
44
183
131
49
180
118
40
194
107
32
210
114
34
227
127
48
225
127
46
185
104
26
129
63
4
71
28
12
85
33
11
107
67
37
82
56
14
96
57
17
84
43
11
82
41
19
94
59
25
61
54
118
54
196
255
28
137
255
112
67
59
159
117
117
141
145
155
169
151
157
145
177
204
107
97
94
36
40
33
126
156
155
223
214
213
62
102
110
104
112
92
46
47
40
106
89
80
144
150
133
59
58
67
108
107
136
255
182
70
255
243
121
210
171
96
116
110
123
148
156
101
38
75
151
177
255
255
38
89
111
55
70
66
72
82
65
114
116
111
218
210
205
102
105
125
255
241
207
12
29
39
164
181
158
106
114
94
176
171
122
89
88
84
33
30
32
54
45
26
255
162
94
154
44
31
81
90
99
91
103
102
79
98
91
59
75
65
41
52
41
121
153
142
42
44
43
151
174
177
104
129
132
79
101
104
39
54
51
134
143
144
16
17
9
165
195
183
49
41
51
84
93
104
76
119
136
99
220
250
114
161
191
191
140
130
97
89
75
189
160
139
72
28
29
83
95
86
88
117
138
167
171
169
116
132
148
76
96
114
130
125
117
25
28
22
59
63
84
255
255
255
165
193
219
54
78
90
178
180
172
131
116
108
255
255
255
191
181
169
255
255
255
255
255
255
255
255
255
255
255
255
219
237
243
255
255
255
158
172
173
255
255
255
88
77
65
255
255
255
193
189
168
74
70
73
35
34
52
223
221
204
178
168
141
58
50
42
169
152
129
126
129
123
40
18
29
171
175
196
162
129
116
37
42
46
69
74
69
105
74
58
173
175
174
193
183
154
115
89
46
31
29
82
77
105
150
145
155
160
103
114
131
8
11
45
114
119
98
154
174
175
30
43
84
17
22
39
21
41
47
20
19
20
89
123
151
118
80
59
101
102
97
100
33
158
16
201
255
134
60
45
63
108
255
115
43
168
137
81
255
54
12
58
18
7
12
45
16
11
94
39
8
196
94
25
255
135
47
255
152
49
255
144
45
255
153
48
255
176
55
255
201
66
255
239
89
255
238
101
242
152
67
110
82
35
151
98
43
198
119
43
185
100
38
105
49
5
77
144
189
124
255
255
129
58
221
255
255
254
134
134
126
246
228
221
213
186
167
255
255
255
136
118
107
232
228
217
255
255
255
186
182
172
244
236
226
15
12
10
194
194
185
159
130
175
255
255
255
190
232
255
95
40
21
6
2
15
4
5
18
13
9
19
44
17
10
76
29
12
136
116
251
255
220
255
255
255
255
255
255
255
255
255
206
215
211
171
129
141
113
28
8
34
173
164
195
255
255
255
255
255
255
255
255
255
255
255
255
255
255
255
210
214
199
255
255
255
152
202
215
255
255
255
235
225
204
255
255
255
209
209
189
66
57
39
90
98
127
252
238
229
255
255
255
255
255
255
255
255
240
179
188
178
131
139
134
111
117
99
68
71
67
87
104
113
43
34
27
80
240
255
69
238
255
10
32
57
8
7
19
33
19
12
37
16
14
46
30
7
110
70
22
208
117
52
219
115
47
140
70
15
119
68
18
110
65
16
103
59
14
170
113
40
111
83
37
81
54
28
131
94
48
127
94
52
99
70
41
63
43
18
17
17
4
9
17
7
22
27
11
32
32
16
42
33
25
45
35
31
43
36
33
40
34
34
29
27
28
21
18
18
21
25
13
17
19
10
16
5
8
8
2
4
4
4
4
11
10
9
15
15
15
20
19
17
19
19
13
21
20
12
29
23
15
28
26
15
21
24
15
26
23
17
32
25
17
39
29
17
38
26
18
34
23
18
31
20
16
25
15
8
16
8
4
10
7
7
5
7
6
6
6
6
14
2
5
13
1
5
6
5
3
7
5
6
8
11
8
11
14
8
16
16
15
16
12
11
24
15
15
23
24
18
26
29
20
25
29
17
27
31
19
30
34
22
36
40
28
41
45
33
39
43
31
34
38
26
31
35
23
28
32
18
27
31
14
31
31
14
38
30
22
43
31
27
42
30
26
36
24
20
33
20
16
37
22
18
41
26
22
40
28
22
40
32
24
46
42
30
46
42
32
30
26
21
28
27
22
33
30
22
40
29
11
54
48
27
62
56
34
63
43
14
85
66
26
134
95
47
148
87
47
107
55
20
34
12
5
68
53
26
147
98
39
189
123
44
193
127
49
162
99
35
119
60
17
71
30
8
255
255
255
255
255
255
8
8
8
5
5
5
5
5
5
3
7
4
3
5
4
5
3
4
8
2
4
12
7
6
13
13
6
12
11
8
11
5
10
8
5
8
7
5
12
4
4
8
5
4
10
1
7
3
1
4
1
28
7
2
110
45
10
165
93
32
149
89
27
147
86
24
128
71
10
118
65
12
119
68
14
121
67
15
143
81
21
167
98
28
161
93
25
135
80
24
111
71
28
66
43
8
42
23
1
41
20
7
43
23
4
43
27
7
37
34
21
36
33
13
39
38
10
36
33
3
45
36
8
63
48
18
100
78
43
129
100
54
159
109
54
221
138
59
255
181
74
241
155
56
192
108
28
189
102
22
185
105
34
144
84
23
89
48
5
38
13
12
25
7
9
5
8
10
62
27
14
60
26
14
46
19
12
27
10
3
33
16
14
83
32
20
134
61
15
119
55
145
94
191
255
35
118
213
92
62
55
191
140
143
88
102
121
227
221
233
139
193
224
138
135
136
14
29
32
109
135
141
237
231
227
44
79
85
91
99
74
14
7
10
108
100
94
43
31
28
110
164
169
150
151
152
145
140
115
199
156
120
141
126
84
83
54
70
64
99
123
65
123
178
131
223
255
27
29
59
67
75
50
17
7
25
86
88
106
240
222
222
54
23
13
255
255
235
25
4
4
154
155
128
60
83
81
162
139
87
148
125
114
45
61
62
35
45
48
255
197
132
220
115
69
30
59
65
10
13
9
29
41
47
58
78
86
65
92
98
122
170
160
41
58
51
136
162
165
27
37
39
17
24
15
26
11
36
162
176
175
68
66
74
170
197
187
102
126
118
40
92
103
32
119
145
44
187
212
147
94
62
204
199
190
82
60
48
125
128
97
173
168
145
75
58
46
116
93
96
116
130
135
120
103
71
139
129
129
205
178
162
164
146
133
76
62
48
255
252
244
145
146
158
170
178
184
255
255
255
69
78
77
255
255
255
148
141
135
255
255
255
255
255
255
255
255
255
255
255
255
142
163
175
255
255
255
52
66
68
255
255
255
121
113
102
255
255
255
175
167
143
61
71
87
82
108
138
157
153
151
185
158
122
38
30
30
197
171
142
121
99
81
45
16
24
191
172
177
158
123
104
29
40
49
88
94
86
77
51
23
34
73
100
102
147
190
158
196
241
198
227
251
241
255
255
255
255
255
255
255
254
117
149
151
71
53
21
186
195
178
76
93
116
50
54
69
47
71
84
34
46
54
9
45
80
98
60
28
37
56
63
71
65
208
11
189
255
131
52
77
84
100
255
120
18
160
125
68
255
80
40
36
195
92
24
255
146
46
255
180
60
255
203
71
255
205
79
255
218
86
255
226
75
255
205
63
255
181
62
255
172
63
242
162
67
140
108
44
59
41
13
110
88
40
165
115
42
214
134
47
219
120
38
168
83
17
140
158
165
168
255
255
127
147
255
253
206
151
113
112
89
255
255
255
113
88
59
255
255
244
161
128
100
247
241
227
255
255
255
91
107
102
255
255
255
29
26
25
157
134
107
178
247
255
255
255
255
255
181
182
192
82
28
120
55
14
133
63
7
139
56
5
201
94
32
222
108
34
138
113
226
98
86
255
218
207
202
255
255
255
255
255
255
255
255
255
255
255
235
207
207
174
88
97
79
50
36
40
172
150
138
236
234
218
255
255
255
42
71
94
244
228
204
249
255
250
65
116
144
255
255
255
255
255
255
255
255
255
255
255
255
255
255
255
255
239
206
130
116
96
77
85
103
248
255
255
255
255
255
255
255
255
255
244
194
177
135
100
39
32
34
44
43
50
73
78
70
39
169
255
89
255
255
5
60
92
22
7
21
34
12
14
9
7
8
23
12
5
43
15
12
87
41
11
155
80
40
107
50
11
103
64
35
104
55
33
172
100
41
219
133
52
87
60
25
35
29
13
59
46
14
74
59
29
128
104
55
83
65
27
34
31
12
38
34
20
50
44
32
51
45
38
48
43
35
45
41
29
45
41
28
47
41
31
46
38
34
41
32
30
34
32
20
25
25
11
27
20
12
28
18
13
25
14
15
21
14
15
15
11
13
12
5
5
0
0
0
3
6
4
11
11
7
12
13
11
15
15
15
24
16
13
31
18
14
28
19
17
23
17
16
18
12
16
12
7
9
10
5
4
8
4
4
7
6
4
5
7
5
8
11
6
15
10
4
17
7
7
19
8
3
12
7
6
4
9
8
7
7
4
9
9
13
11
7
8
24
13
17
21
24
11
25
29
17
27
31
20
29
33
21
27
31
19
27
31
19
27
31
19
25
29
17
25
29
17
25
29
17
22
26
15
24
27
16
27
31
17
27
31
13
27
31
11
27
31
11
26
28
9
28
26
9
30
26
12
30
26
16
30
26
17
31
27
16
19
16
6
4
4
9
28
25
22
45
44
33
52
45
30
62
48
26
90
79
41
103
83
36
83
52
22
34
14
12
29
39
11
96
71
39
113
63
34
96
56
21
86
58
23
139
91
30
204
126
43
209
117
38
158
82
27
102
49
20
52
22
10
255
255
255
255
255
255
4
4
4
3
5
4
3
8
5
1
8
4
4
5
4
7
3
4
7
5
5
7
7
6
6
5
7
7
7
9
9
7
9
10
8
8
7
7
8
1
7
0
4
7
0
6
7
4
9
5
1
8
5
4
60
23
2
108
53
18
117
60
22
117
61
17
110
60
16
115
64
17
130
72
19
141
76
14
168
94
25
180
103
27
176
101
24
178
105
30
186
112
41
180
106
34
175
98
27
170
99
29
158
98
29
137
84
23
107
68
24
79
60
22
62
50
14
51
37
10
47
26
11
40
18
25
56
28
7
79
47
8
115
68
22
200
125
46
205
137
48
132
78
19
120
64
21
139
75
24
103
50
19
32
16
17
18
8
16
32
14
2
37
12
5
22
5
3
39
19
8
36
19
5
36
10
12
30
9
13
47
17
6
106
47
12
156
93
13
78
89
185
120
212
255
28
91
166
51
28
13
199
147
146
13
18
25
203
211
227
74
129
159
139
137
139
15
34
39
84
107
115
230
230
231
27
57
64
68
68
50
54
48
36
78
86
83
54
83
84
116
211
211
167
165
166
55
92
94
139
91
66
116
133
133
4
25
28
16
70
121
163
221
253
140
234
255
129
133
127
93
108
101
90
95
67
52
56
64
252
230
208
57
52
69
255
239
197
35
48
56
101
105
87
126
126
127
146
96
58
211
155
133
61
68
82
42
83
91
255
190
149
255
168
114
79
109
123
74
110
110
64
94
89
38
54
55
27
32
31
125
168
164
31
19
19
117
136
137
50
47
64
86
89
110
103
109
122
156
185
172
33
47
43
128
149
148
67
31
23
78
25
63
43
170
199
70
23
41
233
239
219
31
67
74
68
51
40
48
40
49
61
53
68
107
78
83
111
93
101
199
193
190
151
153
132
68
76
77
96
90
75
98
90
80
134
124
123
208
202
195
51
47
44
200
188
176
255
255
255
255
255
255
190
180
174
209
180
162
160
170
171
255
255
255
179
191
197
255
255
255
153
161
161
255
255
255
41
48
46
255
255
255
92
104
113
255
255
255
124
104
79
70
85
86
108
113
103
144
135
118
191
165
133
69
77
86
252
224
194
140
108
76
50
41
25
207
177
165
182
157
132
59
62
48
11
20
21
207
210
203
183
203
211
145
160
155
90
93
69
67
68
28
15
26
61
163
151
144
164
153
120
140
137
130
93
102
117
126
118
103
99
115
120
17
0
22
34
34
51
19
13
21
31
14
47
70
43
25
52
59
61
93
112
225
84
213
255
161
174
241
130
190
255
157
154
228
29
176
255
255
144
83
255
194
58
255
204
63
255
200
63
255
174
55
194
131
36
152
104
31
165
107
41
165
105
47
127
89
35
71
59
22
36
28
22
51
37
21
42
40
28
91
72
32
125
86
34
141
95
36
161
89
29
129
59
11
79
80
59
111
234
255
49
230
255
162
70
37
37
39
44
255
253
235
148
132
110
255
255
234
237
194
153
255
255
242
255
255
255
133
158
152
255
255
255
123
130
114
144
109
79
255
255
255
255
255
255
215
133
50
242
122
29
251
127
37
249
121
31
214
102
34
206
109
46
158
77
20
136
182
255
68
180
255
43
41
82
67
77
107
131
147
170
208
210
216
255
254
252
255
255
255
253
255
254
181
195
188
40
37
25
202
214
230
255
255
255
143
108
76
255
255
255
183
201
192
111
55
35
255
255
255
163
144
115
35
32
62
169
174
189
255
255
255
255
255
255
255
255
255
251
255
231
98
119
89
84
66
83
221
214
206
222
183
133
168
135
94
89
76
77
9
11
20
71
68
73
25
112
247
91
255
255
25
80
125
10
4
13
22
8
4
25
11
6
24
4
10
10
3
14
37
24
3
95
57
33
113
56
20
87
43
26
34
17
8
178
112
49
248
145
61
119
68
20
35
31
11
86
65
26
133
104
48
159
118
59
69
42
20
27
10
7
31
18
13
30
24
27
21
15
12
11
5
8
10
7
6
12
12
10
18
17
11
30
27
23
40
32
32
41
34
25
38
38
26
32
32
22
30
24
17
31
20
21
29
21
24
28
20
22
22
10
14
8
5
6
8
7
7
10
7
6
4
6
5
18
9
12
27
14
15
24
15
13
15
15
15
10
8
11
1
4
5
5
5
8
10
8
3
15
8
10
18
10
12
21
16
14
27
23
19
33
26
23
36
23
20
35
20
14
25
15
10
15
14
8
15
15
7
5
5
5
11
3
7
25
14
15
24
28
14
27
31
20
17
17
17
8
8
8
5
5
5
2
2
2
3
3
3
4
4
4
3
3
3
5
5
5
8
8
8
9
9
9
12
13
10
10
13
4
8
11
4
7
8
5
5
8
7
2
4
3
3
0
4
11
10
6
7
4
2
12
8
5
27
24
22
40
36
27
46
41
27
50
45
29
55
43
26
55
41
17
73
63
24
73
54
22
29
10
6
27
24
10
28
28
17
83
71
37
140
91
52
143
87
38
134
77
28
134
75
25
90
48
17
10
8
3
31
31
15
49
27
13
60
25
13
255
255
255
255
255
255
5
5
5
6
10
7
5
13
8
4
10
7
4
5
4
6
2
2
1
7
4
3
4
2
0
1
5
4
2
7
2
5
8
4
11
8
7
10
7
8
12
5
6
8
7
8
1
9
5
0
8
4
5
7
28
10
7
53
19
9
63
28
6
75
36
5
88
44
10
100
54
15
119
67
24
129
71
25
122
65
18
103
47
7
109
49
4
141
71
7
176
95
27
197
107
34
221
120
46
241
137
53
247
146
49
237
145
44
217
127
34
202
115
32
210
118
41
230
130
52
243
140
61
230
133
53
199
113
30
165
94
16
151
82
22
193
108
33
133
82
19
56
27
7
71
35
8
76
34
13
26
12
2
44
24
10
88
47
25
90
52
26
76
46
22
47
31
20
8
10
17
24
11
8
30
18
8
34
15
8
81
30
4
141
79
23
114
61
20
39
128
241
112
204
255
48
56
118
12
22
58
208
152
135
60
45
47
187
204
211
44
89
108
96
97
94
86
92
92
28
31
38
217
228
236
30
12
19
55
57
46
53
45
30
65
69
70
97
171
156
122
229
231
76
50
56
120
115
101
199
178
167
118
160
154
44
73
65
56
95
115
230
255
255
65
147
189
117
102
74
22
34
54
41
45
79
151
140
149
219
212
184
74
64
57
232
203
158
94
80
81
167
166
165
187
187
179
165
115
73
255
219
175
48
62
79
52
85
106
199
110
87
255
193
145
80
54
74
23
34
32
8
2
14
12
19
27
79
99
100
141
192
193
77
93
93
120
149
146
70
80
78
27
38
29
19
15
13
110
131
119
83
79
85
201
198
185
112
60
44
58
157
201
48
162
191
220
182
167
175
221
211
114
102
103
13
27
35
98
76
59
185
177
158
70
73
60
138
155
167
37
22
4
113
113
123
172
167
163
181
159
143
193
180
165
128
114
98
130
127
114
48
40
35
246
245
232
151
148
144
255
255
255
105
92
91
133
118
92
136
127
100
255
255
255
152
169
165
255
255
255
88
109
113
255
255
255
87
89
77
255
255
255
253
250
239
255
255
255
21
19
29
103
108
110
140
119
104
173
147
117
209
193
171
151
163
174
255
255
255
206
187
164
52
38
25
219
182
165
187
173
151
88
89
89
227
232
217
203
195
168
20
34
58
161
181
190
222
236
252
254
255
255
255
255
255
255
255
255
190
213
223
72
96
120
59
67
73
21
14
15
142
148
143
116
128
137
81
101
121
73
101
120
104
123
142
169
165
162
188
184
180
158
185
255
131
255
255
187
255
255
200
255
255
166
232
255
204
255
255
255
255
255
192
121
44
138
88
24
90
53
14
50
34
13
29
28
9
15
12
5
24
4
3
22
8
5
23
6
10
39
22
7
77
60
32
134
107
62
170
129
63
224
154
68
225
152
70
169
110
45
163
93
31
128
58
18
76
31
19
35
130
208
55
244
255
165
102
132
162
158
150
255
243
225
177
149
119
255
249
222
255
203
159
255
247
215
255
255
255
144
169
160
255
255
255
133
136
121
180
141
112
255
255
255
255
255
255
255
216
110
255
232
108
255
200
72
255
171
49
214
144
41
95
57
10
6
8
16
119
168
236
174
226
255
212
196
194
119
109
101
37
24
29
99
98
94
155
156
161
254
244
251
255
255
255
255
255
255
255
255
255
255
255
255
255
255
255
158
120
81
255
255
255
104
146
144
163
96
78
255
255
255
255
255
255
255
255
250
174
173
144
23
28
33
120
110
105
255
255
245
255
255
255
255
255
255
255
255
255
230
199
142
164
124
87
138
118
95
117
117
119
48
67
78
54
56
53
95
96
200
77
245
255
22
82
140
12
10
9
26
3
9
26
5
4
12
4
1
20
3
10
25
14
8
40
29
15
71
33
15
59
17
8
38
15
7
120
78
28
251
157
62
240
146
58
89
49
23
73
48
20
122
89
51
99
69
41
28
20
15
17
13
14
18
14
11
18
18
22
17
15
15
16
19
16
21
24
16
26
30
20
28
31
21
24
25
22
20
18
19
19
10
8
20
14
11
17
17
17
13
15
10
14
17
8
15
18
10
24
21
19
23
9
14
7
4
3
5
6
4
4
8
4
13
12
11
16
10
9
15
12
7
12
10
4
8
8
10
15
10
20
18
8
24
17
11
14
14
11
14
9
11
10
20
18
17
28
22
21
29
21
21
28
20
16
29
20
14
33
26
20
30
26
21
20
21
16
20
21
15
14
14
8
20
8
10
27
15
17
22
25
16
24
28
16
10
11
7
11
11
11
12
12
12
14
14
14
15
15
15
12
12
12
9
9
9
11
11
11
16
16
16
15
15
15
12
13
10
15
18
9
20
24
12
26
30
16
32
35
18
39
37
20
43
39
25
43
40
29
43
40
28
45
43
25
49
43
28
47
42
18
38
39
17
39
35
17
44
35
19
35
31
13
47
41
12
80
57
28
60
34
26
6
11
13
50
46
29
95
63
31
120
70
33
119
75
30
114
67
21
88
40
18
85
51
15
169
99
37
189
110
43
190
110
45
187
108
40
255
255
255
255
255
255
5
9
3
6
8
5
9
7
7
11
3
7
11
7
8
8
6
7
4
8
5
4
4
4
4
5
5
4
7
2
2
9
4
2
10
5
2
4
3
4
4
4
2
4
7
6
5
6
2
6
11
4
5
7
11
4
5
21
5
5
25
8
6
33
11
7
42
10
8
52
15
7
68
30
5
75
37
6
65
32
6
55
24
15
59
19
4
76
26
7
102
44
5
127
61
17
141
73
24
150
75
19
173
81
19
203
106
29
221
119
31
232
126
32
244
131
38
255
134
41
255
144
50
255
151
54
255
145
52
255
142
52
240
135
47
201
110
29
109
64
15
60
28
14
53
18
10
28
7
2
4
0
7
36
12
13
48
32
22
12
6
11
50
26
16
33
19
11
29
18
3
7
7
4
22
12
5
36
13
0
85
37
12
138
81
34
108
50
72
78
158
255
51
147
240
78
38
56
64
72
89
225
180
173
98
74
66
206
229
230
18
48
57
38
40
45
14
12
31
173
162
154
141
166
188
100
98
84
71
82
80
24
28
36
36
45
47
83
178
174
68
119
131
131
176
151
171
218
196
90
130
128
10
44
48
48
28
15
63
38
69
213
244
239
38
42
48
137
150
154
54
53
76
67
56
47
172
159
158
187
195
181
99
69
38
211
191
150
62
87
93
78
96
83
84
65
51
151
115
83
255
255
215
32
37
57
34
47
63
43
27
46
255
180
126
205
91
44
38
67
78
85
110
112
95
119
120
118
152
147
106
154
149
66
64
63
92
115
116
66
62
73
97
102
109
79
92
93
115
147
133
103
86
74
162
136
111
82
194
237
86
206
234
166
86
62
255
255
255
83
131
141
124
121
114
87
98
89
118
114
93
49
56
45
139
140
126
101
118
112
207
182
175
120
118
115
140
152
158
130
113
105
132
138
131
68
68
61
69
67
65
127
119
104
247
245
238
167
163
146
255
255
255
162
118
94
169
160
148
48
54
72
255
255
255
174
187
170
255
255
255
252
237
229
255
255
255
97
87
68
165
155
148
205
185
157
139
132
109
97
96
95
108
111
103
82
81
78
73
74
73
172
172
164
37
58
65
255
255
255
255
246
230
94
87
69
245
211
195
146
147
133
137
128
126
76
92
93
147
169
183
124
159
176
98
94
81
133
125
116
100
111
98
72
76
72
127
112
103
129
116
94
106
109
130
94
95
106
69
60
55
103
79
53
187
165
138
212
202
192
223
228
221
196
210
195
145
150
137
97
95
84
19
35
41
56
76
101
79
141
202
84
89
127
16
40
102
213
255
255
255
255
255
226
241
247
73
63
38
60
43
13
87
61
26
101
76
35
91
68
28
63
39
18
36
18
12
26
14
12
41
26
10
89
67
27
74
63
36
96
64
36
123
83
48
34
20
4
118
84
40
196
124
49
162
80
33
64
31
31
37
79
159
96
181
255
155
94
164
96
81
84
255
255
241
218
180
154
255
249
216
255
223
176
248
237
200
255
255
255
136
158
152
255
255
255
64
68
57
124
93
69
255
255
255
255
255
255
225
183
85
251
197
91
253
188
93
241
173
80
247
176
63
186
131
52
79
38
16
141
153
204
236
255
255
255
255
255
255
255
255
255
255
255
255
255
255
213
220
206
95
105
95
75
47
53
216
193
196
255
255
255
255
255
255
255
255
255
255
202
162
255
255
255
62
103
101
182
123
83
255
255
255
255
255
255
255
255
255
255
255
255
255
255
255
236
244
229
85
92
90
131
112
101
255
253
228
255
255
255
255
255
255
255
255
255
184
176
159
111
108
106
94
91
79
65
72
53
89
91
178
65
186
255
16
78
150
16
10
10
10
1
5
8
6
7
11
5
2
19
6
3
22
11
11
11
8
7
5
13
5
44
24
16
62
28
16
92
45
22
199
122
44
255
178
72
184
107
63
102
73
62
80
72
53
51
38
26
26
24
12
31
32
18
29
31
20
21
24
16
5
8
3
10
7
8
21
15
15
30
24
24
27
26
29
24
24
27
26
18
13
23
12
4
15
9
7
9
10
7
11
10
13
22
22
15
30
31
17
36
36
22
28
26
24
16
19
17
18
14
12
12
13
15
12
16
21
18
14
17
23
18
20
24
20
20
22
19
20
23
25
24
21
25
21
26
26
24
25
17
21
17
9
13
11
10
8
8
8
5
6
6
2
7
9
5
8
8
0
19
14
9
24
19
17
13
14
7
11
13
7
14
11
12
27
16
18
25
15
12
22
18
9
28
24
11
22
23
12
20
24
12
18
22
10
20
22
15
19
21
15
20
23
14
25
29
15
29
32
15
31
34
17
33
37
16
37
41
19
46
46
26
56
51
34
70
60
47
82
69
54
85
72
49
80
68
40
72
59
34
66
53
33
62
52
33
65
52
36
67
50
30
65
48
25
68
48
22
72
54
31
91
75
39
132
100
46
166
117
55
161
107
57
132
85
43
100
62
24
61
28
8
65
39
15
110
84
38
161
103
39
180
105
33
176
101
32
170
89
36
151
81
27
181
107
33
199
120
34
255
255
255
255
255
255
7
4
4
8
5
5
9
5
7
11
4
7
10
6
8
5
9
7
4
11
7
6
11
8
7
11
5
5
9
1
5
8
2
5
6
4
2
2
2
3
1
1
3
4
4
7
8
3
5
10
4
8
9
8
6
6
5
4
3
2
6
2
2
8
5
3
10
3
3
12
2
8
16
2
10
19
5
9
23
7
5
29
17
13
34
16
11
40
17
8
47
21
3
52
25
6
45
24
7
40
19
8
58
20
4
93
39
12
123
58
18
135
66
20
126
62
13
109
53
9
92
47
12
90
40
8
106
48
8
122
58
7
124
66
6
97
54
2
57
31
7
45
19
3
35
14
10
24
12
11
28
17
6
51
26
14
79
42
23
85
47
19
70
41
15
47
24
10
32
11
5
7
4
5
21
6
9
28
14
11
72
29
11
133
63
28
137
53
100
28
114
255
20
113
212
69
2
24
134
114
106
222
206
204
159
131
108
226
255
255
43
37
29
86
90
82
133
137
126
242
248
247
131
158
181
165
183
186
85
98
106
50
60
83
26
51
70
24
98
85
70
137
112
77
159
139
24
63
52
42
15
14
12
14
27
54
69
101
131
138
165
180
199
186
57
55
59
145
145
149
126
124
127
55
55
70
190
172
148
216
231
229
160
118
83
203
166
129
103
95
101
100
69
62
95
63
52
89
74
49
255
242
205
76
67
55
20
29
39
74
107
125
206
97
48
255
225
170
103
85
76
16
58
51
20
7
12
81
97
87
61
88
91
147
162
166
122
152
146
67
75
76
31
49
37
47
45
60
71
123
114
123
50
32
43
96
139
68
184
215
157
70
48
255
253
236
144
174
184
103
53
43
145
158
162
80
109
111
57
45
45
62
36
23
122
129
119
41
73
77
194
177
168
87
87
104
192
205
213
144
131
128
144
146
145
87
90
91
52
47
43
180
171
162
227
219
213
255
255
251
232
238
234
126
81
52
253
208
159
200
170
132
255
255
255
161
161
138
166
167
155
210
187
173
200
195
166
96
82
64
106
97
87
104
102
92
61
65
74
134
122
116
146
138
139
207
191
193
255
251
239
255
255
255
189
195
202
255
255
255
221
210
209
24
23
15
248
218
213
97
114
107
138
146
145
209
222
220
143
140
124
162
139
126
210
198
192
255
255
255
206
218
216
255
255
255
239
253
253
255
255
255
52
67
77
18
14
28
6
14
36
68
64
80
5
40
79
20
14
52
39
37
48
45
22
29
40
37
32
89
99
101
53
67
96
88
111
133
77
96
115
181
188
183
127
138
132
53
79
129
255
255
255
255
255
255
113
79
45
148
100
42
141
94
47
122
88
50
110
87
46
85
73
29
39
35
23
7
4
9
37
26
14
111
77
36
170
121
56
187
133
60
221
150
71
255
202
105
255
196
91
255
213
86
255
183
67
255
145
55
255
151
132
185
190
255
95
71
171
55
44
31
252
234
214
231
196
173
255
255
229
239
188
146
207
195
170
255
255
255
230
237
211
255
255
255
54
57
53
51
17
20
255
255
255
255
255
255
52
36
24
81
64
39
112
90
63
139
100
63
189
130
66
255
194
93
231
144
48
153
188
236
110
235
255
126
133
174
255
255
255
255
255
255
255
255
255
255
255
255
255
255
255
255
255
255
191
201
187
38
39
40
137
163
168
255
255
255
255
255
222
255
255
255
101
72
66
249
206
178
250
255
255
166
180
164
78
55
68
218
211
227
255
255
255
255
255
255
255
255
255
255
255
221
137
138
99
45
35
59
175
170
177
172
157
144
126
126
107
97
111
129
76
70
70
87
104
102
68
113
204
18
182
255
23
69
143
10
11
10
12
3
5
19
1
7
27
9
3
27
10
7
29
14
10
17
10
10
14
3
11
22
17
13
41
26
12
91
54
16
255
221
101
255
255
137
238
168
102
127
117
65
86
81
39
68
54
29
64
52
34
60
51
35
45
35
26
30
23
17
21
17
12
16
14
14
22
18
20
25
19
18
17
15
14
21
10
7
21
5
7
11
4
2
1
3
5
13
7
12
33
26
29
45
34
35
48
40
35
55
44
29
35
32
27
29
25
28
32
24
29
29
24
28
25
25
28
28
24
18
26
24
14
25
26
17
23
26
18
16
20
12
15
19
10
25
31
24
32
31
30
32
25
24
30
21
22
26
16
21
22
10
13
17
14
6
22
23
13
41
34
27
53
42
33
48
36
28
40
24
24
32
16
15
24
13
17
11
10
10
20
18
11
34
26
16
38
29
16
38
30
16
36
31
17
36
34
17
41
37
14
49
39
18
56
44
24
61
49
29
63
51
29
66
54
28
74
63
35
87
75
44
98
80
41
101
79
39
89
71
35
77
62
30
78
64
30
91
73
36
113
82
44
136
94
49
143
103
51
136
103
48
147
108
52
176
123
56
209
144
61
237
164
68
221
148
63
161
104
52
96
61
36
46
29
14
20
1
7
15
3
7
36
18
12
36
32
17
64
44
21
90
55
29
89
48
22
95
55
31
75
49
18
65
46
9
62
37
7
255
255
255
255
255
255
11
5
8
8
5
7
2
5
4
2
5
3
4
5
1
3
7
3
2
8
5
4
4
3
4
3
3
5
5
5
5
5
5
5
5
5
7
7
7
6
5
5
6
4
4
7
5
5
4
4
4
2
2
2
2
2
2
1
1
1
3
3
3
4
4
4
3
3
3
1
1
1
1
1
1
2
4
3
1
4
2
4
5
4
8
3
2
12
4
1
11
4
2
8
2
8
4
0
12
7
5
11
8
4
10
19
8
7
29
12
1
33
11
2
30
11
5
23
14
2
15
12
2
7
5
10
10
6
8
5
3
12
4
4
12
8
2
7
13
5
7
20
7
10
18
9
14
15
7
12
14
8
15
20
12
8
31
24
7
34
23
4
31
12
1
22
7
2
3
6
8
8
3
8
11
7
5
17
10
8
31
11
11
76
27
3
142
30
136
64
86
255
50
131
221
96
101
111
195
176
169
128
127
128
214
205
179
203
240
234
33
33
45
149
142
137
112
110
108
195
203
211
81
97
114
145
146
134
125
134
120
113
119
124
79
76
87
50
15
21
45
61
65
41
77
84
73
91
109
136
134
154
183
170
183
174
149
152
153
131
125
87
96
84
21
17
7
14
21
26
69
48
44
82
79
82
189
183
173
185
204
210
216
177
135
166
138
99
72
91
88
78
68
49
106
84
66
56
58
41
194
168
142
205
173
151
48
36
23
49
55
61
39
42
69
255
225
174
255
176
118
174
121
104
144
116
108
148
148
135
31
55
51
140
160
147
42
61
49
4
13
1
32
24
10
93
35
58
141
104
100
53
66
116
6
89
127
186
111
96
255
253
241
107
124
121
107
87
88
200
188
196
94
129
145
28
11
11
79
69
55
62
55
49
99
121
128
49
90
107
217
201
189
56
54
61
204
214
214
111
108
104
96
91
87
144
145
151
114
116
116
195
178
169
210
205
189
255
255
245
207
227
223
35
36
23
120
103
89
114
82
42
255
255
255
124
126
118
96
103
90
102
91
78
118
115
87
82
76
71
129
131
124
118
109
91
117
121
125
84
75
77
105
92
76
63
47
16
65
54
67
238
239
219
98
117
102
206
214
211
171
153
138
13
24
54
241
209
196
82
88
81
21
28
43
34
44
44
229
218
218
141
122
106
123
107
93
252
210
176
6
17
26
255
255
255
177
162
138
255
255
255
114
146
172
106
121
127
58
52
64
87
65
65
132
123
117
130
140
149
144
170
182
125
166
178
63
94
119
102
115
123
31
56
74
100
108
109
107
89
65
160
144
115
45
57
53
36
36
66
255
255
255
247
255
255
102
74
55
89
62
30
66
43
16
53
25
14
74
43
29
80
67
22
40
37
12
39
28
25
57
38
30
79
56
39
131
93
52
187
136
69
212
155
78
197
140
69
151
106
44
255
187
82
255
250
97
255
255
115
255
255
161
255
255
255
102
138
207
88
87
73
201
196
182
255
255
255
255
255
255
143
137
139
133
133
141
255
255
255
255
255
255
218
216
200
99
97
96
48
21
20
255
255
255
255
255
255
29
18
25
41
24
24
47
38
31
55
53
30
93
73
35
218
158
77
255
226
95
255
255
248
255
255
255
255
250
189
165
165
133
41
37
31
105
95
103
171
161
162
255
244
233
255
255
255
255
255
255
255
255
255
243
255
255
255
255
255
201
171
144
255
255
255
86
58
63
255
255
237
255
255
255
255
255
255
255
255
255
197
196
170
51
63
37
138
124
138
255
255
255
255
255
255
255
255
255
255
238
210
136
136
124
70
76
80
126
121
118
223
220
218
155
133
109
136
130
110
19
95
188
26
212
255
23
88
159
11
10
12
16
6
9
40
16
10
46
21
6
43
26
4
32
24
4
20
14
4
40
19
4
96
48
15
180
98
38
255
224
102
255
255
144
255
199
100
126
92
43
72
63
26
81
61
32
81
64
38
64
56
34
40
31
22
20
11
11
21
21
15
20
17
12
25
21
18
26
22
21
20
12
12
15
9
13
13
11
14
4
6
7
15
7
5
15
11
10
18
15
17
25
26
23
16
11
9
40
34
24
90
63
31
80
61
27
67
43
13
36
18
8
27
15
7
18
10
16
8
4
18
10
15
19
11
17
17
13
13
16
19
17
16
29
25
16
38
33
21
48
41
33
53
44
34
56
46
27
52
47
30
52
48
36
62
57
44
78
67
51
89
72
49
86
69
44
72
53
38
58
36
35
39
20
28
15
5
10
9
17
9
26
29
18
43
39
20
59
47
20
74
57
25
89
67
32
98
69
35
96
68
33
86
64
30
76
58
27
71
58
29
69
58
29
72
58
31
85
63
39
99
71
39
91
64
21
65
45
2
39
26
8
38
32
6
78
62
22
126
92
34
162
115
43
193
135
55
215
149
58
227
157
56
244
164
62
255
174
67
255
180
69
222
133
46
97
46
12
73
56
19
103
67
27
82
44
23
13
14
7
77
54
19
106
67
23
106
64
19
108
62
24
70
36
14
50
29
12
62
39
17
28
13
14
11
14
17
33
25
13
255
255
255
255
255
255
6
6
6
4
4
4
1
5
2
2
5
1
1
5
2
4
6
5
6
3
4
8
0
3
10
4
6
8
6
7
4
4
4
2
2
2
4
4
4
4
4
4
5
5
5
8
8
8
6
6
6
5
5
5
2
2
2
1
1
1
3
3
3
2
2
2
2
2
2
3
3
3
4
4
4
5
4
6
5
4
9
3
3
8
2
2
6
6
4
8
2
5
8
2
4
4
2
2
2
2
3
3
2
3
5
3
1
5
6
2
4
7
3
5
8
4
5
6
4
4
5
2
4
5
6
8
8
6
6
7
2
3
5
4
2
9
4
5
1
1
1
5
4
4
4
4
6
4
2
2
3
4
4
1
2
2
4
4
4
7
10
8
4
7
7
8
4
5
15
4
10
10
12
8
3
10
7
6
7
5
10
11
5
76
16
27
132
54
213
71
101
255
71
112
168
92
115
115
171
157
149
111
102
105
235
229
215
224
248
236
99
100
106
110
89
68
124
113
110
191
212
214
106
125
128
104
117
129
13
31
62
68
44
31
90
81
68
94
115
130
135
137
147
187
184
178
177
171
162
139
115
104
132
92
86
85
55
39
13
37
47
82
77
84
115
105
107
101
93
96
129
114
120
110
116
135
195
192
202
126
137
138
248
221
188
130
113
86
74
73
66
101
75
56
60
64
59
56
62
59
56
50
47
246
219
191
219
201
175
27
15
29
31
28
37
139
65
34
255
211
144
255
177
109
177
86
34
229
196
172
41
30
38
150
159
150
61
31
22
110
35
14
161
60
7
110
46
82
69
136
164
46
109
129
116
76
72
203
196
197
67
82
73
96
60
68
116
85
90
58
49
49
60
56
62
37
53
76
6
34
60
21
42
63
44
58
63
93
113
117
206
197
187
50
56
63
206
219
218
35
39
37
92
103
103
143
151
156
191
201
202
131
122
113
185
184
157
182
179
159
227
248
239
36
60
77
69
77
68
66
62
67
255
255
255
110
118
135
166
168
157
146
149
137
241
232
207
32
17
24
222
206
192
52
52
62
119
117
116
157
158
176
200
199
220
225
222
231
238
233
221
230
233
215
119
130
129
212
222
233
187
166
150
5
15
38
222
194
174
78
90
98
46
55
70
94
112
127
133
123
128
229
220
216
255
255
250
209
193
165
155
160
152
255
255
255
171
136
91
255
255
213
66
83
104
102
147
178
49
50
45
56
97
137
12
47
80
28
29
51
83
65
50
131
115
99
128
138
144
93
96
106
19
19
29
93
99
99
132
107
84
137
116
94
26
34
32
47
39
31
195
255
255
255
255
255
175
238
255
105
84
86
164
108
50
135
86
41
101
72
30
82
70
30
62
50
25
63
43
33
53
38
26
29
24
12
42
40
54
39
48
70
67
58
64
59
51
26
62
55
31
134
99
57
189
139
74
215
162
84
219
191
163
255
255
255
162
193
219
94
107
111
36
43
57
51
38
43
87
70
45
173
147
102
202
164
112
170
141
89
130
116
89
129
111
83
107
87
73
20
19
53
255
255
255
255
255
255
45
20
26
20
15
20
21
21
26
34
24
22
41
35
18
86
77
28
200
152
64
255
255
248
220
255
255
255
255
255
255
255
255
255
255
255
255
255
255
202
202
201
79
85
81
80
61
60
224
195
167
255
255
250
255
255
255
255
255
255
224
192
171
255
255
255
34
82
109
255
255
255
255
255
255
255
255
255
255
255
255
255
255
255
255
255
255
200
209
187
84
98
83
33
25
48
114
115
117
161
151
130
165
153
130
129
115
94
160
140
112
198
186
166
186
169
158
114
97
80
31
84
171
37
220
255
12
111
193
17
7
8
55
21
10
51
24
8
82
47
17
127
73
28
138
73
22
172
94
27
255
180
72
255
255
113
255
255
145
255
255
153
255
220
108
115
76
39
48
39
22
41
26
22
39
25
31
37
32
26
24
21
11
18
14
10
25
22
17
36
28
24
26
18
15
26
20
15
22
13
10
12
11
14
15
13
9
24
16
9
31
19
16
26
17
22
17
17
25
5
12
16
20
13
14
35
28
16
111
90
45
157
115
58
130
97
43
128
93
45
113
80
43
110
85
53
99
80
42
71
57
18
35
28
3
13
12
2
4
2
6
25
20
12
37
26
18
38
30
21
41
33
28
51
43
39
60
50
36
65
61
36
73
68
49
83
66
61
82
58
54
68
46
38
37
30
24
17
21
10
30
23
8
45
29
16
59
44
22
74
52
24
97
67
26
133
100
40
173
131
57
208
153
67
247
174
78
255
179
84
242
162
76
194
138
62
145
111
46
106
86
26
93
75
18
101
76
26
116
77
31
122
73
27
105
61
28
90
57
26
86
54
24
111
75
30
174
115
40
215
134
45
225
140
50
228
145
52
240
146
47
255
147
45
254
144
47
231
132
47
175
96
38
113
61
21
160
95
30
91
47
16
23
21
4
77
57
8
154
94
26
163
88
34
97
43
14
32
13
5
11
6
14
79
57
24
92
58
22
42
16
10
7
15
16
25
20
7
28
19
3
255
255
255
255
255
255
2
4
1
4
8
5
3
10
6
5
7
6
8
8
8
8
8
8
8
7
7
11
4
7
11
5
7
8
1
4
4
2
3
4
4
4
5
5
5
7
7
7
7
7
7
5
5
5
2
2
2
5
5
5
6
6
6
5
5
5
4
4
4
1
1
1
2
2
2
3
3
3
3
3
3
4
4
5
5
2
7
7
4
11
5
6
14
8
6
11
5
6
6
5
4
3
4
3
1
7
4
2
7
4
2
6
2
1
6
2
2
5
2
2
4
2
2
0
3
3
2
3
3
3
4
4
7
5
5
8
5
5
8
5
5
4
3
3
3
3
4
4
4
7
2
2
5
2
2
3
3
3
3
2
2
2
4
8
7
4
11
8
3
5
7
7
8
13
12
15
16
8
14
10
10
2
4
14
3
4
21
15
10
59
5
56
96
140
255
126
139
255
44
49
61
97
113
114
194
199
207
86
93
102
213
193
189
184
215
210
160
178
176
100
93
94
157
141
147
170
204
196
49
75
77
76
92
97
63
55
61
122
99
95
231
212
194
209
177
179
176
125
102
134
107
84
47
29
13
14
47
54
79
72
77
56
48
39
68
64
56
57
32
22
66
73
78
101
99
102
56
45
51
120
132
159
196
196
181
85
88
89
243
232
212
120
103
81
126
144
117
114
119
99
54
55
51
37
40
37
97
106
117
105
85
65
255
255
255
174
159
143
66
28
23
22
40
23
89
42
27
150
76
23
175
86
30
255
198
173
205
109
42
210
132
119
168
55
33
174
65
26
91
27
58
97
128
157
81
108
110
107
94
96
133
142
141
75
80
80
83
65
55
59
52
63
73
71
70
35
13
8
40
24
37
69
35
13
85
59
43
76
59
56
69
60
64
69
99
104
147
140
127
27
29
21
190
209
214
64
66
65
65
49
29
43
38
22
83
97
107
125
134
145
123
121
102
123
115
101
201
205
196
73
91
110
119
137
142
62
37
28
255
255
255
119
132
145
255
255
249
38
46
59
255
246
224
97
99
111
169
164
159
84
91
102
182
191
213
241
245
254
170
173
149
91
91
50
33
41
73
174
178
181
91
108
103
236
252
253
222
205
180
31
14
8
213
183
163
80
91
114
39
49
59
90
104
129
21
22
22
147
154
158
103
110
111
112
91
69
153
157
150
255
255
255
160
120
72
255
235
179
86
86
79
142
183
208
139
158
157
33
32
57
60
66
68
60
80
90
87
111
137
49
94
131
6
19
53
77
70
54
69
58
58
70
75
77
134
110
72
117
101
79
35
32
19
75
81
75
40
32
55
199
255
255
255
255
255
255
255
255
162
148
157
86
63
19
70
53
22
62
48
21
62
43
20
54
35
21
19
17
14
49
46
66
169
166
179
129
128
131
167
161
157
39
36
22
37
35
13
57
46
22
78
56
40
88
64
56
144
159
185
255
255
255
205
216
224
222
184
142
255
255
255
255
255
255
255
255
255
255
236
179
238
198
153
255
240
191
255
255
220
248
221
172
183
163
106
120
126
96
255
255
255
255
255
255
127
100
90
39
20
17
25
14
17
24
13
13
28
16
14
31
30
11
55
45
15
226
239
255
255
255
255
225
203
210
209
201
230
255
255
255
255
255
255
255
255
255
255
255
255
255
255
248
190
181
146
42
37
18
113
125
118
255
255
255
255
255
242
255
255
255
25
34
46
255
255
255
242
255
255
239
233
227
30
38
33
26
32
33
43
41
49
41
37
44
50
51
67
5
10
26
114
105
86
152
147
137
207
194
171
143
127
109
115
122
111
148
143
133
49
63
79
22
22
20
63
46
107
107
255
255
38
151
241
55
28
11
80
34
5
78
44
2
195
118
41
251
144
46
255
162
60
255
218
100
255
255
131
255
254
121
255
214
99
235
163
84
120
79
52
41
29
27
36
25
21
35
24
22
14
17
1
7
2
5
23
23
15
21
21
15
28
24
13
36
28
23
18
15
12
17
15
8
19
14
8
20
20
14
23
22
15
24
18
10
24
18
15
20
18
19
19
10
10
11
11
12
23
22
10
90
73
36
185
137
79
148
96
53
60
39
12
62
49
15
99
75
31
119
86
49
118
83
55
116
88
54
105
85
45
86
69
38
54
40
23
38
35
15
21
23
11
8
14
5
8
4
9
3
3
5
13
12
14
28
16
7
28
13
17
14
5
10
16
18
11
41
36
18
65
52
29
89
70
39
100
82
48
115
92
59
137
102
57
177
122
55
230
158
65
255
195
86
255
209
92
255
208
87
255
205
79
255
204
71
255
194
70
255
164
65
219
133
57
197
125
58
200
131
57
214
140
54
225
148
50
223
149
46
230
150
55
251
160
68
255
168
67
255
171
61
255
169
60
255
145
55
231
122
45
194
100
31
135
64
18
71
29
8
29
17
13
24
18
12
55
36
19
119
71
30
114
69
17
139
89
32
148
91
32
152
88
37
112
57
34
25
30
4
143
96
31
172
108
33
185
117
44
169
106
45
107
57
22
54
37
28
32
31
23
43
22
9
54
34
10
255
255
255
255
255
255
5
8
6
5
11
8
2
8
5
4
6
5
8
8
8
6
6
6
6
8
7
7
10
7
2
8
5
7
5
5
5
5
5
8
8
8
9
9
9
7
7
7
6
6
6
5
5
5
4
4
4
4
4
4
5
5
5
7
7
7
7
7
7
5
5
5
3
3
1
4
4
4
3
3
3
4
5
5
5
3
4
4
4
3
2
2
1
6
1
8
2
1
8
5
3
1
4
4
4
3
4
4
2
3
3
2
2
2
4
4
4
5
5
5
2
1
2
3
1
2
0
1
5
0
0
4
4
4
4
2
2
2
2
2
2
1
1
3
2
3
5
6
4
5
8
4
4
7
5
5
5
7
7
4
8
8
2
9
8
4
8
7
5
4
9
1
5
11
8
10
3
20
3
5
5
2
3
8
11
4
9
15
12
40
17
66
29
160
255
39
111
255
104
79
50
49
46
39
244
242
236
138
164
183
194
171
175
93
115
124
98
123
127
58
78
72
178
159
150
156
193
184
40
65
86
70
75
79
45
13
1
198
140
90
233
180
157
127
80
71
52
34
8
29
47
59
8
20
46
56
89
97
77
47
43
89
57
50
90
72
62
23
16
15
95
91
85
32
29
21
74
79
68
123
126
146
251
255
243
72
71
65
253
255
254
118
123
109
42
85
87
61
62
68
75
87
78
141
137
132
180
174
166
157
150
158
41
76
65
199
246
234
255
255
255
179
168
156
89
90
87
95
88
73
135
119
93
94
90
102
105
45
50
95
51
79
100
80
87
10
21
38
61
69
72
81
80
80
150
141
126
124
136
128
24
61
56
36
24
21
95
66
56
118
101
66
128
118
96
90
81
53
83
84
85
57
50
47
26
50
53
29
48
47
69
95
88
114
145
146
141
142
130
73
73
64
78
99
117
100
111
113
93
93
81
82
78
70
90
78
80
27
37
57
59
60
47
136
125
113
161
158
152
18
23
17
127
132
127
89
89
78
255
255
255
114
137
152
184
188
189
30
49
64
140
132
117
246
234
226
252
252
235
210
206
194
172
167
168
67
71
82
182
190
215
255
255
255
255
255
255
255
255
255
160
194
196
240
253
251
213
191
166
44
28
27
167
136
123
155
141
149
215
202
198
183
180
174
120
118
102
179
178
167
253
244
222
253
231
205
94
100
103
255
255
255
139
96
48
208
180
136
93
85
77
148
171
188
195
199
193
120
158
186
114
164
196
88
124
155
17
27
43
81
87
100
122
151
187
117
137
181
67
70
87
56
62
65
142
113
66
117
105
83
35
8
22
66
53
48
78
89
103
7
12
4
192
221
255
255
255
255
255
255
255
198
203
225
49
39
34
61
52
27
53
42
27
38
32
24
120
120
139
255
255
255
255
255
255
217
211
205
235
224
211
44
30
26
30
22
16
37
37
30
16
21
7
107
113
115
255
255
255
255
255
255
255
255
255
255
255
227
245
234
187
164
170
136
92
106
101
112
128
140
115
127
135
88
96
109
60
68
84
48
46
65
48
44
43
57
67
62
255
255
255
255
255
255
255
255
255
255
255
255
123
101
91
7
1
4
30
17
18
24
18
13
22
20
15
170
198
222
255
255
255
255
236
205
124
114
97
35
28
45
142
136
130
218
214
191
255
255
255
255
255
255
255
255
255
255
255
222
235
225
181
231
236
206
218
206
195
255
247
231
93
69
58
255
255
236
214
233
225
210
212
195
33
29
2
30
28
34
28
21
52
97
90
97
111
102
116
47
34
49
40
40
28
106
101
108
181
183
188
238
244
249
179
203
203
255
255
255
199
201
194
147
137
140
98
99
111
160
255
255
221
237
255
244
127
44
207
108
37
180
110
37
255
178
67
246
152
48
234
161
68
255
199
106
231
162
72
110
72
23
65
41
16
49
41
29
15
5
9
17
10
13
16
13
14
21
18
12
20
15
8
3
10
5
17
18
9
25
28
14
38
33
24
46
37
26
42
34
23
37
29
19
30
21
11
24
16
10
20
16
12
12
14
11
1
8
7
13
6
6
34
27
29
56
55
39
121
98
48
231
169
85
255
182
96
178
110
55
130
78
39
100
65
26
85
59
19
90
66
35
125
86
32
174
118
55
187
132
61
171
126
59
136
94
44
102
65
27
78
56
26
58
44
19
53
36
25
62
40
30
70
48
24
77
59
21
91
74
36
112
87
52
128
96
56
140
100
49
157
111
49
173
126
56
179
129
63
185
126
58
216
141
56
255
173
69
255
191
75
255
174
66
255
138
42
220
112
31
181
93
28
147
82
24
166
98
31
199
115
41
216
123
46
244
148
64
255
161
72
255
163
64
254
159
54
235
149
47
235
143
44
253
144
45
255
149
46
248
143
44
206
112
38
150
68
18
96
41
3
45
13
9
79
49
15
141
83
27
162
92
34
160
90
34
161
89
31
132
65
26
44
15
17
24
15
5
29
18
8
72
57
22
134
93
26
191
119
40
175
95
28
117
65
17
89
60
21
64
45
11
44
30
5
46
30
5
68
49
13
81
52
19
68
37
14
255
255
255
255
255
255
8
10
9
6
8
7
4
4
4
5
5
5
7
7
7
4
4
4
4
6
5
4
9
6
3
11
7
8
12
10
14
10
12
15
11
13
12
10
11
9
9
9
7
7
7
6
6
6
7
7
7
8
8
8
8
8
8
8
8
8
7
7
7
6
6
6
6
6
7
5
5
5
4
3
8
4
4
7
7
3
5
5
4
2
2
2
5
5
3
6
4
4
3
5
4
5
2
3
3
4
4
4
1
5
6
1
5
8
2
4
8
2
3
7
5
4
6
4
4
8
4
4
8
4
4
7
1
4
5
4
7
5
3
9
7
2
7
7
2
5
4
4
8
3
5
7
1
6
6
2
4
8
0
3
11
4
2
12
5
7
10
7
14
5
8
18
3
3
19
11
11
20
8
7
3
12
12
6
15
2
6
8
14
64
14
54
94
128
255
60
179
255
109
74
42
43
49
46
236
234
224
69
93
94
116
105
102
92
90
94
146
157
154
89
114
106
188
161
147
175
200
187
36
60
62
26
36
37
100
63
34
225
182
129
118
112
101
42
65
63
27
64
70
42
25
33
65
60
85
97
87
77
130
107
99
194
179
167
138
145
137
65
75
60
68
51
42
114
113
103
115
120
109
110
107
108
255
255
255
60
78
84
243
235
242
161
153
139
112
117
97
161
176
165
74
63
49
235
237
219
60
66
46
72
121
125
142
114
118
117
63
59
94
132
121
239
250
215
241
224
184
139
110
91
149
133
108
107
115
126
132
144
154
141
137
135
158
160
162
53
29
23
37
34
32
13
12
31
5
5
15
100
76
54
137
125
106
109
115
97
81
104
87
64
89
84
62
69
78
51
35
36
178
193
185
172
181
165
168
180
166
80
91
91
87
90
91
23
14
15
158
164
160
82
89
95
59
69
88
41
52
76
21
29
42
50
58
65
118
105
100
63
64
65
33
36
43
111
105
115
169
172
177
19
48
58
39
28
48
67
44
15
144
131
134
213
221
229
224
231
233
159
164
156
160
153
126
160
149
109
109
95
57
72
56
36
39
35
43
206
214
228
223
233
246
198
211
196
130
128
121
255
255
255
116
153
151
239
239
231
172
143
120
43
20
4
92
72
43
176
166
127
161
156
126
118
110
74
106
98
65
98
85
61
97
86
71
255
255
243
44
56
68
255
255
255
111
67
32
137
112
71
47
35
38
115
141
155
141
117
96
78
100
127
106
139
153
123
163
187
130
177
212
115
151
175
20
20
34
138
149
163
150
168
198
53
67
92
144
116
77
114
106
82
32
7
29
83
56
40
64
58
64
14
38
72
37
49
61
147
157
179
255
255
255
255
255
255
255
255
255
92
84
73
75
67
55
38
34
22
255
255
255
255
255
255
181
187
198
255
255
255
255
249
234
15
21
21
10
12
21
94
102
89
255
255
255
255
255
255
255
255
255
255
255
255
178
181
147
71
70
77
99
97
104
110
104
109
118
134
133
121
133
130
106
124
119
70
68
72
121
122
137
88
80
79
49
46
30
38
35
36
100
109
112
248
255
255
255
255
255
255
255
255
255
255
255
255
255
255
64
63
59
28
25
22
29
31
24
146
168
191
255
255
255
255
255
255
250
236
247
179
181
182
143
154
150
153
148
139
138
128
112
105
97
69
85
79
50
28
24
12
30
36
37
115
134
134
138
157
154
156
138
131
36
20
14
35
50
62
108
119
118
118
132
131
57
37
25
117
79
59
226
189
164
255
255
255
255
255
255
255
255
255
255
255
255
255
255
232
202
192
153
73
60
45
170
197
193
255
255
255
122
118
116
187
189
189
46
79
113
168
255
255
255
255
255
243
134
43
202
121
49
160
102
43
232
141
57
148
92
41
114
89
57
147
109
65
86
66
18
21
27
5
34
28
18
36
31
18
7
5
3
5
8
9
5
10
14
17
10
14
25
15
10
17
21
7
9
14
6
7
13
3
20
18
14
24
20
17
26
20
15
24
16
12
17
8
11
13
10
11
17
14
8
26
18
7
43
28
11
67
46
32
98
77
45
171
129
54
255
190
80
255
221
99
255
170
67
191
127
44
187
122
51
171
107
52
116
74
38
86
69
36
114
86
28
136
98
39
143
93
41
159
106
51
168
116
56
146
97
46
133
87
45
140
94
43
162
110
45
194
134
54
244
165
70
255
188
74
255
182
74
246
158
74
224
142
68
230
148
66
255
174
72
255
193
75
255
189
73
255
174
62
255
165
53
255
155
48
209
114
25
141
64
5
86
31
9
57
23
8
41
23
15
39
15
8
71
38
10
121
67
18
162
95
27
179
103
28
178
93
28
166
80
30
142
61
21
115
45
11
86
31
12
69
29
14
68
38
14
66
34
4
50
20
13
21
8
6
24
6
5
101
45
8
129
70
20
76
32
5
22
11
10
25
15
4
52
29
4
32
19
12
50
36
5
74
56
21
127
86
34
150
99
40
170
109
48
146
85
47
84
41
32
38
18
18
17
10
9
5
5
15
17
24
13
55
46
8
101
65
25
100
59
27
51
21
10
255
255
255
255
255
255
3
9
6
4
6
5
5
5
5
7
7
7
7
7
7
7
7
7
7
7
7
5
5
5
5
3
4
8
2
5
10
2
6
9
7
7
10
2
5
9
7
8
9
9
9
5
5
5
3
3
3
5
5
5
7
7
7
8
8
8
7
7
7
5
5
5
7
8
11
7
8
16
4
4
11
2
3
5
5
4
5
8
7
8
8
8
10
10
8
9
7
7
7
7
5
5
4
4
4
7
7
7
7
7
8
7
7
6
2
2
2
1
1
1
4
6
5
5
10
10
5
8
7
7
7
7
5
7
5
1
12
5
2
10
3
3
10
2
1
5
2
4
7
2
5
2
3
3
3
3
2
2
2
7
7
7
7
7
7
7
7
8
7
8
5
1
7
1
7
16
8
10
10
14
4
9
21
7
5
15
19
5
12
88
10
79
60
129
255
96
203
255
109
79
57
30
31
14
235
242
246
27
36
31
99
96
105
152
143
147
137
153
155
34
55
44
186
165
173
191
216
209
33
47
46
14
27
21
144
114
79
221
191
163
55
59
67
89
46
36
104
70
36
126
107
78
126
127
121
156
165
167
214
218
226
187
198
206
205
201
213
125
134
114
71
68
60
84
76
59
64
54
40
144
132
103
255
255
255
53
62
80
255
255
247
165
158
133
41
33
21
198
195
170
57
40
30
217
220
195
114
92
75
77
24
22
84
79
81
182
160
166
150
136
133
45
33
42
124
125
107
75
85
81
144
146
137
94
104
121
86
83
95
81
71
76
168
161
156
168
163
148
126
118
109
150
148
141
140
153
134
121
121
90
16
55
51
36
27
23
70
36
30
107
84
62
118
107
85
150
157
144
165
192
181
28
5
15
201
211
210
152
164
162
173
181
170
228
226
215
199
202
189
131
133
129
107
127
140
67
82
107
58
49
69
114
140
168
137
124
117
166
182
187
150
169
168
164
181
186
227
252
255
44
61
78
29
47
61
68
80
82
123
113
96
133
108
86
102
84
71
89
73
71
69
55
48
76
64
53
98
78
79
131
115
112
129
122
107
255
255
255
255
255
255
108
115
106
162
150
137
255
255
255
72
82
76
212
211
186
117
92
62
12
29
52
53
71
66
94
84
99
183
185
188
126
138
135
27
29
36
45
48
50
24
34
36
255
255
233
56
58
63
255
255
255
114
98
87
113
101
99
46
39
58
101
123
129
93
71
39
69
72
86
99
77
70
86
75
67
108
132
149
135
175
198
141
172
205
70
82
104
49
66
80
79
90
123
144
130
128
146
137
121
42
41
53
74
48
29
58
47
33
58
46
54
39
46
67
32
45
55
93
90
100
255
255
255
255
255
255
255
255
255
127
130
139
61
64
64
255
255
255
255
255
255
93
106
117
255
255
255
255
255
255
35
28
45
214
222
220
255
255
255
255
255
255
255
255
255
214
217
200
56
65
58
41
41
43
38
37
30
36
42
32
45
48
52
63
88
85
58
61
56
106
127
122
33
30
39
100
110
122
31
36
51
22
20
22
34
37
43
26
29
27
18
26
28
66
78
75
223
247
230
255
255
255
255
255
255
255
255
255
176
158
150
13
5
19
179
194
203
255
255
255
243
251
255
51
51
59
62
47
29
86
85
78
81
54
51
69
66
73
55
57
43
63
60
36
55
57
62
57
57
59
55
69
74
179
198
199
226
240
240
237
255
255
255
255
255
255
255
255
255
255
255
255
255
255
255
255
255
189
186
166
70
67
36
75
53
68
202
200
202
255
255
255
255
255
255
255
255
255
255
255
255
250
235
222
151
147
139
134
132
115
85
86
87
47
63
85
255
255
255
255
255
255
31
14
11
83
55
19
103
65
24
142
93
33
111
75
35
101
71
43
80
53
27
21
28
22
28
26
21
40
25
22
36
24
8
17
16
7
22
18
14
26
21
17
27
28
27
38
35
29
53
42
31
62
48
34
62
48
39
59
48
40
57
49
35
59
47
31
61
45
33
65
50
34
79
66
38
98
81
43
111
91
44
125
95
49
149
108
60
195
143
63
255
190
77
255
198
85
255
147
59
162
82
27
144
77
26
129
77
22
135
84
25
151
94
35
114
70
32
71
41
24
25
19
5
45
31
8
53
38
19
91
66
31
86
71
30
126
95
48
203
141
66
255
196
83
255
221
85
255
225
84
255
218
87
255
203
84
255
184
75
255
177
69
255
187
71
255
193
75
255
175
63
255
151
46
236
134
37
200
111
31
144
73
25
72
27
11
30
10
10
15
9
10
7
10
11
8
11
10
21
9
5
40
20
4
55
32
11
56
31
10
38
18
3
25
10
10
21
7
2
8
7
11
47
31
15
84
49
19
103
50
17
77
32
9
36
11
1
37
18
12
89
38
4
138
62
8
152
77
16
104
48
4
27
4
10
6
0
5
28
16
8
41
21
8
20
9
4
30
18
8
90
59
18
116
72
29
85
52
24
69
41
22
52
31
20
27
24
19
25
14
19
50
28
10
86
60
16
121
79
18
147
85
22
148
76
28
119
63
22
75
41
14
255
255
255
255
255
255
4
4
4
4
4
4
4
4
4
7
7
7
7
7
7
7
7
7
7
7
7
9
9
9
8
8
8
2
5
3
4
3
2
4
5
4
3
4
2
6
7
6
8
8
8
10
10
10
7
7
7
6
6
6
6
6
6
7
7
7
10
10
10
8
8
8
5
5
7
5
5
5
7
10
6
7
10
4
7
10
2
9
7
3
9
6
5
7
6
7
4
6
6
7
6
6
5
5
6
3
3
5
4
4
4
3
3
2
3
3
3
4
4
4
6
8
7
10
10
8
9
9
6
8
9
7
9
9
7
2
10
5
2
2
4
2
5
5
4
8
7
3
7
8
5
7
9
7
7
11
6
6
10
6
6
8
5
5
7
3
3
5
2
3
1
2
8
3
11
13
10
10
7
16
9
3
14
8
1
5
23
13
8
86
29
127
22
181
255
52
138
248
167
149
130
66
65
60
220
233
247
87
75
63
152
148
162
138
144
145
53
79
83
72
48
55
223
216
228
169
189
161
50
38
41
55
56
34
142
114
88
152
138
133
101
97
75
154
148
126
201
206
189
226
229
218
218
220
225
201
203
218
209
214
218
84
84
78
255
255
255
135
157
145
41
40
49
61
79
93
55
80
95
187
162
125
255
255
243
126
105
83
249
217
196
42
32
22
69
80
61
171
158
141
41
31
31
172
171
156
55
69
60
116
49
43
93
50
51
102
52
60
58
60
63
123
144
127
155
164
150
44
45
41
164
164
163
123
131
132
118
102
91
97
99
99
82
93
84
149
155
142
70
106
109
12
52
50
81
51
59
91
71
71
147
139
126
141
145
129
125
141
126
115
131
106
97
118
91
90
107
93
39
56
65
151
138
125
217
216
197
117
116
101
166
162
152
115
105
87
20
24
39
24
30
39
94
106
107
114
134
155
167
191
218
151
196
231
229
238
250
207
238
251
134
131
125
100
126
137
238
255
255
140
165
186
78
82
103
83
75
53
62
51
31
49
45
28
84
85
78
126
123
117
150
142
145
123
115
117
54
47
36
43
57
66
150
165
161
255
255
255
255
255
255
98
98
92
204
198
180
255
255
255
68
63
54
197
197
155
84
60
35
98
103
100
148
127
106
223
220
201
207
212
185
168
174
161
145
135
124
34
41
44
15
1
2
255
255
237
15
24
33
255
255
255
108
78
48
149
135
127
121
129
131
73
82
84
39
24
8
57
64
79
70
63
60
45
31
18
75
74
79
89
102
107
138
179
203
150
185
226
24
15
12
52
67
89
98
100
112
132
129
127
62
70
82
44
34
44
16
9
28
30
25
20
34
27
34
1
11
29
11
24
43
56
31
22
255
255
255
255
255
255
255
255
255
162
167
166
255
255
255
255
255
255
81
92
107
255
255
255
255
255
255
255
255
255
255
255
255
255
255
255
251
253
236
35
45
28
32
20
24
29
40
50
50
58
81
39
43
56
21
21
23
17
9
4
39
62
57
42
39
37
108
131
137
48
42
44
146
158
182
21
13
14
40
44
52
38
43
49
24
16
16
71
73
75
74
83
90
31
45
45
77
99
84
255
255
255
255
255
255
255
255
255
255
255
255
247
255
255
255
255
255
186
196
217
59
66
78
107
109
125
78
87
98
58
46
51
138
155
171
175
171
156
223
226
222
255
255
255
255
255
255
255
255
255
255
255
255
255
255
255
213
223
206
113
130
126
34
13
16
162
138
140
255
255
248
255
255
255
255
255
255
255
255
255
255
255
255
214
220
215
114
129
127
4
33
34
92
55
45
158
139
124
147
138
122
75
70
69
62
53
50
13
9
13
56
64
71
249
255
255
255
255
255
41
32
31
52
35
17
109
75
27
97
65
12
87
56
32
100
72
45
67
55
43
95
78
47
98
89
54
95
83
66
91
68
57
78
60
45
69
58
35
62
56
31
60
55
35
65
58
44
68
60
46
70
62
44
77
67
48
86
70
52
90
69
51
91
69
51
94
73
53
110
88
56
143
113
63
180
137
73
217
159
84
251
177
89
255
188
80
255
200
78
255
188
80
234
130
51
123
60
15
56
24
4
86
40
11
111
56
19
119
68
23
142
82
27
107
57
21
53
35
5
129
91
41
142
100
46
142
92
39
125
70
33
54
24
18
65
42
10
140
100
37
173
116
47
157
94
35
162
90
34
154
80
32
171
91
34
200
111
34
215
121
31
202
118
29
165
93
24
115
57
15
80
32
6
71
24
4
60
23
5
34
10
8
10
2
1
1
2
11
6
4
13
15
2
4
21
11
13
27
12
15
15
7
6
35
14
4
83
39
10
99
53
12
92
47
15
83
37
12
98
43
15
130
60
17
143
65
15
155
79
33
183
96
29
186
93
20
198
99
27
222
111
38
222
121
43
192
109
33
149
82
21
131
73
25
131
77
31
122
72
22
101
58
15
83
45
15
91
50
19
108
62
31
75
38
26
31
22
5
31
22
3
60
39
14
91
53
30
123
74
37
171
110
38
202
126
40
215
124
38
202
110
30
148
76
21
70
36
8
10
1
7
255
255
255
255
255
255
5
3
4
5
5
5
6
6
6
8
8
8
7
7
7
7
4
5
6
2
4
5
4
4
3
5
4
3
8
5
2
8
4
4
8
5
2
8
5
4
7
5
4
4
4
7
7
7
8
8
8
7
7
7
4
4
4
2
2
2
4
4
4
7
7
7
7
6
5
5
4
2
4
7
0
5
11
3
7
11
4
9
9
4
10
8
5
7
7
8
3
5
9
4
4
6
4
4
5
3
3
6
1
1
5
2
2
6
6
6
10
7
7
11
7
7
7
10
6
4
6
4
1
8
5
4
11
6
7
10
5
7
5
2
6
3
3
6
4
6
6
2
8
6
3
7
5
6
6
6
8
8
8
6
6
6
7
7
7
4
4
4
6
8
5
10
12
7
15
8
8
17
4
6
9
2
4
5
7
3
30
15
5
77
58
174
14
184
255
51
68
155
155
149
129
82
89
96
189
209
219
64
50
38
90
94
123
76
84
99
99
120
135
113
114
134
244
255
255
77
98
87
87
89
82
58
43
14
87
73
78
168
173
187
215
222
231
226
226
231
187
183
185
172
170
162
110
113
97
50
49
36
72
71
66
142
129
129
195
194
191
160
178
174
32
41
43
53
44
47
90
87
79
218
182
134
255
255
246
184
154
128
220
175
149
27
44
44
31
13
24
121
90
97
82
63
54
104
90
94
67
49
35
60
37
28
50
31
42
48
14
24
73
45
51
99
85
69
94
89
82
56
37
41
184
193
194
146
165
162
49
60
43
101
105
107
127
102
103
191
167
153
175
160
148
170
156
143
158
167
155
136
166
151
101
120
111
29
50
52
32
26
37
45
47
62
70
81
94
98
114
127
81
104
112
99
68
50
171
156
140
157
164
172
53
58
62
67
84
98
32
46
54
64
82
101
94
108
114
148
166
166
96
123
128
79
56
49
182
207
230
129
143
147
249
253
254
138
127
122
184
204
206
255
255
255
206
209
220
129
118
97
152
138
119
137
132
113
52
42
20
61
75
97
170
181
201
255
255
255
255
255
255
255
255
255
255
255
255
255
255
255
215
209
183
73
63
59
234
222
195
255
255
255
69
28
18
196
181
142
43
19
8
158
142
113
128
98
102
55
80
98
17
17
7
112
134
148
120
105
92
53
53
63
106
100
96
255
248
215
57
67
65
255
255
255
127
115
75
191
164
149
32
31
23
20
34
24
5
24
36
32
50
65
44
47
55
13
7
11
47
46
49
65
51
41
130
158
168
163
212
255
32
52
87
17
23
18
92
107
116
157
168
173
159
166
166
72
87
91
24
26
42
39
29
43
36
27
18
6
7
13
7
4
10
11
32
42
29
17
34
226
230
218
255
255
255
255
255
255
255
255
255
255
255
255
14
37
63
255
255
255
255
255
255
255
255
255
255
255
255
123
129
108
15
7
14
25
29
35
60
64
74
79
89
96
54
57
59
38
45
42
21
23
28
31
28
31
49
63
68
75
71
68
105
130
140
83
78
79
140
163
178
50
53
65
41
41
47
34
37
38
18
24
25
40
48
57
41
43
44
62
60
72
34
36
50
10
25
31
174
216
210
255
255
255
255
255
255
255
255
255
255
255
255
95
107
121
144
148
140
234
231
225
255
255
255
255
255
255
255
255
255
216
211
219
138
139
145
47
57
48
45
34
50
135
141
150
173
179
186
194
204
220
246
247
255
255
255
255
255
255
255
255
242
228
150
145
143
34
31
31
90
80
106
199
181
199
255
255
255
255
255
255
255
255
255
255
255
255
255
255
219
208
172
159
164
144
118
152
137
125
53
46
46
51
63
74
103
122
143
255
255
255
255
255
255
68
54
48
40
30
8
91
65
24
72
47
29
67
45
37
49
40
22
43
24
8
53
40
15
47
35
15
56
46
29
56
41
34
58
46
31
61
49
33
60
49
33
64
45
30
63
42
27
60
46
28
62
52
30
68
54
31
74
56
32
76
60
37
75
62
39
86
70
37
117
90
34
161
118
43
218
147
63
255
174
76
255
194
78
255
190
62
255
160
53
215
113
35
118
53
4
34
14
12
5
2
8
31
13
3
55
16
4
49
24
8
103
62
18
183
115
39
210
133
50
186
118
54
151
96
45
136
90
48
110
79
41
104
76
38
123
74
31
134
87
36
121
72
29
97
46
20
92
45
19
47
19
3
37
20
2
41
24
5
41
27
7
41
24
5
33
7
7
19
4
7
11
2
4
8
1
11
6
7
2
7
4
8
6
1
8
7
5
7
25
11
13
44
18
18
74
38
16
97
50
26
91
44
24
107
49
21
148
75
26
145
77
21
153
83
24
174
95
32
197
108
34
184
98
28
149
76
24
127
73
22
158
99
33
180
105
33
176
95
29
152
84
24
117
73
22
92
54
21
82
53
22
82
59
17
81
55
12
66
41
12
51
32
10
42
30
11
37
28
17
38
22
11
71
46
20
127
85
43
170
112
48
194
124
44
205
127
47
205
129
43
202
124
35
178
99
26
148
75
21
103
50
13
55
25
3
70
39
12
109
65
23
255
255
255
255
255
255
6
5
5
8
8
8
11
11
11
9
9
9
5
5
5
5
2
3
3
1
1
1
5
2
2
2
2
6
6
6
8
8
8
8
8
8
6
6
6
2
2
2
1
1
1
4
4
4
6
6
6
5
5
5
4
4
4
3
3
3
2
2
2
4
4
4
7
7
7
6
7
7
3
5
5
2
4
4
2
4
4
3
5
5
4
6
6
6
6
5
3
5
4
1
4
3
7
7
8
11
11
11
12
12
12
8
11
10
0
9
6
4
8
4
5
6
4
7
4
4
2
2
5
4
0
6
10
3
6
15
4
7
15
3
7
13
1
5
11
4
5
9
7
7
6
6
6
5
5
5
6
6
6
8
8
8
8
8
8
6
6
6
11
7
10
12
7
11
9
7
8
13
10
5
10
10
8
26
11
19
69
16
23
75
85
217
54
140
255
93
67
94
19
17
21
229
237
234
132
147
144
129
121
104
19
19
40
39
50
52
76
99
94
87
79
83
250
255
246
93
107
119
159
181
199
170
183
199
186
192
184
179
174
153
123
127
118
54
55
59
25
20
23
51
52
50
100
95
105
48
49
67
31
37
41
115
104
92
95
81
63
156
155
148
90
66
45
48
33
31
25
48
64
251
205
139
255
249
225
206
174
146
185
138
113
28
43
46
36
18
12
79
52
47
151
130
127
124
126
126
57
55
52
29
15
5
99
83
67
140
136
123
155
165
152
114
133
115
170
186
174
16
25
34
188
205
193
178
196
197
81
80
86
204
196
185
217
216
206
137
145
133
89
112
102
58
85
72
17
44
23
51
48
64
97
91
100
135
136
148
129
140
144
114
125
125
33
56
56
17
32
45
72
75
72
136
139
152
160
163
179
181
187
195
35
48
59
47
63
77
104
117
128
105
112
112
79
80
67
69
57
42
110
107
104
197
228
250
116
138
158
173
162
159
232
238
246
255
255
255
59
59
78
255
255
255
255
255
255
209
215
233
186
194
206
255
255
255
255
255
255
255
255
255
255
255
255
255
255
255
255
255
241
143
114
94
42
21
20
96
110
104
60
80
70
48
58
70
255
250
231
255
255
255
99
50
36
190
175
139
17
15
17
153
128
92
139
117
111
83
99
123
32
47
74
152
177
201
113
101
91
105
131
157
143
133
121
237
217
179
131
146
132
255
255
255
147
150
123
184
175
157
42
50
46
27
26
29
6
19
34
25
48
57
54
57
61
46
28
17
51
48
41
51
44
29
137
141
136
192
230
254
70
111
152
35
56
92
32
38
52
27
31
34
97
107
119
112
131
146
58
83
100
31
43
60
36
33
38
34
20
13
24
13
10
24
7
12
13
24
30
19
43
65
158
150
137
255
255
255
255
255
255
196
198
186
38
48
34
239
255
255
255
255
255
255
255
255
92
101
82
45
47
41
28
42
41
56
64
65
47
54
58
71
77
79
27
29
18
32
41
47
17
19
14
46
44
53
43
62
75
82
86
93
114
138
150
102
102
109
137
164
173
84
94
109
40
41
49
18
31
27
18
7
9
54
61
67
59
67
66
11
9
14
68
65
82
16
12
18
51
38
47
89
127
121
255
255
255
255
255
255
24
53
72
198
226
227
125
143
161
21
31
56
98
82
65
203
180
161
255
255
255
255
255
255
255
255
255
255
255
255
255
255
255
244
249
246
209
219
222
255
255
255
255
255
255
153
159
168
75
69
76
255
248
236
255
255
255
255
255
255
255
248
227
137
130
110
25
24
34
143
129
132
245
210
206
255
255
255
255
255
255
255
255
255
255
255
248
170
138
133
10
18
10
83
99
114
87
63
38
255
255
255
255
255
255
148
89
65
125
77
25
149
94
41
82
46
30
32
22
20
17
19
10
5
10
15
34
25
19
45
48
27
39
39
32
25
12
24
5
5
7
17
10
8
29
18
13
37
25
13
47
26
15
56
32
20
65
46
27
74
57
30
84
67
33
91
74
32
100
74
25
148
101
35
207
133
45
234
147
52
255
154
59
249
139
43
206
109
29
165
85
28
118
60
17
63
35
8
17
16
8
22
10
7
42
20
8
131
73
10
215
119
35
255
154
60
255
176
73
255
163
62
161
98
39
67
31
18
26
16
12
12
15
1
29
18
3
122
85
38
205
121
56
182
97
38
132
73
20
125
72
21
102
52
16
39
18
5
13
8
4
14
7
2
4
7
5
9
1
5
7
6
2
7
6
4
2
4
10
4
1
2
2
3
12
3
6
8
13
6
10
53
29
12
80
43
20
77
40
12
79
45
9
75
42
14
102
56
29
125
69
29
141
79
31
118
69
29
154
92
39
185
110
47
177
103
42
145
87
40
99
62
32
42
25
11
22
14
8
11
6
9
18
8
10
39
23
8
33
23
12
17
5
4
11
4
10
22
19
8
31
20
10
34
22
12
27
15
10
31
10
7
54
23
5
96
55
21
130
81
30
145
89
38
147
90
41
148
88
34
141
78
22
119
60
11
86
44
11
55
26
12
26
14
3
45
29
5
100
59
11
113
61
15
90
45
15
255
255
255
255
255
255
9
7
7
5
5
5
5
5
5
5
5
5
6
4
5
7
4
4
5
3
4
5
8
5
7
7
7
9
9
9
10
10
10
10
8
9
9
5
7
7
4
5
4
4
4
3
3
3
1
1
1
2
2
2
7
7
7
11
11
11
11
11
11
8
8
8
4
5
5
4
4
4
4
5
5
6
6
6
5
5
5
3
3
3
5
2
1
7
3
1
2
5
4
8
7
7
8
8
9
7
7
5
4
7
5
5
10
7
5
11
7
1
11
7
6
12
9
6
10
9
4
8
7
4
8
4
5
6
2
2
2
3
10
1
3
14
2
6
12
7
7
8
8
7
5
5
5
5
5
5
5
5
5
7
7
7
10
10
10
9
9
9
11
4
12
11
8
12
9
9
12
13
9
7
14
12
50
35
50
114
68
91
197
49
117
255
79
60
222
101
55
28
157
160
178
243
253
242
91
76
77
163
158
140
22
25
32
98
105
107
137
147
129
141
132
125
255
255
255
102
106
100
61
66
50
65
70
57
41
33
25
83
81
80
74
79
66
79
64
49
42
24
13
20
27
36
52
61
73
138
121
123
131
122
109
204
181
166
139
118
99
97
87
79
82
75
65
58
60
68
129
121
109
242
192
134
157
158
141
224
188
166
135
104
86
7
39
52
16
22
18
53
12
9
86
64
52
108
105
92
120
128
125
115
129
129
114
126
117
60
96
89
24
33
35
108
81
70
192
201
179
26
13
29
164
175
161
132
141
133
59
88
75
158
150
133
131
124
121
93
79
92
121
111
118
142
135
132
121
120
121
117
111
117
83
87
95
35
35
44
106
108
101
68
72
65
19
17
12
85
65
61
198
173
169
220
198
195
178
170
167
80
85
80
33
41
40
39
29
24
44
25
18
42
26
28
49
27
18
50
28
22
199
189
185
189
206
217
163
143
114
255
255
255
135
153
157
255
255
255
255
255
255
177
178
165
255
255
255
254
255
255
255
255
255
255
255
255
255
214
183
92
53
19
68
68
91
54
74
119
107
133
177
155
171
204
146
156
181
178
189
190
125
145
140
127
128
116
254
249
228
230
250
238
146
103
92
199
190
160
2
9
15
136
112
75
118
98
93
75
83
102
12
17
38
177
192
199
54
25
31
178
203
220
171
154
131
173
164
140
218
223
221
255
255
255
255
255
255
232
231
239
182
198
214
35
32
39
17
11
8
23
38
44
61
68
72
50
48
52
17
22
31
11
10
21
84
79
73
214
229
234
210
242
255
110
143
182
54
81
119
41
62
89
18
14
9
71
85
98
108
136
159
75
115
152
24
57
95
38
42
62
25
28
28
6
3
12
2
3
6
9
22
30
27
46
70
50
45
41
168
168
154
172
170
181
86
97
93
189
207
217
169
187
202
89
91
104
36
32
44
55
57
66
67
72
79
50
57
64
50
60
65
84
87
86
60
66
64
59
68
68
69
72
76
80
83
91
66
82
92
54
56
60
98
120
132
92
97
102
137
170
183
137
151
168
38
43
49
22
21
27
55
63
65
46
51
55
51
54
54
33
45
35
44
43
53
70
77
77
41
55
64
90
95
96
40
68
70
255
255
255
255
255
255
255
255
255
255
255
255
255
255
233
234
218
187
153
140
97
42
39
27
73
56
25
176
138
105
251
207
202
255
233
226
104
80
58
169
184
196
255
255
255
255
255
255
255
255
255
255
255
248
137
123
129
167
165
179
255
255
255
255
255
255
255
255
255
255
255
255
255
233
197
174
146
111
68
50
13
49
61
87
144
156
164
171
160
165
94
83
92
40
27
32
90
93
100
177
168
176
104
217
255
255
255
255
241
170
135
221
112
34
255
163
63
243
145
62
170
108
53
146
99
51
111
69
28
62
31
8
29
29
8
37
35
13
45
32
17
34
18
8
40
21
15
52
34
18
62
49
25
74
62
33
85
69
36
92
79
41
110
87
43
146
103
40
177
115
34
219
137
44
255
180
71
255
186
68
255
160
55
232
129
42
153
78
18
74
33
11
36
13
2
12
4
5
51
21
2
84
37
4
78
36
6
102
60
16
189
111
39
205
126
51
181
125
48
165
107
37
92
46
16
34
33
7
114
76
20
147
89
32
161
103
48
189
126
63
236
151
64
255
162
64
209
114
31
152
83
23
108
55
17
52
17
11
20
8
4
15
12
2
38
20
2
68
40
15
86
43
19
72
27
9
51
13
4
40
12
12
27
10
14
17
5
8
13
6
8
55
23
10
117
59
25
122
53
14
88
42
14
19
10
8
31
18
12
10
10
8
66
38
15
86
42
15
50
26
17
27
21
22
22
5
11
72
35
9
114
57
13
139
72
22
147
81
30
120
67
24
70
37
8
41
20
8
46
26
17
29
18
14
12
7
10
19
14
10
17
11
11
27
18
5
55
36
12
71
38
8
63
34
8
48
33
18
38
32
11
32
23
8
41
29
25
73
50
25
93
60
20
94
56
15
93
56
13
107
62
15
119
62
23
110
52
14
94
46
7
105
56
13
94
47
11
65
26
10
255
255
255
255
255
255
8
4
5
4
4
3
7
7
7
7
7
7
10
8
9
12
8
10
11
7
7
10
10
2
8
7
3
6
6
2
7
5
2
8
2
3
8
2
3
10
6
3
8
8
2
7
7
5
6
6
6
8
8
8
10
10
10
9
9
9
8
8
8
7
7
7
7
5
5
5
4
4
4
4
4
4
4
4
4
4
4
4
4
4
8
4
4
9
4
5
12
5
7
9
6
7
4
4
4
2
2
1
4
4
3
7
5
3
10
1
3
13
1
5
8
2
4
3
3
1
5
7
3
1
11
2
5
11
4
6
10
5
3
11
8
0
12
8
3
11
7
4
8
5
5
5
5
5
5
5
5
5
5
5
5
5
8
8
8
7
7
7
8
8
7
16
9
7
14
12
2
10
7
6
14
26
56
31
53
108
53
86
167
83
150
255
119
130
200
102
114
127
177
176
186
237
243
223
80
64
69
171
167
155
75
71
77
92
93
96
86
76
73
191
170
165
255
255
234
68
83
77
93
88
87
72
67
73
119
100
86
124
113
87
33
32
45
85
87
90
50
41
37
42
42
42
90
106
126
170
158
152
81
50
21
255
255
255
21
15
14
77
53
45
118
111
87
125
107
101
169
149
109
126
95
72
63
60
50
203
167
141
66
58
38
90
97
103
100
92
82
82
83
70
62
94
83
32
76
68
24
21
39
53
33
24
88
68
53
135
120
112
147
148
130
118
134
113
153
164
148
101
87
84
187
171
151
139
134
119
60
67
70
150
135
126
177
173
159
108
109
100
22
33
37
20
5
10
26
15
7
58
37
27
3
12
22
66
61
52
105
84
64
161
128
115
198
158
136
211
177
153
195
170
148
110
89
61
59
50
30
58
43
26
73
55
44
88
62
57
93
66
55
105
89
80
84
75
63
148
150
148
239
243
249
63
75
83
213
203
183
191
210
213
44
50
83
255
255
249
255
255
255
127
169
191
199
202
194
170
184
189
177
166
152
54
32
20
140
159
172
147
149
166
142
147
143
33
29
8
79
77
59
115
103
74
76
79
60
120
122
119
29
72
81
32
36
54
220
217
210
235
255
250
152
101
68
209
202
167
18
25
41
137
118
80
115
101
112
60
63
87
43
28
46
149
158
161
32
50
89
180
193
193
172
157
134
86
88
72
253
254
245
100
111
119
255
255
255
55
54
63
154
180
190
83
87
104
19
18
38
52
52
56
61
65
70
29
19
21
30
36
35
24
45
52
21
34
44
78
75
70
185
206
215
193
233
252
111
156
185
65
115
161
41
77
117
13
17
36
46
47
45
100
115
131
85
117
143
50
79
108
43
59
80
32
32
38
18
9
11
16
8
12
10
7
13
82
101
125
95
99
102
205
205
217
99
115
127
185
197
209
46
49
17
42
40
74
37
37
39
37
42
43
59
61
64
50
56
57
65
69
73
93
93
90
68
71
76
55
65
66
82
91
96
85
96
92
103
123
126
75
76
74
98
125
138
101
112
111
128
165
180
181
214
229
35
47
52
98
116
123
100
119
121
100
117
115
50
59
54
44
50
45
18
31
34
94
106
115
7
8
4
78
96
107
80
77
93
110
123
110
141
149
118
48
36
38
177
171
173
255
255
255
255
255
255
255
255
255
255
255
255
255
255
255
221
205
197
98
104
95
111
121
136
215
228
233
255
255
255
255
255
255
220
213
185
255
255
255
255
255
255
190
171
150
121
96
70
47
45
43
119
110
114
208
191
179
255
255
255
255
255
255
255
255
255
255
255
255
255
255
255
226
210
184
195
171
150
169
152
151
30
31
29
39
28
35
52
53
32
77
41
115
150
255
255
250
255
255
200
112
36
255
143
40
255
193
71
255
191
71
255
183
63
255
175
68
218
135
56
150
99
39
138
101
44
151
107
55
155
109
55
152
110
51
158
114
52
164
116
51
164
117
47
168
122
45
187
131
54
218
138
52
248
148
49
255
160
53
255
172
64
255
163
56
231
121
30
161
84
22
103
54
21
51
22
12
9
5
5
34
15
6
87
44
16
110
62
25
87
56
26
77
53
24
111
72
32
142
78
25
119
72
21
109
71
26
86
54
30
64
55
26
151
99
38
182
113
44
212
126
48
231
142
53
239
150
54
243
141
50
198
106
36
88
43
7
18
20
14
60
42
13
117
69
20
146
75
25
158
77
27
208
113
40
240
134
50
209
117
41
148
78
25
88
41
12
82
35
11
64
27
10
36
12
2
29
16
2
72
34
16
95
43
19
37
15
4
69
36
14
76
36
7
86
41
21
105
54
25
122
64
25
156
81
28
180
95
32
198
111
37
221
125
43
230
124
41
222
120
37
207
114
37
173
89
26
129
59
8
104
48
20
75
30
7
67
32
10
61
34
16
68
39
16
108
60
16
156
85
24
174
93
28
158
83
22
123
65
17
83
46
12
48
21
8
22
10
7
5
22
10
54
42
15
103
65
23
144
86
30
167
98
32
175
101
26
175
100
21
174
102
27
171
103
34
158
96
35
136
80
34
92
52
24
55
26
14
255
255
255
255
255
255
5
4
4
10
8
2
11
11
7
8
5
4
9
3
4
8
6
1
9
7
6
9
8
1
6
5
3
3
3
5
7
2
5
8
4
3
7
3
3
8
4
3
8
6
5
8
8
2
9
9
1
10
10
7
7
7
5
2
2
2
1
1
1
4
4
4
7
5
5
5
4
4
4
4
4
4
4
4
4
4
4
5
5
5
9
6
7
11
5
7
8
5
6
6
6
6
4
4
4
2
2
1
5
4
4
10
3
4
12
2
1
11
1
2
11
1
2
8
4
4
7
7
7
5
5
6
4
6
8
5
9
14
4
10
14
0
11
10
2
9
5
2
5
1
7
7
3
10
10
6
9
9
5
7
7
4
7
7
5
5
5
3
11
7
2
20
10
5
9
14
1
7
7
7
6
20
34
21
67
116
15
146
255
24
155
255
77
17
97
81
76
68
112
107
105
190
197
181
44
33
32
140
136
121
46
46
51
55
67
77
45
54
54
130
117
106
209
206
200
67
77
58
61
63
59
61
61
76
110
93
74
105
105
91
133
128
115
119
106
104
104
130
145
170
189
197
100
139
147
154
165
152
133
101
81
255
255
255
90
80
94
58
25
40
188
171
148
155
134
115
129
130
104
24
39
61
83
81
77
190
167
143
28
33
41
122
165
163
76
72
65
38
25
31
95
60
48
119
105
86
92
99
90
70
94
82
76
107
101
84
104
84
51
74
58
19
23
21
130
118
112
58
61
60
204
178
176
249
234
224
135
165
167
101
83
78
112
107
108
78
75
65
30
30
21
43
31
31
120
98
93
175
157
147
195
182
167
239
218
201
255
238
220
165
157
141
41
43
38
83
81
80
110
104
91
85
64
37
100
82
67
136
118
106
127
112
100
55
51
40
38
29
43
139
125
131
255
255
249
255
255
255
181
189
195
140
136
129
209
207
193
75
114
119
216
143
105
255
234
191
133
180
210
231
255
255
10
16
33
175
178
180
30
46
63
120
99
90
96
136
141
140
141
153
188
197
176
102
94
93
85
87
91
93
78
65
46
62
49
132
136
137
112
138
145
110
114
109
255
252
240
255
255
255
152
102
78
189
185
149
17
17
31
108
94
66
102
95
102
114
111
122
47
34
26
90
98
111
75
87
107
119
117
105
121
122
119
228
229
230
213
213
198
145
127
134
190
186
163
141
158
182
114
123
124
39
39
42
79
82
114
34
56
73
65
76
83
61
70
76
63
79
88
4
2
8
48
69
83
21
44
66
75
83
87
136
158
163
145
176
180
179
223
255
148
199
255
69
106
159
45
75
114
33
30
46
60
64
56
94
107
120
79
107
140
57
78
108
44
49
70
7
18
34
43
22
8
60
75
87
133
111
99
141
145
134
108
99
111
120
132
149
80
91
79
17
17
42
43
39
52
46
49
53
71
71
70
62
62
60
69
70
76
84
87
75
66
69
75
30
36
30
72
78
76
61
62
55
114
146
150
145
153
147
102
135
150
140
161
162
113
150
162
189
240
251
48
57
65
122
154
159
50
53
57
68
74
81
79
92
95
44
46
45
40
55
55
70
73
79
57
68
69
70
84
86
82
85
102
174
185
178
255
255
255
255
255
255
198
192
186
81
73
62
64
65
79
213
203
217
255
255
255
255
255
255
255
255
255
255
255
255
231
203
195
227
255
255
255
255
255
199
173
158
61
38
27
255
255
255
255
255
255
255
250
243
255
255
255
255
255
255
255
255
236
181
171
147
52
48
20
83
79
96
193
182
177
255
255
249
255
255
255
255
255
255
255
255
255
140
132
143
65
54
47
94
89
87
126
143
150
25
53
105
43
118
255
114
255
255
60
75
70
88
46
14
185
97
29
232
122
31
239
127
29
255
153
45
255
165
61
202
126
53
164
104
44
201
127
45
240
157
59
252
165
67
254
162
65
250
152
54
253
150
51
255
157
52
255
152
47
255
145
37
255
144
41
229
130
48
187
102
35
133
63
9
79
31
7
23
8
8
4
4
7
11
13
6
45
31
6
110
64
19
119
65
27
39
19
15
47
24
8
66
31
2
88
45
19
108
61
18
160
101
32
187
117
38
164
102
40
130
85
36
158
96
38
135
82
38
80
49
27
44
20
4
36
27
19
83
42
20
100
54
16
133
73
20
184
100
16
255
146
36
255
172
60
255
174
65
255
171
66
255
162
65
230
126
45
212
122
41
212
118
39
141
74
22
102
48
12
107
47
13
108
46
15
85
34
9
43
18
13
60
26
6
116
53
18
123
50
15
88
33
13
63
23
12
79
36
13
105
49
12
135
63
15
163
79
22
172
88
25
156
78
18
124
61
14
95
50
13
76
39
7
69
31
2
95
52
12
135
72
21
158
83
25
188
94
25
209
101
28
227
115
36
237
126
31
220
118
20
186
98
20
149
72
22
117
53
17
97
49
10
85
48
2
77
44
5
67
36
12
80
42
7
64
33
14
53
30
16
81
52
26
92
64
30
88
66
20
99
72
18
117
78
28
104
67
28
55
36
13
15
11
8
73
41
7
255
255
255
255
255
255
8
7
3
10
10
4
8
10
5
7
4
3
8
1
5
4
1
6
4
4
2
6
8
4
7
7
6
6
6
6
10
6
7
8
6
6
7
4
5
7
4
4
5
5
4
4
4
2
4
4
4
4
4
8
2
2
6
4
4
3
1
4
2
1
5
5
6
7
7
4
5
5
5
5
5
7
7
7
7
7
7
5
5
5
4
5
5
4
5
5
2
3
3
2
2
2
4
4
4
3
4
3
2
8
5
4
9
5
1
11
5
0
12
7
7
12
9
8
12
10
8
8
8
5
5
6
5
5
8
7
6
12
5
5
5
4
4
5
4
4
4
5
5
1
10
10
7
12
12
8
13
13
9
12
9
6
15
5
5
17
7
7
17
7
7
14
8
4
6
12
6
11
3
10
10
2
8
15
14
7
32
108
214
50
173
255
69
68
146
42
47
47
99
99
101
144
155
143
66
40
34
157
155
137
121
122
114
175
182
176
153
162
162
171
167
155
153
149
164
88
94
90
110
126
119
142
157
160
46
36
40
129
150
151
133
146
143
167
145
142
243
255
255
201
198
210
102
84
87
104
125
125
195
148
133
255
255
255
175
155
155
88
132
155
199
173
159
91
63
48
173
171
153
58
76
80
178
165
163
136
120
102
94
91
99
107
154
149
144
129
116
127
151
128
120
158
127
103
151
124
136
118
119
116
95
84
146
142
138
84
83
93
51
56
63
85
65
70
164
160
157
255
249
253
42
15
42
255
255
255
181
216
235
103
90
84
96
92
92
119
105
101
198
174
161
255
225
201
255
225
188
218
187
143
157
130
93
112
90
78
54
43
44
144
129
118
134
141
145
171
156
138
207
205
187
136
123
110
59
57
58
118
123
133
215
215
222
255
255
255
255
255
255
255
255
255
255
255
255
174
176
194
144
120
111
240
239
237
173
190
188
64
10
29
255
204
149
113
104
69
36
5
41
146
214
255
209
255
255
83
91
93
147
158
179
104
95
78
87
70
71
191
213
225
78
86
77
137
155
137
105
114
100
127
130
117
25
41
40
164
173
177
81
124
128
15
22
27
255
255
255
239
255
252
157
108
91
157
155
118
22
22
20
46
44
28
96
104
97
159
169
196
22
18
13
123
134
148
130
135
145
98
102
108
158
161
166
147
150
137
60
64
71
244
222
212
81
73
51
217
225
244
32
47
36
70
67
69
134
132
151
123
138
155
121
142
153
79
87
93
42
52
59
51
54
47
25
25
39
100
104
116
46
44
41
77
84
93
85
74
82
152
159
174
246
255
255
195
232
255
100
138
184
46
84
127
13
31
61
26
29
23
78
106
113
113
135
146
93
100
120
58
67
94
68
62
65
82
95
99
161
148
140
255
253
238
255
245
224
155
148
125
79
91
94
37
45
41
59
44
82
94
86
102
82
81
81
59
61
50
55
62
61
62
63
48
72
78
84
59
70
65
82
97
94
110
120
112
74
108
120
200
213
208
72
102
121
166
193
192
88
120
132
185
242
248
24
38
44
104
136
142
77
90
94
38
48
43
59
63
70
52
77
84
49
66
73
22
27
26
47
58
60
5
5
3
59
59
84
146
158
136
255
255
236
255
255
255
255
255
255
255
255
255
255
255
255
172
187
188
52
81
80
64
38
31
146
132
133
221
208
208
255
240
224
255
255
255
255
255
255
248
215
199
89
62
55
255
255
255
255
255
255
255
240
219
255
255
255
255
255
255
255
255
255
255
255
255
255
255
255
255
255
249
203
185
166
75
75
63
57
50
56
158
145
143
216
191
167
139
119
86
74
68
44
160
160
155
29
65
71
119
131
139
63
134
255
86
217
255
27
67
82
17
13
24
23
8
7
65
31
9
102
43
10
157
72
13
235
124
35
242
134
46
204
118
37
228
134
36
236
137
40
240
136
40
231
128
36
219
118
29
223
120
34
221
114
35
200
95
24
172
82
20
136
68
19
94
40
14
55
17
0
30
5
10
19
7
2
13
13
11
24
20
13
44
27
10
90
43
13
89
43
17
25
17
13
100
58
25
97
48
17
97
52
11
124
61
17
135
68
24
134
68
26
153
83
28
128
60
20
44
17
13
76
50
21
118
70
36
147
95
37
184
114
41
194
117
42
216
126
53
226
126
47
232
127
39
255
148
45
255
159
59
228
137
49
205
130
41
190
120
35
141
81
24
86
46
21
122
70
28
181
101
37
154
87
35
71
36
17
46
30
14
84
47
21
78
32
13
41
17
11
54
31
13
56
25
9
34
10
6
15
1
7
7
4
11
9
2
7
16
4
5
24
9
8
32
12
8
36
10
3
31
7
5
27
5
11
29
3
10
28
1
10
33
8
5
56
27
10
93
49
18
124
61
18
146
69
14
157
78
16
152
78
17
125
61
14
95
48
12
90
48
12
99
53
8
96
45
6
77
34
8
51
27
11
50
19
2
93
52
17
112
66
20
71
32
8
29
16
10
8
14
8
19
15
14
50
31
11
77
44
8
97
59
18
121
73
28
148
86
32
160
91
25
166
89
18
255
255
255
255
255
255
8
8
8
8
8
7
7
5
4
8
1
4
8
5
6
6
6
6
7
7
7
8
7
7
8
5
6
8
6
7
11
8
8
8
7
7
7
7
7
5
5
4
4
7
4
6
6
6
9
9
9
8
8
6
6
8
1
7
11
5
5
9
7
2
4
4
4
4
4
4
6
6
7
7
7
3
5
5
3
5
5
5
7
7
6
8
8
7
8
8
5
8
7
3
8
5
4
9
5
3
11
7
1
12
7
4
9
5
4
8
5
4
8
5
0
6
4
7
1
3
11
1
3
13
4
7
12
10
10
8
9
7
5
7
2
5
6
4
8
8
5
10
10
9
10
10
10
7
7
7
7
4
5
13
5
7
17
4
8
18
8
11
14
8
9
5
10
10
4
9
10
5
6
7
10
10
6
28
20
10
34
115
238
41
159
255
36
48
134
18
41
55
124
124
132
113
128
112
161
133
127
190
202
190
121
137
144
28
56
69
168
140
127
244
242
221
68
69
76
59
59
47
65
68
70
165
170
161
63
78
82
136
165
166
122
133
130
200
158
143
255
255
255
173
140
117
205
174
157
164
154
170
213
176
159
255
255
255
127
102
109
111
152
164
142
129
116
123
93
85
121
117
101
133
127
119
107
95
93
93
108
130
79
90
95
38
42
41
69
65
55
53
74
58
29
16
11
93
83
74
228
223
205
114
133
117
152
149
133
101
97
83
58
67
74
170
137
135
208
199
195
255
255
255
236
255
255
226
217
210
243
255
255
46
75
92
147
126
105
190
175
159
172
158
142
132
124
103
85
85
70
91
82
72
133
115
97
157
143
123
158
140
121
245
221
202
66
69
70
251
236
215
235
240
227
52
58
66
255
255
255
255
255
255
255
255
255
255
255
255
253
240
228
176
168
158
64
65
59
160
139
126
246
226
222
188
195
202
36
62
78
232
185
143
80
70
49
208
152
124
169
135
123
62
76
110
189
239
255
117
139
162
155
160
159
82
102
114
147
105
86
30
69
87
95
107
111
54
70
60
37
31
25
124
125
116
94
81
69
163
176
189
74
112
110
21
7
13
255
255
255
219
255
235
170
126
113
133
125
89
18
31
30
18
45
59
88
97
92
238
253
247
80
94
73
210
226
236
168
172
167
145
152
143
95
104
97
115
116
115
219
226
219
153
135
116
38
27
36
163
166
164
55
59
64
121
119
108
91
87
106
73
83
93
68
85
94
152
165
170
136
143
153
55
55
70
98
68
49
133
127
121
218
234
231
166
192
189
111
137
149
67
93
125
114
131
137
175
195
217
155
179
197
114
161
200
56
103
157
16
51
82
11
7
13
69
82
75
128
137
148
111
134
167
72
100
139
86
91
115
33
30
54
36
37
37
8
12
20
44
28
29
24
35
69
51
59
68
25
27
25
57
68
63
1
6
19
42
38
34
42
45
55
43
40
31
63
77
83
122
139
134
119
132
126
196
212
200
53
59
53
185
197
200
72
86
100
159
177
182
64
85
100
189
234
242
28
40
37
84
102
107
61
66
73
73
93
92
40
42
52
107
146
158
54
79
85
74
106
119
9
3
9
52
67
81
43
56
73
47
55
23
105
109
78
81
83
68
177
174
167
250
229
220
255
255
255
255
255
255
255
255
255
255
255
232
208
185
163
90
71
58
66
91
95
246
255
251
255
255
255
255
255
232
112
89
77
247
255
255
255
255
255
255
239
211
149
135
100
49
66
48
81
79
80
165
151
158
255
251
239
255
255
255
255
255
255
255
255
255
255
255
255
255
255
232
194
190
186
224
192
162
107
90
67
135
156
147
47
47
56
140
160
168
22
138
255
42
204
255
5
51
72
16
17
21
6
8
14
16
9
3
40
24
8
75
40
11
144
70
18
215
104
33
224
116
33
202
105
32
164
80
22
151
71
14
134
62
8
120
54
5
108
49
10
91
36
5
79
31
1
60
27
9
33
16
5
17
4
10
7
10
11
4
10
5
2
5
3
8
1
2
18
11
6
32
9
9
60
26
14
59
32
2
96
56
21
84
35
12
42
6
6
40
17
6
57
25
10
52
20
7
123
64
17
136
79
31
115
71
30
94
67
34
101
78
26
141
93
36
157
97
37
135
78
28
112
71
23
117
76
27
132
82
21
140
87
21
122
80
35
86
49
28
30
13
5
15
7
8
21
13
3
38
31
11
56
42
21
84
52
21
128
75
29
143
83
36
53
25
11
46
32
14
44
28
11
80
46
25
90
36
15
68
27
4
35
14
7
18
4
2
12
0
4
8
6
3
4
1
4
5
2
6
10
6
7
8
7
2
0
5
4
6
4
10
10
2
12
12
2
9
13
1
5
14
0
4
17
2
3
25
5
5
27
5
6
23
6
7
25
10
8
24
8
5
16
2
3
21
2
17
26
13
13
21
11
5
55
26
2
130
71
14
165
97
29
178
113
45
170
110
46
109
66
26
31
21
7
18
9
11
44
29
8
75
49
18
115
67
18
143
85
19
165
96
24
180
98
18
172
88
11
146
71
15
98
41
15
255
255
255
255
255
255
11
5
5
6
2
3
5
3
3
8
8
8
7
10
8
7
9
8
6
6
6
4
2
3
7
5
4
11
5
7
11
4
7
6
5
5
7
7
7
7
5
6
7
4
6
4
4
10
7
7
14
8
8
16
8
8
14
9
8
11
11
9
7
10
7
7
8
5
5
7
6
6
5
5
5
6
5
5
8
7
7
7
8
8
4
8
7
2
8
6
5
6
5
7
5
5
9
9
9
14
11
12
16
7
10
13
4
7
9
6
7
6
8
4
4
7
1
7
6
1
7
7
4
8
10
5
8
10
5
8
8
4
8
8
5
8
8
7
12
8
9
17
7
10
16
4
8
13
3
5
14
1
5
14
4
7
10
6
7
8
8
8
5
7
5
7
7
9
10
7
10
11
6
5
7
8
7
35
17
4
66
114
254
128
141
255
157
148
174
141
140
126
173
165
158
85
102
86
255
238
237
180
196
191
71
82
86
106
74
65
241
238
235
126
155
152
50
53
45
78
80
68
58
58
86
165
173
165
15
41
60
106
146
142
118
124
119
255
211
192
222
255
242
157
140
127
80
63
50
98
86
55
75
48
16
230
230
207
68
56
65
92
112
110
23
24
23
88
59
43
51
52
53
60
61
42
122
110
117
217
215
211
200
209
212
180
182
187
94
91
91
84
87
70
70
81
50
104
124
105
121
116
111
101
101
88
163
162
151
150
163
164
60
26
29
255
227
208
193
187
176
219
203
191
255
255
255
20
19
38
248
255
255
210
242
255
106
116
114
122
116
108
154
146
130
153
147
124
125
122
100
71
63
51
16
24
42
120
124
146
191
197
211
247
244
247
20
45
77
238
249
239
170
180
176
183
191
204
255
255
255
204
178
147
61
47
27
20
30
34
50
50
61
101
96
98
135
118
110
253
232
228
208
200
206
116
130
147
145
95
56
234
201
168
183
156
140
175
132
111
255
229
200
69
64
66
56
102
137
251
255
255
71
94
114
204
210
210
8
18
38
140
93
74
75
116
134
82
65
63
106
124
109
107
113
108
79
81
69
130
159
179
61
102
98
46
31
27
255
255
255
200
234
223
177
136
115
118
100
69
8
13
21
7
41
44
124
119
105
199
211
199
186
200
180
218
239
229
72
71
75
49
47
49
64
52
39
166
171
159
138
153
146
83
84
81
84
84
80
88
90
82
20
25
19
84
78
61
92
89
105
70
71
76
30
38
43
39
55
63
35
24
13
130
129
139
51
50
62
150
129
107
57
65
64
128
128
129
197
212
220
136
173
192
52
70
92
99
115
139
65
62
51
160
180
194
178
229
255
104
167
215
46
77
105
21
19
36
25
48
65
80
106
135
68
102
144
32
42
80
48
39
32
97
84
73
85
68
49
43
35
25
26
27
38
54
75
107
86
96
116
80
90
74
56
67
54
8
19
2
46
53
60
26
28
24
49
67
76
186
206
202
154
164
148
234
245
240
124
117
88
147
160
165
25
32
49
142
154
162
31
41
53
178
214
225
56
50
40
68
74
78
34
52
60
62
89
94
15
17
18
107
156
172
80
112
113
91
134
152
55
71
67
79
96
115
16
7
14
100
107
78
248
244
194
217
203
172
125
112
90
31
1
21
116
98
89
228
199
195
255
255
255
255
255
255
255
255
255
255
255
255
255
255
234
197
196
186
255
255
255
255
255
223
151
135
116
210
234
230
255
255
255
255
255
255
255
255
255
255
255
255
255
215
200
159
127
121
79
72
61
35
27
50
155
139
151
249
223
219
255
255
255
255
255
255
255
255
255
240
209
165
102
83
72
123
149
143
25
36
60
115
136
142
4
104
241
36
214
255
14
78
112
15
21
14
7
11
13
1
3
8
8
3
9
12
5
12
32
18
16
79
36
7
103
47
8
87
34
14
64
20
10
52
15
5
43
15
1
36
15
4
25
9
4
13
4
8
14
3
8
13
5
7
7
5
11
8
5
10
2
1
9
2
4
7
4
6
5
10
7
9
16
15
13
26
14
5
55
19
10
65
22
8
53
20
12
25
7
7
7
3
3
14
3
4
91
49
17
209
111
39
224
120
48
132
72
31
63
37
14
63
42
13
40
19
12
45
21
16
63
37
20
80
46
20
82
45
23
62
37
31
29
18
16
30
20
10
80
51
23
131
80
30
160
97
36
172
106
38
175
105
40
171
100
46
153
91
48
146
86
41
140
74
34
56
27
5
74
51
20
100
53
11
94
50
4
134
79
10
190
105
28
208
107
27
189
93
20
169
77
17
160
72
15
156
73
18
140
60
17
99
36
10
48
13
3
19
7
6
5
2
7
2
3
4
5
1
2
10
0
11
12
2
12
11
0
5
10
2
5
14
4
6
13
4
7
7
5
5
5
5
9
3
2
8
35
17
10
104
58
14
179
102
38
213
113
35
208
107
29
197
112
34
155
87
35
95
57
28
37
20
8
36
24
22
76
44
12
110
55
6
150
79
27
181
99
39
183
99
32
154
83
23
122
67
14
108
50
9
88
32
17
56
17
16
95
70
33
255
255
255
255
255
255
13
7
7
10
6
6
7
11
8
7
12
10
5
6
5
4
3
3
2
2
2
4
4
4
7
7
7
8
4
5
7
1
4
5
4
4
6
6
6
9
7
8
11
5
7
7
8
10
7
7
7
5
5
5
7
5
7
9
4
4
12
8
5
15
12
9
15
11
11
13
9
9
12
8
8
10
7
7
6
5
5
4
4
4
5
4
4
5
5
5
9
7
7
14
5
8
16
5
8
16
4
8
16
4
8
16
4
8
16
5
7
16
4
5
12
6
4
5
10
4
4
12
5
1
10
4
3
7
3
7
4
1
12
3
3
14
2
5
17
4
8
17
4
8
16
4
8
17
5
9
17
7
10
11
8
9
7
7
7
5
5
7
1
7
2
2
8
1
12
8
1
13
7
4
9
7
11
44
15
8
101
85
247
118
71
255
56
34
94
61
73
74
216
204
190
40
69
65
255
244
250
63
95
97
27
45
53
124
96
83
250
255
255
127
137
133
92
97
83
97
98
96
45
49
70
209
225
215
34
9
29
89
132
126
95
104
99
255
255
249
118
149
146
179
175
170
61
69
88
22
29
62
30
33
31
148
138
108
71
88
88
81
104
107
57
51
45
44
18
25
58
67
72
73
81
76
61
47
40
154
172
181
80
70
73
184
171
164
75
74
69
34
43
46
39
41
36
94
93
98
83
62
76
96
79
85
159
142
148
159
159
153
201
168
154
254
242
224
77
77
71
179
160
156
255
255
255
106
137
164
186
183
175
255
255
255
185
207
208
84
68
54
19
32
55
139
139
158
214
199
209
245
221
219
255
223
211
255
229
210
255
255
255
255
255
255
170
166
173
222
255
255
130
159
163
191
218
216
255
255
255
127
111
89
45
44
31
36
38
22
44
42
22
70
56
44
143
125
123
234
229
236
156
166
171
11
26
35
185
134
101
160
146
115
163
117
97
240
205
175
195
152
133
190
143
127
36
19
13
156
219
238
225
255
255
94
82
73
176
184
199
65
26
5
97
45
44
6
25
48
56
90
74
102
99
91
95
93
80
153
185
204
52
96
101
70
73
63
255
255
255
177
201
198
183
144
115
113
95
73
11
25
36
6
26
22
104
92
80
214
220
188
159
176
165
196
201
190
57
67
78
80
77
72
107
93
61
122
131
124
61
63
69
113
121
120
139
134
124
65
66
74
31
35
37
38
29
21
53
53
60
105
104
107
121
146
158
122
140
149
140
161
181
40
47
70
98
119
131
117
118
123
255
255
255
200
208
210
79
94
115
175
191
189
140
149
160
87
101
122
34
51
76
56
68
86
176
193
207
225
255
255
117
159
206
41
70
114
35
60
88
14
16
8
50
70
79
83
114
134
97
134
154
104
135
162
90
120
153
63
85
109
65
74
81
60
47
33
25
45
73
85
102
117
63
82
70
45
68
46
52
68
69
45
37
41
65
78
90
240
255
254
167
174
153
243
255
255
166
161
122
138
159
162
26
29
36
148
162
169
30
31
18
165
201
219
65
76
61
43
49
52
15
33
36
53
82
95
27
23
18
86
134
158
125
164
166
47
81
95
119
141
140
43
67
79
61
68
67
73
46
32
255
255
224
255
255
255
255
255
255
255
255
255
255
230
195
191
162
115
89
70
24
41
40
69
142
138
142
251
238
225
255
255
255
255
255
255
255
255
255
255
255
248
180
172
147
226
252
246
255
255
255
255
248
231
232
224
241
255
255
255
255
255
255
255
255
255
255
255
255
255
254
215
199
176
138
99
89
54
40
43
40
66
70
64
95
83
62
73
29
21
51
27
18
127
141
148
81
71
65
98
110
112
15
105
231
34
208
255
21
95
143
15
16
15
8
15
10
8
12
10
5
13
6
4
11
1
4
3
14
3
4
10
3
5
10
4
5
17
3
4
15
8
3
9
4
3
3
7
1
4
3
3
2
4
5
2
9
2
12
1
3
12
5
4
7
7
3
5
4
5
4
8
0
13
43
18
6
96
51
19
130
74
26
113
57
23
57
26
14
17
7
7
28
10
6
17
5
4
5
1
1
22
10
13
147
79
32
206
105
26
81
34
4
45
25
11
82
47
17
120
76
22
129
84
23
147
88
29
158
88
28
143
84
26
112
71
25
100
65
23
122
76
19
179
103
15
207
123
32
214
130
44
233
135
43
250
139
43
237
130
45
187
101
32
129
69
21
78
42
8
36
7
10
54
35
20
84
43
12
86
50
18
125
78
28
173
104
29
213
124
35
252
148
50
255
164
55
255
160
50
255
158
51
255
156
50
255
141
40
222
109
30
137
59
18
58
22
11
32
10
7
22
6
3
19
8
7
22
12
2
21
12
8
18
12
3
13
12
4
9
10
4
10
7
6
15
10
6
17
5
4
47
18
4
129
63
17
213
115
38
230
123
43
189
106
31
141
82
33
77
46
24
51
31
12
88
52
18
131
78
29
171
100
28
199
111
24
205
111
30
198
105
32
183
97
21
156
75
12
119
49
11
81
31
5
50
12
3
6
12
15
121
69
21
255
195
83
255
255
255
255
255
255
5
5
5
7
7
7
7
8
7
5
3
2
5
2
1
4
2
3
6
6
6
8
8
8
6
6
6
4
4
4
5
5
5
8
8
8
10
10
10
9
9
9
11
10
8
11
13
7
7
7
1
4
4
4
4
4
2
4
4
0
6
6
6
9
9
4
10
9
5
12
9
4
12
9
1
7
6
2
5
6
3
7
9
5
9
7
5
9
3
5
8
5
6
8
8
8
5
5
5
2
2
2
4
4
4
8
5
6
11
2
5
13
1
4
14
1
4
7
4
4
5
5
5
3
3
3
1
1
1
9
0
3
12
1
4
16
5
8
15
5
8
8
4
5
6
6
6
6
6
6
4
4
4
4
4
4
7
7
7
7
7
7
6
8
4
4
11
4
16
10
7
8
11
7
13
12
11
54
7
31
125
76
255
69
96
255
108
136
179
160
161
151
162
157
145
46
46
49
211
199
204
33
45
51
84
98
109
101
110
118
142
156
165
108
115
116
70
72
69
86
88
89
30
15
11
216
227
223
76
67
31
121
140
144
123
118
119
255
255
248
40
69
75
197
209
214
25
15
13
145
151
170
102
117
107
150
142
141
255
255
255
252
247
220
135
125
114
64
42
37
60
59
41
62
69
64
30
20
20
180
193
206
28
53
76
160
143
131
117
113
106
210
196
199
255
239
243
235
217
222
197
184
185
105
107
100
154
154
173
73
94
99
189
177
171
189
188
176
47
44
40
234
205
189
185
190
183
132
170
185
71
63
33
255
255
255
255
255
255
184
193
192
255
244
237
249
186
174
186
126
109
107
58
42
41
20
39
84
87
106
156
196
197
76
120
141
235
199
187
217
255
255
98
139
145
218
241
225
255
255
249
91
71
53
40
61
77
45
64
81
7
9
31
152
134
109
184
171
171
212
212
223
66
87
87
169
128
122
171
135
121
168
153
122
198
182
161
255
255
255
101
91
79
241
169
154
70
49
63
63
39
60
179
239
255
180
201
223
111
105
112
95
115
139
100
55
42
66
41
47
6
16
29
198
177
162
138
122
107
225
249
255
62
96
108
72
87
87
255
255
255
161
176
169
166
130
95
108
93
79
60
45
34
113
86
70
128
117
92
46
40
39
95
105
117
145
136
130
109
110
128
104
90
72
12
15
41
137
151
156
49
49
45
103
114
116
132
110
83
54
48
39
68
71
74
21
24
25
69
88
84
121
139
140
255
255
255
90
115
109
83
99
96
114
121
132
138
156
162
70
82
90
97
101
107
155
167
160
154
160
143
57
52
45
96
84
76
72
94
104
47
72
84
148
181
206
25
26
25
179
212
224
159
203
237
120
176
214
114
174
226
52
89
141
52
41
48
52
50
47
82
95
96
58
69
73
34
53
64
41
65
95
25
55
90
55
73
91
83
77
71
22
11
23
57
75
99
88
113
111
93
118
98
69
79
53
44
64
82
255
255
255
177
176
154
236
255
244
166
158
128
118
136
147
85
81
74
175
182
184
157
159
141
105
137
170
110
136
164
111
145
175
103
122
151
92
109
131
60
62
76
90
121
150
166
215
238
137
171
199
127
150
157
46
69
83
103
120
133
10
36
70
61
33
69
154
133
120
220
207
207
255
255
255
255
255
255
255
255
255
255
255
255
255
255
213
179
174
128
58
54
29
86
74
94
206
217
222
255
255
255
255
255
255
193
183
153
197
225
216
255
255
255
222
191
156
93
87
68
23
16
10
56
66
70
89
88
81
116
96
88
146
127
126
118
94
86
83
67
55
55
43
37
20
28
44
51
24
18
146
121
69
98
87
92
75
87
100
49
34
40
80
93
105
27
106
223
47
223
255
17
100
159
15
12
22
5
9
6
7
10
8
7
10
6
7
11
3
8
11
8
5
7
10
12
11
6
15
15
9
13
11
11
8
4
7
9
6
11
7
9
5
3
8
5
5
8
6
4
4
4
12
4
7
18
3
7
17
4
7
3
2
10
66
36
3
187
102
33
255
152
48
255
152
52
229
122
41
157
77
23
68
24
19
28
5
10
5
1
3
4
3
11
30
11
16
131
73
22
190
103
21
185
98
32
155
84
32
98
48
18
82
41
10
115
68
21
130
76
19
101
58
7
84
49
14
55
27
6
38
18
18
108
58
3
176
91
25
162
87
22
148
78
21
138
70
22
123
61
21
107
54
13
93
44
12
70
34
15
57
28
10
33
27
19
53
27
1
63
30
5
82
55
26
114
73
41
117
71
41
110
69
35
119
69
32
128
73
32
115
72
31
99
64
20
95
59
12
112
77
24
174
96
14
162
81
14
85
37
13
86
37
14
103
45
10
114
50
8
118
55
5
105
50
6
80
39
13
48
27
10
18
11
5
15
9
5
25
15
7
30
16
4
68
42
7
141
77
24
149
83
29
71
38
9
69
37
14
111
60
22
126
75
21
159
95
21
200
112
28
221
123
36
215
118
32
183
100
26
128
72
19
84
46
7
56
28
5
35
10
6
20
5
8
14
7
3
39
31
5
180
108
31
255
193
74
255
222
83
255
255
255
255
255
255
2
4
4
2
4
4
4
2
3
5
1
3
7
4
5
7
7
7
8
8
8
7
7
7
5
5
5
5
5
5
7
7
7
6
6
6
6
6
6
6
6
6
7
7
6
5
7
5
4
4
4
4
4
4
3
3
3
1
1
1
2
2
4
1
1
7
5
5
3
9
9
3
8
10
3
8
11
4
7
12
2
8
11
10
7
10
5
5
5
5
3
3
3
3
3
3
5
5
5
5
5
5
4
4
4
4
4
4
5
5
5
6
6
6
11
6
6
8
9
7
7
7
7
5
5
5
4
4
4
13
5
7
14
7
8
11
10
10
8
6
6
4
3
3
7
7
7
6
6
6
5
6
3
7
10
3
7
11
3
8
12
1
13
10
3
17
8
13
18
7
11
10
5
4
15
5
14
70
10
56
136
80
255
80
83
255
130
136
157
73
82
71
60
70
71
78
38
31
151
148
156
61
43
45
65
69
73
67
69
77
84
97
101
67
75
74
28
36
38
53
58
54
54
52
56
121
123
124
170
158
148
152
156
164
129
132
125
176
185
157
67
46
58
180
201
210
102
95
81
101
128
148
255
255
255
255
255
255
142
126
112
78
82
77
83
102
92
80
83
80
78
79
82
117
115
127
184
199
225
170
202
224
80
96
110
154
141
137
213
203
194
212
208
188
168
162
140
122
110
94
102
91
85
151
131
131
218
230
241
65
40
31
191
189
177
95
98
84
173
159
138
255
233
199
161
155
139
96
124
124
52
70
84
255
255
230
255
255
255
255
255
255
143
133
113
16
39
58
54
73
72
82
96
86
102
127
130
56
89
93
181
217
220
97
158
176
244
229
216
227
255
250
93
120
130
253
255
251
254
221
199
44
26
38
61
51
56
46
39
41
80
69
71
244
225
200
208
206
190
156
164
169
121
79
72
255
241
214
161
139
100
193
184
138
127
126
103
255
246
204
195
171
140
225
166
155
190
179
187
166
162
148
68
31
24
214
245
255
84
97
102
148
148
169
51
80
103
165
109
80
79
46
26
226
209
202
57
55
54
221
254
255
70
84
98
84
96
104
255
255
255
150
165
154
118
97
87
163
157
154
145
137
137
218
188
172
195
179
156
183
180
156
96
113
124
101
104
96
143
154
174
55
44
32
99
109
123
159
165
168
159
152
143
105
96
94
166
138
97
64
47
30
66
72
76
32
51
53
117
144
146
75
100
119
255
255
255
165
187
185
27
40
56
29
28
38
52
62
60
29
35
50
27
29
34
33
41
37
89
89
67
178
169
154
96
93
90
94
118
122
77
92
101
190
232
250
68
91
113
133
140
138
106
124
137
138
158
163
208
254
255
187
237
255
103
137
167
55
50
55
100
87
74
103
96
87
39
38
21
30
36
39
28
46
77
11
38
71
45
71
90
69
72
73
16
6
29
40
69
99
87
113
127
110
118
102
70
62
54
220
227
209
162
163
151
190
200
183
177
166
156
103
113
125
245
248
246
223
224
211
255
255
255
126
92
45
67
97
150
60
83
115
73
57
24
94
90
67
72
72
92
69
96
139
110
141
175
39
98
159
107
146
195
109
155
211
169
220
255
139
155
192
206
170
105
205
204
182
93
87
95
27
57
57
143
166
170
254
255
255
255
255
255
255
255
255
255
255
255
255
255
254
242
221
189
144
124
101
235
244
247
255
255
255
255
255
246
255
255
255
255
255
255
229
185
168
144
111
109
107
75
61
52
30
25
32
38
40
49
60
62
121
129
133
184
184
179
244
233
219
208
199
176
214
218
206
237
220
199
168
167
136
204
172
149
140
140
142
131
114
104
146
147
156
38
116
228
27
213
255
40
128
193
20
14
25
10
5
7
9
3
5
11
3
7
12
7
5
15
10
8
27
12
12
32
17
17
25
19
8
9
15
9
4
15
5
8
13
11
18
11
13
35
13
11
44
19
7
31
17
3
16
6
8
56
33
7
97
58
20
121
62
22
194
100
26
255
164
58
255
151
55
208
119
45
244
144
48
228
120
28
121
54
15
55
18
16
10
2
8
6
1
17
24
2
8
74
36
8
125
71
7
163
81
18
155
72
14
108
53
19
43
18
4
78
41
20
66
31
2
66
31
4
67
40
15
65
40
22
61
38
13
83
44
19
101
51
20
39
23
3
11
7
13
6
7
6
17
8
8
16
18
7
59
27
16
37
8
17
40
13
7
68
41
24
55
22
4
66
33
2
117
71
34
145
81
33
151
75
22
144
70
18
121
69
20
105
73
24
122
81
32
137
88
28
147
93
30
156
90
38
134
71
17
93
50
5
118
70
21
182
105
28
222
123
33
241
130
40
227
120
42
191
98
33
141
66
21
98
45
16
49
18
14
15
8
10
5
11
9
7
10
14
54
32
7
114
55
18
142
75
27
172
96
26
190
107
26
172
91
20
160
77
23
160
74
23
148
72
18
127
65
17
98
48
9
59
27
8
24
8
7
15
5
2
19
6
3
10
1
2
8
3
10
28
8
1
152
96
22
255
188
56
255
184
70
207
118
48
255
255
255
255
255
255
4
8
4
5
9
4
7
11
1
8
12
2
7
11
3
5
9
4
5
7
6
4
5
2
4
4
4
5
5
5
5
5
5
3
3
3
2
2
2
4
4
4
7
4
5
7
3
4
10
2
6
12
4
8
10
4
7
7
5
6
5
5
5
3
3
1
5
5
4
6
6
4
8
8
7
8
12
9
5
11
8
4
7
9
5
9
5
7
8
5
7
7
7
6
6
6
7
7
7
8
8
8
8
8
8
8
8
8
8
8
8
9
9
9
14
11
9
15
13
5
12
10
2
11
11
3
14
12
4
19
12
5
14
11
4
10
8
5
8
8
2
9
11
0
8
11
6
5
9
3
7
11
3
10
14
2
7
11
3
6
10
2
10
11
6
13
11
8
11
10
4
5
7
7
17
10
14
76
26
95
127
87
255
78
27
185
111
99
101
144
146
134
69
99
104
128
90
79
123
130
139
95
76
82
22
21
25
39
29
31
99
110
104
63
62
49
55
61
58
59
53
35
44
46
50
43
34
38
138
138
154
57
62
69
31
22
24
96
95
80
131
132
148
75
106
108
159
162
167
110
83
63
255
255
255
65
83
88
150
137
144
65
69
55
86
104
111
150
181
186
150
182
199
139
160
173
70
88
95
66
74
77
73
75
85
86
85
89
72
70
73
70
61
59
108
103
89
142
136
113
96
84
53
235
217
216
170
177
175
153
130
124
171
178
159
90
75
70
255
248
204
175
144
107
92
97
97
9
38
55
65
94
105
87
66
63
255
255
246
127
144
157
83
155
162
36
59
58
154
196
175
182
200
180
188
194
175
100
114
110
175
196
200
84
138
148
239
241
225
217
243
236
102
113
120
255
255
255
248
216
188
38
52
62
75
111
122
80
102
124
143
109
80
240
232
207
149
160
146
41
51
73
255
243
216
254
207
169
68
50
29
87
92
88
91
93
82
166
155
137
149
140
114
202
175
183
233
253
250
144
175
151
247
227
197
22
55
88
235
255
255
10
14
14
203
220
235
53
13
37
148
106
92
157
179
188
127
111
107
122
161
163
100
107
123
133
133
134
255
255
255
140
166
159
50
56
73
73
81
72
59
71
84
188
179
162
75
62
55
255
255
229
138
165
169
60
53
52
140
147
163
132
125
116
92
93
102
61
60
63
89
86
91
72
62
50
188
155
112
63
39
27
33
44
40
51
93
94
142
162
177
63
22
18
249
255
255
226
240
251
100
123
143
64
78
86
46
59
74
20
40
75
29
22
24
31
39
53
17
39
55
61
70
77
92
95
97
122
147
151
12
15
10
161
196
199
136
170
191
145
172
182
41
75
92
94
85
102
106
114
112
217
239
255
216
242
255
143
163
190
138
149
164
151
162
186
86
100
125
33
38
67
27
34
35
33
58
83
51
84
114
71
85
93
20
35
34
12
39
57
30
60
96
74
91
101
84
87
68
107
115
101
161
166
165
130
142
149
194
193
199
143
157
174
255
255
255
97
99
99
255
255
255
255
255
255
204
233
236
230
255
255
176
153
133
165
184
176
239
239
245
174
197
223
228
222
220
84
37
5
210
198
190
144
176
204
162
195
223
189
203
220
255
255
255
255
255
255
255
255
255
255
251
239
202
202
192
134
143
135
62
75
64
20
30
16
58
44
54
110
96
106
122
111
116
114
112
106
199
216
221
237
240
228
255
255
255
255
255
255
255
255
251
108
121
119
200
198
187
164
155
141
146
128
107
97
62
37
89
84
73
127
134
151
177
189
202
241
254
255
255
255
255
255
255
255
255
255
255
255
255
233
255
255
219
21
9
17
74
91
92
139
132
134
44
116
221
36
219
255
41
137
213
18
16
17
10
8
8
7
1
4
5
3
4
7
7
7
11
8
7
26
15
13
17
11
9
29
20
10
10
12
11
4
10
11
10
4
10
42
15
21
79
34
30
82
41
26
71
39
14
11
14
7
88
48
13
106
56
24
165
82
35
241
124
41
239
135
55
109
57
18
39
32
18
169
111
39
230
131
41
161
79
23
80
35
15
28
12
11
12
5
10
11
9
10
27
8
12
36
9
15
59
25
7
86
39
7
131
66
12
100
36
16
79
55
17
88
44
16
83
39
6
84
50
13
46
28
9
24
13
4
52
26
14
108
61
25
61
24
2
18
15
3
26
20
16
32
18
18
22
12
18
56
26
14
56
25
12
59
24
12
93
44
8
129
62
17
164
79
14
203
105
20
253
137
36
255
150
42
250
134
44
168
84
32
68
28
17
74
45
21
72
48
13
97
63
26
86
43
8
9
5
25
88
51
24
170
102
31
200
125
41
194
129
43
180
117
38
158
94
32
153
85
25
141
72
11
117
57
11
74
35
14
26
10
5
8
4
4
12
1
1
36
20
7
75
45
5
120
64
19
147
73
23
125
60
10
89
37
4
70
21
8
46
11
2
19
10
4
20
17
8
17
14
8
12
10
7
8
5
6
10
7
5
8
7
7
7
8
7
23
14
8
90
62
17
238
152
49
255
160
58
168
85
37
65
41
18
255
255
255
255
255
255
5
9
4
7
10
4
6
10
2
5
9
3
4
8
4
4
8
4
5
8
8
5
9
5
6
10
2
7
10
4
7
10
4
5
9
3
5
9
3
6
10
2
7
8
4
8
5
3
11
5
4
11
5
3
11
4
4
8
6
3
8
8
6
8
8
8
8
8
8
5
5
5
7
4
4
7
5
5
6
6
6
5
6
4
5
8
5
5
11
3
5
13
1
8
14
2
9
13
1
8
12
0
8
12
2
8
12
0
7
11
1
6
10
2
8
9
4
12
8
2
14
6
2
14
6
2
15
7
1
17
9
4
12
12
3
12
13
4
11
13
4
12
15
4
9
13
1
5
9
3
4
7
2
7
8
4
5
5
5
7
7
7
7
7
4
7
8
3
10
9
11
7
8
11
20
21
20
71
49
149
105
120
255
96
75
176
97
95
93
159
156
144
89
127
133
156
116
112
109
117
131
104
84
90
49
55
46
113
107
110
198
194
195
129
119
124
103
110
117
58
69
66
26
11
17
48
39
22
139
143
155
53
51
38
63
57
53
113
106
90
144
139
151
83
112
113
115
128
133
237
218
196
214
232
235
87
65
65
86
84
84
119
112
110
111
115
109
65
72
58
29
36
34
58
66
66
51
55
73
118
108
113
117
100
94
119
98
79
75
58
37
9
36
74
100
114
146
180
179
202
255
255
255
255
255
255
19
38
50
152
148
137
49
66
58
235
216
182
164
144
97
72
91
110
159
183
183
96
132
140
73
100
113
133
150
170
148
132
105
243
255
255
84
134
143
74
101
107
90
123
107
185
214
211
151
138
136
96
108
109
192
206
211
33
86
93
245
248
229
202
227
227
98
105
112
255
255
255
255
247
219
53
58
56
58
84
109
139
120
97
252
240
216
196
197
193
73
92
103
178
140
103
255
255
226
103
73
33
53
38
64
115
116
108
189
194
180
166
176
162
68
77
57
216
223
236
207
238
223
46
54
44
223
215
191
169
145
118
158
190
229
143
178
202
157
155
157
130
157
171
126
77
57
114
68
63
41
59
63
29
45
47
72
76
80
138
120
108
255
252
230
138
179
176
100
38
19
123
119
100
108
61
47
105
121
94
151
117
107
179
190
167
180
207
202
57
64
56
70
72
79
25
23
32
20
14
12
34
27
31
9
26
45
137
131
116
192
152
109
55
33
24
6
12
10
59
105
97
148
207
233
142
160
192
107
124
115
188
197
195
129
145
151
108
124
110
73
89
80
86
103
118
39
46
51
46
68
89
51
73
85
82
85
85
66
63
57
68
81
89
98
112
113
70
82
84
62
78
79
140
152
142
114
126
111
146
160
166
11
1
21
128
143
146
188
198
200
206
211
216
255
255
251
255
255
255
224
237
236
159
170
195
69
94
106
40
55
73
86
128
160
57
97
119
12
28
49
12
20
5
12
28
52
22
49
83
45
76
87
24
42
46
100
96
74
52
63
59
211
218
210
173
194
209
255
255
255
73
96
123
255
255
255
255
255
255
159
182
176
255
255
255
255
255
255
255
255
255
255
255
255
159
181
175
255
255
255
146
148
134
255
255
255
159
160
145
237
243
224
193
203
210
94
103
93
56
59
51
55
46
29
70
63
34
89
82
53
89
80
67
51
43
33
39
40
20
34
33
49
73
64
66
118
111
111
166
160
162
94
104
101
103
106
104
212
207
191
233
229
216
229
236
245
200
220
237
236
255
255
255
255
255
255
255
255
255
255
255
255
255
255
255
255
255
255
255
255
255
255
255
255
250
221
200
208
201
136
152
154
223
232
215
255
255
255
135
112
106
99
125
134
116
127
138
14
85
175
57
231
255
51
159
245
15
17
19
5
11
7
5
7
4
2
6
2
3
9
5
6
11
4
18
12
5
15
8
7
22
13
5
11
9
5
6
8
7
25
4
2
71
33
6
69
35
7
48
29
9
80
41
21
30
21
8
84
36
18
95
49
18
105
47
3
124
69
21
105
67
29
106
69
31
103
67
37
119
78
21
175
101
35
168
82
25
104
51
12
85
44
23
74
30
15
98
46
7
125
59
12
106
53
14
68
31
8
68
25
8
95
55
6
153
75
25
73
41
11
134
70
24
121
67
20
119
74
26
119
76
31
130
81
27
106
62
16
135
83
32
97
39
8
18
17
12
12
17
2
60
28
7
35
9
5
48
24
8
56
31
8
55
34
4
68
43
12
94
56
10
103
54
5
97
44
5
89
41
5
89
50
10
153
90
22
193
123
45
167
112
53
194
130
65
216
137
57
205
128
51
185
117
50
174
101
41
144
78
19
104
62
12
56
38
10
17
11
4
29
24
4
55
39
15
89
58
18
115
72
15
100
45
5
77
27
9
59
28
16
28
9
6
1
4
4
21
5
7
39
11
9
50
16
5
48
15
4
44
13
6
38
18
6
30
19
5
17
10
1
7
2
3
17
11
6
20
13
5
15
9
9
11
3
2
4
4
4
19
7
2
43
15
6
52
27
5
122
78
22
217
122
39
171
92
37
133
93
37
161
109
47
255
255
255
255
255
255
7
7
7
4
4
4
2
2
2
2
2
2
4
4
4
7
7
7
7
8
7
6
9
4
6
10
2
5
9
4
7
10
5
7
11
1
7
11
1
5
9
3
5
8
7
2
6
8
7
10
7
7
11
1
11
12
3
10
10
1
7
7
5
7
7
5
7
7
7
5
5
5
7
3
4
7
3
4
9
1
5
10
4
7
9
8
6
8
11
2
4
12
0
10
12
2
9
13
1
9
13
1
6
10
2
5
9
3
6
10
2
5
9
3
5
6
2
9
5
3
13
5
6
14
6
6
13
7
7
11
8
8
8
8
8
7
7
6
4
7
5
4
7
5
5
5
5
5
5
5
6
6
6
5
5
5
5
5
5
7
7
4
9
8
9
10
8
15
9
5
10
7
7
17
28
24
11
75
68
195
82
132
255
34
56
161
59
58
57
149
145
133
68
104
110
189
160
159
66
82
94
161
137
148
132
116
126
152
143
144
210
204
197
174
179
180
212
224
242
192
212
224
112
104
88
68
53
40
123
125
129
24
31
48
37
31
39
140
143
136
124
114
118
195
220
221
131
120
102
143
130
127
52
57
59
46
51
57
7
9
17
26
24
33
38
33
28
75
55
48
84
62
55
129
132
134
29
19
20
167
161
165
104
103
96
88
79
96
204
202
225
246
215
240
255
216
224
255
236
224
238
226
202
43
40
35
158
159
156
125
135
126
110
84
71
214
202
157
67
81
109
129
163
163
124
140
139
113
165
163
54
92
108
140
153
175
24
29
43
255
255
255
85
138
140
71
106
116
99
85
91
135
181
181
79
70
55
26
56
51
222
233
237
23
31
31
250
244
229
211
233
233
76
83
88
255
255
255
255
255
240
51
74
81
72
59
43
253
237
215
243
253
255
155
160
177
78
51
27
255
255
246
177
148
117
13
16
43
95
77
83
160
151
129
117
114
115
101
97
92
100
102
115
201
223
225
122
138
130
135
155
148
96
107
101
162
153
141
39
34
51
217
255
255
98
127
140
168
173
174
54
87
103
139
114
83
43
60
60
50
65
70
58
50
49
61
40
24
228
219
197
142
186
188
183
132
107
50
70
62
175
133
113
83
87
81
192
190
161
118
137
125
135
162
166
88
63
58
112
91
92
73
58
46
83
67
46
80
72
74
38
27
27
154
155
139
218
181
144
81
63
57
63
68
76
81
100
131
151
194
210
205
249
255
99
109
131
158
161
163
66
76
105
103
109
96
106
106
96
184
181
175
239
241
243
125
129
134
42
56
71
56
45
28
48
43
32
69
87
95
72
77
80
43
44
51
69
80
89
159
171
171
99
118
126
104
103
95
140
146
130
34
46
50
93
110
110
121
132
136
182
179
174
137
139
138
171
176
167
235
252
255
199
230
251
26
35
32
89
112
138
111
151
181
78
127
159
28
72
106
13
24
38
9
16
25
75
83
87
58
35
21
142
125
100
41
60
79
209
228
228
144
165
174
255
255
255
51
110
126
255
255
255
255
255
255
117
88
61
200
211
196
230
216
201
228
246
236
226
206
187
66
49
52
255
255
255
111
103
88
255
255
255
65
52
44
255
255
255
255
255
255
69
81
71
14
25
31
64
76
75
93
98
84
139
138
123
135
131
113
118
106
88
99
90
68
27
24
42
135
128
138
189
187
195
255
255
255
255
255
255
255
255
255
255
255
255
255
255
255
255
255
255
255
255
255
255
255
255
255
243
218
183
163
141
96
75
49
30
44
60
114
129
151
255
255
255
255
255
255
255
255
255
255
255
255
255
255
255
255
255
255
170
148
123
207
212
219
66
53
45
204
226
243
87
146
217
40
208
255
53
180
255
13
11
18
1
7
4
7
12
9
8
10
9
8
10
9
4
15
10
7
8
5
11
4
3
4
7
7
43
11
9
114
48
12
155
75
14
166
85
10
146
73
9
137
65
14
117
49
17
52
19
7
45
21
14
72
30
8
129
63
17
144
75
21
183
103
47
210
119
55
180
103
36
113
68
15
87
50
23
135
64
29
111
58
12
89
50
9
96
49
24
150
75
27
164
72
26
191
87
29
205
96
22
242
119
25
231
113
32
161
72
31
64
18
14
49
28
11
11
7
9
61
41
6
63
38
10
18
13
7
62
37
12
115
72
24
121
57
21
39
13
12
17
14
7
48
23
11
47
18
5
31
18
2
11
13
6
19
12
2
12
14
11
34
24
7
56
26
7
88
39
7
159
85
19
255
168
50
255
198
69
250
154
58
166
114
43
159
121
43
202
145
53
241
158
60
234
144
51
196
118
34
136
91
33
50
34
20
75
45
13
132
88
22
157
101
27
157
88
25
136
71
16
125
74
19
96
45
11
54
16
10
45
22
10
28
19
7
14
4
5
13
1
10
12
3
7
5
3
4
4
2
2
12
6
4
12
6
3
6
5
1
15
10
3
21
9
8
21
9
8
17
14
10
15
7
7
12
4
6
5
4
4
46
17
3
70
31
8
67
34
8
103
58
13
153
84
33
142
92
44
210
134
64
241
157
75
255
255
255
255
255
255
4
4
4
2
2
2
5
5
5
6
6
6
5
5
5
5
5
5
0
0
0
4
4
4
4
4
4
4
4
4
7
7
7
5
5
5
5
5
5
5
5
5
8
8
9
7
6
9
8
10
5
5
7
1
8
8
2
8
7
2
7
7
5
8
8
6
6
6
4
4
4
4
7
5
6
11
5
8
12
4
8
12
5
8
11
5
8
13
7
9
16
6
9
13
2
6
10
4
7
12
4
8
10
4
7
8
4
5
8
6
7
9
9
9
10
10
10
10
10
10
12
13
12
13
13
13
10
10
10
7
7
7
5
5
5
3
5
4
3
5
4
1
4
2
4
4
4
4
4
4
5
5
5
7
7
5
10
10
4
10
10
2
10
9
9
8
12
2
7
11
5
8
7
15
31
14
41
71
103
255
58
149
255
84
123
187
147
144
145
196
199
189
97
111
110
236
217
217
38
52
61
174
151
162
74
73
72
131
134
142
231
233
235
104
125
133
69
68
60
219
222
215
209
206
192
76
81
88
127
138
143
176
187
188
157
162
156
200
211
204
77
99
100
252
242
234
248
255
253
77
74
70
56
66
68
76
74
74
86
80
85
79
74
69
52
42
22
23
31
54
132
137
154
181
198
206
86
104
114
144
168
166
76
62
66
213
197
197
255
255
254
183
137
91
140
99
55
132
123
91
53
39
29
141
115
112
183
178
169
26
38
40
194
163
140
115
103
60
60
85
105
38
74
58
55
48
59
134
181
166
103
156
168
60
73
101
93
110
117
157
137
128
149
193
188
49
93
100
163
180
181
3
49
63
68
100
97
46
22
24
223
242
244
65
24
31
255
249
240
234
251
245
25
48
55
255
255
255
255
255
245
32
63
88
166
136
106
255
245
244
186
202
215
56
75
95
255
255
228
255
255
245
48
59
69
22
24
49
103
98
108
166
137
135
83
76
85
114
116
136
197
208
214
87
107
107
84
83
73
124
132
122
110
127
124
76
84
87
153
156
137
110
164
199
213
255
255
73
60
57
227
238
245
57
75
97
125
110
89
86
78
59
34
32
41
78
68
60
246
240
219
98
142
141
161
122
100
39
18
10
81
62
61
104
112
100
72
54
42
138
144
147
90
118
115
144
115
105
105
96
97
163
155
144
134
127
117
155
157
152
72
59
47
148
153
139
238
201
154
111
96
82
143
139
146
79
80
87
58
38
36
115
137
124
125
160
196
141
147
148
47
58
71
39
50
40
52
68
69
131
112
103
58
65
62
181
170
159
67
59
51
53
54
42
154
168
169
254
255
255
234
255
255
173
181
197
120
132
144
134
123
114
215
211
202
152
153
155
50
47
25
159
151
128
112
105
96
45
39
25
94
73
64
69
74
80
47
52
50
180
199
208
252
255
255
106
141
164
18
12
7
66
73
91
87
114
141
69
106
142
55
90
131
36
59
89
93
94
84
41
35
37
169
152
132
58
75
83
188
207
208
125
138
137
255
255
255
42
97
101
255
255
255
255
255
255
105
94
89
164
173
174
189
179
177
203
209
208
201
193
180
112
98
90
226
232
216
60
53
48
255
255
247
85
70
58
232
230
210
255
255
255
88
116
135
64
75
102
111
126
143
167
177
178
219
225
215
255
255
255
255
255
255
255
255
255
255
255
255
255
255
255
255
255
255
255
255
255
242
200
156
150
117
84
30
25
27
94
87
84
179
174
178
255
255
255
255
255
255
255
255
255
255
255
255
255
255
255
255
255
255
255
255
255
255
255
255
255
255
231
173
167
148
64
67
57
35
31
23
53
38
3
27
39
49
96
121
132
238
239
230
47
76
89
182
254
255
103
255
255
43
165
255
22
4
10
13
7
5
17
9
5
16
8
6
13
5
7
11
8
9
7
7
9
22
8
7
76
35
9
177
91
21
255
143
32
255
151
37
244
134
45
199
103
41
198
102
39
181
86
29
82
36
17
22
13
8
37
10
1
70
32
12
116
58
19
160
83
21
181
94
15
179
86
20
129
55
20
63
21
2
78
32
26
60
30
10
36
25
12
68
45
14
67
34
8
56
18
4
47
29
11
110
62
15
130
77
21
113
66
19
68
33
9
31
18
10
81
35
14
100
47
13
143
73
18
204
103
23
202
105
24
163
83
15
132
64
10
112
53
14
75
32
1
38
15
3
9
4
17
27
14
13
41
18
10
43
26
8
81
49
9
122
75
14
189
116
31
255
162
49
255
189
62
255
199
68
255
183
64
201
117
43
88
47
15
56
29
4
56
36
3
67
52
17
96
68
27
118
83
38
125
91
37
134
92
37
165
106
53
143
81
23
141
77
15
145
74
17
145
76
19
138
75
23
118
58
14
88
36
7
63
16
6
51
16
9
30
17
3
20
7
7
10
4
3
5
0
2
4
3
4
3
4
4
2
1
4
11
5
6
8
3
6
5
1
1
9
4
8
10
4
7
10
10
10
15
5
4
8
5
3
49
25
2
132
68
13
161
82
18
166
88
21
175
89
18
137
59
18
49
18
2
60
45
21
82
60
21
255
255
255
255
255
255
12
4
6
9
6
7
8
8
8
7
7
7
7
7
7
3
3
3
1
1
1
7
7
7
5
5
5
7
7
7
8
8
8
3
3
3
4
4
4
7
7
7
9
10
9
10
10
10
8
10
8
6
6
6
8
6
6
10
5
5
8
4
2
8
4
5
8
5
7
8
7
3
8
8
2
8
8
0
6
6
2
4
2
5
6
4
5
10
2
4
14
2
2
15
5
1
13
7
5
11
4
3
11
7
7
9
7
5
10
7
3
9
7
0
7
9
0
7
8
3
8
8
6
9
5
1
10
4
1
8
2
3
6
2
4
8
4
2
9
7
4
8
8
7
10
10
10
10
10
10
7
7
5
8
8
1
11
8
2
11
5
3
6
5
9
2
7
4
6
4
7
10
5
17
21
60
124
114
243
255
204
255
255
214
230
252
205
194
178
225
214
186
141
120
100
255
255
255
60
73
80
136
107
111
114
124
119
109
97
73
211
216
197
148
159
161
148
150
150
122
128
115
165
156
140
165
155
149
147
140
132
128
121
117
72
53
49
146
146
136
255
255
255
171
123
101
255
255
255
89
115
113
27
27
19
18
16
7
90
101
104
199
198
202
255
255
255
255
255
255
255
255
255
255
255
255
220
223
229
163
219
226
44
66
84
213
207
191
255
254
234
86
85
53
146
176
144
96
139
123
161
124
120
180
159
156
103
108
99
137
116
107
188
173
144
89
79
59
134
117
109
178
177
161
98
103
81
132
161
145
175
238
245
41
0
29
77
67
75
43
48
52
194
199
191
78
138
145
50
106
117
138
119
109
110
116
111
205
195
185
229
255
255
100
47
35
249
241
227
237
251
246
33
36
57
255
255
246
219
236
231
71
53
62
249
233
215
217
218
223
121
148
159
130
84
59
255
255
255
69
74
73
101
106
105
83
43
33
79
96
114
200
204
227
220
238
255
224
255
255
189
239
255
71
119
146
49
75
99
42
50
66
112
98
65
148
155
125
50
83
75
57
8
12
166
242
255
227
255
255
77
66
73
217
229
255
45
52
54
99
91
90
48
50
37
94
80
79
255
255
255
49
81
86
104
72
64
33
24
24
24
47
41
35
36
35
62
46
41
185
192
181
58
62
50
125
107
91
115
115
118
115
130
131
133
154
157
255
255
246
34
45
68
255
255
245
250
218
182
75
77
79
159
153
154
65
95
131
83
93
118
10
28
65
83
110
143
85
76
65
56
60
67
60
67
60
122
142
153
185
187
185
245
246
247
117
100
68
98
97
97
131
142
149
243
255
255
225
223
233
131
157
175
255
255
255
179
188
203
107
124
128
38
24
15
191
180
166
241
240
245
109
125
155
90
81
66
207
197
174
255
246
224
255
255
236
208
201
197
78
74
73
220
233
245
185
212
240
94
132
165
22
48
64
46
41
47
61
84
100
64
106
131
65
107
141
44
43
48
49
36
27
150
137
119
64
73
78
178
187
188
123
135
130
255
255
255
16
51
63
255
255
255
227
255
255
161
194
221
174
201
218
160
169
171
162
182
188
230
239
242
216
230
225
217
227
216
113
110
106
255
249
239
184
178
171
216
198
181
255
255
255
245
255
255
255
255
255
255
255
255
255
255
232
255
248
200
223
191
149
151
139
106
70
78
75
65
73
95
174
169
182
255
255
255
255
255
255
255
255
255
255
255
255
255
255
255
255
255
255
255
255
255
255
255
255
224
217
187
149
145
119
60
51
27
48
54
73
154
151
160
255
255
255
255
255
255
255
255
255
255
255
255
255
255
255
255
255
255
255
255
255
255
210
181
28
40
51
148
189
195
196
189
191
89
173
240
231
255
255
99
209
255
15
5
4
23
10
5
21
5
1
20
7
4
18
8
6
25
8
9
54
22
9
118
57
16
195
100
22
227
119
27
164
81
15
54
23
5
10
6
6
48
35
21
135
71
17
145
62
15
75
37
21
5
2
2
23
11
4
48
20
4
69
29
3
78
30
14
82
32
15
124
54
10
153
64
14
149
59
15
133
65
31
60
29
10
74
44
25
64
36
15
36
25
14
89
43
7
114
48
7
115
50
8
124
61
14
92
46
12
117
67
21
121
53
12
109
52
5
113
60
9
122
56
14
129
58
13
154
72
12
154
74
7
146
67
7
118
54
11
75
31
4
44
17
11
50
14
8
43
11
3
31
27
5
173
108
30
255
168
52
255
189
64
255
212
86
255
225
92
255
207
80
246
165
62
163
112
42
81
60
19
43
31
10
39
24
17
43
28
24
48
39
33
54
49
37
65
57
31
63
58
28
92
75
21
237
161
66
238
132
46
117
58
14
99
49
11
84
38
7
78
33
1
73
29
3
52
19
4
34
6
5
22
2
1
11
11
3
6
9
7
8
6
5
2
8
7
6
11
7
9
10
8
5
7
2
5
4
8
11
3
0
8
2
4
6
1
2
4
1
6
16
10
4
52
27
4
105
48
5
190
95
15
251
132
24
232
125
18
220
122
22
219
116
33
193
106
32
182
103
31
179
104
39
105
42
24
255
255
255
255
255
255
5
7
5
6
7
6
4
4
4
2
2
2
3
3
3
5
4
7
7
5
11
8
8
8
5
5
5
6
6
6
6
6
6
5
5
5
7
7
7
6
6
6
4
5
2
4
6
0
4
5
2
5
5
5
9
8
8
13
10
10
10
6
6
8
4
2
9
6
4
9
8
4
6
6
2
4
4
4
5
5
5
5
5
3
7
5
2
6
2
4
4
1
6
3
3
5
5
5
5
5
5
4
9
9
7
8
8
5
8
6
4
7
3
4
6
4
3
5
5
3
7
4
7
7
1
4
11
4
1
12
4
0
10
4
1
8
8
5
9
10
7
10
10
6
10
10
2
10
10
2
10
10
2
10
7
2
9
1
2
8
2
4
6
7
6
7
6
4
5
2
2
10
15
21
27
91
151
78
255
255
6
150
255
89
75
58
169
158
147
212
221
217
117
88
87
255
255
247
67
92
99
89
39
32
109
88
79
221
219
201
186
205
200
37
40
58
47
39
23
25
20
18
52
52
37
53
48
31
48
41
43
134
152
156
39
51
56
90
103
107
255
255
255
60
105
123
255
255
255
255
255
255
144
152
136
204
200
199
255
255
255
255
255
255
255
253
227
191
179
149
93
90
75
65
43
48
231
200
172
193
236
233
77
113
121
204
180
171
255
255
229
116
137
109
58
87
96
132
114
91
213
188
179
188
186
177
18
2
13
251
238
228
143
140
118
113
89
65
106
73
42
90
108
91
131
145
121
127
146
140
177
233
243
73
39
29
22
39
34
136
132
134
124
98
84
196
228
224
50
89
101
171
187
184
169
149
145
235
241
230
255
255
255
127
86
64
229
227
206
230
240
246
38
22
21
255
255
255
152
179
188
175
127
96
255
250
239
172
183
189
31
8
20
255
223
197
151
155
136
25
31
23
48
57
69
79
79
75
47
25
29
72
32
23
54
18
13
79
81
88
104
99
104
46
35
20
49
66
86
115
156
181
137
188
218
50
97
136
65
13
27
60
54
50
53
116
134
255
255
255
126
154
171
224
225
242
180
196
209
41
51
71
94
96
78
85
76
87
255
255
255
71
105
115
86
76
69
85
98
103
3
10
9
33
32
37
172
176
173
106
114
87
27
39
37
10
12
6
115
116
117
201
198
194
97
119
126
225
229
208
123
129
112
242
230
201
207
181
145
63
52
56
125
112
103
119
115
100
137
120
94
112
137
165
12
27
52
15
17
60
68
69
82
28
42
64
112
132
146
31
34
44
130
151
170
87
91
122
36
47
49
218
236
233
173
192
198
101
95
92
65
53
46
255
255
255
233
241
255
108
113
112
71
73
80
20
31
52
148
142
131
255
255
255
237
255
255
112
133
143
98
97
96
93
103
113
76
90
81
150
144
138
45
54
47
171
170
184
192
206
231
92
118
143
38
65
92
5
17
37
31
43
41
64
96
116
21
48
77
28
53
83
132
140
150
39
39
34
144
141
148
107
110
113
255
255
255
79
89
105
253
255
255
90
133
135
157
192
196
164
196
187
92
114
101
75
107
95
168
187
169
216
232
209
184
191
179
113
120
112
200
204
190
220
226
207
144
148
136
198
249
255
255
255
255
149
147
163
182
187
194
255
255
255
255
255
255
255
255
255
255
255
255
255
255
255
255
255
255
255
255
255
255
255
238
187
162
144
106
83
60
37
50
62
101
122
144
216
223
224
255
255
255
255
255
255
255
255
255
255
255
255
255
255
255
255
255
255
255
255
255
255
255
255
235
211
168
101
79
49
62
68
84
175
177
186
255
255
254
255
241
207
215
166
125
52
41
36
19
32
30
214
244
255
146
84
58
182
255
255
176
255
255
14
22
22
10
4
4
8
4
4
11
6
7
16
10
6
46
22
6
89
44
14
138
67
14
152
75
14
80
37
5
90
57
24
195
110
29
196
104
31
147
72
25
154
75
17
133
59
17
62
35
17
20
11
5
27
12
2
32
13
11
21
8
12
24
12
8
5
9
4
31
15
6
84
45
11
111
52
9
89
39
20
79
43
20
114
60
26
26
25
16
90
52
14
26
13
8
61
34
9
76
42
27
89
49
24
36
31
24
133
77
13
129
59
5
110
54
8
97
48
5
69
28
5
27
9
11
40
10
8
46
14
5
45
17
8
33
15
8
25
4
4
20
4
8
25
8
1
64
32
15
200
128
43
255
214
80
255
215
84
255
194
85
247
168
79
186
129
60
141
102
54
115
90
51
97
80
46
85
69
41
73
61
37
62
57
37
52
52
34
46
46
26
46
41
18
51
36
21
46
31
19
80
72
24
240
172
69
255
164
48
117
45
9
52
25
11
49
17
6
29
8
0
21
8
1
17
7
2
14
1
4
9
2
7
4
8
3
10
11
5
18
8
0
22
5
2
19
7
8
15
5
5
15
3
4
15
3
3
11
4
3
10
3
1
4
5
6
54
34
1
154
86
17
234
125
30
255
142
43
255
148
50
232
125
34
155
94
22
123
81
26
100
63
28
66
49
19
83
62
12
158
101
22
177
91
34
255
255
255
255
255
255
6
5
4
2
3
2
0
0
0
2
2
2
3
3
3
3
3
5
4
4
4
5
7
4
5
5
2
5
5
2
5
5
3
7
7
7
10
6
7
12
3
5
13
0
5
9
4
6
4
4
2
3
3
5
3
3
7
5
5
5
7
7
1
8
8
8
8
7
11
9
6
8
10
6
6
10
6
6
11
8
8
11
10
10
9
9
9
8
8
8
7
7
7
5
5
5
4
4
4
3
3
3
7
7
7
6
6
6
4
2
3
6
4
3
8
6
5
7
7
7
9
9
8
11
7
8
10
8
9
11
9
10
11
9
10
10
15
13
9
11
11
6
6
4
4
4
2
6
4
3
10
4
1
13
5
7
13
7
10
9
7
8
8
8
3
14
11
5
19
13
8
36
3
20
68
83
174
149
239
255
168
196
255
104
84
70
60
34
11
182
175
159
100
57
44
255
230
204
36
69
74
86
36
10
69
77
92
221
232
244
170
197
203
90
59
37
91
86
80
84
79
72
85
78
60
88
70
48
155
146
147
108
123
141
110
100
104
115
143
158
255
255
224
255
255
255
181
143
130
255
255
255
180
173
143
141
123
117
176
135
123
84
63
62
14
46
51
50
29
22
24
21
38
52
22
38
215
181
160
208
238
241
68
95
100
210
169
166
240
215
184
149
168
140
128
112
95
203
191
169
174
158
145
130
136
115
134
117
128
255
255
250
101
84
85
74
43
70
70
89
97
198
193
178
124
123
117
160
177
180
129
168
190
61
57
54
20
62
65
112
124
124
30
58
83
216
225
222
80
137
155
46
94
95
220
231
221
232
237
216
243
255
255
160
127
102
228
226
204
225
228
239
62
48
35
255
255
255
38
54
61
255
238
227
212
213
209
101
127
135
210
166
149
236
232
219
64
100
112
77
101
118
23
21
41
156
135
141
255
253
255
255
255
255
255
255
255
255
255
255
255
255
255
255
255
255
226
255
255
112
139
164
71
82
68
204
245
244
140
216
231
59
110
132
66
37
33
198
242
255
255
255
255
44
52
79
164
169
178
51
45
23
115
105
87
87
89
110
255
255
255
140
171
168
91
86
77
133
152
151
63
64
67
169
164
163
172
147
106
66
38
53
39
36
57
89
84
78
35
29
42
150
151
141
131
128
128
46
49
41
93
90
63
170
152
138
251
229
215
124
111
111
144
150
156
107
104
104
48
3
43
138
152
165
30
26
33
53
72
103
87
87
81
86
97
116
134
151
163
64
66
75
85
107
118
90
110
141
58
58
73
215
218
216
100
108
106
54
54
55
128
115
111
122
137
155
255
255
255
122
128
128
95
96
97
46
72
100
9
8
27
86
84
88
194
190
200
255
255
255
255
255
255
255
255
255
255
232
220
117
102
113
84
73
84
66
68
73
196
205
213
150
157
165
142
172
198
116
167
204
43
81
106
32
37
36
35
41
53
13
27
52
82
96
118
45
56
82
85
78
76
64
57
54
204
201
195
233
232
224
224
233
212
110
110
105
118
108
120
98
96
103
78
84
82
75
73
80
59
62
75
43
48
56
37
44
47
51
57
63
53
52
69
71
79
83
48
51
56
133
168
183
255
255
255
255
255
255
255
255
234
222
217
177
143
125
78
53
34
47
58
85
124
148
161
191
230
239
254
255
255
255
255
255
255
255
255
255
255
255
255
255
255
255
255
255
255
255
255
255
247
237
208
133
128
105
26
24
2
71
67
94
176
173
195
255
255
255
255
255
255
255
255
255
255
255
255
255
255
255
255
255
255
255
255
255
238
191
172
206
163
143
125
98
100
32
36
38
15
14
15
60
87
101
247
235
215
76
223
255
202
255
255
50
66
74
4
5
7
6
2
5
10
3
3
10
6
7
41
13
2
62
24
8
97
50
11
104
56
10
82
42
11
128
69
23
93
42
6
57
28
12
34
14
13
63
36
8
99
48
15
89
43
20
41
22
12
27
17
11
18
9
7
9
4
8
8
7
14
28
10
9
29
14
8
8
2
0
21
10
4
36
13
18
74
35
18
104
53
14
67
35
17
31
27
7
133
89
29
211
132
52
255
173
72
255
170
68
234
155
68
224
136
39
109
45
6
60
20
8
49
15
3
28
7
1
12
7
6
14
4
0
10
3
7
8
8
8
11
12
8
13
10
3
5
10
3
53
28
13
197
115
44
255
204
73
255
194
69
178
115
46
98
77
36
78
65
29
57
51
22
61
50
22
78
57
32
87
63
41
91
67
49
89
68
51
80
65
46
68
56
36
51
42
21
29
31
16
33
37
17
54
37
22
82
66
33
183
136
46
255
171
47
205
92
24
44
19
10
9
5
6
5
4
2
7
2
3
10
8
6
9
4
2
6
0
5
10
5
8
8
8
11
5
5
7
10
2
3
17
5
7
20
2
9
17
5
8
20
7
5
25
7
3
15
8
6
55
34
3
183
101
24
255
136
34
242
122
23
208
111
25
159
91
25
92
53
16
45
25
15
22
9
15
6
8
3
27
18
23
48
44
21
111
74
7
188
113
30
255
255
255
255
255
255
4
4
4
3
3
3
0
0
2
3
3
5
4
4
7
1
2
11
3
4
13
5
7
7
5
5
2
5
5
4
5
5
7
10
5
8
13
2
3
15
4
2
15
8
1
14
8
2
5
5
7
3
3
5
3
3
7
2
2
6
6
6
6
8
8
8
7
6
6
7
4
4
10
6
6
11
7
7
8
5
5
5
4
4
4
4
4
4
4
4
5
5
5
7
7
7
6
6
6
4
4
4
6
6
6
8
8
8
9
9
9
11
9
10
12
8
9
12
5
8
11
4
7
9
5
7
7
7
7
8
8
8
8
6
7
7
9
7
4
2
3
3
1
2
3
3
1
5
2
3
11
2
7
13
7
10
12
10
11
11
12
9
9
13
11
11
12
12
17
11
19
24
37
71
20
171
255
43
149
255
64
133
209
129
138
137
162
158
143
171
179
168
120
86
77
220
210
193
27
55
52
98
100
110
192
206
204
255
255
255
255
255
255
38
66
80
73
52
16
84
87
107
190
179
195
255
253
255
234
238
233
35
41
31
178
164
173
41
88
108
255
224
201
255
255
255
101
66
61
222
230
230
180
164
155
36
14
36
212
160
149
76
94
79
33
56
54
54
46
24
38
31
39
71
34
32
219
192
174
223
255
247
46
70
74
244
198
181
219
199
176
54
93
87
95
84
70
175
168
157
143
134
127
33
43
27
230
216
215
244
237
200
77
60
50
92
129
165
255
255
255
241
225
197
135
116
111
212
247
255
26
48
76
108
124
125
82
127
138
78
124
134
124
145
160
103
98
88
197
226
255
32
60
67
58
100
97
134
149
134
130
181
181
188
165
145
228
228
208
185
191
191
107
97
95
255
255
255
160
140
141
255
255
255
146
173
172
53
12
12
255
255
253
133
157
153
51
31
33
181
169
176
255
255
255
255
255
255
185
223
211
103
140
138
34
79
87
7
65
83
42
95
124
114
166
203
182
249
255
255
255
255
255
255
255
142
179
221
117
110
89
219
255
255
120
168
177
85
92
92
255
255
255
255
255
255
197
225
234
67
91
112
37
30
52
255
255
255
255
255
255
108
127
115
111
107
103
119
134
126
80
83
87
149
139
130
47
34
60
75
73
85
136
87
68
56
64
77
145
146
145
124
127
137
142
124
110
150
140
126
144
138
126
160
142
127
223
206
185
220
211
208
79
83
92
151
119
87
60
65
74
148
148
146
44
47
62
66
88
127
22
35
48
90
103
123
151
157
168
66
72
86
75
83
84
84
110
131
115
120
145
195
181
185
109
108
102
79
68
72
68
69
60
27
17
15
255
255
255
177
180
182
107
108
107
64
88
117
14
7
21
23
29
38
39
27
54
55
32
43
90
53
35
26
31
27
128
120
96
196
195
181
50
44
34
48
43
41
99
112
118
103
110
120
172
177
180
206
221
232
134
158
178
47
75
103
19
8
34
51
49
46
97
108
120
114
130
154
47
76
100
23
44
55
61
74
69
45
50
34
126
146
144
76
96
128
141
146
150
178
179
177
147
145
125
131
120
98
152
129
102
173
143
116
169
147
131
166
156
148
163
155
147
148
144
128
91
83
69
89
132
150
180
203
223
244
228
233
255
255
255
255
255
255
255
255
255
255
255
255
255
255
255
255
255
255
255
255
255
200
200
183
74
71
69
55
59
50
156
154
147
237
223
222
255
255
255
255
255
255
255
255
255
255
255
255
255
255
255
255
255
255
255
255
255
253
232
194
155
134
91
61
44
8
34
52
79
123
139
171
247
252
255
255
255
255
255
255
255
255
255
255
187
141
110
29
34
34
33
31
31
25
32
44
120
136
132
149
161
255
158
255
255
69
93
104
6
8
11
7
1
3
4
2
2
20
5
6
55
18
5
67
28
11
69
31
5
56
31
5
65
33
6
50
27
10
41
27
15
56
27
5
17
8
12
24
13
9
68
38
21
98
53
26
55
30
20
27
17
5
29
10
1
14
4
2
25
2
11
18
2
17
24
10
12
33
26
11
149
86
28
241
139
49
252
145
54
221
127
48
228
140
59
255
192
81
255
226
89
255
213
80
255
170
62
177
116
47
234
161
69
255
210
74
238
121
36
80
27
3
22
4
1
9
2
10
1
0
7
2
2
3
6
2
7
24
14
7
63
36
17
110
57
17
165
83
22
220
117
32
255
165
49
255
179
60
181
109
32
64
47
22
23
18
8
26
16
8
19
15
10
6
5
7
8
8
8
10
13
5
13
17
5
14
18
2
15
18
4
19
21
13
33
23
24
41
43
21
61
55
22
71
48
39
74
58
35
122
96
27
248
145
40
242
107
34
78
26
9
13
6
8
6
4
4
8
2
1
4
4
5
9
10
17
10
5
15
13
1
10
17
7
4
36
18
4
52
28
2
49
26
2
29
18
3
13
14
5
22
12
8
27
9
2
46
15
10
107
55
17
185
94
26
149
74
9
87
41
7
53
33
14
16
16
8
5
4
15
21
19
8
19
21
10
15
10
13
17
13
15
35
32
18
72
54
21
126
86
22
255
255
255
255
255
255
5
5
7
5
5
5
4
4
5
5
5
4
5
5
5
5
5
4
5
5
7
5
5
12
5
5
5
4
4
1
4
4
6
7
4
7
6
5
7
10
8
4
4
11
1
14
9
0
9
9
5
9
9
7
6
6
6
5
5
5
6
6
11
6
6
10
6
6
6
6
6
6
7
7
7
7
7
7
8
5
5
4
4
4
4
4
4
4
4
4
7
5
5
9
6
6
8
5
5
6
5
5
7
7
7
7
7
7
6
6
6
7
7
7
8
6
7
9
4
6
9
3
6
8
5
7
7
7
7
6
6
6
7
5
6
7
3
4
7
2
1
7
5
2
8
8
6
8
7
7
11
6
8
10
11
7
7
10
2
7
11
5
7
9
5
10
4
13
11
9
14
9
44
82
10
192
255
72
82
255
119
130
153
104
133
131
50
66
92
126
143
147
166
120
114
196
196
178
29
37
32
109
146
168
48
104
125
255
255
255
255
255
255
92
125
114
198
176
169
255
255
255
255
255
255
245
214
199
89
77
74
165
138
151
137
143
147
78
30
19
255
210
180
255
255
255
15
67
72
197
200
203
194
192
190
96
95
80
181
153
152
144
136
113
20
21
33
76
75
53
9
3
12
90
43
35
221
205
176
205
236
222
10
12
40
255
222
192
246
224
211
63
69
70
167
137
134
127
119
117
68
64
56
146
135
138
239
204
189
164
153
110
48
43
17
209
228
238
247
254
250
104
120
140
255
255
255
188
227
255
82
105
103
73
107
125
74
98
108
32
102
130
92
124
158
74
83
110
206
204
215
96
130
155
102
45
32
72
76
64
73
82
76
191
178
157
192
196
181
95
94
79
242
235
224
104
119
112
187
188
187
190
207
211
34
80
76
238
188
188
222
228
214
82
66
65
220
237
240
226
255
255
110
155
162
31
21
21
81
41
47
72
42
41
40
12
6
25
8
13
38
8
7
62
47
44
71
48
47
64
54
60
75
139
174
251
255
255
239
255
255
51
43
41
218
240
244
122
129
132
107
124
139
213
231
237
165
171
176
120
137
130
118
133
152
255
255
255
213
218
183
34
41
36
101
108
100
83
90
89
117
119
117
182
174
157
107
84
81
31
23
32
176
165
182
222
234
241
54
59
61
85
87
87
16
8
4
63
69
64
40
53
43
137
125
113
89
90
86
82
89
96
131
125
124
146
121
99
43
66
89
127
125
127
11
40
75
95
122
161
26
37
48
107
124
141
143
154
168
90
101
120
58
65
75
89
113
142
203
210
216
175
157
143
57
48
55
31
25
26
23
23
32
102
95
84
198
211
222
242
245
243
102
102
103
110
127
155
49
61
79
11
11
21
29
26
38
42
11
27
38
23
24
21
35
45
14
11
29
127
138
130
173
157
152
153
149
150
170
169
169
119
123
128
68
65
66
144
144
152
145
148
153
150
173
201
102
146
196
32
67
101
14
10
23
38
58
58
70
94
107
57
93
99
60
96
97
17
25
46
119
144
140
102
117
145
66
63
76
25
29
53
82
77
76
58
42
27
57
44
40
73
48
38
72
28
20
39
40
55
34
16
30
6
31
61
86
129
160
151
186
205
255
255
255
255
255
234
190
168
137
98
77
54
46
50
78
180
187
198
255
255
255
255
255
255
255
255
255
255
255
255
255
255
255
255
255
255
255
255
255
255
232
203
202
183
159
106
92
73
44
49
58
104
113
127
193
197
205
255
254
255
255
255
255
255
255
255
255
255
255
255
255
255
255
255
255
255
255
255
255
255
255
244
199
173
106
47
28
154
141
101
255
221
167
61
41
31
44
39
36
17
7
4
31
27
22
60
147
255
119
255
255
48
72
83
7
10
16
12
7
4
13
7
2
34
12
5
97
42
15
127
64
17
98
53
18
36
20
10
43
25
7
29
16
6
38
16
4
36
17
11
45
19
12
48
21
9
65
30
12
111
45
22
73
31
18
31
20
4
17
7
7
17
4
7
2
5
2
8
7
7
62
42
2
226
138
37
255
222
78
255
239
85
255
241
87
255
255
105
255
255
117
255
242
112
255
189
86
206
133
57
123
71
31
50
28
17
113
82
32
255
192
69
255
186
67
164
69
10
26
16
5
73
29
14
75
28
7
40
14
5
7
5
9
42
28
7
108
59
17
184
95
35
254
127
42
255
141
31
252
142
37
188
114
37
97
56
25
47
42
21
31
39
19
29
32
15
33
36
22
41
37
26
49
36
27
60
44
36
66
51
40
68
55
38
76
64
44
84
73
50
82
73
47
77
70
39
79
59
35
69
43
38
58
44
23
104
81
22
238
138
36
236
111
22
76
31
11
3
5
2
12
11
2
87
52
15
199
117
43
255
174
76
255
161
76
180
86
29
88
33
3
147
71
10
181
95
19
187
102
18
191
107
24
226
136
44
255
175
69
255
193
82
255
161
71
171
89
38
117
65
14
131
72
18
133
94
54
106
91
57
81
76
51
72
64
42
62
54
35
40
44
24
30
38
16
42
39
22
59
46
32
70
54
32
82
64
29
255
255
255
255
255
255
13
7
8
10
5
5
7
4
1
7
7
4
5
5
5
4
4
6
4
4
6
5
5
6
7
7
8
5
5
5
8
8
8
5
8
7
3
7
3
13
3
3
2
6
4
11
2
5
5
5
5
7
7
7
8
8
8
7
7
7
5
5
7
5
5
7
7
7
1
7
7
1
5
5
4
5
5
4
9
8
3
7
10
1
6
10
2
6
10
2
7
7
4
4
1
8
6
2
9
3
7
7
5
8
5
4
8
4
4
8
4
5
8
5
3
7
5
2
6
6
4
7
5
4
7
5
4
7
7
3
7
5
5
9
3
6
10
2
8
9
3
12
8
8
12
4
8
9
4
4
12
10
5
9
14
3
5
10
3
4
7
2
6
5
3
12
7
10
10
11
12
35
26
36
57
164
255
3
159
255
169
187
207
33
58
43
45
48
55
117
126
132
205
151
139
147
155
139
35
40
45
130
155
185
25
59
82
255
255
255
255
247
247
73
73
60
255
255
235
252
230
190
37
31
8
81
73
92
171
151
158
161
151
162
49
42
44
41
52
68
209
134
95
255
255
255
237
255
246
123
109
114
164
169
177
155
143
115
64
58
79
201
186
160
63
60
59
104
87
80
99
96
91
127
92
78
216
214
185
192
209
213
72
46
15
255
255
237
184
174
164
89
62
68
202
170
164
125
115
110
55
48
53
235
191
182
131
70
54
97
128
118
43
74
64
182
187
183
252
255
255
255
255
255
237
255
255
4
28
44
50
83
83
89
135
133
107
135
125
48
62
65
35
44
69
168
181
209
64
55
47
230
236
249
46
34
53
101
95
85
34
24
34
144
128
124
167
173
169
103
92
88
157
180
177
149
130
125
186
195
191
115
135
142
132
96
86
236
220
214
95
65
74
242
230
246
138
168
188
16
37
57
97
46
24
64
33
11
7
4
24
8
3
11
7
16
25
12
21
38
18
19
34
44
37
28
65
48
45
34
41
41
41
21
23
38
52
79
154
221
249
178
227
253
24
26
17
188
214
227
185
200
209
5
18
26
169
196
226
98
85
87
62
70
90
187
190
182
216
225
187
51
42
45
134
139
127
114
111
106
153
139
134
188
178
154
93
84
77
135
168
189
194
219
242
137
128
119
158
167
173
115
118
119
146
137
132
225
218
209
255
245
232
192
179
166
99
100
115
4
2
15
178
170
169
142
136
132
26
21
23
122
130
132
71
75
69
98
112
143
50
40
40
126
124
123
185
190
198
171
177
183
139
144
156
126
136
148
168
169
158
118
114
120
103
104
123
65
65
80
70
67
79
112
115
102
90
102
114
255
255
255
100
100
104
177
182
198
236
245
255
168
174
173
54
45
47
25
12
42
18
4
29
15
32
50
13
19
45
96
96
85
216
196
194
175
170
177
31
46
48
149
150
154
148
145
138
89
82
79
35
45
60
136
148
161
193
222
253
127
165
202
60
80
120
19
35
51
47
50
53
100
109
131
169
198
218
190
225
239
98
127
132
35
39
48
110
122
147
76
78
71
52
73
78
112
101
82
97
108
104
80
72
71
131
126
123
112
113
110
146
144
146
234
251
255
255
255
255
130
144
170
225
222
205
255
255
255
255
255
255
255
255
255
255
255
255
255
255
234
220
211
182
146
134
109
45
43
37
57
63
74
148
151
157
240
242
241
255
255
255
255
255
255
255
255
255
255
255
255
255
255
255
255
255
255
255
255
255
237
206
187
142
114
95
46
30
18
85
94
116
221
227
246
255
255
255
255
255
255
255
255
255
255
255
255
255
255
255
255
255
255
232
180
148
77
72
69
33
44
50
13
24
25
74
74
47
72
204
255
72
242
255
10
36
54
15
13
19
15
9
7
9
8
6
28
10
13
94
35
10
117
51
9
70
36
18
104
52
12
81
30
5
74
29
6
88
42
7
97
49
10
89
45
10
95
47
10
96
45
11
50
20
7
47
22
13
34
23
4
30
13
5
33
10
10
24
8
3
89
45
2
252
141
35
255
226
89
255
205
82
222
139
52
162
112
36
167
122
46
162
118
55
114
78
32
58
35
22
46
30
19
44
36
12
47
32
27
56
45
29
194
143
45
255
196
68
197
82
24
67
43
18
125
58
17
113
57
18
86
37
7
49
27
10
70
38
5
159
86
31
187
87
23
160
73
5
132
75
13
110
74
29
76
49
16
49
28
19
48
37
21
52
47
29
52
47
34
57
50
35
57
55
31
58
62
30
73
71
40
89
81
50
101
93
58
112
101
66
115
98
64
107
85
56
97
75
49
96
71
42
90
64
33
75
53
15
102
79
24
238
143
39
217
104
15
41
14
4
128
97
31
255
201
83
255
255
141
255
255
182
255
255
197
255
255
181
255
255
124
255
151
53
255
197
77
255
200
85
255
201
79
255
216
78
255
233
85
255
245
97
255
255
103
255
255
102
255
242
97
255
187
77
255
169
82
233
164
87
146
114
64
114
102
67
118
101
69
111
90
57
80
64
38
53
47
23
60
48
22
69
61
23
79
74
29
90
78
42
255
255
255
255
255
255
13
7
7
9
5
3
9
5
3
9
6
5
6
4
4
3
3
3
2
2
4
8
4
8
12
6
7
13
7
3
15
7
8
15
2
5
16
4
6
12
3
3
3
6
3
9
3
1
0
0
0
1
1
1
4
4
4
5
5
5
3
3
1
2
2
5
2
2
6
2
2
6
1
1
7
1
1
7
5
3
5
7
4
4
8
4
4
8
4
4
6
4
5
3
4
5
5
9
2
5
11
4
2
6
6
1
5
7
4
7
5
7
10
5
6
10
2
4
8
4
3
5
7
2
4
8
4
5
8
3
5
7
3
7
5
4
8
4
5
7
7
7
5
8
8
4
4
8
6
4
11
12
4
7
10
3
4
5
2
5
5
5
8
8
8
12
13
10
10
17
7
52
15
15
45
129
255
88
225
255
198
239
255
82
58
61
63
75
78
60
78
72
201
141
114
82
98
86
60
61
74
140
163
185
57
34
19
249
240
241
238
227
224
29
7
18
255
255
244
128
117
87
60
65
50
107
77
64
162
139
140
88
97
102
70
70
73
60
46
35
127
131
129
255
249
216
255
255
255
18
51
54
136
131
144
181
160
132
83
69
28
181
151
142
182
161
151
36
21
20
76
30
14
178
143
122
218
226
206
187
200
214
140
104
74
255
255
255
70
95
93
147
127
124
161
138
123
45
41
36
188
162
151
193
124
101
58
9
23
94
122
105
44
86
98
89
86
74
86
104
116
121
139
135
53
74
101
65
55
62
32
33
46
62
14
31
69
17
30
34
10
25
54
30
27
91
96
104
96
107
133
201
190
180
96
127
151
140
123
116
49
75
82
159
151
150
205
218
211
94
97
111
87
86
80
242
235
232
145
157
169
44
45
30
189
166
149
69
58
71
211
203
224
82
113
144
66
15
7
70
32
20
15
29
31
57
49
40
30
17
16
8
37
37
12
29
26
30
31
30
50
34
36
46
43
30
45
31
23
69
49
35
65
58
49
19
26
38
58
71
87
123
185
217
115
166
194
74
70
73
227
255
255
157
175
206
153
179
214
51
58
78
17
14
52
200
190
182
164
174
142
42
35
29
112
110
98
56
75
71
108
112
120
142
141
124
52
47
42
164
196
220
77
102
125
212
204
196
229
232
221
123
139
141
156
165
168
197
197
191
211
213
198
200
208
194
191
202
213
102
111
130
133
113
102
151
137
128
81
91
98
37
34
30
64
68
80
52
62
84
108
130
160
27
24
33
133
139
153
68
67
63
144
145
153
148
146
144
80
67
62
58
72
67
113
120
125
146
145
166
83
82
89
72
78
73
19
22
27
225
227
219
53
51
41
38
41
46
30
25
34
196
200
197
255
255
254
240
226
219
188
182
180
142
157
164
79
108
130
34
24
15
121
104
94
213
212
221
255
255
255
140
149
163
46
47
45
49
45
44
53
63
77
64
74
82
138
149
164
162
182
200
127
161
191
121
163
203
71
90
113
87
75
68
95
87
75
63
65
58
59
63
75
60
69
83
33
31
43
142
153
154
40
50
56
180
154
130
116
144
148
123
86
73
189
196
183
103
77
65
104
106
107
242
255
255
136
139
128
236
236
239
31
18
34
137
129
113
67
78
85
142
157
159
255
255
253
255
255
255
255
255
255
255
255
255
255
255
255
255
255
255
255
255
255
255
250
227
171
147
126
57
40
24
51
71
96
147
154
174
254
250
255
255
255
255
255
255
255
255
255
255
255
255
255
255
255
255
255
255
255
255
255
255
255
255
240
198
184
171
107
94
79
24
31
46
94
132
144
162
172
183
67
45
70
22
34
40
42
30
28
14
21
13
50
72
53
40
121
255
94
255
255
37
64
91
11
11
19
14
8
7
17
5
5
7
4
1
59
21
3
123
49
5
145
63
12
125
50
1
78
24
7
63
22
7
55
23
11
24
12
9
21
10
2
43
25
7
75
42
7
163
83
20
212
100
28
221
107
23
215
112
22
171
86
23
85
32
5
188
105
32
255
193
69
255
173
72
147
90
31
56
41
8
40
29
10
32
26
23
16
10
15
25
24
21
37
33
33
30
24
21
47
34
18
79
58
39
116
87
40
223
154
41
255
175
54
164
62
21
101
51
17
106
40
4
90
52
21
87
42
12
66
26
8
112
50
12
167
88
21
172
83
23
100
48
8
52
40
13
60
47
23
51
41
21
35
31
23
31
28
22
40
36
27
47
43
33
55
44
29
64
51
27
79
66
36
95
78
43
107
91
49
120
101
60
121
93
57
111
77
44
111
72
36
123
80
33
126
86
30
100
74
25
91
68
22
139
89
26
198
109
30
135
75
29
255
207
101
255
255
168
255
255
192
255
255
174
255
255
134
255
188
91
255
233
118
255
255
163
255
255
141
255
242
107
245
166
74
226
150
66
220
145
60
186
116
43
131
75
26
93
52
14
133
93
29
225
165
69
250
177
67
212
145
55
145
109
49
65
50
29
53
40
23
45
39
21
55
55
41
75
55
41
83
62
46
94
78
53
98
92
51
94
91
46
82
71
38
255
255
255
255
255
255
7
7
7
5
2
3
7
4
3
9
9
7
11
5
4
13
1
5
13
1
7
12
2
7
14
8
1
11
9
4
10
3
11
8
1
10
8
2
2
7
4
5
8
7
3
8
7
1
6
6
2
4
4
4
2
2
6
3
3
4
4
4
2
1
1
1
3
3
3
1
1
1
2
2
2
1
1
1
1
1
0
3
3
0
4
4
0
5
3
1
5
1
3
4
8
6
6
13
9
7
9
8
5
5
5
4
4
4
2
2
2
6
6
6
3
3
3
6
6
6
5
5
5
5
5
5
7
7
7
4
4
4
2
2
2
4
4
4
6
6
8
7
7
7
8
11
2
9
12
3
8
9
5
5
5
5
5
5
5
7
7
5
12
7
5
13
8
11
8
12
13
63
6
30
85
111
255
131
229
255
255
255
255
68
37
45
86
97
94
13
52
55
197
153
130
43
68
55
11
48
61
110
134
138
119
96
100
255
250
231
231
223
214
78
36
33
255
255
237
86
94
71
74
64
41
118
88
76
182
177
184
6
33
35
164
162
161
161
144
132
255
247
216
225
181
150
255
255
255
115
137
113
106
101
109
172
156
143
177
146
107
94
81
94
230
201
188
96
88
89
40
55
66
180
139
122
227
234
221
178
196
206
191
155
136
255
255
255
122
97
105
202
196
187
79
72
56
97
87
84
244
200
170
134
91
62
97
115
95
67
117
111
73
44
48
162
150
156
159
152
162
171
174
169
136
150
157
59
71
77
32
14
12
67
62
59
45
64
69
57
41
23
97
77
55
92
82
64
175
178
183
73
54
41
169
178
188
96
91
96
72
79
82
79
72
85
167
170
172
77
84
92
117
114
110
170
184
195
33
20
36
144
111
104
37
15
18
117
129
134
43
79
91
93
26
17
45
9
5
64
68
64
65
44
37
24
32
36
23
11
9
99
101
111
130
151
160
129
158
158
133
159
154
138
172
157
103
137
125
86
103
90
93
90
73
77
69
63
57
57
63
61
87
109
91
156
186
21
82
103
122
116
117
221
239
255
255
255
255
214
224
241
102
127
163
228
231
235
85
102
91
58
40
37
77
65
59
10
9
5
85
86
82
142
130
100
77
66
52
150
181
201
147
159
166
243
232
212
172
168
161
38
50
71
81
87
83
112
99
80
81
70
60
43
39
29
181
180
183
130
132
144
101
85
80
110
87
74
45
41
29
79
92
97
18
22
28
62
68
74
112
124
138
29
20
19
116
121
126
43
38
33
84
91
92
48
48
42
40
48
43
52
51
57
57
60
38
130
131
141
73
71
74
42
44
51
68
58
53
204
205
200
152
157
153
167
175
191
232
234
235
161
163
169
31
38
51
164
159
139
212
191
163
227
202
180
255
241
232
201
185
185
74
70
83
14
15
19
97
107
108
196
200
198
168
169
160
68
67
64
58
73
92
143
153
166
61
72
80
98
108
115
128
159
163
204
253
255
202
248
255
107
126
155
56
84
121
97
119
144
40
67
87
29
33
37
42
64
81
137
128
110
91
92
100
202
174
153
132
153
157
150
132
122
135
135
111
255
233
213
152
137
137
193
214
225
49
54
67
211
217
197
238
245
240
255
255
255
255
255
255
255
255
255
243
215
182
112
89
59
21
40
73
130
135
148
214
217
228
255
255
255
255
255
255
255
255
255
255
255
255
255
255
255
255
255
255
255
255
255
252
233
211
163
148
123
70
66
57
56
61
65
81
90
103
151
161
166
234
235
229
255
255
255
255
255
255
255
255
255
255
255
255
255
255
255
255
255
255
255
255
255
255
255
243
68
28
22
41
50
63
44
36
36
18
26
32
53
129
255
107
234
255
63
85
119
21
13
14
10
3
8
10
5
5
10
4
5
4
2
6
20
5
4
36
11
8
29
10
2
19
8
3
25
4
12
78
35
6
111
56
16
122
64
16
139
72
18
189
94
20
209
104
25
181
92
22
211
111
30
231
125
29
255
145
38
192
93
17
218
131
41
255
169
55
178
101
37
53
45
22
26
27
12
31
21
4
24
23
21
36
33
27
43
42
36
36
34
24
33
25
10
52
44
24
129
98
51
226
150
56
255
165
47
241
113
31
83
28
12
114
51
16
89
32
7
84
42
18
67
31
4
74
38
4
134
75
14
158
83
19
144
77
22
75
46
18
26
15
5
39
25
9
68
48
15
78
52
21
65
48
23
52
43
14
56
44
12
79
58
22
108
79
37
130
94
49
132
98
45
128
96
38
122
85
31
113
75
21
110
74
23
116
76
26
114
72
20
90
52
17
55
28
9
49
22
2
46
39
36
202
169
97
255
255
138
255
255
149
255
238
97
186
96
24
83
63
43
60
61
59
110
108
88
111
89
67
102
79
38
184
129
61
136
81
39
69
44
24
52
41
7
41
31
2
31
20
5
28
19
10
31
27
13
36
31
15
45
30
21
78
62
39
88
71
38
67
55
24
53
39
17
54
38
11
61
47
18
80
71
43
106
91
59
115
96
65
113
91
66
97
78
56
74
57
41
46
43
25
255
255
255
255
255
255
7
8
7
2
8
4
4
9
8
7
5
5
7
5
5
7
5
8
4
2
6
4
4
1
13
13
4
5
8
2
4
4
10
5
5
5
5
5
7
4
6
7
9
8
4
6
5
5
2
2
4
3
3
1
1
1
3
3
5
8
1
5
5
5
7
4
2
2
2
6
6
6
4
4
4
4
4
4
1
1
1
0
2
1
0
6
3
1
7
3
1
5
2
2
6
4
4
4
3
5
1
2
5
3
4
4
4
4
7
5
4
10
7
3
6
5
5
4
4
2
5
5
5
7
7
7
7
7
7
6
4
5
6
0
3
10
6
7
11
3
9
11
7
6
7
9
3
3
9
2
5
9
4
8
6
4
11
5
5
15
5
0
18
5
4
14
8
10
11
12
8
69
7
56
90
109
255
142
239
255
250
255
255
74
49
57
52
64
66
26
23
36
199
170
145
37
60
59
2
32
45
90
98
97
188
186
192
255
255
245
215
207
209
137
89
87
255
255
255
19
49
37
106
89
63
129
110
113
144
162
177
160
117
106
255
255
255
166
155
131
183
173
149
193
170
137
254
238
218
116
146
130
50
54
65
168
176
179
186
164
151
17
22
51
182
164
162
40
46
60
44
75
93
186
157
141
234
239
230
120
140
150
255
237
212
254
255
242
213
195
189
167
165
152
38
30
32
234
207
189
192
157
122
15
16
21
151
95
88
255
255
241
255
255
255
255
255
255
255
255
255
255
255
255
255
255
255
255
255
255
199
249
255
96
116
145
110
83
55
184
171
146
110
109
100
107
93
84
225
221
207
148
159
162
114
100
107
69
78
92
89
83
80
35
45
42
130
125
115
148
135
127
193
205
209
33
52
67
116
101
89
24
13
19
86
104
94
19
33
55
88
41
44
17
36
31
77
74
63
41
19
13
1
18
18
64
65
85
137
158
174
136
173
174
81
114
105
43
69
54
88
94
79
158
153
134
182
188
174
168
185
186
165
185
183
142
159
144
103
100
95
82
76
91
71
96
119
35
100
142
64
72
92
165
176
174
43
56
53
170
161
158
146
165
186
212
218
220
71
81
86
94
55
60
148
134
132
174
175
173
221
225
225
194
200
185
73
79
85
65
90
115
35
29
35
187
167
146
119
115
112
94
74
50
147
156
148
234
236
216
203
202
188
120
121
126
217
216
211
89
100
112
152
141
138
138
133
137
102
114
132
33
26
26
84
92
92
70
74
76
41
40
43
98
89
73
13
14
13
59
60
72
25
36
31
59
59
61
25
39
47
102
96
60
187
179
155
120
110
103
89
90
80
50
67
80
111
124
132
179
175
166
185
184
171
89
107
130
59
51
44
199
203
205
255
255
255
253
238
241
222
209
203
175
177
182
58
66
78
106
100
91
127
127
137
38
49
61
13
5
10
48
53
65
111
111
116
153
161
160
16
23
33
133
145
158
139
136
136
101
91
85
88
102
106
118
148
161
229
255
255
199
217
218
195
219
223
236
255
255
206
242
255
113
135
171
22
31
29
58
18
14
126
105
100
105
90
70
153
144
142
220
214
197
199
183
174
255
255
255
255
255
255
251
255
255
106
119
133
162
157
138
90
85
87
255
255
255
255
255
255
255
255
255
255
255
255
255
255
255
255
255
255
255
255
255
255
255
255
195
194
177
129
126
101
32
34
22
81
79
85
168
171
176
255
255
255
255
255
255
255
255
255
255
255
255
255
255
255
255
255
255
255
255
255
255
255
255
255
237
203
186
162
132
103
91
66
24
26
25
124
136
133
239
244
239
255
255
255
255
255
255
255
223
186
129
92
85
20
26
30
8
7
0
48
37
34
73
175
255
63
201
255
16
97
156
17
72
118
5
18
27
12
8
10
4
7
13
3
5
4
14
7
2
7
9
8
15
7
5
83
46
7
183
93
21
211
103
24
147
67
10
96
44
8
104
49
12
100
40
8
33
21
10
63
36
14
73
43
18
44
29
19
97
62
15
143
72
21
144
85
28
190
122
42
152
96
39
106
73
34
82
70
41
82
73
41
74
74
37
75
69
41
68
59
37
58
52
24
72
57
27
98
77
45
181
129
57
255
168
55
230
119
28
112
39
10
33
23
8
109
46
24
14
5
17
115
55
25
33
10
10
132
69
22
142
78
20
118
65
22
99
54
24
53
35
19
26
13
16
7
13
10
46
24
5
85
52
18
97
63
27
94
63
32
108
74
38
147
103
48
171
119
55
170
111
43
155
94
29
134
77
24
116
61
18
127
66
12
158
85
16
151
84
23
86
47
18
40
31
14
93
79
49
165
141
84
255
245
141
255
255
143
255
197
82
148
64
19
77
89
94
168
145
121
175
152
115
157
141
103
139
121
89
112
94
75
102
92
75
80
83
67
63
58
48
15
7
11
20
19
11
20
20
8
34
32
15
59
53
28
79
69
42
80
66
44
70
57
41
72
63
47
75
67
47
66
52
32
60
46
28
56
46
23
68
55
28
78
61
28
71
61
28
58
48
21
40
28
12
15
7
22
32
29
22
27
30
19
255
255
255
255
255
255
24
20
12
12
20
17
8
17
12
5
10
7
3
3
5
7
10
9
4
4
8
3
4
8
14
11
6
4
3
8
4
4
7
8
2
3
11
3
5
2
2
8
9
5
2
5
6
4
7
4
5
9
2
3
8
2
4
3
7
3
1
1
8
5
9
1
2
3
4
7
8
4
2
3
7
4
4
3
4
4
2
4
5
4
4
5
4
4
4
4
5
3
2
7
2
3
5
3
7
6
6
7
9
1
3
8
2
5
8
5
5
5
5
5
3
4
5
3
3
4
4
4
4
4
4
4
5
3
4
7
3
4
11
3
7
13
7
9
9
5
4
8
8
2
12
8
3
17
5
3
16
6
4
16
6
7
16
7
11
20
8
10
19
8
9
13
10
17
12
15
12
86
19
90
97
120
255
175
237
255
198
216
224
97
75
72
40
28
31
90
44
32
185
167
148
24
42
55
22
20
24
8
12
1
191
184
165
225
210
182
149
143
143
177
115
101
255
255
255
51
10
11
127
116
95
124
121
135
19
30
49
255
255
255
190
210
182
124
113
103
49
76
83
134
109
96
193
193
183
71
84
75
39
47
40
153
170
185
167
154
157
80
55
24
141
140
159
163
173
181
26
16
11
209
201
190
248
247
242
39
59
72
251
240
218
102
106
98
201
196
184
47
46
45
200
181
164
228
203
180
61
59
74
255
248
237
255
255
255
255
255
255
169
204
188
62
109
93
22
64
52
36
55
44
59
81
68
114
154
146
227
255
255
255
255
255
250
255
255
33
73
94
218
194
170
244
231
211
41
39
48
255
255
255
72
84
91
100
98
114
21
16
40
165
179
199
255
255
255
215
214
214
77
92
100
104
89
78
39
34
33
94
93
88
10
29
34
95
53
36
37
53
67
87
81
65
15
13
14
18
6
8
92
96
92
105
125
120
69
97
87
53
72
59
75
72
64
39
30
27
71
58
51
60
83
75
100
111
102
64
75
74
54
50
51
161
176
157
182
203
179
142
143
141
98
93
100
60
103
140
86
158
202
77
115
138
137
134
119
255
255
255
244
255
255
175
179
171
22
35
38
105
45
29
148
142
125
91
79
60
124
114
107
76
62
38
75
95
112
63
93
124
47
34
34
229
218
205
128
129
119
179
168
148
143
144
138
136
121
94
201
194
160
111
102
94
179
177
164
67
77
86
226
227
225
154
159
160
146
159
170
103
113
121
28
34
30
129
144
149
134
138
127
158
162
150
169
171
166
129
139
149
74
88
91
72
86
86
33
33
45
160
145
119
151
149
140
160
145
120
173
173
163
70
97
115
100
113
123
86
60
37
192
181
159
120
140
160
41
60
84
9
16
20
80
94
100
159
158
148
205
187
164
217
198
186
255
240
229
177
177
175
80
79
93
72
82
97
17
11
9
40
55
74
122
125
133
130
132
124
52
59
76
56
70
88
74
69
74
15
17
12
135
150
151
58
58
52
120
162
190
154
161
168
210
219
226
218
228
241
231
255
255
224
255
255
71
93
125
40
48
49
42
47
73
46
60
77
136
124
122
210
216
202
133
123
116
147
148
143
255
255
242
255
255
255
129
147
157
208
201
199
157
161
169
185
184
175
116
111
108
49
29
33
17
39
46
123
130
151
237
228
237
255
255
255
255
255
255
255
255
255
255
255
255
255
255
255
255
255
255
255
255
255
250
240
226
185
178
158
85
67
55
32
58
80
154
167
184
255
255
255
255
255
255
255
255
255
255
255
255
255
255
255
255
255
255
255
255
255
255
255
255
255
249
222
229
207
171
171
160
130
150
125
108
67
59
53
47
52
63
37
29
29
40
39
38
36
84
216
104
190
255
47
111
218
29
116
247
21
65
129
21
5
11
11
7
15
15
10
5
35
16
6
97
43
4
211
113
26
255
183
55
255
196
58
255
160
54
219
132
52
207
125
49
185
110
39
103
65
27
51
31
7
38
33
14
24
19
17
20
14
5
23
13
5
44
23
7
37
26
5
153
101
23
212
135
48
200
130
46
157
112
46
130
95
46
112
84
36
128
90
41
144
95
40
149
95
35
158
103
46
162
115
54
183
121
43
222
123
34
158
76
20
70
25
22
47
23
13
53
18
8
64
32
21
63
33
23
55
30
18
122
61
14
112
61
8
102
57
15
94
46
15
60
37
8
25
17
4
24
13
8
39
21
12
15
9
10
18
18
11
65
42
27
104
73
35
141
95
35
139
84
23
129
65
14
122
54
14
107
50
9
101
55
6
122
67
6
95
46
3
73
48
28
153
116
65
223
174
98
255
211
125
255
235
132
255
190
97
84
36
23
101
110
90
118
109
76
86
77
54
44
39
27
56
46
35
46
32
28
14
7
14
13
14
10
25
12
12
11
9
1
28
29
16
45
38
28
49
35
31
52
36
31
58
42
34
57
43
35
44
35
31
29
22
14
21
19
6
25
20
11
30
22
18
31
29
26
39
38
32
26
23
19
15
13
8
4
4
8
23
17
18
27
26
20
39
33
35
55
44
44
48
43
34
23
21
17
255
255
255
255
255
255
39
192
255
8
98
161
25
29
61
25
15
8
18
21
23
8
7
15
8
1
2
4
1
5
10
8
4
8
9
11
7
8
11
4
7
4
15
3
5
11
0
8
4
1
1
6
2
1
10
4
3
11
3
7
13
5
5
14
5
2
12
4
3
10
7
7
9
5
3
4
5
7
0
2
8
1
1
7
3
3
5
4
2
5
3
3
7
3
1
5
5
1
3
7
1
3
5
1
3
7
8
10
9
3
8
11
0
2
4
6
4
1
3
6
1
1
7
7
1
7
10
2
4
9
1
1
10
2
5
10
2
4
8
6
3
8
8
5
6
8
2
8
8
5
15
7
13
17
4
18
17
4
16
16
8
13
13
13
11
13
15
7
5
14
6
6
12
14
20
13
4
89
32
142
63
150
255
191
251
255
116
146
153
19
23
31
52
67
63
146
112
100
144
145
134
14
7
10
18
49
46
67
68
80
245
233
221
223
206
194
90
115
123
221
156
142
255
255
227
109
75
76
135
129
116
81
87
99
207
176
153
255
255
255
60
47
32
206
208
196
49
76
87
198
194
180
168
178
175
41
20
8
65
75
73
90
94
102
151
147
159
157
142
120
79
94
118
229
238
245
131
136
138
210
210
211
188
189
176
105
83
71
148
153
141
103
102
95
143
143
143
86
81
72
207
190
173
82
81
80
255
255
255
234
253
240
86
139
126
41
26
20
73
26
28
26
11
5
29
46
40
46
55
48
41
37
29
24
30
32
58
62
50
117
144
138
225
255
255
255
255
255
101
145
158
242
220
206
194
187
170
123
116
124
156
169
175
99
117
132
125
141
162
255
255
255
236
240
242
100
111
119
104
88
74
96
76
62
78
88
83
32
35
42
115
59
37
13
55
77
97
87
76
34
29
29
30
32
47
109
114
116
62
78
57
29
47
48
39
47
43
10
27
32
107
124
118
101
121
108
117
125
109
149
159
145
179
190
170
184
210
193
182
210
197
78
96
94
117
124
106
215
237
214
163
165
143
100
113
123
113
197
244
27
82
123
150
147
119
255
252
239
135
147
156
32
31
35
38
24
16
123
65
34
145
141
125
62
55
53
92
95
93
22
17
25
114
127
136
72
101
132
98
89
84
255
255
240
161
153
136
218
209
193
210
204
190
122
122
107
176
164
144
120
109
105
151
150
143
71
78
89
255
255
255
203
209
205
131
142
151
91
104
105
54
59
68
39
50
62
42
34
20
64
66
66
62
58
46
77
89
110
107
126
160
164
185
202
56
33
13
154
138
110
162
165
153
134
125
94
238
240
224
106
127
143
97
100
105
44
63
87
188
177
163
189
205
223
86
104
128
24
15
10
2
22
48
25
14
39
43
25
28
32
38
63
48
4
28
135
120
116
100
107
102
184
193
210
159
160
173
49
53
66
128
131
144
118
115
109
72
75
90
78
91
104
128
131
134
191
191
191
54
41
29
105
117
125
114
126
138
17
28
39
157
172
185
112
130
154
123
136
142
242
255
255
146
188
229
24
37
60
17
11
9
9
23
41
79
51
37
185
168
154
194
186
175
132
143
146
204
196
185
255
255
255
134
143
141
224
222
218
165
153
140
255
255
255
255
255
255
255
255
255
255
255
255
255
255
255
255
255
229
172
160
133
68
63
53
51
44
52
145
128
148
245
220
233
255
255
255
255
255
255
255
255
255
255
255
255
255
255
255
255
255
255
255
255
255
255
247
231
184
177
158
119
113
96
54
38
21
80
97
109
145
155
171
210
220
224
255
255
255
255
255
255
255
255
255
255
255
255
255
255
237
29
10
35
45
34
25
25
22
30
37
34
29
48
64
153
120
110
139
127
36
135
66
103
255
61
131
255
133
63
31
191
94
32
226
107
31
255
149
44
255
202
67
255
233
86
255
199
66
243
137
37
196
127
38
223
156
63
240
163
69
208
139
58
190
130
58
189
125
48
215
135
50
220
133
53
187
112
47
125
72
31
91
53
11
99
48
7
138
71
11
194
106
23
219
123
34
203
116
23
187
106
30
186
113
36
224
139
47
254
155
46
255
160
51
255
153
48
236
132
34
188
100
21
136
71
12
98
50
3
57
20
4
25
6
5
53
20
9
27
13
8
120
64
14
156
81
16
104
57
3
87
40
5
99
52
16
68
36
12
53
26
11
47
28
9
12
11
3
24
17
9
27
24
17
49
24
14
88
46
15
113
66
10
127
69
13
90
35
8
63
23
9
69
31
11
76
34
12
48
19
4
45
42
30
211
157
78
255
224
108
255
231
118
255
199
104
187
131
70
104
63
34
5
27
28
113
114
86
114
84
59
25
21
14
60
51
30
89
75
49
98
87
60
84
76
52
61
51
33
53
40
27
64
53
43
71
62
50
66
58
46
51
43
31
41
33
24
39
31
25
31
25
21
16
13
12
15
15
15
27
27
26
31
31
30
30
31
29
33
34
26
30
31
25
26
29
25
18
23
17
24
26
17
36
32
24
42
37
25
41
38
27
36
31
29
31
28
25
15
15
11
3
3
4
255
255
255
255
255
255
144
255
255
123
255
255
106
255
255
67
243
255
17
134
215
25
53
93
29
14
23
18
14
7
5
11
10
17
2
3
12
7
8
8
7
11
10
2
9
9
1
11
7
0
14
8
4
13
4
5
9
2
4
3
4
2
1
5
3
6
8
6
2
8
11
4
2
6
8
2
2
6
0
1
1
1
1
3
2
2
8
1
1
9
2
2
8
1
1
9
4
2
5
5
1
7
1
1
10
7
7
1
4
3
8
7
1
8
10
6
8
9
5
4
7
2
2
11
2
3
10
2
2
9
1
5
8
3
5
7
4
5
7
7
5
8
8
5
9
10
1
8
10
8
7
6
11
5
7
4
3
10
5
3
10
1
6
9
7
5
7
8
5
4
10
7
5
5
25
14
5
53
76
211
136
255
255
255
255
255
131
141
135
50
53
53
73
82
83
225
198
191
119
143
135
66
43
51
89
101
106
29
57
76
255
248
222
250
224
209
60
97
106
229
166
132
171
166
149
151
121
123
115
109
106
86
67
58
255
255
255
185
167
157
104
98
104
194
191
175
87
66
74
197
193
180
122
133
129
67
77
73
74
70
58
40
34
25
132
135
145
186
187
191
43
39
38
138
157
173
25
27
23
212
205
200
55
78
69
165
142
140
111
95
79
62
63
71
13
17
22
121
120
115
125
112
104
253
255
255
140
170
167
46
57
62
43
29
23
35
29
39
19
32
25
3
35
18
11
40
21
18
12
19
36
36
35
24
25
17
87
95
84
71
86
77
26
21
18
172
209
215
241
255
255
45
78
85
172
153
134
102
105
87
30
27
24
82
90
66
133
138
155
255
255
253
81
70
45
121
131
134
149
135
116
18
31
39
52
71
70
105
60
31
35
30
54
98
106
106
53
31
21
67
61
69
127
141
152
73
83
68
29
40
38
22
20
27
69
84
80
167
180
167
137
139
117
52
46
43
66
50
47
111
110
103
163
162
149
113
125
122
30
20
13
132
147
121
107
122
106
110
119
110
211
224
199
133
148
143
138
214
255
33
99
148
127
116
90
255
255
252
147
155
161
35
34
23
35
11
14
129
66
43
146
138
133
46
37
36
82
83
71
14
24
24
164
174
174
50
70
94
47
54
52
255
254
233
199
188
180
255
255
244
211
192
184
155
155
155
135
119
114
163
155
155
154
155
165
27
37
48
255
255
255
196
197
190
154
168
178
72
78
69
24
38
46
89
103
113
124
134
129
133
142
134
137
146
142
113
129
161
18
17
15
245
255
255
87
83
76
132
124
105
174
178
169
115
108
79
242
237
212
124
131
138
74
84
96
37
50
77
109
105
92
211
226
243
163
181
206
32
25
27
21
43
68
18
8
43
30
0
25
4
11
35
6
28
59
98
91
84
190
179
170
39
30
29
152
154
155
89
87
95
180
193
210
240
250
247
178
200
218
202
221
240
117
124
120
89
82
79
205
200
190
154
149
145
61
75
92
130
115
112
230
222
224
252
250
255
151
142
151
121
143
162
190
229
255
82
121
165
11
49
89
36
35
41
23
31
45
65
42
21
146
119
100
119
99
79
168
158
148
255
255
255
141
149
136
202
211
204
101
102
92
179
179
169
167
164
153
255
255
238
255
255
255
255
255
255
255
255
255
255
255
255
255
255
255
255
255
255
255
255
255
255
228
200
173
162
140
88
72
68
51
70
72
104
114
123
147
160
166
202
216
215
254
255
255
255
255
255
255
255
255
255
255
255
255
255
255
255
255
255
255
255
252
245
210
184
161
134
111
82
69
42
55
60
77
128
135
148
196
170
121
172
132
96
29
26
21
11
5
9
31
19
16
64
104
155
129
116
117
103
16
65
68
59
195
162
218
255
255
174
110
255
175
51
255
192
58
255
213
67
255
197
65
238
141
40
125
74
15
73
50
18
86
61
22
104
72
22
92
65
20
99
67
32
137
90
43
154
99
47
136
84
36
123
82
34
134
93
42
144
86
37
181
101
32
155
73
11
58
19
4
97
43
4
167
80
19
225
108
30
255
126
31
255
143
30
255
142
30
254
129
27
246
123
33
229
114
23
206
99
12
185
81
10
156
61
8
113
40
12
53
10
13
27
15
2
62
29
15
127
63
17
115
55
24
88
47
20
95
50
13
123
63
17
108
55
19
23
12
6
43
21
16
83
39
11
78
41
5
80
53
13
133
77
24
190
96
24
179
95
18
142
73
11
107
46
4
53
13
4
11
10
4
40
33
17
126
87
45
212
153
62
255
218
85
255
235
102
255
178
82
179
108
48
72
31
8
37
46
43
59
54
42
25
23
20
83
79
62
112
93
58
123
105
68
129
111
75
125
112
83
118
100
76
104
87
68
98
85
69
89
77
63
65
55
44
35
29
17
20
16
12
15
13
12
14
11
7
8
7
7
9
9
12
20
20
20
26
26
26
31
30
28
38
36
30
45
42
37
52
47
45
56
51
46
52
49
41
51
48
37
55
49
38
56
50
39
54
46
36
43
36
29
31
23
19
24
18
14
16
10
9
16
13
13
255
255
255
255
255
255
222
255
255
205
255
255
179
255
255
148
255
255
135
255
255
122
255
255
80
255
255
31
175
255
7
85
134
23
19
39
23
16
11
19
11
8
7
7
3
4
12
7
9
10
3
15
8
3
17
9
6
11
7
5
1
3
2
3
5
8
5
4
4
12
7
8
4
3
5
4
0
3
8
0
0
7
3
3
3
3
3
4
4
4
1
3
1
4
2
3
7
1
11
11
1
9
7
4
6
8
7
5
2
2
2
1
3
5
2
6
7
6
4
8
5
1
7
10
4
5
3
3
3
2
2
4
5
5
5
5
5
5
7
7
7
7
7
7
5
8
3
5
7
3
14
3
12
21
7
8
15
10
11
17
11
8
34
11
9
41
9
19
54
16
8
68
25
6
67
19
24
31
168
255
163
255
255
145
213
251
91
85
96
20
32
31
46
75
74
255
255
241
93
138
130
102
87
81
122
116
125
47
67
77
255
252
232
237
216
202
40
62
75
163
118
84
117
107
106
130
117
122
20
36
52
248
220
205
233
228
223
42
24
13
53
51
72
184
188
205
193
224
252
94
133
161
83
41
4
157
144
104
106
118
89
16
37
56
99
91
92
195
211
221
112
107
103
186
205
212
108
112
113
247
251
249
53
71
86
127
115
100
119
106
122
61
58
59
59
65
69
40
39
38
141
154
150
57
96
100
62
28
29
48
48
62
22
36
25
36
63
49
27
56
36
5
6
10
46
60
62
60
74
84
70
87
94
62
76
74
85
87
84
38
36
34
56
77
71
77
78
73
142
173
185
139
213
226
56
19
30
182
171
156
75
75
78
158
165
162
188
193
217
255
255
255
79
81
70
186
181
166
63
58
35
46
58
61
79
38
25
54
23
31
106
112
112
73
59
52
80
73
85
127
141
154
50
71
62
26
28
11
23
33
31
114
123
102
134
138
121
15
12
4
132
135
138
164
164
152
48
67
58
7
19
5
91
108
91
218
239
214
213
244
230
109
127
128
77
75
56
118
129
104
123
121
110
156
170
168
169
240
255
89
159
204
126
110
97
255
255
255
145
151
170
36
37
50
31
19
20
136
74
61
145
138
127
32
36
29
70
78
70
23
39
42
171
181
180
7
29
71
15
28
61
255
255
255
197
198
202
255
255
255
208
195
180
203
205
206
94
71
52
179
169
170
108
119
137
167
149
141
255
255
255
191
196
178
235
249
255
78
83
67
87
103
110
110
114
116
110
109
109
123
114
110
112
109
102
149
167
188
159
164
172
184
188
196
130
122
103
137
135
115
187
190
185
107
109
85
227
224
208
108
111
110
33
57
68
73
95
114
114
129
160
131
139
148
191
199
206
106
114
129
39
50
64
32
7
27
37
25
34
26
47
75
32
51
76
70
80
81
163
165
156
225
215
213
138
118
99
37
64
91
218
236
243
221
222
209
98
114
133
255
255
255
149
158
163
71
74
68
86
85
79
206
216
211
245
255
255
157
173
184
135
133
134
89
90
93
52
61
73
33
26
28
141
167
171
164
191
214
129
177
230
98
162
224
20
61
89
32
26
25
26
14
23
130
95
69
148
138
125
155
153
159
159
149
136
124
114
103
157
140
118
255
255
239
255
254
238
202
175
173
124
108
108
60
51
38
15
36
69
90
112
147
140
147
168
180
177
193
255
254
255
255
255
255
255
255
255
255
255
255
255
255
255
255
255
255
255
254
213
247
220
178
162
138
108
39
27
34
71
77
108
138
124
150
202
183
203
255
255
255
255
255
255
255
255
255
255
255
255
255
255
255
255
255
255
255
255
255
255
240
219
81
45
54
75
82
75
34
29
17
26
28
26
13
26
53
206
182
159
91
35
22
94
83
140
236
255
255
255
203
156
171
98
14
167
104
27
128
85
17
71
44
10
39
19
5
26
21
10
29
25
21
27
19
22
17
11
12
27
23
12
31
28
15
37
26
8
31
21
4
19
17
5
42
28
10
71
50
17
100
65
28
174
104
40
176
82
13
75
26
7
25
13
11
60
18
10
115
48
2
156
68
14
166
65
4
147
46
7
107
29
9
78
24
8
69
25
9
76
28
5
85
32
7
84
32
9
60
20
11
33
16
15
43
22
3
60
26
9
63
33
8
88
45
6
93
48
5
66
39
8
63
34
10
79
49
8
122
63
25
130
65
21
142
74
27
175
96
26
219
119
33
251
124
37
222
109
26
152
77
7
106
52
8
55
20
5
87
70
26
216
148
61
255
208
94
255
243
112
255
233
103
255
173
70
162
97
43
82
44
21
24
14
7
7
14
17
10
10
18
51
58
44
52
56
26
68
72
47
81
67
37
84
64
40
69
53
30
47
36
21
32
21
10
35
23
8
46
39
24
40
36
22
18
16
14
18
19
23
25
26
29
21
23
29
26
29
32
36
39
37
41
40
37
43
37
34
45
37
33
48
40
34
54
46
36
60
52
40
65
56
44
71
63
48
75
67
48
78
64
48
74
59
47
65
52
42
59
44
36
52
38
29
44
34
24
35
27
20
27
19
17
26
18
18
255
255
255
248
195
183
219
175
147
225
195
183
235
246
255
233
255
255
225
255
255
212
255
255
175
255
255
134
255
255
113
255
255
94
255
255
52
216
255
5
112
175
17
39
71
26
12
13
22
11
12
12
4
10
7
5
1
11
8
9
7
3
5
2
3
5
4
7
12
15
9
9
7
7
3
8
5
5
4
4
4
9
4
4
8
2
2
4
4
4
4
5
4
4
2
0
2
2
6
6
2
11
11
7
7
5
3
3
3
1
1
4
4
4
2
6
4
2
2
3
7
1
5
8
6
5
1
1
3
4
4
4
8
9
7
5
8
2
5
8
5
6
8
6
4
8
1
12
5
9
21
6
11
10
8
3
13
8
11
11
52
110
18
137
246
34
156
255
43
119
255
71
98
255
107
70
231
147
200
255
198
255
255
204
210
204
184
204
208
127
140
137
38
89
85
255
255
224
117
164
159
77
58
38
81
65
76
88
91
94
255
251
250
155
150
140
84
45
31
82
58
47
21
19
17
28
39
43
135
101
87
255
255
245
70
73
83
116
102
104
129
110
105
79
60
65
50
56
64
63
97
122
128
179
207
91
154
191
67
28
31
137
134
128
69
105
114
114
110
106
129
128
130
135
174
186
78
51
28
191
200
193
95
112
116
14
26
37
69
75
83
32
35
45
21
8
4
103
120
117
11
57
65
69
17
8
4
24
52
28
28
48
33
52
42
9
28
18
39
56
59
55
98
91
76
108
104
65
89
89
99
102
107
112
123
127
128
142
152
149
172
168
105
126
116
53
44
47
61
36
54
156
196
211
89
146
149
125
100
88
113
123
136
87
101
94
229
224
234
255
255
255
22
26
11
151
141
122
27
25
35
48
23
13
87
34
16
86
106
112
101
89
75
66
69
73
127
149
156
43
72
54
10
11
10
24
42
39
161
177
155
123
134
113
71
70
72
145
156
150
83
98
82
18
11
16
65
57
64
32
31
27
64
63
74
90
62
46
140
129
106
185
194
165
150
168
156
56
56
41
79
82
71
82
89
101
215
255
255
95
177
216
161
140
125
255
255
255
129
133
136
78
73
64
57
40
34
143
88
72
132
123
105
53
50
52
84
87
76
14
35
29
147
143
142
32
50
72
51
21
17
255
255
255
134
141
146
255
255
255
168
169
150
162
163
162
104
88
61
123
118
121
89
103
121
190
163
150
255
255
255
90
92
91
255
255
255
94
94
87
95
99
106
79
77
77
68
82
97
103
115
126
92
109
116
15
12
31
141
145
147
152
150
150
89
81
79
132
134
108
187
190
184
104
108
83
218
223
206
102
107
99
4
17
17
53
39
46
31
32
35
33
32
22
147
135
114
179
164
165
163
156
178
147
138
152
127
114
123
107
102
124
67
75
100
18
21
19
56
54
44
61
63
74
72
91
107
172
193
203
178
178
165
103
92
78
16
27
34
246
255
255
211
219
222
98
99
97
24
28
33
48
41
29
144
152
171
224
233
246
255
255
255
255
255
255
235
215
199
109
100
93
75
79
73
125
126
126
181
197
213
215
255
255
151
204
255
47
100
149
43
18
14
27
44
53
27
39
47
37
55
70
43
60
74
46
42
28
59
59
52
185
190
177
255
255
255
255
255
255
255
255
255
255
255
255
255
255
255
255
255
255
255
255
255
250
230
210
117
93
75
15
33
51
100
121
134
195
214
221
255
255
255
255
255
255
255
255
255
255
255
255
255
255
255
255
255
255
255
255
255
255
255
255
224
191
182
158
140
135
97
91
71
22
8
22
69
91
105
173
185
187
255
255
250
255
255
255
235
195
173
29
61
81
29
26
21
46
55
60
36
34
27
29
39
66
214
185
158
155
91
49
60
51
100
216
255
255
201
184
168
43
21
7
42
29
20
28
18
4
16
15
8
14
7
11
7
5
1
4
7
8
14
11
8
27
19
7
31
27
18
35
28
15
54
31
18
73
50
28
95
71
36
136
89
40
176
107
38
181
98
38
154
80
27
117
61
7
77
30
7
63
29
3
60
33
12
49
25
18
20
8
6
15
5
4
17
5
3
3
4
5
7
7
7
4
4
4
12
4
4
12
7
9
10
4
11
25
9
11
55
25
8
52
14
10
60
17
5
98
40
6
121
50
7
127
49
7
130
52
1
140
64
3
171
78
10
178
81
17
169
77
5
182
83
13
202
99
20
201
94
8
163
69
17
94
42
3
62
26
5
47
22
11
138
101
27
255
202
85
255
216
92
255
184
74
219
146
57
136
80
27
65
30
12
30
21
12
30
17
17
15
10
14
21
22
5
51
48
34
53
47
24
8
8
21
35
43
39
27
27
25
29
30
34
42
42
44
54
54
54
63
63
63
66
65
65
64
61
59
65
61
55
62
59
50
60
53
42
62
52
42
62
53
44
65
58
47
65
57
47
59
50
42
58
48
39
63
51
41
69
57
47
75
61
52
78
63
52
80
67
50
86
75
54
90
78
58
87
74
55
78
66
49
68
58
42
58
52
36
53
49
33
48
44
28
39
34
21
32
25
19
32
24
21
255
255
255
128
100
111
55
38
35
116
86
61
178
138
100
217
169
135
224
180
167
237
218
240
244
255
255
226
255
255
199
255
255
178
255
255
165
255
255
147
255
255
117
255
255
66
239
255
20
148
250
20
68
124
36
18
35
25
15
15
1
10
5
14
4
10
19
7
9
17
10
8
11
7
3
13
7
5
16
8
8
13
6
6
7
2
2
2
2
2
5
6
7
2
7
10
8
0
7
17
4
9
16
7
11
7
2
5
4
5
2
4
6
4
2
3
4
2
2
2
4
2
7
7
8
6
5
8
2
6
10
2
7
11
3
5
10
1
7
10
4
8
11
6
7
10
1
13
7
13
12
8
4
8
13
3
12
13
37
72
185
255
123
255
255
145
255
255
98
255
255
104
236
255
106
193
255
60
104
210
155
166
189
118
125
127
84
76
78
195
203
192
39
95
91
194
181
149
116
177
170
21
42
53
29
36
47
157
161
181
223
218
215
62
74
70
44
38
39
35
38
37
46
40
50
64
40
37
222
199
194
110
120
116
155
149
135
237
237
230
255
255
255
255
255
255
255
255
255
255
255
255
89
130
147
134
143
141
182
241
254
70
112
130
160
163
151
79
100
106
77
80
78
57
92
111
114
79
52
144
153
157
33
66
88
70
82
102
27
26
23
27
12
11
134
131
133
41
85
91
62
31
40
21
42
58
10
2
21
28
37
41
48
48
45
86
114
109
55
88
82
17
40
30
38
27
38
51
45
55
40
38
35
67
76
68
32
47
50
51
30
39
140
137
114
149
169
143
73
66
69
85
85
100
104
172
179
102
121
128
137
147
149
71
59
44
255
255
252
216
227
229
99
77
63
68
63
58
17
14
14
119
70
47
27
69
94
118
109
106
49
43
38
112
142
140
82
118
100
25
32
7
18
45
38
165
178
164
130
140
122
104
89
89
159
162
140
34
59
47
31
6
14
12
19
14
68
59
53
58
32
31
36
41
45
88
122
141
152
189
219
117
147
172
100
96
67
169
178
152
23
17
17
56
64
52
225
255
255
115
201
238
186
163
150
255
255
255
105
112
107
63
58
45
90
68
72
155
108
97
114
99
91
83
84
86
118
119
106
95
98
81
113
77
59
28
80
134
91
114
146
255
255
255
148
158
163
228
218
201
222
223
208
233
233
215
193
194
173
212
216
210
255
255
255
183
177
176
255
255
255
45
42
27
222
232
244
79
81
88
56
56
64
63
67
68
100
106
112
102
111
106
56
56
53
125
137
140
159
169
170
115
120
128
65
62
54
163
167
132
157
160
157
117
118
83
199
199
176
100
111
107
38
63
58
78
82
85
70
80
94
42
56
77
55
62
63
67
67
55
154
143
126
218
198
181
230
211
196
205
200
196
215
223
236
184
189
209
93
91
102
34
27
27
34
57
87
221
248
255
188
185
165
10
13
24
68
57
52
144
157
165
255
255
255
115
117
115
26
33
48
26
13
12
37
36
50
41
26
25
89
70
45
28
23
10
121
110
93
112
97
87
123
131
123
87
95
107
67
66
55
163
160
160
207
224
250
213
255
255
102
160
212
18
13
41
52
58
50
54
84
91
90
130
142
80
115
127
52
75
76
187
198
188
126
135
132
87
98
96
191
192
186
255
255
255
255
255
255
255
255
255
188
187
182
180
186
173
255
255
255
255
255
255
255
255
255
255
255
244
231
197
176
153
122
101
81
63
39
65
73
67
86
102
111
181
200
214
233
236
255
255
255
255
255
255
255
255
255
255
255
255
255
255
255
255
255
255
255
255
255
228
224
190
144
179
154
112
255
238
179
188
137
100
52
76
71
16
30
23
48
59
57
95
120
133
252
220
175
122
68
47
53
10
57
202
255
255
208
194
192
26
18
11
36
32
20
31
25
14
22
25
18
32
23
23
36
24
32
33
26
30
36
30
26
41
39
28
48
42
26
63
48
19
78
61
21
114
91
26
172
118
31
223
130
38
223
123
35
179
95
16
133
67
8
85
38
13
49
14
7
35
10
7
40
17
8
48
31
9
30
13
11
17
7
17
26
12
35
23
10
26
6
4
10
1
8
14
8
4
9
8
3
6
11
7
8
13
10
9
36
12
8
57
22
14
69
24
12
64
12
7
55
7
6
85
25
4
117
44
6
142
52
5
143
48
10
123
43
6
111
43
6
102
43
9
81
36
2
59
21
2
32
13
18
28
5
5
73
48
13
206
133
40
255
219
85
255
196
89
171
86
28
56
32
8
30
27
21
3
21
16
17
12
13
6
12
11
10
13
20
25
28
24
39
41
31
53
52
49
65
65
56
78
79
61
85
83
56
79
76
51
85
79
58
94
84
60
100
88
60
104
92
64
110
98
71
117
105
77
113
101
73
101
89
60
98
80
54
94
75
53
86
73
50
82
69
44
80
64
43
75
63
45
69
65
45
65
65
41
65
63
39
67
62
39
68
61
38
70
61
38
69
60
39
65
57
37
63
58
37
64
56
35
67
56
37
65
56
39
59
49
34
56
44
31
53
46
30
50
46
30
51
47
31
255
255
255
144
105
105
75
46
17
64
48
21
44
39
27
7
13
8
67
58
49
133
112
84
198
157
126
235
189
180
239
218
232
234
255
255
235
255
255
221
255
255
200
255
255
182
255
255
166
255
255
144
255
255
101
255
255
49
199
255
15
111
166
7
46
67
16
3
11
14
8
11
8
5
7
12
4
7
14
6
6
10
5
5
3
4
2
1
3
5
4
1
7
11
10
10
25
8
5
35
13
4
33
12
9
24
8
3
12
5
5
4
2
5
2
2
4
1
1
1
5
5
7
10
13
7
8
12
2
7
11
3
5
8
2
8
9
7
10
10
10
8
8
8
10
5
7
11
3
5
9
7
4
12
13
7
1
33
50
92
214
255
69
211
255
94
48
110
90
72
134
88
52
127
151
80
21
177
160
154
148
151
161
85
97
101
120
128
120
189
199
183
14
48
60
164
153
129
63
108
107
46
83
87
10
8
32
193
195
197
144
131
111
30
30
45
2
10
10
34
31
37
10
17
13
148
121
122
152
136
123
158
167
179
220
246
255
122
163
181
32
73
92
54
66
83
63
86
118
165
197
233
255
255
255
197
255
255
50
30
27
248
255
255
46
97
122
165
162
157
65
57
49
28
46
65
174
149
144
194
221
233
92
113
123
18
13
20
4
14
24
143
135
128
78
102
113
60
10
14
28
13
22
22
48
29
43
58
62
39
59
54
81
116
113
40
70
65
24
33
35
32
35
41
34
71
69
58
82
89
39
62
64
112
124
126
114
131
144
114
143
144
61
106
104
102
85
66
107
106
96
47
41
48
143
178
193
131
208
219
108
86
76
228
228
206
197
205
206
75
94
115
59
40
33
6
7
18
70
44
45
61
8
28
98
120
137
48
25
18
73
79
78
109
161
146
43
65
45
21
30
18
168
191
155
158
154
135
102
99
102
185
185
169
35
67
55
28
14
16
37
27
25
25
76
91
173
230
241
247
255
255
249
251
243
255
255
255
255
255
255
255
255
255
196
255
255
87
70
58
141
148
127
47
44
43
134
170
207
180
255
255
172
138
127
255
255
255
141
133
111
63
57
52
50
21
15
146
108
91
84
70
64
86
82
89
123
120
119
142
145
135
176
151
125
180
179
184
123
116
116
240
242
241
189
208
226
141
118
97
166
152
123
114
99
67
113
102
87
141
123
116
209
199
191
207
208
208
129
138
142
55
42
25
149
152
167
61
74
89
38
43
42
80
93
94
96
101
101
157
171
178
56
71
86
131
139
163
187
183
173
252
255
255
161
155
129
179
171
144
117
116
123
138
140
102
232
229
220
114
133
158
66
83
96
80
80
83
97
102
105
87
87
87
46
43
43
37
40
33
37
43
59
34
39
38
101
82
64
68
60
59
100
75
45
178
159
140
134
133
138
27
31
23
21
37
70
166
185
198
252
255
244
31
35
38
69
57
50
34
48
61
255
255
255
137
137
134
91
97
110
59
59
75
12
11
31
47
24
7
70
50
24
26
17
15
61
58
40
185
171
158
138
129
121
107
104
112
141
144
148
38
52
58
81
75
74
198
207
228
208
239
255
126
169
209
48
89
122
87
73
58
128
124
111
112
114
103
117
132
125
243
255
255
255
255
255
255
255
255
255
255
255
232
227
215
154
141
129
180
187
183
167
163
165
135
139
134
149
145
155
248
251
254
255
255
255
255
255
255
255
255
255
255
255
255
255
255
255
255
255
255
255
255
255
255
238
225
205
196
183
106
96
70
40
52
47
101
110
113
173
168
171
241
226
230
255
255
255
255
255
255
255
255
255
255
255
255
255
255
255
108
66
54
75
72
58
50
33
46
24
41
36
20
53
53
255
255
232
234
207
200
241
213
188
255
255
255
255
255
255
79
50
24
61
47
17
56
43
21
49
41
24
48
41
23
55
42
16
60
40
16
56
38
20
55
39
29
70
46
27
93
60
24
117
77
25
177
108
28
231
117
23
223
99
17
172
75
2
122
48
5
92
33
3
71
23
5
63
18
5
68
20
4
62
24
2
52
28
8
26
6
16
25
32
94
38
50
124
34
48
120
11
19
40
9
14
11
10
10
4
8
8
2
13
8
3
12
7
3
4
3
5
8
5
8
8
3
4
5
3
6
9
4
5
29
11
2
48
18
4
54
19
4
46
16
9
36
13
4
27
8
6
5
4
7
51
24
5
107
54
4
142
68
13
179
92
15
255
168
52
255
216
72
255
178
65
154
86
31
52
19
4
25
16
5
25
21
15
2
14
12
19
12
13
16
17
15
21
33
22
39
42
33
70
63
48
98
87
62
116
102
77
122
104
85
120
101
79
112
95
73
105
89
67
100
87
62
99
87
59
100
85
58
107
89
63
112
97
70
114
99
72
114
93
68
105
82
59
92
74
54
85
71
49
76
65
41
69
63
38
67
60
39
68
58
40
67
58
38
64
55
36
60
51
35
59
51
34
58
50
31
50
43
25
44
36
22
45
37
25
45
37
25
44
36
24
43
35
23
43
35
24
47
38
28
51
43
33
49
46
29
42
40
19
255
255
255
183
129
122
91
56
42
86
54
37
76
52
35
79
55
41
83
51
37
69
37
27
22
10
8
48
36
29
125
98
82
181
149
125
203
168
143
218
192
179
236
244
255
249
255
255
244
255
255
225
255
255
208
255
255
177
255
255
141
255
255
121
255
255
82
255
255
22
148
244
20
58
111
31
10
28
24
11
11
9
11
14
2
4
7
4
4
8
8
2
3
11
11
10
24
12
5
24
10
4
8
5
7
18
6
1
11
5
5
2
4
7
10
2
5
14
6
2
13
10
5
10
15
7
6
9
3
7
3
4
12
3
6
14
7
8
13
6
7
12
2
4
13
4
8
13
5
9
13
8
7
7
13
13
11
24
36
69
161
222
129
255
255
117
255
255
100
255
255
73
246
255
46
185
255
158
165
255
153
144
128
57
54
69
126
119
104
166
182
178
90
37
39
130
134
128
84
71
65
127
144
128
107
116
103
255
255
252
158
151
128
32
32
41
35
37
38
5
7
21
76
61
69
123
105
95
95
113
127
137
178
204
18
43
65
86
43
18
71
51
36
65
71
72
73
65
65
80
63
47
58
64
74
152
210
246
173
243
255
103
82
73
175
194
198
38
5
6
138
137
139
120
138
139
255
255
255
216
248
248
109
100
93
46
68
65
96
89
75
117
141
139
42
17
24
41
4
11
43
65
59
60
89
81
42
59
69
72
113
117
50
81
80
30
17
25
65
106
100
136
172
159
103
132
116
95
104
107
65
47
45
152
132
127
155
166
163
86
117
120
15
21
31
94
90
79
97
94
84
59
72
69
132
156
183
108
148
160
236
204
191
255
255
255
136
154
180
42
45
64
20
19
10
10
8
18
104
57
41
35
76
105
58
53
66
28
21
18
126
148
148
65
114
101
39
44
24
122
155
127
186
193
164
66
75
64
195
202
180
63
88
76
22
17
15
26
21
24
89
149
164
255
255
255
255
255
255
194
191
200
93
66
68
155
178
192
208
220
233
162
157
140
255
255
255
184
255
255
133
121
110
44
46
44
49
76
98
186
252
255
134
140
145
255
255
255
135
118
98
93
91
90
27
24
27
119
91
79
47
33
33
45
26
36
69
52
49
82
83
84
154
142
144
144
167
195
171
186
217
154
143
127
248
255
255
29
38
58
88
101
102
67
83
79
89
103
101
126
130
132
70
76
91
20
18
24
10
18
25
20
31
44
72
93
120
95
120
149
44
64
83
62
66
72
52
50
28
139
144
151
136
141
168
141
154
164
19
17
24
241
255
253
216
207
162
180
169
138
104
107
115
161
163
126
255
255
255
68
91
96
92
106
111
134
126
116
137
156
162
138
172
205
127
161
199
106
137
155
85
97
114
63
61
76
84
72
64
54
57
59
68
50
37
46
48
53
139
140
154
66
65
64
68
77
104
96
109
111
241
249
236
35
32
34
39
23
21
31
19
23
255
255
255
119
116
111
122
134
139
188
198
206
165
168
164
109
95
88
66
54
53
28
37
52
27
18
20
149
136
117
208
208
204
131
140
136
56
40
36
58
70
82
75
95
112
59
58
65
155
155
159
182
199
216
205
247
255
114
144
160
61
99
116
59
73
91
10
27
47
32
46
47
74
93
100
162
148
137
255
255
255
255
255
255
255
255
255
255
255
255
144
139
123
95
94
79
174
160
137
217
197
173
133
116
83
35
34
46
88
113
127
177
199
208
246
253
255
255
255
255
255
255
255
255
255
255
255
255
255
255
255
255
255
255
255
255
255
255
255
255
255
255
221
175
155
141
107
66
70
62
41
59
69
84
100
113
90
76
64
83
111
127
25
18
16
69
89
79
59
42
55
24
45
46
108
93
82
78
52
50
135
94
61
255
255
255
255
255
255
104
67
43
90
56
30
74
45
16
64
48
19
59
48
15
62
49
7
80
56
7
102
67
20
116
76
26
132
81
22
157
89
20
195
100
24
226
107
20
203
85
13
129
42
5
72
20
9
56
11
3
56
13
4
62
20
3
61
24
7
53
21
2
34
13
9
21
12
8
9
13
45
56
90
232
41
88
197
55
95
243
27
49
106
13
14
10
9
16
7
7
16
3
8
10
0
7
2
0
6
3
7
8
9
12
8
10
5
8
4
4
5
2
7
4
6
8
5
6
4
5
2
3
7
4
10
29
11
8
78
36
4
143
72
9
221
120
20
255
162
40
255
188
60
255
196
68
255
192
67
244
136
44
113
62
15
40
27
16
22
11
12
10
5
12
14
17
22
28
29
28
47
39
36
52
48
41
69
58
43
88
65
52
94
76
56
99
84
59
107
89
65
107
92
68
98
85
63
87
76
57
82
73
51
81
70
48
80
68
48
80
68
48
82
70
50
83
71
51
82
68
49
82
67
49
76
68
48
70
67
48
70
62
49
66
55
47
61
50
39
60
46
33
62
42
34
64
41
36
62
41
33
57
40
25
50
40
22
44
41
25
40
35
23
35
23
16
26
12
8
15
9
5
7
8
2
5
8
9
9
11
9
14
14
5
21
13
6
20
12
10
7
12
17
255
255
255
218
158
152
65
57
55
69
54
49
69
51
42
84
65
53
98
80
68
99
79
62
96
69
50
100
60
50
84
51
46
46
32
24
11
12
15
87
61
53
156
107
89
183
131
112
205
164
155
236
211
225
255
255
255
255
255
255
238
255
255
210
255
255
199
255
255
170
255
255
131
255
255
93
255
255
43
206
255
5
105
181
30
35
70
32
10
5
15
17
12
7
9
7
28
9
4
45
14
4
38
15
7
25
12
6
10
6
6
7
8
8
12
7
6
7
8
6
8
8
5
9
8
3
10
7
4
14
4
5
13
0
4
9
6
7
7
5
8
11
3
7
12
7
9
11
5
1
11
9
4
8
8
9
10
4
8
24
26
25
57
98
119
89
159
191
81
154
187
52
122
142
120
255
255
108
255
255
124
81
93
102
96
105
167
151
131
179
214
206
118
66
49
63
82
84
41
23
15
233
237
219
91
118
119
222
216
218
179
175
158
59
63
46
22
20
20
58
57
58
70
60
60
53
47
63
63
93
131
44
15
26
57
42
42
5
9
17
35
23
22
65
60
56
93
96
98
79
77
80
49
46
41
58
53
62
120
161
202
75
149
179
143
103
100
148
161
158
26
28
43
87
110
131
219
208
201
169
196
205
157
160
141
30
42
51
133
152
144
13
60
66
42
18
22
33
42
33
64
100
88
32
50
64
88
135
148
56
89
83
22
10
6
90
145
136
143
189
179
18
28
23
142
153
148
186
189
174
128
126
107
137
126
107
166
162
150
151
177
170
137
181
174
140
146
144
84
72
63
53
69
65
95
125
153
24
65
94
195
168
156
223
235
239
43
51
59
73
65
68
21
16
4
73
49
43
58
3
25
61
75
97
9
17
6
87
99
93
118
159
147
47
67
54
48
65
67
183
202
176
10
6
12
181
192
162
57
85
75
38
25
31
34
25
17
132
188
199
255
255
255
255
255
255
25
60
93
73
113
135
131
114
80
175
159
134
108
131
172
92
166
205
47
31
50
211
232
239
138
163
173
54
24
8
178
141
117
255
255
255
255
255
255
247
255
250
155
160
154
137
145
153
107
113
125
163
146
150
187
159
152
156
118
99
135
96
67
95
68
37
47
28
40
206
217
232
255
255
255
255
249
224
255
255
255
73
83
86
93
106
105
38
50
67
92
94
106
85
90
101
49
46
81
78
77
102
76
84
105
34
44
60
37
25
23
95
93
111
117
123
149
69
80
106
65
67
66
119
121
140
139
152
174
120
140
142
6
8
19
240
253
241
216
201
154
170
160
118
100
111
119
161
169
124
255
255
255
55
59
60
99
114
120
157
159
154
151
159
173
51
72
98
102
119
147
147
177
211
143
178
220
122
141
168
138
136
140
89
68
62
81
64
62
7
54
83
103
121
147
122
138
152
156
172
186
131
138
137
168
171
164
59
54
50
9
23
35
46
38
42
196
191
186
151
134
116
103
94
86
76
50
35
112
120
116
255
255
240
255
255
255
255
255
255
202
198
199
76
68
74
62
56
53
139
140
142
144
143
137
51
43
35
101
120
136
94
105
116
37
46
55
67
63
55
218
235
249
198
201
201
215
214
224
239
244
255
196
223
251
60
66
90
105
114
123
199
215
219
147
153
161
41
65
90
144
153
168
196
193
201
96
92
101
49
61
67
212
210
200
255
255
255
255
255
255
255
255
255
255
255
255
255
255
238
220
201
178
179
156
131
106
88
72
34
32
15
75
71
64
143
138
136
207
197
199
255
239
233
255
251
232
255
254
228
255
255
233
255
255
247
255
255
231
255
214
163
255
220
163
146
66
36
121
154
152
18
45
42
46
48
47
89
101
113
85
73
63
23
63
102
84
56
45
212
255
255
255
255
255
255
255
255
241
235
241
141
95
60
87
52
5
95
61
20
144
109
68
192
144
96
208
138
64
217
125
26
215
116
20
213
110
21
211
100
21
170
79
13
107
45
11
48
14
4
12
5
3
5
5
2
7
2
10
18
5
14
20
3
13
16
5
15
4
5
7
2
8
10
17
37
84
71
111
255
39
66
148
66
112
255
30
98
198
15
3
5
14
10
15
12
10
7
9
13
3
8
6
4
7
6
10
8
5
12
7
7
13
6
11
12
9
8
8
10
7
9
7
10
11
17
11
4
87
39
10
185
90
4
255
126
17
255
138
23
255
140
26
229
122
28
194
109
33
191
114
36
142
86
21
62
31
11
28
22
26
42
41
35
60
58
42
82
70
52
96
78
59
102
87
63
100
91
68
98
87
67
109
84
67
104
83
61
86
77
50
77
63
45
70
53
37
62
49
29
56
42
23
50
39
23
50
40
24
52
38
26
46
32
23
37
30
18
31
29
15
34
27
15
39
29
18
39
35
22
41
38
21
43
37
20
42
34
23
43
30
21
39
24
13
29
19
3
19
14
4
16
11
5
17
10
0
16
9
5
11
11
10
5
8
11
5
10
16
8
18
20
16
29
32
35
52
63
61
88
107
95
134
161
134
179
210
169
217
250
210
255
255
254
255
255
255
255
255
255
255
255
243
179
171
54
49
43
70
64
55
71
66
56
70
65
50
70
66
49
80
69
54
77
67
39
81
65
33
87
69
46
85
70
51
87
65
50
88
57
41
70
45
27
27
21
10
39
30
31
108
84
74
163
127
99
204
167
140
224
201
187
224
238
250
238
255
255
254
255
255
234
255
255
197
255
255
161
255
255
136
255
255
115
255
255
82
247
255
37
144
223
13
57
96
33
16
27
19
9
15
3
5
14
7
7
9
3
14
7
12
10
6
10
8
6
5
7
7
7
5
6
4
4
1
4
4
2
11
8
7
7
4
7
6
4
8
8
5
10
12
4
8
4
5
11
11
8
8
14
9
3
14
4
5
16
5
7
16
9
8
11
9
2
12
11
8
13
14
15
20
21
17
84
197
255
131
255
255
153
123
144
65
63
61
174
155
139
163
197
176
116
106
95
31
65
72
96
99
104
221
232
216
52
41
38
167
166
162
169
165
149
77
77
67
77
76
66
85
79
62
17
37
62
7
31
75
72
40
34
39
34
42
34
3
25
37
8
20
36
36
34
54
81
87
88
120
121
144
172
167
176
199
189
131
137
129
94
95
116
124
175
205
41
41
69
191
174
165
139
145
145
12
41
52
208
194
174
126
155
160
151
155
133
74
66
53
65
110
108
39
18
30
26
21
11
44
85
71
44
39
46
89
147
152
67
107
107
28
19
6
109
153
155
108
151
145
68
63
65
173
191
178
132
140
116
64
46
35
52
60
73
15
20
36
80
33
20
107
61
48
169
151
139
235
231
216
171
185
172
39
59
54
68
104
127
23
75
116
207
189
169
214
227
239
38
38
57
67
63
76
38
25
38
98
58
44
29
69
95
41
44
57
48
51
47
156
184
171
75
104
88
20
19
14
147
165
144
106
113
93
166
163
150
92
118
102
42
13
14
49
47
48
85
145
163
255
255
255
242
244
241
57
99
116
48
99
140
106
89
56
136
132
105
63
50
39
24
21
38
20
48
74
73
112
135
82
42
17
202
216
211
210
233
255
102
120
152
52
21
37
91
69
57
90
89
77
114
110
105
104
103
106
102
100
92
136
108
82
142
130
116
143
157
168
219
242
246
255
255
255
255
255
255
255
255
255
199
219
243
227
219
206
255
255
255
107
123
124
108
114
122
96
103
130
139
137
145
113
125
140
21
40
75
20
35
69
38
53
84
62
79
106
82
93
114
51
67
76
19
4
11
73
69
63
125
128
122
154
162
179
201
219
247
178
203
215
41
41
39
238
250
232
204
187
145
161
153
115
103
114
125
150
164
120
246
255
255
38
31
40
107
111
121
168
182
182
134
140
146
182
187
195
180
183
199
26
16
25
115
138
150
170
190
203
175
193
208
156
192
221
174
192
206
98
98
114
31
37
61
56
53
38
78
69
65
76
68
36
116
109
93
47
29
24
43
59
75
60
62
57
131
125
116
235
217
195
92
98
95
205
199
175
217
213
210
80
85
106
53
33
34
49
43
41
105
113
109
140
150
144
57
56
53
13
23
35
74
87
97
123
124
121
21
37
48
56
65
75
81
83
86
92
91
82
101
120
143
116
119
120
174
170
170
182
168
160
249
255
255
174
205
251
84
76
63
255
255
255
255
255
255
255
255
255
255
255
255
255
255
252
239
229
217
93
100
86
186
161
151
56
63
58
154
134
127
239
213
206
255
255
255
255
255
255
255
255
255
255
255
255
255
243
217
255
217
183
244
186
148
184
124
86
114
51
13
50
19
60
34
97
142
123
191
225
216
255
255
255
255
255
255
255
255
255
255
255
255
255
255
208
188
183
86
131
155
161
177
193
17
49
94
34
47
104
111
170
232
124
190
247
102
147
183
173
253
255
255
255
255
255
255
255
255
255
255
255
255
255
188
101
33
180
112
77
253
240
227
255
237
218
228
166
157
198
85
7
186
77
2
168
71
9
127
51
8
71
32
2
39
11
9
21
7
18
3
6
14
7
7
9
11
8
6
14
10
4
8
8
3
7
7
5
8
5
2
10
1
10
16
36
82
91
106
255
33
98
182
84
78
255
37
131
255
11
16
19
15
7
15
17
8
20
8
14
8
10
15
5
12
12
9
10
7
12
7
4
13
8
7
11
10
10
12
15
14
4
28
20
12
92
43
10
188
82
3
211
93
14
181
79
15
126
56
5
54
29
8
57
47
24
87
69
36
76
65
36
65
53
39
84
63
44
112
82
43
129
96
47
137
109
69
141
119
85
142
120
83
136
110
74
121
93
63
103
76
50
77
57
35
48
39
25
31
21
17
22
9
11
13
5
4
6
6
10
4
13
20
10
27
22
23
36
23
44
43
30
59
54
41
62
60
46
62
60
48
55
52
44
40
35
32
28
22
21
14
11
8
19
20
12
23
22
25
14
10
11
10
24
35
28
56
74
58
95
118
92
134
163
123
170
211
158
214
255
194
255
255
223
255
255
255
255
255
255
255
255
255
255
255
255
255
255
255
255
255
255
255
255
255
255
255
255
255
255
255
255
255
255
255
255
255
255
255
255
255
255
255
198
187
39
40
39
54
55
53
56
56
54
41
41
39
36
37
35
54
49
48
61
61
51
60
63
46
56
51
38
63
49
37
87
65
49
109
75
58
114
71
54
102
61
49
91
55
47
86
54
44
62
35
33
14
14
24
65
56
50
123
97
84
161
129
116
201
172
179
230
213
235
248
255
255
255
255
255
237
255
255
202
255
255
172
255
255
144
255
255
118
255
255
81
255
255
27
172
255
15
74
139
32
26
47
37
23
14
28
16
13
11
7
7
4
3
3
3
2
7
2
4
9
4
5
5
11
8
4
10
3
7
5
1
7
11
5
9
7
5
7
10
4
4
15
10
9
8
9
5
3
7
7
7
11
8
7
10
7
1
7
3
10
11
4
18
18
10
27
10
18
34
179
255
29
179
255
37
37
82
55
45
55
192
178
173
88
112
91
114
114
102
106
127
127
156
159
153
89
110
91
130
110
104
196
207
198
162
158
154
16
18
25
98
80
68
35
47
69
28
57
90
92
45
16
51
33
28
33
26
20
37
13
10
58
63
64
85
117
126
112
136
129
149
159
141
174
184
163
200
217
198
218
228
207
196
187
175
167
179
190
84
156
194
103
55
38
194
191
189
141
112
97
220
211
177
21
38
42
87
89
69
96
102
92
21
47
45
43
8
21
72
96
95
37
35
40
95
135
129
37
86
89
22
17
23
103
151
150
109
152
147
92
87
82
157
188
186
41
65
48
61
65
83
77
87
99
70
82
89
41
52
63
51
32
40
43
40
59
97
73
82
179
124
103
244
210
187
160
170
160
65
108
128
70
80
104
247
223
212
148
153
155
17
16
27
33
18
16
70
43
45
51
35
35
85
97
123
38
27
34
103
108
98
125
156
142
28
49
43
63
76
68
182
193
166
53
47
52
168
175
158
17
34
31
8
29
31
25
61
80
255
255
255
255
255
255
38
82
97
30
53
84
130
108
93
96
108
123
7
20
62
97
104
101
89
95
96
112
133
149
120
119
123
17
49
61
87
50
46
138
126
123
220
230
244
219
236
244
131
151
162
49
63
80
92
85
89
82
79
75
46
56
60
92
106
129
255
255
255
255
255
255
255
255
255
255
255
205
208
179
141
21
24
68
181
194
197
239
235
229
228
227
227
87
104
115
76
73
78
65
90
131
115
101
97
103
93
78
32
50
46
47
67
80
49
69
98
54
71
106
49
52
88
62
60
89
87
89
106
71
78
91
17
21
26
87
76
69
212
215
228
255
255
255
184
198
196
211
215
189
186
172
133
157
154
130
105
112
120
148
165
129
254
255
255
39
34
31
117
119
135
166
176
184
46
49
60
77
73
77
169
173
190
255
255
255
203
209
220
112
115
126
85
80
83
47
27
27
88
131
149
155
191
210
106
124
122
76
79
73
73
75
78
110
117
115
133
123
110
79
77
51
98
102
108
58
62
69
66
57
43
255
244
223
89
99
111
12
16
37
159
158
153
255
255
253
255
255
255
255
255
233
191
177
150
86
97
87
92
84
83
38
53
67
94
102
110
91
94
91
35
40
45
86
91
97
85
90
92
36
31
23
130
136
138
78
71
72
138
144
145
99
100
128
170
180
177
250
255
255
106
154
185
24
12
24
112
117
112
92
120
121
52
73
91
92
95
105
177
192
192
199
189
169
30
41
50
157
97
59
106
35
20
55
41
65
31
71
100
102
151
184
162
214
241
199
255
255
246
255
255
255
255
255
255
255
255
255
255
255
255
255
255
255
255
255
255
255
255
255
255
255
255
255
255
255
255
255
255
255
255
255
255
226
242
228
217
164
190
218
87
144
196
129
190
238
167
206
247
92
157
192
101
151
175
89
127
137
51
73
74
84
108
109
145
167
178
186
206
242
255
255
255
255
255
255
208
116
63
195
165
195
199
255
255
112
139
214
93
159
244
88
31
9
74
25
8
63
18
19
38
8
18
21
8
13
15
5
18
10
7
15
5
6
14
7
5
7
7
5
3
12
8
4
16
6
6
20
4
9
18
7
9
10
6
4
15
21
48
94
91
255
37
122
245
90
69
236
62
138
255
13
21
24
7
10
8
12
9
12
15
13
7
12
9
5
10
8
6
15
12
4
15
12
8
11
12
13
20
13
11
41
18
5
69
27
11
123
49
8
114
38
5
97
50
7
150
79
15
153
81
25
157
92
29
165
104
33
176
112
43
175
120
58
167
124
64
167
131
60
166
130
56
140
104
46
93
63
35
58
41
20
53
41
14
53
37
15
40
20
8
18
2
6
14
21
29
41
45
49
44
51
48
45
47
37
69
62
49
78
66
51
78
58
41
95
71
44
108
83
48
105
76
37
82
49
13
48
20
37
22
31
71
47
78
118
64
114
161
117
174
222
166
236
255
201
255
255
233
255
255
255
255
255
255
255
255
255
255
255
255
255
255
255
255
255
255
255
255
255
255
255
255
255
255
255
255
255
255
255
255
255
255
255
255
255
255
255
255
255
255
255
255
255
255
255
231
255
255
205
249
255
183
221
255
156
192
215
141
170
184
255
255
255
255
217
206
32
35
33
20
21
21
29
28
32
17
18
25
17
14
23
34
25
35
46
36
46
56
48
55
59
50
60
60
53
58
69
66
58
77
79
69
92
87
83
114
94
88
113
86
78
98
74
64
91
65
50
94
61
37
87
61
28
63
52
22
31
31
15
23
16
25
99
78
81
163
131
122
203
173
156
228
211
199
231
250
255
236
255
255
238
255
255
234
255
255
219
255
255
185
255
255
142
255
255
101
255
255
63
226
255
21
130
199
20
55
89
23
14
22
10
13
14
2
10
4
5
2
3
10
7
7
9
12
5
10
7
4
6
5
9
4
6
12
8
6
10
17
9
10
8
9
3
7
10
3
11
9
8
10
6
8
8
8
13
22
11
2
39
8
31
14
87
157
58
243
255
74
200
255
96
116
140
134
122
125
208
207
195
56
66
58
165
168
156
57
70
71
50
42
50
70
69
70
165
161
148
194
207
200
54
54
55
90
81
79
44
28
34
41
83
118
72
21
8
51
30
25
35
21
19
55
37
38
82
89
94
87
115
119
59
84
93
29
22
19
28
39
54
96
131
137
149
194
187
93
110
103
122
105
84
215
205
189
180
231
248
12
87
126
203
180
140
251
227
196
133
127
124
89
81
78
21
27
32
44
76
72
44
33
35
41
55
45
49
92
85
93
96
107
56
107
109
48
59
56
106
153
150
126
184
169
82
72
69
138
170
159
26
61
66
44
56
67
15
60
79
64
45
44
72
75
82
76
91
104
75
84
104
92
91
113
90
92
98
104
103
97
135
98
84
210
176
160
118
148
159
101
45
37
221
188
170
39
49
44
24
16
12
36
59
71
126
85
88
32
53
75
75
54
79
13
4
10
109
143
125
72
105
99
28
15
21
153
175
156
108
114
100
166
166
158
76
103
94
4
37
39
44
26
17
221
255
255
255
255
255
16
40
64
11
24
36
153
150
128
63
78
78
62
100
141
103
138
171
178
230
255
57
68
64
206
234
255
63
88
114
129
116
124
73
68
80
29
67
94
72
43
57
203
201
194
135
151
141
36
31
41
120
109
112
113
108
94
22
5
12
175
184
192
255
255
242
221
191
134
132
137
146
161
184
185
130
144
134
174
154
115
255
246
242
254
255
255
156
158
153
77
108
120
55
61
55
80
126
135
148
160
164
94
110
134
51
63
84
42
40
38
53
60
61
77
97
116
74
101
137
59
79
119
62
75
105
69
76
91
74
77
90
63
73
87
52
55
72
191
196
215
163
173
181
188
180
153
175
163
129
155
155
140
96
103
104
156
175
145
255
255
255
50
45
41
122
131
154
164
171
185
134
138
153
199
195
201
187
180
182
15
13
14
151
159
154
251
246
243
255
255
255
255
255
255
253
237
230
130
107
90
56
83
89
97
112
121
42
43
45
186
192
173
180
175
161
98
115
103
169
173
166
53
59
63
18
23
38
246
232
214
128
139
149
62
73
89
21
11
13
19
17
23
46
36
27
49
49
41
131
113
90
84
71
63
113
123
126
99
104
96
146
153
161
186
183
181
167
167
172
122
133
137
116
119
116
160
165
164
118
134
150
92
78
75
202
188
164
237
221
223
108
90
97
154
166
178
183
219
254
141
185
223
50
79
106
33
40
33
113
134
151
98
139
167
123
145
164
150
153
155
177
167
160
255
255
255
255
255
255
255
255
255
255
255
255
255
255
255
255
255
255
255
255
255
255
255
255
255
255
253
248
223
215
201
174
160
153
131
115
112
99
88
72
70
61
31
31
27
25
28
26
38
51
40
63
78
65
63
75
52
77
87
68
73
69
50
44
12
11
28
28
32
97
113
106
168
159
130
118
100
80
69
88
122
107
151
177
164
192
213
162
185
213
99
60
43
176
255
255
235
255
255
104
72
67
88
173
255
64
180
255
8
132
253
7
158
255
24
9
12
12
3
8
11
2
7
6
7
8
3
7
8
5
4
8
9
6
0
12
9
7
10
9
8
8
8
10
10
8
12
10
9
13
11
11
13
10
12
9
8
12
4
14
12
17
94
75
232
67
123
255
85
65
194
85
121
255
26
17
24
11
11
2
2
7
7
9
8
2
16
10
5
18
9
8
16
10
12
16
8
11
20
9
6
31
10
6
34
11
6
34
8
10
68
28
13
105
44
10
153
64
7
179
83
16
171
85
20
119
61
13
75
38
8
91
49
13
132
80
22
150
98
23
140
87
26
89
45
19
83
71
32
103
85
58
110
97
72
105
93
63
85
72
41
79
61
24
71
45
6
53
19
25
27
20
61
27
67
110
41
95
142
68
128
177
118
187
235
180
250
255
231
255
255
255
255
255
255
255
255
255
255
255
255
255
255
255
255
255
255
255
255
255
255
255
255
255
255
255
255
255
255
255
255
255
255
255
255
255
255
255
255
255
255
255
255
255
255
255
250
255
255
217
255
255
196
244
255
177
206
225
167
185
199
153
164
174
138
141
148
140
134
136
141
126
123
139
124
111
130
115
91
134
114
88
157
127
103
168
132
106
176
132
106
183
130
103
255
231
202
255
229
217
11
10
7
19
12
7
23
22
21
18
21
20
15
2
5
17
5
7
22
9
14
33
22
16
56
52
43
63
61
55
56
51
50
56
57
59
62
73
69
77
84
72
93
89
71
92
86
68
86
79
66
82
67
61
87
61
62
82
52
53
79
45
51
91
52
56
84
58
50
57
47
29
13
14
19
70
62
66
147
119
102
197
157
127
223
196
177
238
241
247
255
255
255
255
255
255
255
255
255
232
255
255
199
255
255
172
255
255
129
255
255
72
255
255
20
163
244
17
75
112
28
22
42
21
7
14
5
10
1
7
5
8
5
6
9
1
5
9
7
5
13
17
11
17
12
13
8
3
11
5
11
10
5
19
8
2
15
13
19
15
13
28
25
73
131
68
189
255
101
247
255
90
172
255
93
104
114
121
110
117
185
193
182
103
82
83
188
199
182
18
36
47
17
26
37
44
56
53
166
159
144
194
205
199
65
62
55
78
70
62
27
56
82
63
15
18
72
49
44
39
19
10
52
27
26
77
92
89
55
93
76
33
37
36
34
49
43
112
135
127
135
155
143
98
113
103
93
89
77
47
37
28
59
67
57
132
118
106
225
251
246
78
128
158
255
225
182
249
235
205
22
21
32
46
36
21
39
55
68
44
60
59
43
48
42
22
88
73
56
29
35
50
96
99
36
41
54
73
91
97
130
191
185
46
33
47
155
172
162
43
91
81
4
22
22
43
75
70
23
60
77
45
63
67
109
117
123
124
133
139
20
36
33
69
71
74
44
60
63
105
109
102
82
72
66
151
106
91
184
179
180
99
36
13
195
153
135
127
109
94
88
89
70
53
80
97
147
84
59
26
40
47
37
2
17
30
34
33
81
137
119
58
78
79
56
73
60
194
224
207
28
38
42
165
187
176
21
37
34
46
54
44
88
134
148
255
255
255
115
93
77
72
96
126
199
214
200
63
84
79
75
101
100
169
213
255
72
80
67
166
226
255
26
30
34
191
230
255
102
109
109
122
133
148
157
162
153
74
90
88
159
131
135
233
217
200
88
93
78
21
16
25
127
120
124
105
110
100
70
56
57
173
175
171
200
186
169
240
208
183
255
250
206
255
255
200
248
221
182
143
124
88
255
250
240
123
113
118
112
120
136
14
41
60
114
70
61
135
100
103
178
119
103
89
35
15
46
68
89
52
87
117
63
89
120
27
41
65
34
35
22
59
81
86
71
105
131
72
107
140
53
71
101
87
92
108
226
222
231
255
255
255
175
185
185
242
232
201
170
158
129
154
153
141
88
94
93
163
182
154
255
255
255
33
29
32
120
127
144
178
188
206
164
170
185
53
53
53
177
174
170
253
255
255
226
243
243
160
170
171
132
129
124
101
96
98
18
25
34
137
138
129
102
87
106
113
145
184
122
152
189
221
241
226
214
206
192
91
110
87
215
225
212
15
42
51
46
52
64
156
155
146
189
205
220
98
122
134
20
23
34
32
12
19
29
13
6
11
13
15
69
55
49
156
152
137
38
40
29
76
71
56
201
206
226
228
220
213
238
247
255
255
255
253
58
51
42
116
113
97
238
242
242
200
208
221
129
120
117
111
106
109
62
65
84
45
40
51
125
133
148
175
200
209
181
220
244
88
126
162
49
34
15
91
95
94
47
93
132
75
107
141
118
147
180
215
200
200
212
175
149
167
143
121
138
124
112
110
105
97
71
74
67
37
39
39
14
14
23
14
12
8
33
29
26
31
29
30
14
20
16
13
14
12
17
17
6
31
38
28
54
64
59
76
91
95
80
100
114
75
106
126
94
134
166
119
156
197
132
174
212
139
183
215
139
180
201
146
191
206
255
255
255
255
255
255
255
255
255
255
255
255
255
255
255
255
216
179
110
255
255
209
255
255
116
172
231
29
158
255
9
159
255
25
142
255
30
150
255
11
22
27
14
13
7
15
6
3
5
6
10
12
9
11
18
4
2
18
2
2
14
3
2
7
4
4
4
5
4
4
7
4
6
8
4
9
6
8
10
5
9
8
9
8
10
10
15
75
97
240
100
181
255
151
159
228
110
197
255
30
73
98
12
7
20
16
4
17
9
5
10
5
4
2
6
3
8
15
5
11
28
8
13
22
5
19
12
1
10
21
7
7
32
10
6
55
11
9
56
12
20
28
5
20
77
38
22
124
70
32
148
87
31
138
84
19
98
62
20
45
29
18
15
4
30
17
8
48
92
53
71
109
79
121
61
116
185
120
187
247
177
243
255
215
255
255
255
255
255
255
255
255
255
255
255
255
255
255
255
255
255
255
255
255
255
255
255
255
255
255
255
255
255
255
255
255
255
255
255
255
255
255
255
255
255
255
255
255
255
255
255
255
255
255
255
255
255
255
255
255
222
244
255
182
197
204
158
168
166
146
153
147
146
143
137
150
140
132
150
139
126
134
117
98
131
103
82
143
109
82
149
111
79
166
120
86
181
135
100
191
143
109
191
136
104
175
115
84
166
103
74
169
100
77
171
103
82
162
102
80
144
88
64
126
67
38
98
42
10
209
171
162
255
238
222
37
33
34
13
10
12
22
22
24
18
20
20
31
20
12
30
28
24
28
29
30
22
29
22
25
33
25
20
27
18
4
12
13
15
17
19
30
24
14
43
36
28
64
55
54
77
75
69
75
78
67
78
79
68
90
88
74
93
84
68
94
75
63
96
67
59
96
63
57
96
62
55
101
68
55
107
74
56
86
61
46
40
32
23
17
12
13
81
65
65
143
122
115
190
169
152
232
218
216
255
255
255
255
255
255
255
255
255
255
255
255
231
255
255
160
255
255
105
255
255
75
255
255
41
193
255
12
101
164
14
38
61
15
12
13
10
6
7
3
2
2
13
5
14
13
13
13
8
12
14
17
11
11
27
10
2
21
20
20
8
36
59
11
89
152
58
134
211
49
172
255
59
148
225
52
57
59
96
79
76
196
195
179
108
76
71
171
179
168
67
72
78
75
75
77
75
92
95
208
190
181
190
202
196
92
73
71
27
22
10
37
22
46
122
79
62
23
31
40
55
34
31
76
71
69
68
102
103
4
23
15
50
68
57
124
150
134
88
103
90
67
71
81
113
142
149
173
218
216
203
247
238
129
158
154
80
78
74
183
198
203
56
114
131
255
227
180
184
183
146
34
41
41
20
27
37
21
32
35
25
68
76
16
34
40
23
56
51
58
85
85
32
48
50
25
14
2
83
135
139
17
55
54
152
168
162
63
101
99
35
69
62
76
63
46
55
106
93
45
85
96
38
46
72
30
47
53
114
132
139
72
102
110
111
108
81
148
157
133
148
143
131
98
86
85
133
125
121
109
81
79
194
170
162
137
145
156
55
78
93
137
163
158
32
60
71
125
79
55
34
36
38
15
18
11
66
80
80
45
107
98
40
43
38
94
145
141
161
186
179
129
155
155
99
149
145
17
25
24
54
33
35
255
255
255
255
255
255
84
117
130
83
68
31
202
232
221
136
155
162
3
36
49
201
255
255
88
66
61
166
223
255
15
22
35
115
125
157
103
139
149
26
50
50
115
89
73
229
192
178
255
253
251
135
121
108
55
58
48
65
76
90
107
114
125
64
62
57
76
61
57
87
88
89
141
148
140
155
168
137
168
171
131
167
156
135
222
210
196
162
167
165
240
205
198
78
58
39
61
65
66
116
111
102
194
133
104
144
108
92
225
172
143
196
142
132
131
75
69
64
7
8
12
57
76
56
108
135
70
119
157
65
100
142
32
44
70
43
56
56
86
107
130
124
128
138
207
207
207
153
161
165
44
43
35
255
255
235
169
157
129
156
152
138
84
86
86
157
173
143
255
255
255
23
28
40
107
102
104
201
217
235
162
164
172
49
44
42
7
10
8
53
60
58
139
151
148
246
238
226
255
255
238
255
255
242
255
255
251
138
129
123
136
134
153
41
48
49
123
138
153
255
255
255
255
255
255
52
55
34
204
200
179
61
55
50
45
57
68
66
78
81
149
156
176
166
187
200
71
73
75
36
19
22
38
28
18
27
34
41
62
65
67
141
140
135
159
149
146
75
82
105
198
197
218
186
171
153
164
178
206
255
255
255
108
98
81
8
10
24
104
100
97
188
185
197
243
219
203
243
219
195
144
125
100
56
41
37
22
17
15
71
79
83
163
177
188
187
222
252
138
189
222
22
55
72
55
69
84
118
167
200
194
226
246
168
182
186
95
109
119
53
76
85
32
64
71
28
58
62
26
41
43
35
26
17
45
37
35
57
55
62
73
65
72
95
89
89
130
143
142
148
180
189
147
191
206
157
204
220
172
215
231
192
228
252
215
248
255
244
255
255
255
255
255
255
255
255
255
255
255
255
255
255
255
255
255
255
255
255
255
255
255
255
255
255
179
181
179
130
137
133
255
255
255
255
255
255
46
126
198
205
255
255
208
255
255
71
114
176
15
155
255
42
134
235
41
157
255
19
27
42
0
11
16
19
5
8
4
6
14
14
11
10
10
9
10
10
4
6
11
7
7
10
8
7
5
8
4
6
8
1
8
7
3
6
7
13
4
7
4
3
10
7
18
18
27
33
186
255
144
255
255
179
182
221
105
255
255
72
148
198
33
27
41
16
34
51
3
25
33
2
8
3
29
20
11
88
39
8
112
48
16
112
43
8
111
34
29
109
20
50
80
12
76
39
33
102
19
61
139
47
78
185
111
97
218
98
124
255
62
185
255
118
243
255
184
255
255
211
255
255
230
255
255
249
255
255
255
255
255
255
255
255
255
255
255
255
255
255
255
255
255
255
255
255
255
255
255
255
255
255
255
255
255
255
255
255
255
255
255
255
255
255
255
255
255
255
255
255
255
255
255
222
229
227
202
202
193
190
177
162
171
154
133
154
133
111
147
123
100
140
115
89
131
101
72
140
106
77
151
116
88
158
121
96
175
131
106
189
136
110
183
119
92
183
114
87
186
114
90
178
104
77
167
98
72
145
88
68
125
76
55
114
65
40
93
49
26
71
35
15
40
8
8
9
32
49
33
69
82
57
103
105
96
141
136
143
173
172
173
194
197
194
214
218
223
238
248
255
255
255
255
225
213
68
60
51
12
11
7
13
17
25
21
19
17
24
25
24
13
27
24
21
33
31
12
20
25
25
14
11
57
19
22
96
43
36
112
52
6
81
59
26
17
7
12
34
24
25
42
34
39
48
38
43
59
51
51
67
64
56
74
77
63
82
83
69
87
85
68
90
82
67
94
75
64
95
72
65
103
79
68
113
84
63
105
74
46
101
66
34
102
66
39
77
52
24
23
18
8
48
37
43
122
95
83
176
142
125
216
187
175
255
251
255
255
255
255
255
255
255
255
255
255
241
255
255
167
255
255
94
255
255
54
255
255
31
217
255
7
127
192
22
50
84
23
14
29
15
18
13
2
15
9
21
11
12
34
15
4
18
26
22
16
60
89
47
150
228
13
83
149
55
97
199
86
168
249
68
79
87
101
98
104
218
217
209
58
32
26
117
122
111
104
104
97
179
189
192
58
69
78
255
255
253
123
132
128
75
65
62
14
9
24
119
60
39
63
35
31
43
26
13
62
50
35
87
107
118
54
74
84
31
47
50
109
142
130
27
38
37
119
138
131
130
168
152
69
100
84
91
105
108
158
160
155
255
255
255
206
231
220
178
207
220
35
104
120
255
218
185
157
163
121
20
24
24
33
51
58
59
42
53
33
50
54
13
75
84
51
31
48
46
105
114
24
36
43
65
87
76
102
160
161
127
121
113
105
149
144
4
48
61
67
72
65
50
89
102
113
182
186
43
62
77
38
43
62
62
59
49
102
120
125
10
48
73
92
72
50
130
116
101
137
116
113
200
194
206
194
210
227
107
138
157
173
172
174
128
113
101
143
153
150
135
152
146
87
81
81
155
122
106
114
89
65
37
32
17
69
108
108
39
91
83
17
21
34
152
212
212
76
88
79
183
227
226
38
98
95
29
36
34
72
133
143
255
255
255
82
64
31
73
104
125
165
158
130
72
94
105
133
133
127
12
16
42
174
215
232
148
163
186
155
186
184
83
90
126
101
59
62
42
64
70
74
147
166
190
166
155
255
255
255
150
165
167
76
98
109
72
89
94
41
71
87
67
77
81
35
17
14
55
42
41
18
24
39
71
65
70
92
64
63
143
83
46
200
133
93
196
136
113
89
54
44
176
141
138
61
55
60
29
50
38
114
67
50
255
219
181
95
88
99
118
92
62
114
99
92
121
94
99
148
103
102
151
101
96
118
71
65
64
14
9
12
55
73
72
118
158
77
108
151
14
35
57
51
51
50
182
180
176
205
203
202
89
91
91
252
252
218
163
151
123
156
149
131
85
84
82
149
160
125
255
255
255
49
41
32
110
99
93
206
224
235
148
149
153
40
34
39
4
7
7
12
26
26
40
38
36
44
19
32
14
2
18
23
1
37
92
73
55
159
155
151
70
80
83
216
227
243
173
176
190
251
255
255
255
255
255
45
40
23
192
188
167
71
70
64
34
29
35
41
51
47
40
40
54
142
147
159
186
191
196
175
177
177
151
151
150
123
127
132
64
58
61
23
36
31
78
86
88
211
215
237
179
170
179
115
103
84
75
88
110
255
255
255
167
153
137
36
26
39
36
44
48
33
44
72
70
49
35
36
43
41
141
116
88
142
120
95
65
66
52
59
48
35
32
33
43
130
137
150
211
233
255
170
205
246
75
108
138
85
77
66
142
117
93
39
25
12
112
110
117
114
131
133
145
173
181
190
224
247
203
246
255
202
244
255
225
245
254
234
222
219
221
191
179
224
207
197
252
253
251
255
255
255
255
255
255
255
255
255
255
255
255
255
255
255
255
255
255
255
255
255
255
255
255
255
255
253
248
247
228
231
224
219
228
228
227
196
183
166
197
213
213
81
91
102
31
32
41
41
49
43
234
255
240
255
255
255
154
149
155
90
196
255
216
255
255
172
255
255
86
148
255
76
139
221
56
195
255
21
61
95
4
7
11
9
7
1
15
7
14
7
8
3
2
14
9
2
12
8
4
13
9
11
13
11
11
13
12
13
11
10
13
11
6
14
16
14
20
19
24
22
9
17
24
24
43
63
222
255
113
255
255
38
27
107
81
255
255
100
209
255
53
182
255
42
153
255
40
136
220
44
138
215
58
161
252
82
194
255
85
236
255
91
255
255
83
255
255
106
255
255
148
255
255
161
255
255
173
255
255
203
255
255
255
255
255
255
255
255
255
255
255
255
255
255
255
255
255
255
255
255
255
255
255
255
255
255
255
255
255
255
255
255
255
255
255
255
255
255
255
255
255
225
233
238
185
190
190
153
151
144
132
122
111
116
101
84
122
101
80
136
113
88
134
109
80
125
89
67
138
93
74
156
106
82
158
108
78
148
100
69
143
92
68
143
90
74
122
72
58
83
44
41
28
20
36
58
53
59
79
48
41
92
54
35
86
44
25
68
23
3
44
3
25
8
41
57
38
87
96
74
116
123
108
137
142
136
160
158
158
180
174
188
205
198
212
229
217
227
244
232
247
255
255
255
255
255
255
255
255
255
255
255
255
255
255
255
255
255
255
255
255
255
255
255
255
255
255
255
255
255
255
218
212
72
51
42
16
8
4
11
6
19
8
5
13
6
5
11
14
21
29
11
6
15
27
30
27
31
4
31
29
56
127
76
90
149
51
58
127
144
64
14
50
41
31
24
15
13
16
21
12
17
10
20
23
9
24
34
13
34
42
31
48
46
44
46
55
53
47
66
65
53
68
73
59
67
70
59
77
71
66
98
84
80
103
86
79
76
63
52
72
57
48
91
70
59
99
73
57
96
65
44
78
53
27
48
38
16
5
10
14
69
53
42
147
116
93
226
191
168
255
255
255
255
255
255
255
255
255
255
255
255
247
255
255
186
255
255
132
255
255
91
255
255
57
255
255
30
165
250
5
91
136
25
37
60
32
20
16
22
24
23
19
70
110
65
209
255
67
43
148
78
7
116
122
134
162
108
119
126
176
175
180
191
207
203
65
44
37
101
102
94
178
182
175
186
208
209
135
114
96
221
231
214
78
73
78
57
50
59
76
34
23
123
66
41
10
11
28
59
41
39
71
85
80
65
95
108
39
31
30
109
145
155
60
71
66
125
144
144
112
159
145
22
65
58
17
18
20
57
74
81
53
84
88
152
175
180
211
210
208
203
236
236
47
77
90
255
234
194
132
137
97
31
37
55
41
46
65
73
60
75
5
32
43
15
62
72
62
88
95
24
96
115
10
7
19
118
156
154
32
70
72
179
193
184
21
74
74
43
62
78
84
40
26
115
182
204
73
90
81
77
73
63
2
10
32
56
46
49
52
77
88
35
53
68
112
117
110
218
237
225
255
255
255
204
243
255
35
65
91
143
139
138
195
225
247
139
169
212
49
64
80
59
72
68
48
59
52
86
67
59
141
132
103
59
53
33
55
113
113
51
85
77
46
90
105
193
246
235
48
50
54
182
237
228
31
70
72
60
49
57
206
255
255
255
255
255
110
146
167
30
18
6
133
106
86
51
107
108
7
66
77
73
69
108
94
88
59
194
205
185
73
73
54
152
141
168
79
32
36
25
27
36
62
89
105
231
218
221
216
224
212
131
122
117
66
56
47
26
44
52
62
26
17
125
110
109
137
93
82
148
94
79
160
97
77
218
148
108
255
190
148
255
212
170
255
222
194
246
201
184
246
203
190
249
208
191
68
61
61
4
20
46
119
96
65
242
206
173
110
106
118
111
83
51
79
65
58
15
6
3
53
54
52
106
91
90
144
126
119
168
143
140
169
130
142
101
55
63
17
63
76
86
123
151
100
121
142
125
133
139
220
215
214
244
235
229
204
205
185
127
117
87
155
147
127
89
85
84
149
157
116
255
255
255
50
44
43
110
105
99
184
198
205
139
146
152
45
54
61
5
10
10
14
16
31
30
24
33
55
41
34
15
11
10
21
2
35
17
0
27
104
107
105
198
189
182
61
56
63
79
71
61
211
232
212
255
255
255
63
64
48
194
183
158
58
59
57
68
83
78
91
99
105
15
6
4
12
24
31
75
83
79
162
168
155
216
214
202
211
204
206
194
190
199
136
124
121
45
51
59
209
223
239
213
197
198
75
62
55
36
48
66
229
235
221
210
196
187
120
114
127
109
108
118
43
40
59
71
54
46
28
36
40
112
86
73
178
162
155
105
105
110
28
18
27
33
34
27
36
34
42
121
124
137
198
223
251
203
244
255
134
156
170
147
167
176
240
255
255
255
255
255
255
255
255
255
255
255
255
255
255
255
255
255
255
255
249
255
255
246
255
255
239
255
255
242
255
255
255
250
252
252
203
191
187
205
196
191
230
235
230
223
225
231
175
169
170
96
83
64
83
81
92
76
73
62
63
55
41
50
37
19
16
17
26
54
87
121
73
82
116
162
173
198
253
255
255
255
255
255
237
231
219
229
236
219
255
255
255
175
203
222
48
45
33
124
233
255
211
255
255
185
254
255
186
230
255
158
255
255
71
158
210
13
12
20
20
20
24
22
20
19
21
17
11
24
19
10
25
21
11
21
10
6
21
10
26
19
23
49
9
43
84
4
65
125
10
95
172
37
157
255
64
230
255
81
255
255
90
255
255
110
242
255
50
80
133
80
230
255
142
255
255
181
255
255
136
255
255
128
255
255
174
255
255
214
255
255
255
255
255
255
255
255
255
255
255
255
255
255
255
255
255
233
255
255
187
255
255
165
255
255
167
255
255
190
255
255
211
255
255
210
242
255
198
213
225
168
183
194
122
145
152
104
117
116
112
100
96
118
92
81
120
92
74
118
88
69
122
87
69
140
97
78
143
94
72
134
84
57
130
80
51
133
81
54
139
85
57
142
88
58
133
80
51
116
70
50
101
58
44
91
50
39
74
40
29
57
23
7
32
6
16
6
27
31
25
52
50
80
107
112
197
232
244
255
255
255
255
255
255
239
254
252
176
200
198
183
212
217
213
238
244
234
246
248
255
255
255
255
255
255
255
255
255
243
254
255
255
255
255
255
255
255
255
255
255
255
255
255
255
255
255
255
255
255
239
251
242
224
236
225
215
210
210
207
195
202
207
202
205
209
205
204
200
188
183
170
155
142
255
255
255
255
212
199
79
38
23
28
21
29
15
15
20
7
5
4
11
7
10
18
22
22
24
9
5
68
55
32
48
34
66
27
110
179
100
87
102
83
144
198
122
48
72
61
38
22
8
5
4
23
20
22
13
23
20
6
17
17
18
26
23
27
27
25
28
28
28
25
20
23
43
42
45
65
68
67
67
70
60
68
62
57
72
67
68
89
84
87
87
82
74
81
74
67
84
75
74
94
80
80
92
73
68
83
61
55
77
50
46
79
44
29
81
52
15
67
47
5
27
17
8
44
42
46
127
108
104
215
176
173
255
246
250
255
255
255
255
255
255
255
255
255
255
255
255
232
255
255
156
255
255
98
255
255
66
255
255
45
233
255
38
153
198
13
80
132
81
170
255
119
74
131
70
38
27
40
43
45
89
77
68
226
237
238
117
144
151
125
106
88
140
145
134
173
192
187
62
73
79
255
255
239
114
125
123
20
20
36
25
40
64
131
68
35
72
42
21
43
29
40
81
88
80
83
119
103
34
49
46
72
97
99
82
104
113
78
95
94
102
150
157
43
85
89
45
53
55
165
234
240
237
255
255
213
233
236
255
255
255
255
255
255
159
192
195
46
12
36
255
230
185
114
108
82
53
64
84
63
66
74
65
52
48
56
106
112
39
22
28
60
116
125
16
76
90
28
60
58
117
153
163
91
75
69
102
136
131
12
58
60
52
42
51
115
155
170
150
176
181
21
17
25
69
52
37
46
24
12
61
62
73
36
56
65
9
31
43
24
75
93
59
48
45
255
255
255
255
255
255
47
96
127
86
72
61
102
112
96
134
156
181
80
98
127
92
103
106
82
94
81
35
18
28
145
133
105
56
36
17
50
111
111
60
75
65
113
161
165
191
233
217
104
103
105
140
209
195
26
61
62
56
35
27
255
255
255
222
221
203
146
182
195
106
112
87
37
10
24
63
127
110
102
187
222
65
44
50
135
171
195
134
161
162
185
195
204
188
159
142
97
94
76
75
100
90
154
91
68
251
232
239
225
230
222
160
146
135
44
26
16
13
18
18
93
64
54
28
44
47
94
78
55
170
132
114
198
146
135
229
183
157
174
152
139
67
75
77
60
46
44
134
104
107
229
189
190
255
237
220
86
68
44
45
57
70
120
111
94
160
138
132
165
144
162
207
190
196
158
143
166
136
106
132
100
54
83
80
45
61
31
19
24
49
41
41
127
97
99
181
137
150
152
101
114
95
46
43
101
86
86
158
155
164
134
132
138
39
36
37
85
91
72
87
78
50
153
145
126
86
80
83
155
163
123
255
255
255
40
30
31
127
125
118
173
179
185
145
143
153
63
69
79
20
16
19
25
25
32
21
9
32
49
40
19
17
12
10
9
7
31
16
5
23
56
60
52
135
122
114
214
200
198
178
168
170
255
255
255
255
255
244
68
95
83
224
217
196
36
64
89
48
70
89
184
190
201
100
106
114
65
51
46
39
50
56
19
28
43
59
72
51
64
64
73
68
73
79
147
160
156
90
79
73
155
182
207
219
205
203
49
31
7
29
29
37
143
152
130
195
187
166
80
88
81
159
153
149
223
210
205
241
233
233
205
211
224
104
110
130
49
37
21
111
117
103
111
124
111
32
36
30
45
41
39
42
36
41
84
96
117
204
230
240
195
198
195
243
249
244
255
255
255
255
255
255
255
255
255
255
255
255
255
255
255
239
222
190
189
164
131
195
176
151
172
191
191
149
185
190
98
126
141
43
47
55
19
10
11
55
72
78
49
74
82
46
33
15
105
110
114
126
128
120
153
166
161
213
216
208
224
231
214
225
229
204
234
226
203
232
216
204
193
162
133
110
90
70
35
34
59
43
57
73
86
88
89
144
159
145
212
210
210
163
173
198
141
148
165
31
10
11
108
156
191
139
197
234
98
179
255
133
255
255
124
237
255
19
72
112
10
79
135
24
115
183
43
157
242
55
189
255
68
218
255
82
255
255
88
255
255
80
255
255
80
255
255
89
255
255
98
255
255
129
255
255
152
255
255
163
255
255
167
255
255
162
239
255
124
144
168
118
163
216
156
233
255
150
230
255
125
187
255
111
237
255
133
255
255
146
255
255
153
238
255
146
207
254
140
185
206
145
169
181
144
151
172
135
136
156
123
118
134
123
108
122
128
103
111
131
101
97
145
108
87
162
112
84
164
112
90
154
111
91
154
112
87
151
103
75
144
86
61
142
87
61
128
87
60
105
68
48
89
51
37
71
36
22
54
15
4
43
7
11
29
15
21
15
25
32
7
40
47
38
73
83
74
115
125
103
142
146
124
154
155
156
169
172
193
197
200
215
225
223
226
244
242
215
233
238
192
207
209
215
234
233
255
255
255
255
255
255
255
255
255
255
255
255
255
255
255
236
255
255
255
255
255
255
255
255
255
255
255
249
252
255
222
230
253
212
234
255
232
250
255
237
244
250
232
229
227
204
203
201
154
154
152
118
110
106
104
100
101
97
88
84
82
72
60
73
61
51
42
26
21
18
38
43
55
92
104
89
131
145
255
255
255
246
192
177
90
68
71
82
72
75
79
71
71
69
67
59
43
44
34
28
32
26
74
38
9
133
81
38
97
65
67
107
150
185
28
68
118
61
106
162
64
45
86
81
42
24
29
29
20
9
3
5
13
10
11
8
1
7
21
22
17
8
14
2
21
28
26
20
19
15
38
29
35
67
35
8
65
42
29
48
23
29
19
15
19
47
39
43
67
53
39
79
65
51
75
67
56
84
82
71
103
98
86
112
91
85
104
78
79
91
74
72
90
76
63
86
67
42
91
60
35
101
59
37
85
53
33
38
32
15
28
14
22
102
75
75
170
139
138
228
198
195
255
255
255
255
255
255
255
255
255
255
255
255
255
255
255
216
255
255
163
255
255
111
255
255
45
177
255
56
116
187
73
84
83
124
117
104
232
227
226
209
227
238
51
82
99
178
158
138
146
158
152
125
143
149
80
72
57
255
255
250
75
81
90
61
69
85
72
28
18
116
59
38
12
8
17
71
58
59
110
136
133
72
96
87
46
63
66
96
131
122
67
65
56
81
122
122
33
79
100
44
50
40
220
255
255
255
255
255
175
204
218
130
150
160
241
255
255
167
178
179
78
97
96
96
70
57
228
203
174
146
131
118
32
65
83
62
32
43
55
40
36
70
124
132
35
12
11
56
122
123
8
42
47
80
137
139
53
90
96
124
143
146
11
45
43
63
78
83
50
9
6
165
205
212
126
111
102
131
120
114
92
65
55
87
69
77
57
69
75
37
51
54
14
24
37
27
82
91
24
38
50
248
226
194
255
255
255
84
138
167
114
76
60
105
102
82
76
91
88
97
105
112
146
155
163
39
76
89
109
90
77
145
129
103
64
47
45
66
110
107
87
92
86
151
195
189
152
190
176
143
146
141
101
174
170
22
64
74
27
59
60
255
255
255
102
90
66
112
138
145
157
180
170
79
121
148
116
202
231
137
224
236
75
108
82
134
139
119
181
179
151
141
124
105
73
54
29
16
12
12
48
20
34
196
164
159
255
255
254
208
200
185
79
70
85
64
80
97
33
39
40
84
62
52
50
37
43
89
53
44
114
77
78
83
53
41
96
89
70
99
34
22
173
103
80
231
172
154
244
198
180
228
193
175
164
144
126
65
65
53
110
109
104
120
127
120
52
62
75
42
12
16
115
105
91
107
85
81
154
140
141
183
159
171
180
154
176
163
141
158
131
113
127
68
57
72
40
40
32
117
105
107
158
123
130
155
145
151
155
164
168
196
186
178
228
222
220
196
200
186
96
85
56
155
147
129
76
71
68
171
178
151
255
255
255
17
8
6
138
136
132
191
193
191
160
151
155
75
76
82
19
22
23
21
20
19
27
18
29
26
23
11
15
16
13
14
24
38
9
11
32
42
47
47
33
27
39
10
12
25
98
100
104
255
255
255
255
255
228
94
133
122
254
249
221
41
68
82
73
94
100
253
253
248
121
144
161
146
161
182
94
97
87
69
68
57
113
125
125
83
86
101
44
51
38
76
85
97
125
134
143
160
178
200
186
175
173
15
14
38
8
5
15
98
106
91
240
229
217
108
107
118
152
150
157
31
46
78
90
60
41
102
94
92
145
154
168
109
118
137
14
20
29
61
72
71
64
64
52
38
27
22
45
36
28
61
70
73
71
95
113
106
123
129
203
225
228
243
251
255
167
163
156
94
113
134
69
86
103
44
46
61
72
106
112
55
50
49
131
115
93
115
63
25
74
17
29
79
59
38
121
132
137
128
134
150
120
136
156
90
104
114
170
175
169
149
135
125
76
57
48
31
4
15
42
28
22
31
18
3
15
13
23
30
59
75
87
122
156
147
179
208
236
255
255
255
255
255
255
255
255
246
238
230
254
255
240
255
255
255
164
175
188
116
118
121
137
143
162
65
68
86
50
77
90
80
165
238
119
255
255
174
255
255
153
255
255
138
255
255
147
255
255
152
255
255
159
255
255
162
255
255
161
255
255
165
255
255
166
255
255
162
255
255
162
255
255
160
255
255
153
249
255
150
207
255
139
145
168
70
61
68
78
100
120
162
180
199
172
194
204
160
173
177
85
106
127
177
148
138
174
236
255
172
169
171
144
135
116
152
137
119
142
128
115
128
118
102
133
119
103
144
124
113
151
123
121
148
112
118
135
101
101
128
97
83
129
92
73
122
78
64
103
59
49
74
37
30
41
12
3
24
17
27
13
44
55
38
77
91
72
108
123
97
126
137
119
145
154
151
175
182
189
213
218
217
240
248
229
254
255
236
255
255
243
255
255
246
255
255
251
255
255
255
255
255
255
255
255
255
255
255
255
255
255
255
255
255
255
255
255
255
255
255
253
255
255
233
249
255
230
241
250
255
255
255
200
190
185
176
195
197
228
238
237
209
207
222
181
183
209
160
165
180
151
162
176
160
172
181
143
152
164
145
155
164
160
176
185
177
181
193
155
173
184
117
134
131
71
76
68
60
63
58
97
86
79
110
74
62
45
50
69
119
167
193
232
255
255
255
255
255
255
255
255
255
255
255
255
255
255
255
255
255
251
192
175
73
52
55
37
35
36
7
16
16
37
37
31
70
72
66
93
88
80
117
82
62
101
38
10
50
42
58
122
92
76
14
47
77
83
88
87
41
35
52
97
46
22
45
39
21
18
15
16
10
13
17
5
12
13
18
25
20
19
29
19
23
20
26
66
43
21
56
27
85
87
22
86
105
46
91
136
59
16
39
31
27
13
13
23
12
7
11
26
22
25
44
39
36
56
53
51
69
70
65
85
80
58
95
83
62
94
85
79
98
84
94
96
78
78
84
67
58
77
64
48
84
61
48
94
57
47
99
53
40
90
41
25
62
25
11
21
2
14
40
43
43
129
112
102
224
181
175
255
255
255
255
255
255
255
255
255
255
255
255
255
255
255
108
209
255
50
69
99
71
66
73
122
108
107
191
198
212
118
131
148
61
18
26
233
207
185
131
160
157
45
69
86
165
156
144
255
255
255
58
56
64
85
73
70
129
76
57
54
21
17
51
24
8
91
89
84
94
132
143
38
39
42
112
144
151
2
28
32
115
137
131
8
37
48
48
48
58
180
222
238
255
255
255
90
79
73
90
104
120
148
154
148
171
196
215
40
76
94
148
111
102
254
235
226
225
218
214
151
151
156
36
65
80
58
8
22
64
71
60
60
111
119
28
19
14
70
127
119
48
44
50
128
193
188
52
42
48
89
132
135
59
37
40
95
80
82
84
114
116
162
158
156
134
134
132
144
136
130
214
212
207
139
114
123
72
84
80
24
34
29
5
12
26
29
86
92
74
22
8
255
241
220
255
255
255
63
138
158
149
103
94
122
111
93
48
57
53
58
60
44
160
166
153
135
136
122
154
117
82
97
78
50
9
11
24
17
61
57
60
96
81
137
178
163
107
131
124
143
147
139
92
142
144
94
126
132
88
137
138
255
255
255
11
10
38
65
87
94
178
214
218
67
90
91
90
141
136
67
115
100
32
15
21
43
66
62
73
93
83
100
101
93
121
111
103
130
107
102
120
85
80
181
161
136
227
223
206
201
189
184
106
76
57
28
33
50
38
39
48
51
52
56
79
88
92
126
108
106
166
131
140
211
149
167
255
205
196
255
191
160
197
140
111
117
81
69
56
43
36
39
39
49
82
89
102
97
113
126
64
77
82
44
49
49
68
77
91
117
133
146
194
221
236
186
213
232
63
77
103
45
37
27
88
76
76
147
123
143
202
174
200
206
179
209
161
134
161
78
53
70
18
34
29
51
93
90
77
120
118
58
69
74
97
101
97
255
255
253
127
116
92
156
149
125
68
59
47
181
193
177
255
255
255
8
20
39
137
143
149
230
220
208
175
161
162
52
53
65
17
25
26
26
27
28
25
12
23
17
10
17
11
14
14
12
21
36
8
18
39
46
49
52
44
28
30
32
39
33
85
100
101
255
255
255
255
246
214
112
145
127
247
251
229
22
32
41
80
77
72
223
217
209
58
56
47
44
77
117
141
182
219
157
191
233
149
174
203
117
139
161
123
147
158
47
69
75
59
63
62
117
122
122
155
149
127
62
77
77
11
7
16
86
92
80
255
252
249
68
50
54
172
165
168
242
237
237
246
240
239
209
213
209
111
111
110
86
93
110
42
52
55
93
106
107
99
98
89
31
46
55
82
94
99
86
113
129
91
86
86
108
98
79
144
141
132
182
179
163
239
233
209
255
254
221
251
237
199
239
221
188
191
174
149
121
94
63
127
108
79
147
117
83
97
76
51
76
89
91
161
174
169
97
92
76
154
158
154
42
49
56
57
29
18
139
146
144
189
203
202
229
236
233
255
255
249
255
255
249
255
255
245
255
255
242
255
248
228
221
199
179
160
130
113
62
44
54
7
23
32
45
34
30
140
161
143
255
255
255
192
193
204
13
14
13
79
97
105
143
165
183
57
65
81
104
120
151
187
255
255
217
255
255
212
255
255
188
255
255
160
255
255
121
205
255
86
145
205
43
70
121
49
18
28
59
45
36
24
25
34
54
69
88
102
121
134
120
141
147
131
158
175
155
190
219
164
217
248
255
255
255
255
255
255
255
255
255
255
255
255
255
255
255
101
90
86
243
219
211
248
255
255
255
255
255
87
65
43
84
63
40
66
46
38
51
25
33
29
14
12
0
27
42
30
58
80
62
88
104
87
107
125
110
129
143
135
161
163
165
198
192
204
233
230
240
255
255
255
255
255
255
255
255
255
255
255
255
255
255
246
255
255
226
247
239
223
244
236
237
250
247
247
255
254
252
254
255
255
255
255
255
255
255
255
255
255
255
255
255
246
253
255
240
242
241
229
225
222
214
210
207
204
205
197
189
198
187
177
184
178
169
166
165
173
166
167
186
185
193
154
153
160
158
158
162
126
111
104
76
71
68
130
125
114
109
115
116
131
126
128
125
115
111
122
113
109
137
129
120
148
132
114
157
140
115
140
134
113
88
68
57
18
34
52
40
62
67
35
49
49
45
72
85
122
178
206
255
255
255
255
255
255
255
255
255
255
255
255
255
255
255
255
255
255
240
233
236
187
185
178
253
215
199
255
224
207
80
55
50
72
61
61
72
69
64
65
69
58
39
40
31
36
12
5
58
20
41
25
48
84
86
73
68
108
84
75
33
54
76
86
80
91
49
62
95
85
31
53
56
40
8
18
15
4
21
23
17
18
22
12
1
7
3
35
35
27
60
58
46
95
59
17
5
93
170
79
93
126
63
129
184
104
22
62
64
29
5
3
5
8
4
5
10
5
10
10
6
15
20
8
10
11
5
15
21
20
25
21
47
42
29
58
49
33
63
55
55
64
55
47
68
62
50
70
65
53
83
71
52
99
77
55
95
71
55
74
58
50
56
43
32
56
38
12
62
45
12
62
50
24
53
38
25
19
10
12
109
81
80
210
159
146
255
222
210
255
255
255
169
255
255
36
17
4
44
35
44
156
151
152
193
201
219
91
104
112
120
64
60
248
219
196
114
149
145
18
43
66
202
182
168
243
239
241
13
33
25
132
92
98
115
79
50
34
34
21
80
30
27
60
87
93
33
76
91
74
82
74
96
132
143
98
91
82
64
108
122
16
26
38
97
123
147
255
255
255
137
148
151
60
70
73
79
75
62
75
83
80
61
91
115
48
11
34
243
228
219
206
208
200
108
102
99
96
92
101
49
52
58
80
58
52
126
122
113
98
122
128
60
29
27
82
120
106
69
83
77
129
198
195
122
109
105
41
89
99
29
55
70
80
34
40
82
123
132
166
132
137
236
237
236
144
124
125
255
255
255
220
171
175
70
64
51
37
55
56
10
20
38
48
63
63
191
147
132
255
255
255
237
255
255
12
100
116
143
104
101
135
139
126
68
86
86
48
75
91
103
141
166
41
87
121
85
89
112
134
136
154
169
162
173
172
153
155
146
126
125
159
160
161
149
161
169
95
98
99
44
82
77
60
73
77
40
36
42
255
255
255
214
208
222
190
176
171
245
255
254
142
160
166
119
128
147
138
140
159
119
116
114
83
82
67
65
47
31
38
3
21
23
18
32
32
60
72
44
77
105
155
166
157
191
202
203
174
177
180
94
68
60
13
12
18
29
21
19
47
52
49
118
125
118
118
122
113
149
155
141
192
196
177
208
209
197
135
135
127
55
45
35
75
62
65
107
99
98
98
99
90
98
105
93
95
102
89
92
96
104
161
169
182
255
255
255
255
255
255
118
127
150
99
106
88
195
213
206
126
145
156
43
62
82
13
30
41
52
38
34
114
105
112
163
153
170
194
172
194
159
140
162
110
118
133
98
128
136
61
71
92
86
96
84
255
255
252
137
128
101
153
145
126
72
52
46
172
198
180
255
255
255
17
34
42
141
153
166
235
213
197
144
130
136
115
117
124
80
85
90
27
32
36
22
12
20
22
11
8
14
13
7
18
22
35
21
27
42
45
49
49
46
31
33
26
37
36
95
117
119
255
255
255
255
238
209
114
139
120
243
253
242
17
22
23
89
77
57
153
147
142
118
118
111
169
159
145
122
106
86
40
31
42
54
52
28
44
43
41
116
107
116
160
185
209
85
100
108
112
115
105
154
152
136
117
133
126
41
51
48
47
50
39
226
208
204
152
138
142
13
10
13
55
69
79
87
67
59
96
83
71
144
123
102
26
27
14
95
104
108
180
194
209
151
160
168
184
215
227
71
74
68
186
217
218
140
154
174
39
55
71
78
77
87
63
55
47
41
30
13
34
28
24
52
64
71
72
94
113
110
127
146
150
177
190
177
194
205
129
129
132
12
8
13
38
53
66
121
135
134
118
141
155
119
113
104
25
32
29
80
96
116
130
124
128
91
63
62
72
52
48
60
47
31
33
22
11
20
13
10
31
21
27
22
19
26
23
42
70
18
19
35
18
24
52
24
5
27
19
24
46
127
137
119
255
255
255
210
215
226
32
37
47
26
37
34
93
121
123
174
193
214
119
125
133
45
33
63
97
107
120
112
131
142
139
171
201
185
225
255
216
255
255
242
255
255
255
255
255
243
242
237
255
253
243
255
255
255
255
255
255
255
255
255
255
255
255
255
255
255
255
255
255
255
255
255
255
255
255
241
222
215
161
146
139
161
155
162
255
255
255
194
148
117
255
255
255
158
201
224
255
255
255
178
220
214
199
241
243
203
250
253
197
252
250
209
255
255
231
255
255
249
255
255
255
255
255
255
255
255
255
255
255
255
255
255
255
255
255
255
255
255
255
255
255
222
238
243
208
220
227
210
216
214
216
211
199
225
216
201
230
229
211
221
223
204
205
203
187
184
176
162
161
144
130
138
117
104
114
93
84
81
66
62
67
67
63
71
74
78
79
82
87
91
95
103
115
127
130
137
148
146
149
151
149
143
137
135
126
122
119
122
119
115
126
124
122
95
97
100
89
74
58
112
89
83
44
26
18
105
77
51
47
60
55
91
97
88
117
105
82
112
82
44
79
39
4
47
15
19
50
7
24
28
23
40
52
86
94
61
98
115
47
105
124
152
218
242
255
255
255
255
255
255
255
255
255
255
255
255
201
188
187
97
86
79
38
31
27
21
23
21
32
21
20
33
24
9
192
143
127
255
234
214
31
22
29
18
23
33
10
12
21
25
28
21
48
48
37
86
67
53
65
44
55
46
81
101
65
68
62
50
37
44
20
2
20
37
36
21
32
68
86
58
53
110
107
88
78
86
86
77
66
69
68
37
40
44
13
14
19
51
22
18
162
103
64
120
69
41
99
152
186
36
54
109
78
119
177
54
38
91
72
38
26
16
19
8
9
8
4
5
5
3
7
10
15
10
20
31
3
10
16
8
5
16
15
8
22
42
20
15
67
49
52
31
9
11
27
30
28
59
54
49
70
65
57
76
78
64
81
82
65
75
72
53
65
67
50
59
63
53
57
55
47
56
45
32
70
42
29
94
49
41
94
52
21
77
43
20
171
147
139
255
255
255
190
255
255
31
26
15
45
50
35
166
161
163
150
151
166
53
76
73
146
92
79
241
224
199
123
155
146
57
81
96
221
196
172
250
244
243
65
72
65
112
54
51
115
83
69
9
51
44
74
45
42
25
87
96
42
25
33
84
113
109
31
47
59
107
128
116
47
98
126
10
13
12
251
255
255
196
242
234
33
41
46
59
69
75
35
40
45
29
62
87
9
50
73
158
130
120
254
255
255
74
90
105
59
76
85
94
100
107
54
66
54
58
49
28
189
187
174
134
138
130
23
39
36
56
80
69
90
142
135
104
160
156
155
159
141
38
63
69
50
79
102
87
33
35
117
130
147
160
127
126
223
234
228
78
70
73
255
255
255
255
240
220
146
108
81
38
25
16
57
35
21
157
133
138
255
255
255
255
255
255
194
247
255
106
147
163
182
155
154
188
205
193
40
57
49
61
100
117
157
219
236
118
166
175
103
129
134
75
94
93
72
93
84
68
99
87
89
110
96
104
121
103
180
190
174
130
154
147
108
141
135
77
83
76
131
126
117
223
238
222
172
203
194
147
142
126
248
239
230
141
140
122
31
28
36
43
37
36
24
33
54
19
46
48
39
72
72
77
103
117
87
110
110
83
110
121
53
40
52
191
198
190
180
195
208
175
178
179
62
42
25
65
63
62
72
73
76
41
48
63
117
116
115
31
15
21
64
50
13
46
45
24
158
160
163
219
203
180
181
146
109
135
106
74
90
71
53
59
41
45
77
71
82
112
101
98
204
203
200
195
192
192
33
33
28
193
200
202
255
255
255
229
255
255
83
97
107
96
94
91
73
67
76
64
62
79
67
70
89
45
57
72
13
23
35
85
62
60
155
138
142
198
210
219
219
255
255
188
221
238
98
111
117
229
233
204
144
136
101
152
148
131
69
47
46
164
197
169
255
255
255
20
33
50
121
131
145
204
183
171
80
66
66
197
179
177
251
243
243
204
205
203
108
106
106
50
50
59
29
29
52
22
28
59
21
28
53
42
44
45
38
22
23
13
22
27
86
108
110
255
255
255
255
249
225
108
132
116
255
255
255
15
24
30
83
70
46
187
182
180
162
161
146
82
74
77
100
103
111
220
217
235
255
255
255
255
255
255
206
220
232
87
118
140
84
105
122
158
159
137
199
183
168
132
152
146
94
95
78
4
4
16
150
137
130
205
199
192
77
68
51
32
58
74
71
48
36
28
38
49
104
87
51
107
101
83
28
30
47
207
222
235
95
100
107
255
255
255
110
120
116
90
107
105
178
186
188
211
212
215
248
249
250
255
255
255
255
255
255
255
255
255
255
255
255
255
255
247
223
215
195
172
163
138
128
112
81
96
95
106
82
95
109
71
93
105
154
159
164
195
195
212
203
189
193
90
67
65
94
99
106
96
128
145
59
75
94
31
38
32
29
27
17
34
31
31
23
10
17
13
33
49
12
39
66
55
87
116
127
130
148
218
216
232
255
255
255
255
255
255
255
255
255
207
173
137
142
165
170
98
100
113
5
24
23
54
47
40
166
168
179
236
232
239
190
213
251
255
255
255
255
255
255
255
255
255
255
255
255
255
255
255
255
255
254
248
206
196
151
126
109
145
129
89
198
188
156
224
206
163
177
161
128
159
159
137
104
102
101
137
136
127
152
136
116
134
129
129
60
49
64
68
82
107
97
123
148
255
255
255
255
255
255
224
232
237
200
163
138
113
138
158
255
255
255
255
255
255
255
255
255
255
255
255
255
255
255
255
255
255
255
255
255
255
255
245
255
255
244
255
255
253
240
242
228
185
176
160
131
116
96
109
97
75
110
101
78
107
93
73
74
56
36
25
14
27
14
43
63
41
73
87
69
101
115
90
121
138
94
123
139
81
106
121
49
68
79
30
30
31
48
31
16
71
60
38
72
62
39
46
45
38
70
65
65
92
86
88
105
99
104
86
76
80
54
46
43
23
24
26
36
29
33
28
24
25
43
52
67
58
68
90
162
161
175
189
193
213
190
179
184
152
155
158
154
151
157
137
140
153
145
159
177
194
205
206
233
227
217
215
210
201
140
152
154
46
81
99
68
138
182
255
255
255
255
255
255
255
255
255
255
237
229
117
85
84
36
15
9
10
9
12
7
3
7
4
2
7
8
7
5
21
12
11
17
12
17
195
143
125
255
226
200
13
7
10
6
7
10
7
7
8
6
6
7
9
16
24
83
42
23
67
36
38
61
76
90
91
102
120
45
56
81
20
31
52
26
26
24
59
90
108
35
72
108
43
29
19
7
5
2
45
33
34
66
60
63
64
73
77
98
76
63
116
57
1
40
43
64
124
100
78
12
49
83
88
93
108
45
31
56
100
54
31
35
37
20
12
21
15
22
22
21
30
28
26
22
30
28
20
30
33
9
15
8
50
18
4
87
8
52
89
65
101
87
14
44
59
42
29
25
25
25
32
30
31
41
36
40
67
59
60
74
59
54
68
54
48
80
64
67
92
70
75
83
63
57
77
60
43
85
60
51
82
58
43
101
61
45
201
184
192
255
255
255
149
209
219
31
39
36
69
68
57
182
183
182
144
148
155
58
98
94
153
96
74
248
238
211
152
185
177
29
61
81
235
223
205
215
223
217
30
41
42
110
58
29
131
117
104
33
49
67
60
60
63
36
91
111
63
44
31
85
123
129
100
79
63
66
120
115
58
96
118
118
141
157
255
255
255
87
100
91
87
77
73
65
85
107
13
6
3
100
157
181
116
107
105
219
224
220
158
158
161
14
16
15
65
66
62
128
126
120
75
110
103
77
29
38
241
244
213
130
123
102
26
74
62
22
31
27
117
184
171
77
109
105
155
179
160
66
73
74
105
101
118
73
74
72
145
144
146
202
188
186
213
227
228
50
98
121
184
207
230
255
255
255
255
255
255
255
255
255
255
255
255
255
255
255
255
255
255
235
255
255
134
195
198
72
82
82
245
223
206
189
189
172
36
63
58
116
172
204
163
199
223
89
66
64
137
108
104
174
139
136
171
138
134
151
116
116
181
152
149
184
146
148
147
121
110
187
187
178
44
68
63
24
19
17
148
141
137
164
125
103
119
101
100
131
149
170
246
255
255
178
189
190
71
95
122
61
64
77
71
84
97
58
62
59
75
81
77
61
60
56
46
60
60
29
41
60
227
221
213
255
255
255
151
192
222
98
92
87
80
47
36
68
45
51
63
48
39
86
80
70
116
118
105
74
85
73
53
64
60
98
91
83
254
231
199
209
179
144
114
87
60
56
40
23
68
54
30
38
32
42
55
60
61
46
39
46
159
158
163
225
205
194
219
197
191
170
162
164
39
31
30
132
154
169
149
161
188
28
26
45
70
80
75
60
76
79
43
61
62
57
76
76
75
100
102
65
91
96
25
45
56
55
49
38
147
157
149
186
209
218
90
99
112
194
190
162
157
149
107
155
157
136
62
44
47
166
194
157
255
255
255
26
41
40
77
85
100
211
194
186
87
87
91
138
140
135
16
21
29
167
162
139
255
255
252
255
255
255
255
255
255
255
255
255
244
246
254
130
132
133
69
72
67
42
50
49
62
81
78
255
255
255
255
255
238
106
136
124
255
255
255
26
34
47
60
50
23
255
254
255
92
95
85
213
217
215
200
208
218
124
132
135
81
88
81
41
53
58
51
53
87
76
59
45
80
112
143
240
255
255
255
247
232
81
101
96
127
125
110
40
24
10
88
73
67
144
151
148
142
145
132
59
63
74
69
51
25
29
37
48
52
48
44
105
109
104
151
160
176
205
219
227
12
4
31
243
255
255
170
182
177
10
24
32
45
52
57
50
50
43
102
107
103
76
80
66
68
64
50
33
31
31
15
15
7
45
37
29
13
13
37
27
42
52
99
109
112
125
144
156
126
146
149
209
230
236
255
255
255
229
252
255
253
255
255
253
245
255
148
124
130
79
85
93
70
83
109
121
129
142
200
205
204
232
235
239
251
255
255
255
255
255
255
255
255
255
251
223
212
182
144
110
88
50
54
33
12
27
11
21
73
57
43
55
19
26
39
61
76
125
163
188
55
53
51
110
125
122
42
42
51
172
161
150
216
224
238
255
255
237
220
184
134
192
155
117
156
117
84
120
84
41
73
51
53
74
79
89
47
44
61
15
29
36
80
99
119
59
86
84
106
134
145
159
169
158
112
108
123
131
125
133
144
145
158
181
191
207
207
212
231
195
197
220
169
166
172
255
255
249
255
255
255
79
67
68
167
187
198
136
156
154
115
112
111
144
139
132
192
183
172
210
192
193
196
179
182
168
153
140
155
143
117
156
142
115
133
117
108
80
71
71
46
40
51
32
37
32
34
25
15
39
34
44
58
104
127
151
205
234
238
255
255
255
255
255
255
255
255
255
255
255
255
255
255
255
255
255
255
255
255
255
255
255
255
255
255
255
255
255
255
255
255
216
239
255
85
112
147
27
36
58
55
50
63
57
63
76
69
89
104
150
160
173
183
183
193
199
196
198
207
203
202
196
194
196
154
163
174
107
121
144
79
74
82
46
49
66
71
47
50
34
50
59
70
67
67
58
53
45
65
61
54
72
50
38
61
21
13
65
44
40
65
39
39
94
167
209
255
255
255
255
255
255
255
255
255
126
92
76
34
15
5
26
12
4
32
19
4
33
23
5
40
28
13
45
26
18
45
22
13
49
23
12
52
24
15
180
136
119
255
225
195
4
4
5
0
4
4
8
10
10
8
8
8
11
19
29
87
32
10
42
17
47
92
85
95
123
145
172
87
88
81
83
106
134
66
55
34
64
92
100
66
66
98
74
51
47
76
66
58
76
78
71
58
67
60
19
26
17
68
17
18
66
66
98
129
116
106
124
124
115
57
95
109
101
104
109
17
62
94
103
40
28
64
57
28
18
24
21
39
40
36
36
42
40
33
37
44
12
14
19
63
58
44
49
22
50
40
89
149
85
135
176
51
72
145
88
48
10
28
23
23
17
8
10
11
11
10
25
23
30
48
43
52
65
56
61
71
57
48
73
62
47
73
64
51
75
69
53
83
69
57
90
69
60
171
166
178
255
255
255
255
255
255
84
122
129
45
70
98
77
79
114
189
187
197
144
157
158
69
115
120
161
109
85
233
244
233
141
131
116
255
255
221
255
255
255
199
213
221
95
109
124
134
112
104
153
141
144
38
24
44
36
69
76
34
67
93
82
105
102
70
104
119
136
147
138
42
106
113
51
57
61
243
255
255
219
255
251
64
52
43
100
104
106
145
175
210
43
49
52
69
146
187
194
191
184
210
212
208
75
69
74
76
84
109
102
99
96
147
152
138
104
135
126
132
101
85
209
222
175
86
74
56
47
98
86
22
20
35
141
201
193
29
71
88
104
148
131
42
64
64
134
108
118
31
66
71
102
93
93
189
177
181
182
200
201
65
110
117
80
138
150
188
216
217
255
255
255
255
255
255
255
255
237
220
209
189
103
87
70
62
57
56
169
170
180
255
255
255
255
255
255
175
196
223
92
110
144
114
155
184
93
138
155
96
120
118
99
112
100
69
79
64
88
103
80
102
121
101
116
131
109
113
115
90
53
75
50
219
219
205
112
119
108
72
80
67
143
146
136
245
218
203
148
164
160
123
152
163
194
216
222
126
122
109
39
66
92
49
58
70
59
75
83
62
59
56
86
73
64
47
42
28
42
48
38
98
74
42
255
255
255
224
255
255
122
135
129
55
62
70
20
11
21
8
15
34
10
15
26
83
71
68
72
70
62
37
23
18
54
43
43
153
127
108
214
187
148
135
118
98
68
68
55
60
48
32
51
35
29
80
95
101
83
98
93
35
55
71
133
153
165
98
98
101
57
33
22
101
81
66
92
80
71
49
47
47
97
117
133
96
106
132
44
52
44
61
76
79
59
65
64
63
67
68
58
66
69
61
69
72
80
93
95
71
86
81
86
111
113
214
232
255
116
127
140
216
209
189
159
153
108
155
159
133
59
43
46
173
199
159
255
255
255
23
31
34
50
61
83
248
227
215
93
82
83
177
159
149
241
240
238
203
213
222
81
103
120
5
22
45
31
14
19
68
62
60
165
156
153
215
205
202
122
122
124
58
58
60
44
59
52
255
255
255
255
253
239
107
135
126
255
255
255
28
38
60
48
40
20
255
255
255
40
52
76
54
43
40
103
109
117
207
206
203
255
249
230
255
247
232
222
203
192
48
39
36
104
94
76
165
183
192
255
255
255
33
41
39
131
124
107
82
73
55
72
65
63
31
40
45
125
129
114
189
190
175
213
210
182
194
191
169
136
130
130
56
51
54
178
184
186
202
210
217
38
41
32
185
193
210
196
193
193
108
110
123
64
65
75
71
72
74
92
106
106
52
53
46
26
21
22
22
33
45
39
51
62
65
74
76
76
82
91
88
107
106
125
129
119
123
133
136
228
238
240
245
240
240
77
68
77
20
17
5
65
73
77
205
232
248
255
255
255
168
164
161
44
49
56
106
110
110
111
109
102
100
84
66
63
42
24
26
13
47
10
21
57
31
53
81
141
151
162
247
251
252
255
255
255
255
255
255
255
255
249
226
184
148
83
70
76
138
180
212
85
93
89
97
123
133
48
37
30
72
67
50
131
155
164
158
151
128
127
136
162
148
181
204
176
202
198
178
186
175
100
98
89
71
82
70
95
79
73
63
60
48
106
99
103
77
98
101
165
184
174
126
131
112
72
75
75
81
89
92
76
86
83
33
47
48
63
55
47
96
81
69
143
124
116
253
238
214
255
255
255
163
149
148
128
163
189
226
255
255
227
247
244
180
177
153
130
128
118
133
131
125
116
114
106
92
88
80
73
63
55
55
40
31
36
38
7
31
35
29
24
26
47
68
104
113
182
237
245
255
255
255
255
255
255
255
255
255
255
255
255
255
255
255
241
243
242
207
208
210
183
185
188
174
179
181
176
184
185
193
205
202
247
255
252
255
255
255
255
255
255
255
255
255
255
255
255
255
255
255
195
204
224
85
90
113
76
82
92
118
109
106
52
50
39
31
30
34
70
57
53
84
73
76
95
87
95
130
123
134
188
168
161
202
187
186
213
192
185
202
205
194
224
229
211
208
214
203
197
199
198
196
194
199
190
184
182
158
128
112
51
141
178
255
255
255
255
255
255
244
191
173
77
39
17
27
15
10
29
22
10
25
23
11
22
21
7
36
23
14
48
27
20
38
28
24
27
17
4
17
12
6
22
16
4
157
127
117
255
230
201
5
10
12
8
12
13
6
14
13
4
4
5
12
4
18
83
24
24
12
43
60
117
103
103
104
145
174
50
44
24
69
90
116
83
61
50
71
115
123
3
58
96
25
28
25
4
15
17
33
14
14
62
42
47
83
73
69
67
49
59
75
108
130
91
95
100
40
69
83
39
43
64
65
68
62
52
80
93
52
36
75
101
101
77
71
74
70
59
51
53
20
19
29
16
19
18
79
61
48
141
110
72
88
86
97
46
130
180
79
73
83
16
101
172
82
33
10
54
45
42
12
8
8
15
15
14
16
15
15
20
24
22
27
30
29
19
24
24
29
31
31
59
43
32
46
34
24
25
10
12
168
166
162
255
255
255
204
255
255
48
72
69
191
180
177
255
255
255
240
255
255
228
232
228
159
179
176
86
113
119
195
170
169
203
248
255
87
29
53
169
167
174
96
96
117
43
59
55
21
29
21
111
94
88
209
202
203
75
82
101
12
64
74
26
34
48
94
138
143
22
45
48
120
165
169
44
105
111
64
78
89
255
255
255
126
141
115
53
30
22
35
50
67
149
169
201
38
49
43
82
147
176
142
94
69
184
187
182
75
79
73
18
25
31
79
81
82
117
145
155
37
61
80
58
32
36
135
134
120
181
178
169
187
177
168
155
121
115
207
216
200
217
226
219
196
214
220
137
121
147
132
104
108
44
69
73
102
98
96
207
197
204
189
214
224
89
115
151
121
134
163
137
150
173
85
125
138
12
78
90
72
108
103
65
139
148
78
176
187
99
191
196
174
223
224
255
255
255
244
255
255
138
184
218
115
164
203
144
175
201
96
94
111
100
78
84
134
99
115
184
141
149
185
139
138
169
128
125
148
116
116
155
115
118
178
123
126
169
126
120
99
61
59
86
41
29
24
41
38
160
139
122
102
62
58
119
144
157
178
214
227
101
103
103
21
31
45
38
54
68
36
67
84
26
53
69
37
39
54
15
22
32
30
19
37
103
101
91
255
255
255
244
255
253
22
32
48
83
81
75
42
37
28
55
59
53
62
70
63
107
102
91
83
92
78
28
30
14
55
57
55
187
166
131
171
160
123
87
91
80
52
46
39
57
53
48
27
7
41
59
62
84
122
109
97
196
183
169
255
254
235
249
196
166
234
193
161
183
162
134
82
78
64
7
22
26
101
117
135
101
120
155
39
35
42
60
64
74
56
60
69
34
39
40
22
22
21
25
34
35
49
63
64
78
80
79
144
142
161
201
209
233
14
16
14
234
226
207
141
139
92
164
171
140
62
41
42
184
214
172
255
255
255
27
38
44
48
70
95
255
238
220
59
73
89
24
14
43
38
44
38
157
155
155
238
231
230
255
255
255
255
255
255
255
255
255
233
226
219
59
64
57
108
106
116
130
127
137
28
38
23
255
255
255
255
247
237
100
124
114
255
255
255
25
35
58
41
37
4
255
250
254
21
31
57
38
24
24
32
26
25
46
25
31
25
22
32
5
6
39
91
76
35
161
145
136
40
47
56
130
147
152
255
255
255
44
52
41
140
132
113
83
77
64
94
92
95
5
26
37
48
60
70
108
110
109
173
161
139
176
173
164
148
153
154
116
106
108
106
120
115
198
195
196
89
73
70
138
141
153
144
134
128
82
90
94
139
146
141
205
210
205
226
238
227
238
241
227
255
255
240
255
255
252
255
255
249
245
238
221
215
201
185
148
141
138
103
103
97
191
194
203
229
231
246
67
70
70
71
73
80
81
88
101
88
95
102
51
22
26
153
206
220
255
255
255
86
73
66
73
69
71
181
183
187
230
231
236
242
245
254
255
254
255
243
235
237
239
223
208
212
191
157
125
113
93
41
37
31
22
23
26
103
114
105
227
193
139
149
154
158
194
226
255
78
76
70
132
163
185
87
92
101
91
87
82
152
151
148
198
174
142
196
164
125
170
149
137
131
106
93
119
100
79
100
77
53
66
57
60
57
54
48
29
40
48
68
58
44
62
58
58
68
73
68
152
137
113
180
149
121
196
161
142
214
189
175
243
224
201
248
222
197
221
203
185
191
186
170
255
255
221
255
255
255
255
254
255
40
28
15
147
147
135
255
255
255
255
255
255
134
105
69
49
31
3
31
19
21
33
25
21
21
27
48
58
59
46
50
55
30
42
60
77
180
224
250
255
255
255
255
255
255
255
255
255
237
214
209
113
91
83
43
30
22
15
5
13
8
7
9
6
8
7
7
6
9
6
4
5
3
2
9
18
19
11
42
39
29
41
33
29
10
23
16
134
147
131
255
255
255
255
255
255
255
255
255
255
255
255
110
108
102
86
69
68
131
119
120
153
144
140
199
185
177
229
221
220
204
202
204
135
127
148
93
67
53
46
53
73
92
58
26
60
54
45
95
88
73
72
60
32
76
68
49
70
58
61
26
54
85
118
207
251
255
255
255
255
255
255
209
155
131
62
28
3
37
25
6
25
17
5
8
5
8
3
4
11
24
7
0
53
29
25
48
29
15
43
34
27
41
31
19
16
11
14
12
6
16
154
122
122
255
235
208
2
8
8
21
15
13
8
10
8
11
8
10
38
12
7
74
18
29
36
58
69
142
134
136
74
125
155
50
53
53
8
40
76
9
8
17
81
142
155
19
61
97
25
21
11
10
5
9
23
28
28
32
43
42
84
60
45
51
16
39
85
108
126
76
93
123
60
27
29
84
92
99
39
24
17
70
92
106
48
97
125
46
34
10
31
43
33
69
69
58
86
85
82
100
98
96
140
111
80
96
46
7
70
72
76
73
97
107
99
110
143
73
116
149
116
61
27
67
58
41
10
4
3
12
12
11
27
27
23
10
16
6
10
19
13
23
29
37
91
66
44
169
110
51
149
91
44
150
94
49
202
224
235
112
185
228
92
81
89
102
84
83
120
126
116
129
109
90
109
114
95
91
83
72
80
100
95
11
26
25
236
239
255
194
255
255
98
108
125
212
239
255
188
213
255
85
109
126
62
83
87
38
16
21
178
198
193
110
117
126
29
76
84
25
18
21
91
141
149
46
36
44
80
146
154
50
103
102
119
162
180
224
255
255
77
72
44
40
22
22
43
88
97
59
32
39
76
100
125
72
129
161
80
72
89
198
189
184
133
126
111
46
42
46
81
113
116
122
180
186
21
74
66
46
55
50
17
52
48
68
98
75
83
91
62
99
95
68
148
164
134
178
203
166
194
218
183
175
177
144
148
148
119
107
135
124
62
88
72
140
160
146
221
255
250
114
190
195
108
168
161
59
126
118
34
102
99
33
94
95
68
105
97
59
104
99
75
118
115
63
99
99
111
69
78
183
144
162
100
90
90
17
7
23
21
31
57
64
76
88
31
48
74
82
93
112
126
128
131
150
136
119
145
125
110
165
137
127
190
166
157
226
205
193
255
234
220
195
186
177
167
159
155
204
185
177
188
160
163
185
154
158
222
188
193
238
230
229
255
255
255
125
137
136
22
19
18
1
31
48
36
16
24
95
88
76
103
82
65
65
51
37
44
31
14
53
60
87
210
226
229
255
255
253
125
120
114
93
78
59
44
38
40
102
110
125
134
132
136
190
185
168
118
135
117
25
41
45
96
104
86
186
151
116
118
99
70
43
43
33
92
83
62
125
112
89
163
131
100
247
201
167
255
248
217
234
195
158
131
110
103
48
82
138
55
79
127
41
21
88
71
76
120
15
29
86
124
96
88
204
184
183
162
148
141
95
85
88
40
25
21
14
27
43
48
47
62
40
38
47
32
31
34
58
56
52
138
140
156
122
142
150
67
55
67
193
186
155
148
148
109
201
211
177
66
38
38
188
216
171
255
255
255
35
48
55
67
85
105
255
249
229
71
86
104
33
40
69
36
33
33
15
24
43
50
64
66
42
28
26
78
53
36
75
57
53
171
153
146
229
221
220
91
80
77
169
167
178
136
124
125
255
255
255
255
243
235
94
118
104
255
255
255
18
30
47
36
37
14
255
244
244
13
27
47
30
16
4
28
10
9
38
14
14
15
10
15
16
22
47
29
20
19
149
141
129
151
148
147
161
184
184
255
255
255
58
95
100
160
168
158
88
109
125
168
188
199
132
148
159
152
173
180
110
105
106
88
86
81
88
93
102
38
57
57
121
122
121
101
121
131
147
138
124
90
70
67
109
113
119
147
136
131
84
94
104
88
91
100
37
29
36
90
95
91
75
60
50
59
39
26
21
10
13
41
42
49
75
72
75
63
43
51
8
13
23
113
116
111
219
222
235
95
104
122
65
61
60
130
139
147
178
178
180
159
154
163
123
144
144
61
53
36
186
244
255
178
194
212
85
101
115
93
106
107
51
48
40
29
28
28
12
11
12
24
31
44
43
33
39
57
48
32
45
47
41
12
18
25
7
9
24
83
98
103
247
226
185
228
231
230
217
235
255
105
104
114
233
255
255
102
100
99
196
188
175
151
157
156
172
164
169
152
156
173
165
179
178
165
169
149
140
133
114
25
16
7
74
96
123
110
125
143
134
145
161
107
111
114
63
49
38
100
92
75
123
114
88
131
104
67
118
89
70
88
67
48
67
61
43
74
74
69
30
30
26
24
36
32
221
219
175
255
255
255
255
255
255
179
188
198
130
137
133
255
255
255
255
255
255
141
151
156
200
207
194
218
217
202
200
192
176
132
121
100
44
50
29
60
100
106
255
255
255
255
255
255
255
255
255
206
171
152
15
21
14
45
51
43
14
13
14
25
17
18
46
31
29
53
40
30
52
45
33
48
42
29
49
36
25
57
36
31
63
39
38
55
35
36
29
17
18
21
30
21
72
82
58
72
73
48
52
76
77
255
255
255
255
255
255
255
255
255
255
245
255
64
80
96
40
45
48
51
51
61
43
60
82
41
57
73
70
108
140
66
53
33
43
63
76
62
57
38
29
49
56
98
128
126
54
47
44
72
95
102
91
95
100
94
159
196
255
255
255
255
255
255
216
166
141
47
20
5
20
6
11
14
7
8
11
8
9
12
8
12
17
10
12
57
30
25
56
35
22
20
8
11
20
15
21
41
17
13
59
35
32
49
31
35
151
118
119
255
238
210
15
21
27
14
20
27
8
22
30
11
9
16
56
29
10
63
18
35
65
74
87
165
173
171
45
93
118
67
82
83
18
13
51
29
39
52
74
143
163
5
43
76
18
20
16
8
7
8
11
10
7
3
2
2
83
43
27
16
42
73
113
137
152
80
111
142
111
84
61
66
96
117
119
94
72
68
87
113
74
115
138
72
70
54
57
55
50
35
26
30
2
5
15
59
44
22
79
40
5
25
56
87
119
120
109
91
106
114
125
107
116
55
95
110
130
57
30
87
66
37
12
9
5
27
31
30
26
27
26
29
29
27
25
35
18
61
51
48
124
65
25
144
79
43
51
8
49
193
114
54
201
209
208
175
225
254
71
151
174
108
96
117
181
192
200
110
140
154
70
94
96
68
69
69
106
122
120
31
30
11
252
255
255
212
255
255
69
80
91
106
117
136
191
208
234
118
136
135
58
89
86
121
83
80
214
232
208
131
111
98
61
101
103
55
62
38
104
151
149
95
103
96
61
119
125
69
95
98
183
242
246
195
232
217
70
55
32
84
72
65
107
144
144
157
209
206
212
237
228
173
195
191
98
78
60
184
182
178
100
87
54
118
112
112
114
150
166
57
115
108
91
73
85
158
126
119
156
124
118
158
133
138
157
134
144
131
107
112
126
77
81
131
94
84
48
15
4
86
75
65
70
62
50
140
126
124
68
53
45
34
32
24
148
148
124
99
110
95
104
101
89
95
84
86
117
96
107
136
103
114
171
125
134
213
155
167
227
158
171
215
144
158
146
100
116
123
95
126
94
85
82
73
46
35
80
68
60
85
87
78
57
57
55
39
41
42
39
32
50
83
78
94
109
111
117
80
90
97
7
33
43
53
27
15
80
61
48
89
69
53
91
82
71
103
96
79
138
121
108
91
79
64
101
86
68
205
202
203
255
255
255
165
171
173
40
54
67
33
7
17
90
86
86
82
101
108
87
84
90
26
41
52
14
2
10
17
29
59
155
170
186
228
241
219
164
171
155
75
74
63
99
104
101
118
145
162
63
57
69
226
206
190
115
134
124
43
33
28
34
48
35
191
163
124
255
216
160
255
228
172
255
237
185
255
233
180
164
122
103
113
158
196
255
255
255
255
255
255
255
255
255
255
255
255
255
255
255
194
224
246
226
255
255
207
252
255
137
177
235
27
36
88
135
99
64
212
185
161
220
201
181
172
165
143
85
81
59
8
8
25
34
29
34
19
19
17
93
98
119
112
133
154
52
32
26
160
149
118
181
180
141
249
254
219
56
29
22
187
201
162
255
255
254
50
56
67
89
90
104
255
255
255
112
117
134
37
32
48
33
17
10
43
39
54
41
51
55
65
40
25
75
67
54
8
26
42
5
17
24
148
143
151
226
210
201
103
104
103
44
27
45
246
255
238
255
239
229
97
121
103
255
255
255
21
30
43
40
45
22
255
246
245
24
28
41
28
9
5
20
1
17
31
14
6
14
5
14
26
29
44
24
12
29
70
60
43
68
54
51
223
244
249
255
255
255
92
136
143
174
169
150
84
80
81
182
184
176
84
68
78
168
196
225
162
170
185
149
157
159
138
144
165
97
89
112
15
32
40
103
113
98
116
84
69
23
19
22
79
82
77
139
126
120
29
28
27
129
131
132
212
218
213
242
247
239
250
246
232
255
255
233
255
254
225
249
242
216
226
221
196
171
172
166
109
114
123
203
197
199
136
149
158
68
58
60
96
97
109
148
155
160
107
108
100
101
107
114
58
76
88
41
75
89
80
113
129
191
247
255
176
180
179
51
53
51
22
32
25
32
37
35
35
38
37
39
34
38
3
20
42
36
50
56
75
94
105
78
100
115
88
108
122
131
150
160
201
184
154
228
230
230
255
255
255
38
59
73
255
255
255
33
24
13
120
111
112
181
174
174
215
199
172
184
157
127
153
114
73
72
36
14
39
41
37
98
124
127
196
222
236
255
248
235
254
236
236
227
232
240
193
193
183
154
127
106
90
72
47
9
4
1
24
46
56
39
34
14
41
43
43
119
124
120
154
163
167
178
185
188
229
230
204
255
255
221
206
177
161
159
154
135
154
130
123
98
141
146
255
255
255
201
182
169
43
28
17
18
10
26
34
33
24
73
62
52
63
120
136
255
255
255
255
255
255
255
255
255
30
18
11
89
86
67
42
39
27
28
27
22
57
43
31
57
40
32
45
37
27
31
31
16
25
24
13
21
17
8
18
12
5
24
10
1
35
19
11
46
30
21
50
34
25
49
37
21
37
27
15
19
28
15
69
90
60
65
53
31
119
159
161
255
255
255
255
255
255
255
255
255
97
98
89
48
60
63
66
70
89
55
70
96
51
76
93
68
59
46
35
37
51
65
63
32
85
49
26
94
113
109
99
67
39
85
113
129
91
125
145
255
255
255
255
255
255
255
226
193
80
46
37
46
27
27
38
22
19
31
20
14
36
26
19
52
36
30
71
44
36
69
38
25
26
8
1
18
17
15
21
19
18
12
14
12
20
7
14
48
24
20
125
102
97
255
232
209
29
32
19
5
9
17
4
11
21
2
17
24
40
35
35
66
69
88
93
97
105
161
184
166
22
57
76
59
88
79
52
31
31
82
87
107
61
138
164
20
17
41
21
25
26
21
18
20
20
17
16
26
20
21
85
43
36
50
90
115
132
154
171
50
89
123
111
100
81
56
77
94
122
103
75
60
102
140
33
83
118
20
14
11
4
11
7
22
15
11
43
27
24
85
61
47
68
42
41
56
88
107
119
127
134
37
62
78
119
110
117
81
110
122
67
11
44
113
72
63
78
69
69
58
65
63
23
36
25
19
22
23
67
57
37
127
84
63
83
29
15
80
50
27
92
71
65
138
64
17
109
100
83
103
123
135
216
255
255
92
112
130
138
125
127
91
87
91
62
66
67
105
119
96
150
161
160
58
42
20
236
234
232
255
255
255
96
126
141
180
189
214
195
219
237
95
114
120
29
52
47
149
110
100
155
162
136
98
126
133
82
116
135
71
86
94
83
123
143
92
122
124
17
51
54
77
101
83
150
183
178
149
160
157
65
85
98
96
98
104
32
67
51
35
75
69
32
42
70
87
114
131
255
255
255
253
255
255
146
159
196
179
176
202
100
126
155
73
21
38
87
101
69
115
128
96
62
85
68
63
90
73
87
106
77
113
137
113
113
125
106
180
165
152
62
74
56
75
85
65
78
80
57
116
100
82
49
35
60
76
42
80
148
105
128
203
150
172
208
157
175
201
155
178
191
145
174
166
115
139
161
113
122
148
109
111
129
84
95
139
92
110
165
140
149
139
134
139
24
23
17
102
101
105
131
129
121
113
124
121
73
83
90
72
83
85
89
87
91
111
106
90
109
98
80
86
77
73
79
83
88
33
41
57
52
59
76
52
65
79
34
65
76
56
77
77
138
135
134
66
75
87
76
78
87
229
241
250
255
255
255
169
185
187
22
48
65
38
29
22
38
52
66
101
110
114
115
126
118
30
35
32
12
3
15
68
52
26
128
143
153
219
229
217
182
193
174
130
135
119
135
146
149
50
89
121
115
72
31
204
197
183
64
88
99
77
50
47
91
56
46
38
35
37
76
51
47
53
4
26
12
32
44
62
94
94
255
255
255
255
255
255
255
255
255
255
255
255
255
255
255
255
255
241
255
255
255
155
148
127
228
223
217
221
210
213
255
255
255
255
255
255
255
255
255
169
201
239
25
63
88
134
96
83
255
225
210
255
255
235
231
209
174
155
146
124
211
207
185
255
255
255
255
255
255
163
177
183
134
136
111
255
255
215
86
74
52
172
169
140
255
255
229
45
39
54
92
87
95
255
255
255
126
128
140
15
24
42
15
11
15
41
35
42
36
40
43
46
46
34
63
56
44
18
24
45
14
15
21
55
57
71
134
120
113
173
163
156
141
140
128
255
255
255
246
231
218
101
125
105
255
255
255
22
28
41
44
49
29
255
253
254
28
28
40
15
11
9
4
6
22
26
16
10
24
10
9
31
33
45
14
4
26
60
52
43
25
15
23
230
248
249
255
255
255
99
137
148
188
173
154
72
69
67
140
147
147
145
144
143
133
131
120
10
27
70
99
119
135
121
133
150
154
157
160
137
148
167
105
109
109
70
64
63
69
85
92
44
31
34
99
101
101
125
130
131
64
77
72
62
54
53
77
73
68
73
59
45
61
40
29
35
28
22
18
22
22
24
21
14
35
64
79
138
156
161
255
241
231
60
79
103
117
116
114
107
96
76
177
185
165
177
172
151
140
160
147
239
224
198
210
178
120
131
117
120
124
166
196
212
238
228
129
151
156
79
96
129
95
115
157
119
143
173
121
141
159
126
151
169
157
174
184
183
187
185
191
189
178
201
194
182
221
212
208
202
185
167
122
126
115
255
255
255
50
29
25
255
255
255
136
129
119
58
54
55
111
123
130
107
94
83
41
29
56
43
53
61
64
78
74
124
125
107
241
232
221
233
194
173
76
40
35
4
4
24
112
118
123
214
220
212
237
217
192
168
144
114
92
91
72
170
168
152
238
230
215
235
218
204
221
199
173
200
181
153
167
152
130
171
161
136
207
182
151
141
118
121
27
25
42
108
131
142
139
128
125
236
255
255
255
255
255
192
189
184
210
194
177
174
138
121
49
67
98
255
255
255
255
255
255
255
247
212
30
48
41
96
87
69
6
13
7
50
36
31
55
36
30
39
30
26
19
25
19
7
15
9
3
4
3
5
5
10
2
5
8
7
6
5
13
4
5
17
18
14
25
25
17
40
34
28
51
42
29
73
64
40
93
82
58
76
52
43
13
38
28
81
78
71
12
50
45
255
255
255
255
255
255
255
255
255
123
119
107
75
63
63
42
89
125
87
111
131
120
135
136
207
204
182
255
249
227
255
241
230
238
239
234
211
187
164
76
100
128
169
243
255
255
255
255
255
255
255
99
37
20
11
16
34
10
17
25
16
21
21
28
30
29
33
35
34
28
26
24
47
25
21
23
5
4
6
4
5
17
20
21
37
42
40
36
29
31
14
22
27
15
22
34
103
93
95
255
215
196
14
44
48
19
45
53
5
38
47
1
25
33
11
15
31
21
25
66
37
43
77
111
149
153
85
115
144
49
76
103
35
38
49
94
102
121
65
134
161
26
14
27
13
19
25
10
8
8
6
3
4
31
18
10
62
17
7
68
110
131
113
132
149
19
52
90
93
87
76
55
48
56
75
62
32
84
140
171
34
69
99
8
6
6
7
17
12
10
12
13
2
8
11
90
50
29
56
9
31
93
112
127
93
127
146
74
50
39
104
107
120
20
46
72
39
73
101
57
18
9
37
27
29
60
57
63
91
90
90
100
100
95
128
99
79
126
68
28
31
47
65
75
58
46
70
71
61
59
6
28
151
135
120
187
217
227
155
196
219
99
94
116
118
125
145
13
43
51
37
39
27
142
146
130
160
168
180
62
43
34
204
209
210
204
234
250
130
139
140
202
222
230
131
184
182
73
135
123
38
98
84
133
126
113
118
129
115
121
159
146
113
136
119
124
138
116
129
163
149
162
211
210
130
155
164
85
94
102
131
145
147
187
203
197
168
190
185
171
188
189
108
111
110
115
128
126
105
121
121
151
151
143
255
255
255
175
194
202
63
117
169
111
115
147
53
84
106
110
88
109
110
80
115
134
94
124
133
98
125
108
77
119
81
64
106
30
16
48
51
27
43
114
90
76
16
56
51
56
20
39
74
48
78
79
48
74
84
53
94
76
49
82
73
45
66
86
53
61
84
56
63
85
68
78
53
47
46
22
18
26
10
19
11
32
34
31
34
24
34
12
17
23
8
8
16
18
21
3
146
134
130
133
149
144
140
131
113
141
150
132
51
63
71
64
73
65
67
63
52
64
56
38
53
35
26
72
54
38
86
79
69
50
47
56
77
69
76
106
93
94
117
108
117
140
133
137
197
184
180
103
107
115
108
111
123
255
255
255
255
255
249
145
146
136
57
29
26
49
32
17
53
34
28
48
44
57
33
35
43
64
50
41
20
46
65
93
96
96
78
105
113
154
163
171
109
121
117
46
31
32
93
93
112
68
57
91
165
128
97
171
180
176
68
55
64
145
125
118
244
211
190
255
255
255
255
255
255
255
255
255
255
255
255
255
255
255
255
255
255
255
255
255
65
50
41
50
54
60
18
18
29
178
175
163
255
255
255
95
76
41
165
163
163
28
41
45
88
53
35
116
94
92
212
198
203
255
255
255
255
255
255
255
255
255
162
187
205
53
52
56
205
176
127
184
148
101
33
10
41
53
22
14
199
183
157
255
255
255
190
202
222
130
108
96
170
147
90
200
179
141
248
234
203
90
83
67
168
158
147
245
220
203
86
95
110
32
50
74
21
27
29
17
13
23
25
26
19
34
30
37
41
24
10
14
23
48
5
11
22
28
30
42
51
38
35
15
19
21
95
105
96
255
255
255
239
228
209
105
127
105
255
255
250
23
26
33
46
52
36
247
232
233
47
42
55
17
17
21
16
28
34
13
9
24
17
13
24
39
38
59
29
29
49
43
30
26
31
31
31
237
255
255
255
255
255
84
120
130
194
172
152
72
67
60
85
95
93
27
36
31
78
74
64
158
145
119
216
208
185
245
236
241
173
166
179
114
137
155
160
158
153
63
44
38
112
131
128
81
90
95
66
71
75
136
133
139
120
132
130
66
70
68
64
68
62
53
51
36
32
21
20
7
3
7
9
14
22
18
39
49
75
110
138
215
236
243
180
156
119
68
76
88
10
43
79
255
255
255
255
255
232
255
255
255
219
235
215
255
255
255
255
255
217
255
255
229
140
134
138
171
174
161
240
247
221
243
251
234
218
219
204
194
187
182
160
149
158
149
134
146
146
119
113
118
95
86
91
73
64
66
49
35
77
72
77
103
89
49
58
49
43
196
218
255
101
96
89
180
210
230
89
93
83
118
115
109
189
190
186
216
206
199
210
202
192
159
148
128
81
76
63
192
181
168
244
211
191
23
2
11
57
53
59
15
13
36
84
86
94
25
33
46
178
174
160
232
195
163
87
73
52
108
83
56
63
37
12
23
40
51
102
106
112
144
147
156
185
184
199
217
211
216
252
225
201
154
142
137
42
37
20
77
87
88
174
163
162
110
173
198
255
255
255
232
189
158
50
66
58
85
147
176
255
255
255
255
255
255
255
237
195
43
62
50
79
76
49
37
22
24
89
60
48
76
54
42
54
43
39
40
36
35
42
34
27
56
35
25
64
40
30
58
44
33
51
43
32
46
40
33
35
33
31
25
26
23
14
17
13
11
10
14
7
3
7
9
12
11
8
0
11
31
31
25
51
28
32
5
24
13
77
76
60
16
17
29
255
255
255
255
255
255
255
255
255
127
92
76
132
159
168
245
232
202
237
218
186
187
155
131
142
109
93
143
119
106
179
187
186
239
220
202
107
100
124
255
255
255
255
255
255
179
97
73
50
63
60
60
60
54
57
52
47
57
48
39
51
43
31
48
40
29
66
53
47
63
39
31
17
8
4
14
14
10
17
13
9
14
18
16
42
46
45
21
21
21
17
17
14
117
109
113
255
201
177
7
21
29
13
28
49
11
44
60
13
49
55
24
58
65
33
76
103
39
84
127
68
128
157
100
166
189
106
153
185
105
137
167
88
120
144
68
119
148
37
36
51
40
41
57
18
27
35
11
26
42
49
33
36
31
24
42
97
135
154
102
121
136
32
27
53
75
73
70
49
19
24
17
10
32
82
148
169
15
46
69
25
6
10
21
17
18
15
18
21
2
13
15
96
55
33
34
69
101
153
178
193
64
103
124
129
124
114
34
69
98
55
30
37
62
76
101
94
65
57
73
66
58
44
42
35
14
21
17
23
10
8
97
50
21
60
5
44
120
122
127
96
110
124
136
141
136
11
46
72
220
176
135
180
204
192
76
100
104
102
91
79
93
93
77
79
87
76
11
64
60
156
143
138
154
155
164
73
69
64
176
206
215
113
165
189
161
174
191
134
142
153
50
99
93
44
85
83
53
21
15
183
147
131
134
95
94
98
71
76
83
57
68
109
105
113
53
47
63
89
116
123
95
112
106
40
81
70
71
78
72
110
116
118
113
154
160
140
168
170
25
42
55
29
37
45
59
74
81
134
136
128
255
255
255
198
219
213
23
41
52
67
78
86
63
81
80
52
72
67
108
117
109
148
153
140
157
157
144
151
141
136
163
151
153
166
159
164
170
163
173
117
118
143
64
66
94
104
113
124
88
92
74
63
58
33
10
20
18
38
43
44
55
52
52
62
62
61
58
63
60
32
43
50
72
66
67
46
43
53
26
30
27
23
17
9
20
11
13
51
37
54
86
74
90
97
86
88
222
209
191
181
185
172
180
142
115
185
181
153
72
64
73
113
107
96
112
112
97
73
67
70
39
31
42
76
56
48
81
77
72
93
98
103
96
95
93
118
101
90
89
75
76
91
77
77
178
170
159
115
125
129
121
131
135
255
255
255
124
104
67
132
148
158
171
193
206
175
205
217
228
251
255
255
255
255
255
255
255
255
255
255
255
255
255
255
255
255
255
255
255
255
255
255
251
255
246
175
175
172
125
145
160
86
43
49
185
154
119
158
164
169
73
28
8
140
121
102
190
176
148
255
213
168
236
168
122
230
168
118
229
175
125
197
148
111
138
115
120
102
133
166
10
49
82
27
24
28
32
41
62
190
188
175
255
253
200
104
86
52
100
107
109
65
60
67
31
19
12
12
20
41
22
33
52
41
26
45
118
82
73
244
215
189
255
255
255
255
255
255
255
255
255
255
255
255
255
255
255
255
255
255
255
255
255
164
179
191
47
58
60
36
25
34
16
30
60
83
75
92
175
178
173
87
100
97
85
74
60
139
121
114
50
56
64
17
26
52
17
16
24
13
17
38
21
34
44
31
15
14
39
11
15
17
12
32
2
14
38
29
28
31
66
58
64
26
32
32
86
91
90
255
255
255
230
224
196
117
139
110
255
255
245
32
32
37
46
53
44
179
166
164
153
151
154
213
212
221
157
151
158
66
67
78
19
37
51
27
42
62
17
38
71
21
2
8
24
9
10
244
255
255
255
255
255
74
109
113
185
161
138
58
51
43
135
145
132
134
127
122
204
208
185
127
138
147
42
41
40
36
43
51
47
43
42
28
44
68
192
207
215
141
115
115
80
90
81
96
89
84
72
62
60
92
87
91
163
173
180
184
192
207
170
180
195
152
163
174
153
171
188
178
201
228
202
219
250
212
224
250
228
240
246
248
241
220
119
97
84
106
103
98
201
237
240
255
255
255
108
98
83
255
255
255
149
161
147
255
255
245
145
160
138
255
255
226
177
172
177
34
37
51
47
44
52
80
91
81
51
66
53
26
41
34
20
29
33
44
49
64
10
7
5
98
111
125
117
125
130
132
131
130
153
149
150
189
183
153
93
94
97
166
187
220
63
66
53
197
229
251
86
99
108
61
79
104
72
71
52
120
92
62
126
73
30
134
106
85
86
61
35
225
205
184
111
81
70
100
96
94
75
97
105
136
178
202
139
162
174
91
108
108
53
68
71
190
170
151
99
66
52
129
146
153
241
238
235
233
221
206
203
194
177
170
165
153
141
135
133
176
183
178
255
255
255
194
184
180
97
115
120
122
140
144
188
194
190
130
178
188
255
255
255
194
148
118
85
93
106
255
255
255
255
255
255
255
255
233
19
44
37
96
83
46
24
18
28
69
48
35
36
18
15
8
2
6
6
5
6
4
11
13
4
19
15
11
20
18
25
20
21
31
26
27
33
30
31
39
31
32
44
32
33
53
42
39
66
57
48
72
64
53
70
62
48
70
65
46
75
71
53
71
60
48
50
32
28
14
4
3
18
24
14
67
79
60
11
15
33
255
255
255
255
255
255
255
255
227
89
121
131
183
155
140
67
103
115
151
159
140
202
202
172
242
232
211
176
172
158
219
189
162
20
107
158
255
255
255
255
255
252
59
23
20
11
10
7
20
11
11
29
15
17
28
19
14
26
17
12
22
11
12
61
52
45
62
38
29
10
5
13
13
18
22
28
26
27
24
22
22
25
28
28
32
32
32
7
7
3
132
124
128
255
195
166
16
16
18
20
22
23
19
24
23
12
21
21
12
10
13
12
10
12
25
24
40
16
24
46
14
41
53
22
80
92
55
114
129
50
105
117
42
76
96
8
15
22
48
54
80
44
33
40
23
14
4
36
38
52
72
85
100
93
115
128
79
97
107
31
5
24
69
63
57
69
40
27
43
68
82
79
140
157
26
31
47
8
8
8
5
10
9
18
29
27
26
30
29
100
64
39
69
129
165
172
211
217
80
66
61
136
145
140
42
46
75
45
31
55
24
52
81
58
29
13
24
19
21
44
34
33
60
53
56
76
68
70
125
79
63
37
27
59
157
161
161
24
40
49
161
151
133
12
65
82
172
117
86
197
225
220
134
161
172
72
69
72
41
24
17
58
28
29
58
46
47
151
143
134
148
166
167
114
91
105
148
165
160
28
42
54
82
73
86
34
34
42
32
70
59
48
111
95
128
163
144
211
230
205
117
164
147
119
167
157
148
171
161
150
164
156
120
133
136
127
171
175
157
174
179
132
142
144
171
175
167
179
200
192
163
196
189
130
150
142
51
59
63
44
51
45
48
60
53
77
68
68
255
255
255
255
255
255
114
115
110
69
79
83
94
110
105
47
54
72
36
38
67
43
53
68
24
40
36
30
24
16
62
43
18
105
83
69
94
84
78
74
67
72
87
76
78
74
81
62
93
96
88
102
107
94
68
64
85
60
56
74
56
48
58
76
63
67
103
90
88
61
61
64
70
59
46
62
57
46
115
102
89
130
117
110
102
87
85
114
88
86
85
68
59
69
60
48
238
230
211
169
185
179
205
171
134
216
213
172
14
28
40
63
58
32
55
55
64
70
87
93
40
41
53
50
28
28
57
54
61
83
85
84
106
106
93
113
100
76
45
46
31
42
33
32
132
134
137
100
102
119
110
115
136
255
255
255
255
255
255
255
255
255
255
255
255
255
255
255
255
255
255
255
255
255
255
255
255
255
255
255
255
255
255
253
247
236
255
241
224
248
233
213
205
198
170
255
255
255
209
236
234
125
66
37
206
186
156
142
143
151
91
50
29
158
133
121
155
170
153
80
72
44
21
29
48
76
74
59
49
47
42
25
33
44
36
53
74
74
110
140
49
89
121
11
14
48
48
49
68
210
206
183
255
253
212
126
107
106
101
115
131
86
86
101
27
28
29
14
13
11
22
28
34
14
8
17
25
31
15
17
16
23
74
49
18
191
171
132
255
255
255
255
255
255
185
180
182
140
141
151
241
248
247
255
255
255
255
255
255
246
255
255
130
130
146
14
7
7
164
156
154
255
255
255
255
255
255
222
220
229
120
130
149
41
58
84
42
40
40
45
42
54
7
9
11
58
44
42
31
16
17
19
5
22
8
13
45
24
25
20
61
59
71
29
27
30
95
94
88
255
255
255
211
207
175
131
155
121
255
255
236
34
36
43
49
56
51
145
132
130
125
116
113
51
52
46
179
171
159
255
255
244
255
255
255
255
255
244
220
222
221
125
127
124
50
46
42
245
255
255
255
255
255
79
112
108
166
145
119
40
34
26
192
196
179
129
122
132
113
102
75
201
194
186
239
223
203
255
240
226
208
188
177
60
61
54
174
187
177
188
171
171
41
57
62
89
86
92
65
49
41
61
61
54
130
138
132
217
230
223
255
255
255
232
243
237
197
205
199
196
199
187
189
188
168
171
160
142
134
114
97
79
69
59
38
36
26
28
30
50
208
218
202
255
255
202
34
72
82
255
255
255
78
117
123
255
255
254
86
109
82
253
237
175
237
238
233
92
90
93
114
97
81
125
98
62
113
89
56
120
98
72
134
107
93
131
104
107
89
70
80
190
213
237
184
191
207
172
175
188
167
165
172
255
255
239
239
240
235
131
153
175
6
2
10
201
236
253
75
82
97
130
138
147
186
196
208
209
221
232
174
195
206
86
95
99
102
105
90
145
115
105
43
64
81
114
123
137
107
131
160
136
141
148
93
97
113
81
100
104
81
87
84
69
67
54
180
163
154
143
145
148
53
45
37
53
45
42
48
66
72
38
41
50
18
20
24
125
135
118
255
255
255
154
133
130
131
116
94
152
138
115
194
163
146
113
131
145
205
206
192
131
83
56
123
192
233
255
255
255
255
255
255
68
18
17
92
94
60
23
13
5
38
23
11
37
31
23
66
55
42
76
62
55
76
63
66
80
67
69
90
76
66
100
85
62
102
87
63
95
84
68
89
81
69
85
76
67
77
66
63
68
56
56
59
48
45
47
38
29
30
24
15
14
10
10
8
8
8
5
8
7
10
14
7
29
21
7
39
26
7
34
29
30
46
64
55
43
70
77
255
255
255
255
255
255
117
60
50
178
157
139
170
167
137
167
124
83
100
70
47
128
107
87
144
131
125
151
114
87
148
248
255
255
255
255
219
148
129
28
40
28
28
31
29
38
37
41
50
49
52
59
59
62
66
66
67
69
69
69
89
84
78
83
64
54
19
9
4
7
5
3
2
6
12
11
12
20
8
12
10
28
27
25
16
10
15
125
119
122
255
192
162
4
2
6
2
13
11
7
8
6
8
13
17
1
12
6
10
6
1
12
15
19
13
18
29
7
16
21
8
12
22
14
17
30
12
17
26
26
12
22
29
10
19
5
26
39
38
56
72
47
67
83
29
63
84
15
51
71
37
83
110
103
147
177
102
151
187
54
103
135
42
65
80
72
94
101
53
98
117
32
43
50
12
23
27
11
14
7
20
20
17
35
25
17
104
62
29
103
153
182
163
202
198
111
84
65
101
129
132
41
16
45
27
60
87
21
46
69
49
39
29
10
14
21
18
18
21
13
10
11
70
41
31
128
56
25
36
57
77
134
151
162
53
37
25
117
130
132
48
44
72
110
58
29
107
133
123
48
78
89
86
93
117
49
65
82
79
79
61
15
34
26
147
111
103
47
87
73
148
158
142
153
195
180
132
125
122
98
84
76
69
57
51
35
43
58
39
28
40
120
79
73
158
132
121
131
98
105
110
65
72
105
55
71
135
95
122
171
131
153
76
27
39
64
40
49
52
13
13
108
75
74
154
149
164
159
191
207
75
97
96
20
15
23
15
15
14
24
38
50
40
66
75
131
124
124
255
255
255
219
211
195
138
133
122
125
140
122
40
43
35
82
84
78
111
123
111
102
107
102
94
92
96
79
88
96
73
86
97
59
75
82
46
52
57
62
65
63
60
75
55
113
103
86
137
130
112
83
72
74
82
77
85
89
79
85
108
91
95
142
117
113
102
86
97
77
56
41
111
91
77
146
120
104
160
136
112
171
156
128
191
178
137
152
146
115
100
91
83
247
250
244
138
166
173
201
173
144
255
255
205
104
124
110
148
132
93
137
148
163
134
147
151
91
115
121
59
44
49
97
99
109
127
125
130
141
137
135
87
68
65
52
54
78
116
120
123
141
158
171
169
185
195
150
164
175
193
201
209
246
243
236
217
206
184
172
167
148
149
149
140
115
116
108
68
74
61
14
20
5
38
38
41
49
57
60
29
41
45
27
11
10
41
37
33
36
29
53
255
255
255
211
241
226
162
98
82
221
200
172
127
132
122
113
71
60
167
143
125
149
164
139
79
76
48
37
41
55
60
54
40
37
36
27
12
18
21
19
20
45
59
85
118
63
101
122
42
54
77
44
58
74
234
230
193
255
255
248
93
80
71
161
168
185
104
106
131
46
32
22
5
2
15
6
20
29
10
25
13
13
13
4
5
3
6
13
24
26
17
34
41
12
12
22
34
34
38
23
32
55
22
31
61
48
61
94
83
89
107
144
149
163
244
251
255
255
255
255
255
255
255
225
253
255
80
103
131
98
77
46
255
252
227
255
255
255
255
255
255
211
229
244
56
81
97
24
4
22
57
35
21
38
39
32
25
27
47
22
31
49
32
40
37
33
35
47
32
33
37
133
131
123
255
255
255
196
192
160
131
153
120
255
253
217
35
38
50
62
65
66
201
190
190
164
155
150
223
208
204
163
161
169
48
62
83
25
18
29
41
42
59
89
93
102
151
153
153
93
87
81
239
255
247
255
255
255
88
118
109
148
133
104
47
42
37
212
210
193
135
127
128
11
10
13
36
44
68
28
8
15
50
42
51
100
74
51
117
109
98
192
205
189
152
130
118
95
126
142
111
129
147
75
92
112
62
81
98
77
81
95
24
33
31
98
109
101
115
122
113
56
46
38
7
16
27
34
48
64
63
69
77
82
86
86
79
84
76
68
80
87
53
66
75
176
171
140
255
239
187
43
72
77
255
255
255
65
106
103
255
255
255
66
91
67
254
228
167
255
255
255
194
196
188
154
143
142
176
171
178
165
172
186
142
161
172
130
152
161
153
175
184
72
65
73
133
164
183
197
196
199
222
226
227
224
230
232
247
249
229
252
248
232
123
140
160
12
19
31
149
178
181
156
159
180
60
51
59
103
118
97
132
131
117
107
109
105
67
98
115
139
135
103
46
58
71
58
62
70
32
44
43
123
147
152
74
68
66
133
152
154
146
149
119
112
105
87
44
53
74
136
137
130
193
177
165
45
31
36
43
39
43
21
53
68
61
76
82
81
93
106
121
138
131
255
255
240
116
90
101
115
81
56
63
80
73
154
123
96
40
85
115
149
160
138
82
50
70
255
255
255
255
255
255
199
140
111
77
87
64
55
49
31
13
9
19
26
23
36
39
32
34
41
33
32
35
26
29
33
19
15
27
7
2
15
8
6
5
12
8
19
12
16
33
18
22
39
23
25
42
26
21
45
29
18
48
32
22
52
33
26
54
28
23
49
22
17
35
17
8
24
14
5
22
11
10
23
13
11
20
17
8
9
17
14
12
19
27
31
43
44
65
71
49
124
174
175
255
255
255
255
255
255
39
27
25
35
54
46
40
7
24
50
23
11
10
36
67
43
50
50
53
24
36
251
255
255
255
255
255
122
62
57
82
77
74
76
75
73
80
79
68
83
84
71
79
83
71
76
76
68
78
70
70
109
97
91
123
101
93
45
27
21
16
14
10
26
19
19
21
17
11
29
25
21
42
41
33
37
28
30
108
106
107
255
190
159
3
6
18
2
11
10
4
4
8
6
12
14
5
16
17
12
9
8
4
14
18
5
7
10
10
2
8
6
4
16
8
7
16
8
18
25
10
15
24
8
21
25
14
10
17
21
1
14
17
27
37
30
67
81
47
85
102
47
83
105
53
97
123
75
128
155
84
138
168
98
147
173
80
119
139
19
41
59
24
23
23
28
49
46
8
22
28
32
32
35
34
31
36
83
54
55
121
157
175
119
149
142
115
95
82
64
92
94
38
8
32
35
91
112
20
39
53
44
48
40
5
15
11
18
24
19
21
28
22
105
68
55
90
21
11
91
107
127
82
97
123
91
83
71
49
80
105
78
44
58
108
69
52
91
128
134
55
31
35
40
39
45
132
144
157
76
80
90
165
155
158
204
190
191
158
143
158
198
158
171
175
164
166
56
52
61
63
48
49
51
28
12
78
71
67
29
51
52
93
93
97
160
155
156
193
183
178
197
174
163
224
197
195
234
217
223
186
177
185
160
146
152
136
119
114
137
115
105
169
145
140
232
215
207
255
255
255
171
192
192
73
83
95
76
84
93
91
104
114
84
90
94
41
46
51
152
151
145
198
184
164
174
149
120
151
157
144
70
69
62
142
144
133
151
154
133
125
130
110
120
112
99
130
118
113
132
128
129
137
145
147
99
97
95
104
95
87
126
128
112
115
82
69
169
159
147
96
92
84
122
109
95
131
117
104
90
73
60
107
86
71
127
109
113
101
76
63
98
80
68
40
37
46
17
26
44
103
86
61
159
147
121
148
147
124
82
91
86
231
243
250
107
146
151
183
156
132
255
255
218
146
177
142
233
204
181
199
230
208
144
144
147
120
156
162
61
51
57
121
146
140
98
104
96
108
119
111
64
66
83
116
119
142
147
144
143
50
52
46
42
38
33
48
40
36
40
43
49
56
57
68
52
56
83
40
51
73
32
47
59
29
45
54
39
50
63
85
93
105
129
134
136
117
121
125
112
116
112
91
106
99
116
135
139
181
182
187
255
255
255
148
181
163
172
98
82
221
195
167
122
143
123
127
70
61
177
161
127
133
153
120
79
78
63
16
25
29
52
43
35
34
36
24
21
5
13
114
104
88
214
208
201
255
255
255
255
255
255
255
255
255
236
245
228
250
237
208
93
67
44
135
155
178
154
185
229
90
108
151
38
51
82
15
16
44
3
7
13
1
9
8
12
7
2
11
15
9
14
27
36
26
40
59
17
14
18
17
8
11
32
41
39
15
41
63
22
42
66
24
31
55
43
53
79
89
108
127
183
195
207
255
255
255
255
255
255
255
255
255
207
238
255
7
34
77
207
187
167
255
255
255
255
255
255
255
255
255
249
255
255
226
255
255
189
223
235
110
133
163
46
53
65
43
43
49
34
32
27
142
137
131
255
255
255
197
193
162
123
136
112
253
245
201
12
13
29
73
71
73
239
233
239
22
18
25
79
66
61
166
158
156
239
232
222
255
255
255
255
255
255
227
222
201
42
32
18
141
147
150
216
230
216
255
255
224
93
119
110
144
131
100
50
46
43
217
214
200
127
121
115
20
18
15
27
33
51
35
16
5
45
37
44
52
27
16
118
109
104
255
255
249
171
147
125
123
153
166
90
96
99
85
95
105
112
132
144
165
179
194
147
152
147
149
156
141
172
182
171
160
167
163
183
191
193
198
202
203
192
185
182
191
179
178
183
170
164
167
175
178
57
71
90
152
153
136
255
255
209
16
41
46
255
255
255
82
114
113
255
255
255
49
87
79
255
255
227
255
255
255
144
145
141
108
85
73
155
128
103
179
159
132
213
192
165
233
203
176
215
188
166
158
122
92
107
104
96
96
77
72
69
51
51
35
26
38
115
116
91
181
169
151
126
132
146
63
66
73
68
91
94
110
119
130
148
148
154
129
135
118
71
65
67
24
46
62
132
166
181
119
81
49
51
69
58
91
158
166
255
255
255
255
255
255
218
188
157
255
255
255
255
250
202
255
255
255
110
105
97
89
110
120
242
251
242
224
223
209
206
214
207
203
212
211
190
193
182
164
164
146
156
165
141
247
232
186
127
106
110
128
115
86
151
135
106
146
109
75
63
93
122
161
155
126
65
147
194
255
255
255
255
255
255
4
32
34
72
64
41
27
19
14
31
24
19
27
23
7
33
28
11
41
31
17
45
30
20
38
21
16
25
9
4
14
5
15
4
9
27
9
4
24
11
7
12
7
12
14
4
20
21
10
24
24
12
28
28
23
39
39
35
50
50
44
54
53
53
56
53
63
63
59
73
70
67
83
75
72
88
82
71
87
86
66
83
81
65
68
71
60
76
96
70
61
41
17
255
255
255
255
255
255
156
109
99
31
32
39
14
8
22
45
28
24
31
60
81
28
33
25
21
71
95
255
255
255
255
255
255
53
13
25
31
19
42
25
18
32
17
20
20
8
12
9
10
10
8
8
7
6
7
7
6
77
78
68
132
118
110
67
50
37
23
19
18
18
22
26
14
20
21
29
24
29
20
26
19
49
41
39
107
105
106
255
188
156
5
4
19
8
8
5
8
5
10
7
11
5
3
15
20
17
18
24
14
19
25
18
20
22
12
19
16
16
22
20
12
17
19
1
14
12
12
13
12
7
15
8
7
16
13
7
12
14
8
8
13
1
16
20
8
22
22
15
15
16
39
17
14
43
19
17
24
7
20
7
32
49
11
48
67
30
57
72
48
58
67
48
50
56
36
32
41
49
45
48
12
6
7
39
30
32
77
107
121
69
96
102
77
66
66
71
61
50
52
41
49
61
112
134
26
25
35
37
47
39
10
18
8
11
10
14
29
18
24
121
80
61
50
8
34
121
131
155
30
44
83
102
85
86
29
53
86
57
23
63
83
42
32
63
108
120
61
21
20
27
15
17
97
96
96
78
91
92
159
147
138
145
143
135
106
108
99
197
181
173
239
227
226
126
136
126
38
18
16
65
51
36
109
100
72
48
46
31
20
22
14
18
28
29
65
79
95
29
46
59
14
42
71
14
27
39
34
43
54
96
93
111
33
33
44
28
31
26
37
54
66
60
50
47
255
255
255
160
174
165
39
49
40
36
41
40
28
37
43
29
30
25
46
38
36
96
86
86
184
164
155
251
232
193
149
155
138
86
72
65
169
164
165
146
134
130
146
150
143
117
117
107
111
97
90
82
75
68
124
122
120
110
91
92
96
78
85
151
150
155
152
118
98
164
157
141
112
114
106
87
75
70
47
47
48
60
58
67
66
62
79
87
87
101
53
51
59
105
99
95
158
143
134
198
177
169
255
234
216
255
255
248
174
161
138
45
49
69
187
202
216
81
126
125
196
172
150
255
255
251
117
144
112
255
246
214
179
210
180
104
117
114
114
161
159
16
15
11
105
146
137
7
13
30
53
76
71
45
65
64
168
170
183
134
124
140
48
55
69
52
65
81
99
103
100
77
88
91
107
114
118
128
143
151
125
153
165
137
175
193
177
211
228
208
235
246
230
252
251
241
255
255
235
252
255
254
255
255
255
255
255
255
255
255
255
255
255
235
193
172
86
119
105
157
79
53
217
185
158
132
163
152
129
63
46
178
170
131
121
142
107
66
65
55
20
16
10
53
40
26
70
52
44
131
111
83
255
248
179
255
255
195
255
255
224
255
255
229
255
251
224
228
236
243
185
206
228
123
144
171
130
161
202
222
246
255
253
255
255
255
255
255
252
255
254
160
171
176
65
77
83
37
34
39
11
11
21
21
40
66
22
41
70
39
47
42
9
11
15
40
54
54
7
6
12
2
14
17
11
21
13
18
24
25
14
25
39
13
11
43
23
32
54
78
84
98
193
190
200
255
255
255
255
255
255
255
255
255
129
165
185
60
31
19
228
203
182
255
255
255
255
255
255
255
255
255
255
255
255
255
255
255
101
101
103
18
15
9
116
115
114
255
255
255
225
216
186
115
126
118
255
255
220
19
34
55
71
63
70
242
235
246
12
12
15
35
32
25
26
29
38
38
33
19
85
78
62
52
43
37
114
106
90
163
163
162
58
58
68
118
131
112
232
219
179
98
122
114
153
138
104
28
26
21
201
200
191
142
136
131
24
25
16
14
26
39
36
19
1
29
29
34
22
7
23
26
17
13
236
241
230
192
162
131
100
129
142
70
75
72
49
41
44
57
68
73
69
74
102
38
49
51
138
147
146
140
146
144
80
79
76
52
48
54
9
16
16
36
51
49
68
80
75
79
85
85
175
153
134
130
159
164
202
239
234
255
255
255
45
14
23
255
255
242
45
58
60
255
255
230
65
84
88
255
255
254
255
255
255
62
56
51
77
58
39
85
52
31
58
27
12
10
16
38
27
49
73
56
87
111
116
137
158
209
219
222
249
250
247
255
255
255
255
255
255
255
255
254
255
244
221
158
159
166
63
52
43
30
52
57
52
66
69
155
166
164
206
215
202
172
184
185
168
180
189
206
214
209
88
79
76
74
78
82
255
255
255
255
255
223
255
255
255
255
255
203
255
255
255
161
125
88
255
255
244
236
215
178
90
87
80
126
123
116
168
138
116
171
149
138
138
123
125
110
97
107
63
42
21
63
74
60
189
175
141
105
77
70
27
36
56
37
58
83
78
77
77
67
95
115
157
107
69
180
255
255
255
255
255
174
135
105
81
97
81
45
49
40
16
30
31
16
32
37
17
36
33
29
44
38
38
49
47
41
50
55
45
56
63
55
70
75
64
80
81
70
81
78
84
83
83
98
89
91
101
94
93
101
97
89
101
97
85
99
95
84
98
91
81
98
84
75
96
81
70
91
83
66
85
80
64
77
71
62
72
64
59
75
62
60
73
60
58
60
57
49
52
57
51
65
80
70
113
123
100
73
145
153
255
255
255
255
255
255
21
22
29
18
12
15
40
33
34
40
60
84
43
35
41
46
122
150
255
255
255
255
255
255
64
36
34
54
33
33
55
39
37
57
48
40
59
55
43
59
55
43
56
49
34
50
39
25
56
52
47
109
94
93
69
61
55
38
35
37
22
21
27
14
16
21
35
34
37
33
33
35
75
68
60
122
115
119
255
186
157
2
7
12
6
4
4
8
1
6
17
9
5
9
12
14
17
17
25
52
37
45
56
46
48
35
31
27
20
12
10
7
14
14
4
12
8
10
12
11
3
23
14
10
10
11
13
19
17
17
13
17
12
13
19
15
26
31
22
26
28
14
12
12
15
8
8
20
12
12
27
18
18
30
19
19
29
14
13
12
10
13
15
32
35
7
28
32
38
48
55
16
37
54
23
43
65
52
96
120
80
133
157
68
119
146
33
76
104
24
58
81
46
81
103
49
53
42
63
86
78
51
69
69
25
42
46
39
27
32
117
75
54
20
22
53
142
147
172
25
25
52
86
74
90
52
48
77
42
52
82
61
16
24
74
111
119
70
72
82
96
80
77
69
56
57
62
54
56
145
119
109
163
155
145
47
63
64
56
38
43
216
196
174
163
153
128
40
45
25
36
21
24
119
111
83
51
53
46
52
49
35
109
111
112
149
152
156
123
123
121
111
124
136
101
110
120
87
97
108
95
99
109
58
64
62
94
100
87
119
125
123
158
149
144
255
255
255
185
193
179
96
90
73
97
83
67
122
102
88
103
79
65
83
61
53
66
56
53
155
124
118
255
255
255
197
218
185
86
87
68
197
210
202
14
17
21
65
68
74
52
78
58
80
82
72
51
65
48
73
78
76
68
23
29
36
6
20
102
86
101
186
180
162
39
60
59
163
138
122
255
255
243
255
255
255
255
255
255
255
255
255
255
255
255
255
255
255
255
255
255
255
255
255
255
255
255
255
255
255
255
255
255
255
255
255
255
243
232
122
145
150
74
115
118
225
211
189
255
255
255
63
81
60
255
255
239
148
175
156
95
125
122
110
155
159
12
15
20
111
149
143
24
8
10
27
53
52
22
32
30
188
178
176
106
99
117
153
175
194
233
249
255
255
255
255
236
255
255
223
251
255
226
255
255
242
255
255
255
255
255
255
255
255
255
255
255
255
255
255
248
255
242
221
235
220
230
237
236
254
255
255
251
254
238
187
198
187
99
97
96
43
79
72
137
60
28
211
178
148
133
172
171
129
58
46
111
118
88
194
177
139
255
255
224
255
255
252
255
255
255
255
255
255
255
255
233
170
111
47
167
191
206
255
255
255
255
255
255
147
142
137
89
98
119
106
101
103
120
98
73
54
36
34
61
87
115
33
20
63
105
86
65
228
205
170
255
255
255
255
255
255
255
255
243
190
196
191
115
139
159
49
72
94
43
50
54
6
8
2
42
52
66
6
18
10
4
4
13
14
4
8
21
7
17
20
17
17
6
9
10
12
14
13
22
19
10
13
7
5
67
72
83
129
124
140
192
190
201
255
255
255
255
255
255
255
255
255
217
244
255
190
225
241
132
166
183
13
11
28
195
196
201
243
252
255
114
125
135
54
61
61
255
255
255
255
255
230
102
119
117
255
255
252
16
17
46
59
47
52
238
229
238
16
10
4
17
14
16
19
23
24
49
45
33
56
48
34
21
25
18
42
30
11
124
121
111
168
165
169
205
214
207
255
243
207
101
124
118
156
140
104
16
18
17
189
190
182
156
153
152
14
14
5
9
26
43
40
21
7
23
31
34
25
7
24
21
15
8
217
222
217
210
190
160
82
106
112
84
94
87
35
33
33
44
65
61
81
73
87
116
98
61
160
147
127
190
178
149
208
196
168
212
198
176
193
171
155
166
134
115
145
108
84
104
72
57
101
60
39
18
5
12
204
243
232
255
255
255
64
36
22
250
254
202
29
27
25
224
238
191
51
60
53
254
255
221
255
255
255
99
106
112
152
157
161
216
215
217
227
225
224
241
238
234
248
241
234
236
228
219
203
193
178
136
122
107
56
52
55
45
35
26
49
33
38
177
185
157
255
252
227
178
193
209
106
93
85
42
59
68
19
18
18
65
71
67
166
162
155
155
154
153
126
115
111
82
73
60
62
75
83
16
49
78
255
255
255
245
200
133
227
255
235
250
208
163
194
208
187
173
137
111
186
178
127
215
194
145
77
68
64
82
96
111
62
61
76
48
58
80
92
114
122
154
169
187
146
156
157
154
170
176
255
255
236
114
84
61
142
151
148
181
186
171
181
166
145
94
98
97
99
36
17
255
255
255
255
255
255
32
10
23
88
110
89
46
56
51
66
65
60
82
79
71
92
87
75
93
89
79
93
90
83
99
95
87
98
93
85
90
86
77
76
74
63
64
63
49
63
58
54
65
57
68
57
50
61
45
40
43
40
36
36
34
30
30
25
21
21
17
14
14
11
10
14
5
5
7
6
9
7
15
17
10
22
14
17
28
19
22
34
30
32
35
34
33
25
27
20
25
36
27
65
78
73
45
13
15
255
255
255
255
255
255
107
77
76
24
29
40
21
18
21
17
43
68
36
23
12
79
168
198
255
255
255
255
255
255
21
20
27
12
17
23
7
25
29
11
29
33
20
36
38
26
41
46
30
45
49
42
52
58
57
64
70
110
98
99
70
61
55
34
32
25
15
12
5
10
10
10
22
22
20
37
33
29
73
69
48
134
124
128
255
180
155
6
9
7
5
7
4
12
2
4
12
3
4
25
18
13
45
31
31
40
37
38
34
28
29
39
31
28
34
37
30
17
27
21
10
19
17
11
25
20
5
14
11
7
12
14
5
5
0
13
15
16
8
7
8
20
26
31
27
30
34
14
12
12
14
14
14
2
4
4
8
7
7
12
10
11
16
10
13
27
20
22
42
34
34
43
32
32
36
26
26
10
8
8
16
22
27
22
39
51
13
52
67
40
83
99
52
100
118
42
80
97
33
54
71
49
42
43
75
66
64
21
11
8
41
45
44
32
43
48
100
72
70
83
79
97
154
155
170
64
51
41
91
85
96
50
60
78
24
74
96
49
6
28
90
125
128
56
105
134
87
56
50
117
98
95
115
117
112
170
146
136
186
180
162
66
86
80
117
102
90
219
191
166
96
86
69
89
89
86
67
75
95
160
149
144
83
90
94
135
123
113
134
142
144
118
118
119
95
86
82
111
109
109
133
133
130
137
139
138
111
108
108
102
91
89
96
83
75
73
63
73
126
90
95
204
206
193
82
98
89
86
99
107
113
134
143
147
164
178
171
184
198
193
204
216
181
197
208
74
76
86
255
255
233
255
255
240
74
51
56
214
241
218
24
5
10
75
96
87
70
88
79
35
19
28
89
104
85
75
86
83
53
12
19
4
14
12
101
124
114
113
155
173
255
255
244
255
255
255
255
255
255
255
255
255
255
255
247
255
255
220
255
255
188
255
235
162
255
221
149
255
192
126
224
148
96
175
104
59
153
84
39
255
255
255
255
255
255
148
166
149
51
79
80
249
239
206
255
255
255
59
73
63
255
255
248
105
126
114
110
150
151
110
148
165
1
27
23
144
173
174
60
41
33
38
61
63
11
21
33
166
140
123
118
124
140
255
255
255
255
255
255
255
255
255
235
252
255
219
237
235
196
206
194
194
191
175
194
181
165
164
148
132
128
114
95
113
102
71
92
88
57
63
61
36
67
63
41
73
70
39
57
49
26
64
122
114
26
93
105
8
51
45
132
50
10
210
178
148
121
170
175
139
69
59
36
21
16
186
127
106
202
162
114
180
146
99
142
119
83
101
83
53
79
75
87
255
255
248
255
255
255
255
255
255
255
255
255
255
255
255
187
198
207
152
137
138
125
96
68
66
81
118
202
215
248
248
248
255
255
255
255
255
255
255
139
155
169
31
12
39
184
145
100
255
255
228
255
255
255
255
255
255
198
201
213
79
68
81
50
50
72
18
18
13
14
15
19
17
21
12
17
17
16
22
19
28
21
15
19
36
27
38
22
18
21
26
26
31
20
29
39
38
43
59
10
21
38
43
51
67
124
136
148
220
220
227
255
255
255
255
255
255
255
255
255
255
255
255
186
184
180
125
131
141
255
255
255
255
255
255
221
221
216
220
208
175
126
126
106
255
255
238
47
26
12
76
56
45
198
196
200
7
5
25
9
17
2
24
27
8
38
31
12
38
30
18
14
16
11
34
23
14
49
48
35
37
37
31
221
229
226
255
255
255
85
105
104
156
140
105
26
19
15
159
159
151
148
148
148
132
131
138
69
60
77
55
32
25
24
38
41
43
23
14
21
15
9
199
203
204
224
211
183
69
82
81
94
98
83
59
62
62
81
92
89
156
168
179
123
138
164
106
128
155
89
111
130
98
113
133
129
140
155
141
155
162
154
174
181
170
191
200
119
141
153
113
95
78
26
28
27
188
228
223
255
255
255
17
3
9
220
243
202
11
10
14
203
229
189
15
28
28
229
243
205
255
255
255
162
175
180
97
95
98
43
41
33
16
12
6
34
41
55
49
56
65
30
40
49
7
18
35
7
4
24
15
26
43
52
46
34
34
8
28
164
167
132
247
228
197
186
208
235
162
157
166
88
109
124
98
92
92
83
67
76
70
74
66
90
94
103
16
20
24
38
15
6
48
51
63
67
90
110
255
255
247
222
184
119
199
222
216
255
230
186
164
185
175
189
160
128
151
146
104
175
166
119
144
150
157
190
204
220
178
187
197
178
185
200
144
159
169
131
147
169
63
60
68
43
67
75
255
255
255
173
129
107
202
206
214
43
28
30
174
158
153
40
36
46
23
48
86
255
255
255
255
255
255
44
82
89
94
103
90
34
40
42
27
30
32
35
35
35
31
31
31
19
22
28
17
19
27
11
12
15
5
4
4
15
12
8
18
14
6
21
17
9
32
25
21
42
32
26
45
38
33
47
43
36
49
45
37
46
42
33
41
37
26
38
34
22
37
33
21
35
31
15
34
30
20
27
22
25
16
11
14
17
14
11
18
15
14
10
8
7
4
12
12
15
31
30
48
65
65
80
92
78
218
255
255
255
255
255
212
164
145
10
14
29
48
50
42
69
82
91
85
84
85
95
169
199
255
255
255
255
250
220
77
79
90
85
76
88
85
76
83
83
79
78
79
79
75
79
82
79
80
87
85
77
83
80
71
80
73
130
122
112
86
75
73
37
35
32
34
31
8
7
3
6
8
14
14
45
32
26
68
66
43
144
130
134
255
176
151
11
1
5
11
9
8
17
7
7
27
11
8
34
10
13
22
11
9
18
3
12
37
35
39
18
20
25
18
2
3
27
24
18
17
17
15
20
17
11
18
10
5
6
7
8
10
19
14
22
32
35
24
30
36
14
18
25
20
21
20
50
51
51
55
56
56
35
36
36
5
8
8
9
7
10
13
11
17
12
11
15
4
5
5
14
12
12
7
3
3
13
11
11
7
8
8
26
24
22
18
10
8
39
26
21
31
4
9
27
14
21
31
16
20
19
24
24
71
83
84
87
98
99
67
86
86
39
56
62
29
21
32
28
28
49
96
108
126
11
50
87
55
54
72
43
58
63
41
83
100
50
50
61
67
96
97
74
118
142
14
35
55
32
32
32
50
41
36
178
143
120
154
147
130
48
52
52
143
123
105
173
143
129
67
67
66
177
183
192
125
144
165
208
202
207
96
99
112
178
173
161
127
138
144
57
51
53
24
13
24
74
57
51
109
112
102
93
100
91
38
44
41
36
37
47
111
115
127
146
151
158
190
177
182
255
255
255
255
255
255
255
255
255
255
255
255
255
255
255
255
255
255
255
255
255
255
255
255
161
202
199
255
241
195
255
255
226
107
91
83
204
248
203
55
60
42
67
100
73
95
96
89
89
87
77
107
120
102
86
99
93
63
59
53
45
53
59
149
208
203
43
29
75
255
255
255
255
255
236
126
48
14
68
13
46
36
56
80
17
76
93
33
101
110
63
110
113
64
113
113
82
131
125
84
132
116
89
125
109
102
122
111
255
255
255
255
255
255
145
159
134
57
58
70
255
252
216
243
255
224
11
36
31
255
255
254
74
93
87
122
174
175
115
145
165
33
56
53
178
196
199
78
59
38
58
83
88
8
45
64
111
83
55
152
198
212
245
255
244
150
147
137
119
111
96
111
101
80
120
111
98
100
86
73
94
71
60
64
39
15
38
9
32
13
43
94
26
71
112
43
84
123
50
82
116
49
87
117
44
90
111
26
56
74
71
108
93
40
93
116
15
28
26
132
54
3
206
177
149
105
159
172
148
76
61
67
60
43
234
197
169
255
255
255
255
255
255
255
234
186
210
160
119
255
255
249
255
255
247
153
159
156
16
18
22
49
55
53
217
234
242
246
255
255
184
178
179
184
164
139
172
183
196
216
232
254
109
129
121
175
162
140
255
255
234
255
255
255
255
255
255
255
255
255
176
190
198
13
36
44
149
139
137
241
238
235
178
180
195
66
73
97
22
24
36
20
25
39
14
20
26
15
14
21
21
20
29
25
25
34
24
24
26
23
21
32
32
41
44
16
18
23
37
45
52
10
5
16
31
14
9
10
9
23
16
25
48
39
39
42
32
46
47
49
49
41
119
122
122
248
243
251
227
219
217
41
48
37
128
125
122
156
151
156
74
77
84
58
49
48
212
203
193
102
99
77
101
93
81
123
125
125
10
22
29
15
17
27
31
32
35
47
37
30
35
28
25
9
11
20
35
23
13
41
43
26
20
30
10
223
234
226
255
255
255
62
82
82
146
130
94
60
52
48
127
129
120
34
31
34
133
134
133
223
224
207
255
255
231
255
255
232
198
199
188
98
104
105
168
172
178
235
219
192
62
80
82
88
87
75
83
83
83
71
62
61
88
80
67
171
160
146
250
238
227
255
248
235
246
231
217
207
193
174
155
140
118
127
106
92
109
80
63
118
114
128
190
167
138
17
9
14
173
209
212
255
255
255
25
22
14
222
251
213
18
8
10
212
243
205
26
22
17
252
255
226
255
255
255
154
170
174
123
122
128
19
18
12
11
14
16
13
14
12
31
29
28
35
27
19
13
8
26
3
4
13
21
27
48
43
35
21
38
10
19
156
152
115
203
174
135
152
168
185
192
180
179
44
58
74
51
26
18
88
94
112
78
71
54
134
127
120
130
104
94
112
82
74
49
15
25
44
54
60
245
255
251
255
227
172
165
195
191
255
255
227
147
165
150
203
177
129
154
154
116
194
193
143
210
213
210
198
185
186
43
40
61
120
113
123
144
130
117
208
210
203
215
214
208
203
198
200
255
255
255
194
152
126
194
200
210
118
97
87
159
146
138
13
9
12
32
96
134
255
255
255
255
226
200
52
86
94
78
74
64
42
28
17
38
28
20
40
37
31
41
34
31
38
25
15
36
25
11
42
30
14
41
29
13
33
21
8
27
12
5
21
4
3
15
6
10
5
16
9
7
24
19
10
26
27
15
29
33
25
32
39
31
35
43
32
36
44
36
40
49
45
49
59
52
57
61
58
63
59
69
67
68
79
70
82
82
76
89
85
84
88
87
88
85
87
89
83
94
93
92
116
124
122
84
108
128
255
255
255
255
255
255
255
251
230
255
255
255
255
255
255
255
255
255
255
255
255
255
255
255
215
178
154
32
45
45
17
22
18
12
7
4
10
5
4
19
8
14
19
14
24
10
14
20
15
15
6
33
41
45
117
115
109
94
82
83
46
39
34
47
41
22
5
7
15
10
6
14
37
23
18
60
59
40
146
132
138
255
178
151
11
4
9
7
6
8
16
8
5
70
46
38
105
74
63
80
64
51
41
35
29
18
34
33
19
23
24
15
5
14
24
18
10
7
10
5
14
10
4
11
12
7
17
10
8
20
21
21
25
30
38
9
15
17
14
13
13
24
23
22
20
21
21
30
27
27
50
52
51
23
25
23
21
19
25
10
10
10
15
14
18
14
15
17
8
8
14
6
6
8
15
12
9
8
5
3
18
22
13
7
14
15
11
16
16
20
13
14
14
15
25
26
15
7
63
43
40
44
22
19
19
13
14
8
31
34
23
40
54
27
50
72
19
59
83
55
92
115
67
114
144
55
108
136
30
74
103
5
32
59
32
31
20
23
29
36
133
103
107
230
170
131
255
190
133
255
214
154
255
255
217
182
189
165
73
93
74
94
101
86
162
130
113
154
117
86
244
245
239
39
82
92
209
227
225
68
49
60
209
222
208
123
118
129
85
103
96
8
29
24
89
97
79
31
41
41
71
73
58
74
82
80
139
147
157
169
165
170
157
150
152
172
155
158
208
196
197
219
216
205
204
199
184
179
164
149
150
127
106
130
104
85
103
79
65
255
255
255
212
255
255
255
253
215
234
255
226
141
111
104
192
238
192
69
61
61
48
87
58
55
54
52
36
39
25
57
71
56
58
78
68
56
42
31
62
65
60
155
226
236
139
89
89
255
255
255
222
204
204
140
146
136
134
128
116
112
116
101
99
121
99
96
119
97
101
115
98
92
105
87
87
108
91
88
97
88
95
88
84
99
88
78
255
255
255
255
255
255
91
100
84
31
5
4
255
250
209
214
243
196
60
20
20
255
255
255
54
67
66
116
179
186
113
140
155
35
62
68
169
190
188
85
71
58
55
88
95
23
61
69
71
38
11
188
255
255
198
224
201
20
10
42
27
47
64
70
105
128
111
150
166
125
168
179
169
210
223
220
255
255
255
255
255
255
255
255
255
255
255
255
255
255
255
255
255
255
255
255
255
255
255
246
255
255
36
55
65
66
109
116
20
22
29
127
49
12
207
182
154
97
154
169
151
78
54
123
140
125
180
187
160
220
192
143
176
150
109
243
238
208
109
105
105
255
255
255
90
118
133
50
81
100
22
31
38
20
11
4
138
147
155
246
255
255
153
159
170
70
44
35
84
111
166
152
174
213
43
63
61
13
11
19
32
24
28
69
53
47
131
109
96
229
205
176
255
255
255
255
255
255
255
255
255
114
101
91
191
202
214
255
255
255
210
225
255
115
125
152
49
58
74
31
31
39
24
27
17
18
25
17
20
24
17
12
10
25
44
54
59
10
19
19
38
42
51
29
30
38
21
22
18
34
15
5
13
17
27
34
42
40
17
27
27
18
12
18
12
30
43
123
150
179
234
239
247
255
255
255
255
255
255
224
230
244
135
141
151
29
36
43
152
142
133
233
238
238
190
201
213
141
156
163
62
84
86
25
13
17
24
13
26
45
32
16
33
31
14
9
18
22
23
15
10
34
31
31
14
17
11
225
237
224
255
255
255
60
80
80
145
130
94
61
53
49
159
162
153
117
116
113
174
176
169
77
87
99
41
24
6
76
69
59
95
91
93
150
148
150
122
128
137
231
207
180
65
91
95
78
68
64
85
77
74
92
82
69
5
10
21
98
98
98
95
96
94
16
12
8
16
8
6
5
4
21
21
22
31
27
26
36
38
40
53
73
89
108
195
169
135
32
23
11
168
198
203
255
255
255
57
46
24
232
255
218
50
38
21
217
250
208
33
10
6
255
255
236
255
255
255
151
166
168
114
112
122
18
24
30
21
28
28
1
6
17
41
43
42
53
45
36
27
25
44
17
11
11
28
34
58
34
24
8
31
5
24
149
143
109
184
149
114
124
139
155
215
206
199
24
32
44
77
57
49
47
52
70
53
48
31
97
94
88
83
66
66
43
33
26
79
50
63
74
82
87
238
255
255
255
255
206
102
133
125
255
244
199
83
106
87
209
171
117
138
152
122
249
238
177
221
207
181
112
112
129
94
105
114
103
91
80
23
8
20
73
87
97
84
87
83
104
105
96
221
226
217
211
182
155
111
128
137
200
191
199
143
132
136
35
38
47
42
111
148
255
255
255
230
182
160
59
84
90
52
54
52
25
26
28
31
36
43
34
48
58
31
44
57
29
37
48
29
37
45
36
44
52
48
55
63
53
62
66
55
66
65
59
70
70
63
73
75
67
78
77
78
87
84
89
92
91
92
90
91
91
86
86
89
84
79
89
85
77
86
86
77
79
82
75
79
76
78
78
71
78
67
62
62
60
56
47
58
53
46
48
43
43
37
31
35
25
21
22
15
18
17
47
61
58
26
26
29
229
252
244
255
255
245
244
228
210
196
168
156
160
134
124
164
141
124
172
141
118
154
143
152
132
130
130
48
42
39
50
59
61
50
52
54
47
47
43
44
44
35
46
48
36
58
57
47
62
56
50
46
41
39
90
89
87
88
81
79
43
38
29
58
57
37
3
18
22
7
17
22
17
19
16
59
58
41
137
127
137
255
214
197
56
91
113
52
88
117
56
67
90
86
62
83
20
73
111
162
180
213
196
238
255
163
218
251
81
136
167
9
49
80
31
6
26
15
3
19
20
19
24
24
24
23
17
16
15
17
17
19
18
16
22
28
17
15
20
11
11
12
23
21
34
37
37
25
30
29
32
33
33
34
32
32
17
17
18
11
14
10
14
15
15
13
13
16
13
12
12
10
8
4
21
19
12
17
21
17
4
9
7
23
17
21
21
21
19
12
8
16
8
10
18
14
14
30
23
24
22
10
10
8
9
8
7
13
10
17
31
27
33
38
33
31
32
24
25
19
17
17
4
22
28
5
39
46
1
37
52
5
24
39
31
32
40
23
28
41
62
89
153
140
183
230
186
241
255
201
255
255
206
255
255
110
122
133
164
135
130
164
169
168
198
208
203
245
244
222
255
255
255
38
36
28
185
233
229
130
65
51
217
252
241
91
73
76
141
173
159
24
17
29
119
133
116
22
15
30
72
69
58
107
111
118
160
169
196
40
38
46
11
19
43
21
38
67
22
45
71
41
57
79
59
73
88
63
81
100
65
88
111
76
104
132
112
139
166
255
255
255
171
236
254
255
255
251
207
255
238
180
144
133
186
240
194
74
67
67
55
95
67
57
53
54
22
44
15
35
48
38
37
61
48
58
34
32
67
74
77
178
241
252
231
180
155
255
255
255
142
109
110
102
80
63
86
71
58
86
74
66
93
84
79
96
84
82
108
101
98
103
98
87
89
84
62
86
71
45
72
60
40
80
63
46
255
255
255
255
255
255
88
99
101
54
44
52
255
255
255
214
246
200
102
64
63
255
255
255
22
34
31
111
172
183
101
127
135
21
51
57
157
189
179
85
75
62
40
85
87
25
63
76
47
22
22
214
255
255
130
151
134
226
255
255
255
255
255
255
255
255
255
255
255
255
255
255
255
255
255
255
255
255
255
255
255
255
255
255
255
255
255
255
255
255
255
255
255
255
255
255
255
255
255
255
255
255
42
53
72
83
122
106
13
35
57
125
44
12
215
192
165
94
151
160
150
82
59
171
184
163
125
160
133
20
16
15
112
112
99
255
255
255
71
48
27
255
255
255
86
107
133
38
67
92
8
26
37
7
15
19
99
111
116
255
255
255
245
255
255
141
174
161
162
226
255
151
188
221
10
22
15
22
21
25
22
23
33
15
15
25
21
21
27
18
16
19
31
27
20
109
94
78
205
184
163
255
255
253
138
133
126
176
161
143
255
255
246
255
255
255
255
255
255
220
229
255
112
126
155
36
48
62
27
17
16
34
25
19
30
36
51
28
31
40
15
30
32
36
27
39
28
24
36
26
17
7
28
18
13
40
32
22
18
15
21
35
20
0
20
15
22
36
61
88
57
94
130
93
112
136
170
177
189
245
251
254
255
255
255
255
255
255
165
181
201
31
34
48
151
144
124
255
255
255
255
255
255
218
232
255
89
96
126
57
50
54
55
48
26
45
36
39
43
30
30
42
37
41
21
14
33
223
230
224
255
255
255
67
86
86
144
130
96
39
31
27
199
197
189
128
123
116
143
139
131
223
225
210
245
243
218
248
248
227
192
189
171
27
26
20
147
149
155
176
152
127
83
108
114
71
59
61
77
66
61
88
75
55
6
3
5
107
111
108
87
88
85
15
8
19
21
21
34
24
29
35
15
20
21
10
13
14
29
35
42
41
53
61
177
148
118
61
47
32
154
186
189
255
255
255
76
64
41
221
239
209
71
56
31
209
232
194
47
26
10
247
255
206
255
255
255
189
197
199
107
106
113
9
15
20
10
8
10
25
34
40
59
60
54
47
37
21
43
49
57
30
20
12
14
26
46
24
36
47
41
58
77
147
143
121
170
139
103
122
132
132
226
216
205
5
25
32
100
95
89
65
76
87
36
22
25
76
63
44
107
83
63
110
86
83
26
42
66
66
83
91
236
255
255
255
251
201
70
94
90
255
230
177
52
60
40
226
177
122
113
136
107
255
244
183
220
207
176
137
140
140
178
180
167
235
218
202
234
222
217
247
241
232
221
201
190
200
180
172
255
255
255
255
255
255
92
92
89
171
171
159
128
134
133
87
86
83
41
104
136
255
255
255
180
135
120
85
98
98
92
91
91
89
90
89
85
91
91
82
89
96
81
83
87
79
80
77
79
80
80
75
75
79
62
62
64
55
56
54
53
54
53
46
47
45
36
38
32
29
27
24
23
12
15
17
7
9
12
11
10
3
4
7
5
5
5
11
11
11
18
16
20
26
25
32
35
36
36
41
40
36
52
47
47
60
50
59
56
49
59
53
52
52
58
57
50
68
60
56
71
55
51
65
50
46
25
14
19
152
162
164
146
118
126
93
80
83
142
142
144
181
187
176
176
175
156
137
130
120
120
121
139
149
160
171
86
67
59
9
12
15
12
19
22
17
31
32
14
25
27
8
17
20
15
23
23
29
38
32
38
48
44
87
93
91
96
97
91
43
43
32
54
60
51
57
37
12
56
38
21
28
15
4
61
55
41
123
117
128
255
239
225
17
38
51
20
52
67
114
89
88
81
59
63
125
116
137
251
250
251
196
251
255
190
247
255
200
255
255
156
234
255
36
93
118
26
18
16
5
20
22
14
22
26
13
16
22
10
12
19
18
11
7
63
52
52
59
55
53
41
29
30
12
16
18
17
17
18
7
2
4
37
31
33
20
20
20
14
15
15
11
8
6
20
12
8
20
19
18
3
8
10
7
11
1
24
21
21
46
38
48
50
50
45
46
47
38
21
30
9
3
13
7
12
10
7
8
7
8
1
1
8
7
9
8
2
6
7
4
1
17
1
4
10
6
6
11
14
14
12
18
9
2
22
21
12
36
34
17
43
25
19
37
30
21
128
133
164
255
255
255
255
255
255
255
255
255
255
255
255
255
255
255
255
255
255
255
255
241
255
255
255
255
255
255
255
255
255
255
253
224
194
164
142
150
212
207
182
119
94
185
238
227
87
62
37
155
192
179
15
19
9
116
130
108
22
18
24
49
48
20
113
116
112
150
150
183
110
132
157
166
197
233
194
235
255
205
250
255
211
255
255
216
255
255
237
255
255
255
255
255
255
255
255
255
255
255
255
255
255
35
92
131
255
255
255
164
241
218
223
192
171
166
227
179
58
68
65
58
104
79
65
59
62
43
67
40
17
25
20
9
40
24
45
12
28
66
95
103
177
245
244
255
243
229
255
255
255
91
62
56
63
66
50
29
26
19
25
29
28
36
33
35
33
36
35
37
48
46
43
49
49
31
23
22
31
13
9
7
7
14
77
47
32
255
255
255
255
255
243
66
103
128
43
15
29
255
255
255
211
248
203
106
77
73
255
255
255
14
12
13
101
155
159
91
123
120
12
51
61
165
208
195
91
88
80
34
86
85
22
62
77
27
30
29
245
255
255
31
27
40
255
255
255
255
255
255
255
255
255
202
238
232
151
190
191
113
155
159
65
107
109
19
32
34
80
38
40
111
69
70
134
98
89
139
101
90
124
96
91
225
242
246
255
255
255
70
61
45
85
115
89
5
58
78
122
43
10
219
201
176
90
145
146
146
80
66
184
192
171
125
156
125
9
12
26
130
128
112
255
255
255
86
75
57
255
255
255
97
123
140
42
78
94
17
29
39
24
37
39
89
98
111
255
255
255
255
255
255
36
8
40
210
255
255
155
202
217
21
17
36
30
33
43
44
46
52
43
46
58
23
29
41
13
20
26
25
27
25
46
44
44
12
11
5
214
203
185
255
255
255
255
255
255
177
195
204
36
61
79
117
90
75
247
227
221
255
255
255
255
255
255
251
255
255
138
161
177
76
92
113
41
39
62
9
5
17
19
33
27
37
41
51
12
10
27
41
29
22
61
45
35
22
17
5
48
34
21
25
16
15
18
26
32
16
39
60
22
44
66
23
44
62
24
34
47
64
70
71
167
165
151
255
255
240
255
255
255
255
255
255
124
138
150
108
106
80
255
255
255
255
255
255
255
255
255
255
255
255
255
255
255
232
243
255
109
114
152
13
17
39
225
229
224
255
255
255
69
89
89
142
127
97
26
20
15
196
189
184
159
156
150
25
22
23
32
44
61
51
35
21
60
50
42
107
95
68
145
138
128
155
157
159
104
85
59
98
121
127
70
64
69
70
64
57
84
75
54
7
12
16
107
110
105
81
80
73
10
9
13
5
22
25
13
24
24
10
17
12
5
3
17
26
41
39
20
35
37
160
130
109
65
48
35
141
178
175
255
255
255
84
69
49
202
216
197
76
57
38
191
205
177
54
37
17
216
228
179
255
255
244
205
206
207
120
124
128
39
50
60
63
73
83
101
116
128
148
167
183
175
196
214
192
210
227
226
231
235
255
255
255
255
255
254
255
255
231
255
254
215
191
169
147
95
96
92
220
211
198
11
32
34
135
136
127
71
80
88
133
134
141
164
171
175
186
192
192
174
158
152
79
54
37
76
77
83
212
241
232
255
250
196
33
58
65
255
247
187
10
18
10
231
189
130
79
104
85
255
238
179
241
235
201
202
199
191
111
82
67
95
83
61
31
45
60
83
94
91
28
10
5
14
6
9
229
247
234
255
255
255
135
93
83
91
92
92
27
26
36
92
84
72
21
56
83
255
255
255
155
112
99
56
57
59
35
28
34
18
15
8
10
15
12
21
27
35
25
30
33
26
26
32
31
30
36
44
44
44
56
56
56
63
64
60
66
68
62
69
69
71
67
66
73
63
65
61
64
65
54
66
61
52
65
54
50
63
47
48
60
43
42
56
39
35
45
32
24
29
23
10
27
18
8
29
10
15
21
11
19
14
8
17
10
7
21
5
17
27
20
26
29
33
31
38
29
30
40
31
41
51
49
67
73
182
169
174
163
139
132
83
95
74
148
161
162
198
193
194
201
194
190
146
141
133
124
129
135
163
169
170
104
103
100
71
90
88
71
87
91
71
85
89
68
79
79
68
76
72
73
77
71
76
76
72
71
68
68
111
110
109
126
124
120
51
49
47
36
41
37
98
71
50
87
64
45
79
48
33
59
43
32
113
112
121
255
232
222
57
84
92
53
81
94
132
89
83
127
98
77
192
155
151
255
255
255
161
162
164
151
136
148
57
68
86
112
164
179
69
130
139
41
64
77
27
56
77
23
52
78
22
51
79
14
38
58
83
53
52
183
131
116
190
141
123
169
138
133
33
21
18
108
73
68
115
90
82
84
72
73
23
26
32
3
2
6
15
15
13
10
19
20
21
12
12
21
23
19
29
41
38
29
31
39
27
13
24
10
17
14
18
4
18
28
31
14
14
27
15
12
8
8
15
12
9
10
10
8
10
13
2
9
11
8
18
21
31
22
28
30
24
21
32
23
26
31
11
7
3
8
11
13
17
26
18
10
9
15
37
40
26
232
255
255
255
255
255
141
177
186
83
59
55
219
215
218
240
255
255
30
103
116
206
156
112
246
255
213
77
64
60
79
94
97
34
24
37
255
245
207
140
203
207
209
160
132
166
225
222
102
87
62
152
186
180
31
43
29
114
127
106
30
34
34
49
48
15
98
102
94
113
128
141
255
255
255
255
255
255
255
255
255
255
255
255
255
255
255
235
255
255
229
255
255
228
255
255
220
251
255
211
227
241
153
174
186
112
97
94
255
255
255
110
185
185
238
225
192
136
191
145
51
74
62
70
117
93
54
51
57
74
91
64
23
7
10
11
32
11
45
18
33
83
124
128
168
238
231
255
255
255
255
255
255
67
36
25
38
55
34
28
13
10
17
26
29
10
22
11
14
14
8
29
26
29
22
26
26
11
5
18
17
4
8
7
6
19
98
54
33
255
255
255
255
246
223
35
91
116
54
26
32
255
255
255
207
249
205
111
96
88
255
255
255
33
21
34
85
135
134
87
119
107
35
76
80
178
223
213
123
122
119
22
76
84
31
60
69
27
37
38
244
255
255
151
133
131
255
255
255
100
165
189
99
67
73
85
63
68
63
47
52
29
22
28
35
37
42
32
29
27
11
21
12
30
39
31
58
54
50
68
54
50
93
67
56
204
230
230
255
255
255
73
45
49
85
106
93
7
69
75
123
55
23
225
211
188
72
128
121
147
86
77
177
195
173
114
141
107
35
21
19
149
142
126
255
255
255
123
114
98
255
255
255
103
128
138
39
66
81
26
35
27
2
9
13
109
136
145
255
255
255
255
255
255
22
10
47
219
255
255
140
192
195
31
16
19
17
16
5
18
18
18
24
24
21
8
7
11
12
11
12
31
36
36
42
41
41
14
12
14
71
66
53
137
117
97
182
157
126
251
226
202
255
255
255
255
255
255
209
213
236
78
98
115
86
55
39
215
181
166
255
252
249
255
255
255
255
255
255
193
201
227
107
118
152
27
32
51
23
20
26
34
27
27
56
39
17
27
20
17
40
27
12
33
23
14
17
20
18
17
16
23
17
13
17
5
13
21
17
20
30
12
1
15
10
14
30
17
22
30
73
68
63
200
195
182
255
255
255
255
255
255
187
193
215
44
43
70
130
135
99
210
197
162
225
203
175
255
251
244
255
255
255
157
165
184
193
196
180
255
255
255
47
67
69
166
151
123
52
45
34
164
158
155
138
138
137
16
10
10
0
14
33
42
21
13
17
26
29
39
20
10
109
107
94
225
229
221
180
167
144
89
106
107
79
80
81
54
52
52
77
76
74
58
64
73
126
126
126
91
82
74
13
11
18
10
17
24
14
10
16
15
21
34
38
46
57
57
76
77
45
62
64
147
122
114
46
42
41
132
168
157
255
255
255
91
74
60
190
205
194
82
62
48
182
199
176
62
57
42
224
241
199
255
255
236
152
147
145
148
152
155
213
207
190
211
200
179
186
169
154
181
161
147
189
171
151
183
166
144
136
112
86
53
35
48
17
40
61
48
70
89
101
111
120
67
58
44
32
35
34
201
199
187
10
9
24
151
157
155
39
29
21
84
68
58
105
101
95
109
98
95
85
83
85
137
119
99
82
72
73
187
214
201
255
255
217
26
14
27
255
255
203
51
24
31
226
190
130
41
71
57
252
223
161
251
241
202
209
222
215
131
97
85
80
90
82
3
25
32
90
106
109
27
14
15
17
17
14
201
222
213
255
255
255
150
119
109
133
136
138
78
79
93
2
5
20
83
75
72
255
255
246
171
144
133
58
62
56
59
60
54
54
53
45
55
53
47
53
51
50
46
48
39
37
40
28
35
34
32
32
25
30
20
12
12
17
12
7
15
12
4
7
9
11
8
8
21
12
15
28
19
30
35
26
42
46
33
49
53
39
55
57
45
61
61
55
69
72
68
77
85
72
80
90
74
80
87
82
84
84
94
95
93
101
104
108
97
103
113
89
98
110
89
99
106
99
105
108
102
106
112
99
102
108
86
79
81
131
110
104
158
147
134
88
110
104
161
185
208
163
175
195
189
208
214
188
192
199
178
174
172
188
171
165
63
43
45
22
21
14
18
17
23
10
5
6
6
12
5
12
16
10
14
24
16
25
34
24
36
40
34
88
97
92
130
128
120
60
49
57
19
6
15
62
31
29
60
29
14
76
44
31
51
38
29
120
121
125
255
196
181
17
31
45
41
56
66
119
56
48
135
89
57
137
80
80
239
226
196
115
110
90
131
129
124
138
149
157
118
157
168
33
66
63
12
6
10
4
13
14
11
11
15
5
23
35
34
38
56
155
111
105
217
169
148
134
56
24
235
182
175
87
21
17
233
167
148
188
119
84
170
128
105
28
31
32
12
11
11
14
14
14
2
16
14
10
6
6
18
34
30
45
38
43
29
29
24
26
26
22
49
39
32
37
37
18
7
8
5
27
40
29
7
9
13
8
16
7
24
30
33
31
31
39
20
23
30
20
24
22
14
2
10
22
19
24
55
48
57
44
48
46
12
18
18
9
20
10
14
19
21
12
16
11
255
255
255
255
255
255
39
90
108
39
37
28
255
255
255
237
255
255
28
93
106
203
159
127
228
255
217
94
111
108
103
123
123
40
48
61
255
240
206
123
192
206
231
200
181
131
199
210
122
110
97
134
172
166
46
57
49
111
130
109
35
37
41
52
57
21
64
60
58
155
171
157
217
225
222
151
139
120
127
113
87
123
105
80
112
90
77
93
62
43
85
70
60
42
37
40
14
19
23
36
19
34
21
13
33
172
142
131
250
255
255
102
162
158
230
225
184
116
152
114
74
101
83
85
128
108
27
23
35
90
109
86
56
36
39
16
29
13
38
10
11
97
145
149
160
235
234
255
255
255
255
255
255
63
19
25
33
40
31
6
10
5
25
35
29
7
18
10
20
19
10
31
39
34
25
21
15
33
30
20
29
37
26
23
27
18
112
50
28
255
255
255
255
246
234
17
68
92
88
36
26
255
255
255
187
235
196
153
151
141
255
255
255
50
50
54
77
129
132
83
97
90
40
92
89
172
208
205
140
148
139
19
55
76
31
52
58
27
11
12
224
255
255
189
162
152
255
255
255
76
148
180
85
70
68
85
77
75
82
75
71
67
57
57
72
61
62
112
98
93
125
106
95
92
72
63
76
55
48
79
60
47
81
66
51
253
255
255
255
255
255
56
21
34
85
104
98
4
72
75
135
69
38
233
219
194
38
101
95
144
95
83
154
188
176
97
120
94
17
14
24
126
120
110
255
255
255
214
203
191
255
255
255
138
140
142
239
234
225
255
255
255
255
255
255
255
255
255
255
255
255
212
220
205
28
20
58
187
225
250
199
228
221
105
118
107
38
44
43
5
4
9
39
35
31
19
15
12
16
13
15
43
47
65
22
22
44
12
11
18
33
27
24
45
38
39
14
13
10
13
18
29
66
46
34
157
131
113
241
218
198
255
255
255
255
255
255
255
255
255
119
133
148
15
14
21
135
113
107
240
223
224
255
255
255
255
255
255
223
239
255
160
173
194
138
148
161
133
147
154
92
107
118
26
38
51
23
21
12
24
24
29
27
24
35
2
8
18
17
20
31
11
15
20
20
19
27
19
12
22
38
35
41
13
1
19
72
77
79
142
160
158
221
241
228
255
255
255
255
255
255
255
255
255
255
255
255
208
219
224
41
43
34
251
255
255
236
251
254
231
211
186
55
56
49
193
176
145
93
66
45
134
124
125
102
110
117
4
4
7
12
15
31
49
22
15
23
27
27
34
8
15
20
19
12
174
178
171
222
213
185
71
88
87
82
90
83
36
27
24
37
47
42
119
132
123
223
237
231
253
255
255
249
254
255
255
250
255
250
242
247
250
243
240
255
253
238
248
248
226
190
185
168
141
120
111
63
61
53
111
142
130
255
255
255
117
98
76
190
208
191
103
81
69
187
203
178
91
71
55
251
255
218
255
255
243
122
113
112
21
42
65
59
72
79
88
108
114
139
158
162
157
180
189
160
188
198
169
188
200
214
220
228
255
255
255
255
255
255
255
255
249
255
255
251
238
213
189
96
94
85
175
174
168
32
22
23
155
157
165
56
52
42
88
77
60
91
83
78
28
22
11
19
34
47
146
141
128
75
64
67
166
198
177
255
255
243
68
17
14
255
255
223
85
43
49
226
188
136
14
56
44
242
214
153
244
223
185
191
211
209
154
137
134
53
77
78
11
7
1
85
104
107
33
31
38
13
9
12
176
193
183
255
255
255
149
130
112
65
65
55
39
49
57
106
110
117
107
101
90
164
170
157
159
153
153
25
33
30
38
42
48
30
38
42
39
46
52
50
52
64
55
59
71
54
60
68
58
65
66
67
75
71
75
83
80
81
89
85
92
99
98
103
108
115
102
107
116
99
106
107
103
108
106
105
107
106
108
107
110
108
105
114
100
96
108
91
86
98
82
75
82
70
62
59
65
56
50
62
49
47
52
39
39
46
33
29
42
29
18
27
20
11
13
11
17
14
13
14
17
8
10
10
7
17
5
27
36
67
72
68
168
166
153
155
164
155
184
211
236
155
162
193
107
141
147
170
194
209
198
205
196
227
206
207
78
70
77
53
72
70
67
82
81
77
85
88
78
80
83
76
76
80
78
80
83
81
85
87
83
82
86
82
86
94
106
109
100
61
43
48
18
10
11
36
16
15
24
14
14
49
43
32
59
45
34
149
143
139
252
181
159
18
22
30
56
26
22
117
28
30
109
60
30
145
94
111
178
172
153
59
29
41
87
84
69
91
94
80
54
71
68
36
57
67
38
65
89
29
62
89
27
59
81
24
51
65
66
54
59
186
125
97
183
155
134
153
109
126
240
231
249
140
102
133
216
196
197
141
62
63
221
176
160
49
71
91
20
46
65
5
19
31
13
8
12
13
11
13
73
60
53
167
118
97
180
130
98
133
116
89
41
33
34
65
55
54
44
36
41
38
52
38
12
17
25
23
36
20
30
32
41
15
23
21
27
22
24
3
1
5
34
18
32
41
36
30
49
34
33
69
50
61
51
43
47
27
25
24
12
21
23
17
22
23
255
255
255
255
255
255
44
69
84
32
33
37
255
255
255
215
245
255
14
96
100
173
117
91
207
236
198
54
74
77
119
133
136
31
33
52
255
248
220
83
159
175
255
249
241
86
155
170
141
138
132
111
150
142
56
66
57
97
121
100
38
44
35
40
60
31
29
17
22
171
198
187
95
104
99
118
153
187
164
214
249
197
255
255
222
255
255
243
255
255
255
255
255
255
255
255
255
255
255
255
255
255
147
218
248
159
122
117
239
255
245
52
117
111
227
226
183
83
111
74
103
135
121
85
119
103
5
11
6
91
117
102
72
57
59
34
29
19
28
15
17
104
159
159
143
225
225
255
255
255
255
255
255
68
44
46
48
58
51
30
39
40
33
49
50
19
45
46
12
41
44
17
38
41
8
31
38
25
32
30
14
10
9
29
54
39
134
78
58
255
255
255
255
246
235
9
50
68
110
51
40
255
255
255
155
204
162
193
193
184
249
255
255
66
79
74
72
127
134
83
75
78
47
93
93
160
185
190
119
132
121
22
49
75
38
79
89
13
37
44
218
255
255
209
169
152
255
255
255
91
170
210
36
31
29
35
34
36
42
34
25
43
40
27
41
35
25
30
33
24
35
31
34
71
74
67
79
72
65
65
52
41
38
31
24
255
255
255
255
255
255
21
26
18
85
100
97
8
76
89
142
75
45
237
228
208
11
82
86
138
96
77
111
156
154
107
129
119
88
81
80
100
89
84
137
134
121
81
78
76
158
155
128
255
255
244
255
255
252
255
255
233
255
255
205
252
227
203
165
167
159
99
103
90
56
26
32
148
132
149
255
255
249
255
255
255
255
255
255
244
251
227
188
192
177
105
105
103
45
46
60
52
58
78
21
18
28
20
16
24
38
25
36
21
17
17
25
32
32
23
20
24
40
43
35
17
15
29
6
13
29
44
27
18
125
103
84
200
175
163
249
224
218
255
255
255
255
255
255
182
186
201
62
75
97
68
47
32
197
175
170
255
255
255
255
255
255
255
255
255
255
255
255
255
255
255
204
212
216
53
63
66
25
32
43
21
27
26
30
24
39
14
8
16
5
20
25
35
38
38
4
9
16
34
22
10
23
19
25
11
25
55
35
59
82
89
114
123
123
141
142
169
183
169
171
162
154
226
226
224
240
238
249
87
96
105
117
107
88
136
123
107
68
83
86
182
180
163
125
122
124
108
111
125
85
97
110
32
20
12
27
34
47
51
24
12
33
37
38
39
11
10
16
18
12
165
172
171
224
215
191
61
85
87
78
86
82
52
42
47
58
66
68
119
125
131
31
41
45
83
65
42
82
60
50
71
46
36
48
26
18
19
8
16
34
39
50
43
61
72
88
83
79
83
63
62
40
34
21
79
107
97
255
255
255
132
116
89
183
203
181
113
95
76
179
193
167
97
77
62
232
242
196
255
255
238
192
185
184
161
169
178
222
213
191
250
227
200
224
193
172
186
153
136
166
137
120
148
125
108
109
92
75
76
82
91
40
38
37
30
16
12
113
123
125
255
255
224
162
158
146
158
151
157
29
20
25
164
161
173
55
55
44
71
67
51
100
94
92
26
30
22
15
37
54
148
152
140
74
57
62
147
180
163
255
255
254
80
31
17
255
252
211
94
52
67
221
190
144
24
58
50
246
234
175
244
225
181
193
201
199
164
149
152
50
72
77
9
13
17
58
76
79
45
62
77
52
65
79
147
160
149
255
255
247
147
112
95
16
20
37
80
89
89
133
133
133
74
64
66
75
88
90
112
115
121
62
76
64
87
91
89
85
87
80
92
92
89
86
85
87
71
72
71
58
58
56
50
48
53
46
40
47
38
30
30
27
21
13
26
22
18
18
15
13
4
1
5
11
16
14
20
21
19
10
18
20
12
28
32
27
43
45
33
49
51
36
50
59
44
56
68
42
59
69
33
53
63
34
51
61
48
58
67
61
67
77
62
68
79
51
64
78
54
70
87
69
83
101
69
84
104
65
81
97
86
92
98
96
95
91
220
229
240
228
233
237
196
209
214
142
144
166
72
91
88
163
182
192
212
238
241
255
255
255
138
121
127
65
64
61
69
63
62
69
63
66
60
54
57
46
41
45
38
34
40
28
29
32
16
21
15
19
31
38
85
94
85
65
46
43
21
17
18
35
19
15
32
26
21
32
26
21
32
20
13
174
158
154
242
169
148
13
13
5
76
24
12
134
50
38
79
62
41
177
145
172
146
154
141
90
73
108
112
116
106
117
114
97
102
86
73
21
36
48
15
18
31
10
22
36
15
31
52
21
35
52
86
62
64
161
81
45
135
111
92
192
148
162
191
210
210
218
162
170
164
187
188
180
96
69
209
166
140
43
37
39
10
19
36
8
25
36
15
26
40
11
28
49
128
87
90
229
173
141
172
93
51
222
171
126
142
85
56
203
148
109
180
127
100
93
90
70
10
21
24
20
27
16
20
28
33
25
26
28
35
29
35
16
10
5
66
57
61
15
22
14
34
31
22
26
25
13
27
25
23
37
33
26
26
21
8
27
36
51
255
255
255
255
255
255
67
67
63
62
65
64
255
255
255
183
217
228
37
91
104
175
134
95
201
234
210
38
66
78
117
143
141
53
7
23
255
255
244
31
109
126
255
255
255
46
110
121
151
162
156
95
125
115
59
71
53
77
97
79
29
39
25
33
57
34
6
20
11
128
159
157
221
220
226
255
255
255
255
255
255
255
255
255
255
255
255
255
255
255
255
255
255
255
255
255
255
255
255
255
255
255
255
255
255
156
113
96
253
255
250
17
63
61
235
237
195
57
77
54
112
146
132
65
92
72
4
24
22
91
119
103
66
58
58
42
25
11
15
28
18
119
179
193
112
196
195
255
255
255
255
255
255
45
11
4
27
35
26
39
58
48
67
90
78
60
85
77
54
86
81
60
98
94
62
93
89
63
86
79
36
39
38
60
106
82
180
119
97
255
255
255
255
231
215
11
52
60
124
81
64
255
255
255
155
187
148
200
203
193
236
255
255
80
92
88
71
125
132
82
72
73
36
78
82
137
165
167
87
98
89
18
67
85
58
108
116
46
79
71
233
255
255
251
206
181
255
255
255
75
151
189
20
16
21
10
20
19
70
59
45
32
33
15
47
48
41
32
30
13
48
47
47
65
68
62
41
31
35
50
43
37
37
42
28
255
255
255
255
255
255
44
69
57
81
87
80
24
80
97
145
82
53
235
235
224
14
60
72
117
78
62
161
142
135
255
255
255
255
255
255
255
255
254
255
255
209
255
255
204
230
198
147
60
100
140
231
239
255
255
255
255
255
255
255
255
255
255
255
255
255
122
133
133
52
16
45
74
100
135
119
144
169
45
71
99
110
81
60
250
218
202
255
255
255
255
255
255
255
255
255
255
255
255
213
209
237
123
119
147
63
54
69
19
21
27
38
29
26
49
46
40
28
25
22
22
23
29
23
30
19
43
48
46
34
26
23
34
33
36
41
35
31
68
52
50
130
105
106
197
169
165
255
255
255
255
255
255
252
255
255
152
178
201
64
96
118
23
38
53
51
34
53
139
117
108
238
226
228
223
235
245
136
150
170
33
38
58
30
26
21
48
46
41
42
42
42
35
33
34
37
35
34
28
20
13
42
46
53
11
1
11
14
29
48
40
62
78
34
61
71
73
87
82
5
17
30
50
60
57
148
151
165
255
255
255
255
255
255
224
230
238
144
149
156
61
51
28
201
180
152
255
255
255
255
255
255
122
138
155
17
39
60
55
29
21
35
47
54
40
19
21
29
31
26
163
182
188
229
220
195
56
89
86
75
86
74
70
69
85
87
84
86
128
134
121
205
206
197
235
233
233
241
242
254
254
255
255
255
255
255
255
255
255
255
254
249
236
227
221
166
161
148
163
153
140
55
38
27
67
90
79
255
255
255
131
117
92
185
192
177
120
98
80
173
181
162
107
83
70
200
211
173
255
255
228
250
246
239
181
182
189
41
30
25
34
22
18
12
23
22
31
40
27
31
39
28
28
39
43
23
24
18
43
64
74
36
34
35
28
12
9
91
101
103
237
219
190
188
186
177
201
196
201
48
32
12
146
144
160
91
94
92
107
104
90
109
104
105
37
39
39
33
46
66
170
178
163
83
58
65
127
155
153
255
255
249
89
48
31
226
212
165
76
41
52
195
181
117
16
31
32
250
254
189
246
237
178
173
167
165
160
154
173
180
191
207
203
209
216
239
250
242
255
255
255
255
255
255
255
255
255
255
255
228
134
109
100
51
59
77
54
67
56
93
94
87
50
42
61
57
69
81
89
90
100
30
44
43
48
42
55
34
34
37
37
37
38
38
38
39
47
49
50
52
58
59
51
59
57
51
58
57
55
60
65
63
67
75
76
80
88
82
86
95
73
78
83
68
75
74
76
82
81
78
86
91
76
84
92
74
82
92
72
80
94
74
83
99
79
88
102
83
90
97
85
91
91
86
92
91
88
93
92
88
93
91
87
93
90
84
89
92
80
81
83
70
65
63
57
51
45
50
47
38
66
63
50
62
86
99
255
255
255
255
255
255
152
134
126
66
60
72
43
48
36
103
97
92
200
228
234
255
255
255
200
184
190
80
97
99
95
109
104
99
105
98
104
104
102
112
112
114
121
121
129
122
124
133
118
122
126
115
118
123
140
148
150
108
97
90
21
13
13
24
20
18
27
37
25
22
24
16
21
7
5
179
157
157
242
169
155
10
10
13
104
37
23
138
59
17
31
27
14
212
198
220
146
169
156
122
119
147
122
150
155
38
26
48
125
68
35
25
7
21
12
2
12
12
18
19
8
18
27
14
4
8
91
45
13
138
45
5
94
72
58
205
175
191
114
149
141
248
218
218
82
139
151
186
103
60
173
137
118
32
39
56
18
27
45
13
20
31
17
20
28
11
13
12
161
90
78
235
196
170
118
89
95
213
208
206
176
136
152
120
107
109
217
143
114
124
112
106
5
24
41
12
22
26
7
18
19
17
23
24
2
8
14
119
83
68
139
112
101
102
79
63
28
41
26
31
31
18
36
28
20
34
38
31
11
14
6
71
77
92
255
255
255
233
255
255
131
147
157
219
232
247
255
255
255
140
181
185
35
25
45
185
168
139
153
188
178
22
20
37
113
138
133
85
37
33
241
255
254
27
56
72
255
255
255
16
76
85
155
179
169
80
105
93
63
75
53
58
70
48
20
28
17
42
58
34
30
50
45
50
90
98
255
255
255
255
255
255
211
255
255
146
207
219
100
166
177
84
141
145
78
125
128
74
107
115
58
77
92
255
255
255
255
255
255
158
100
56
195
240
205
27
31
41
220
226
183
26
44
34
95
130
112
46
68
51
3
22
15
89
113
96
49
48
52
43
6
6
8
30
15
143
198
223
80
157
153
255
255
255
255
255
255
22
49
59
27
36
42
47
75
80
25
30
22
25
25
22
10
24
13
33
52
46
3
16
13
66
91
82
25
12
15
63
108
83
235
189
160
255
255
255
226
196
182
11
49
53
148
112
93
255
255
250
132
155
120
196
205
192
222
254
233
90
101
99
78
128
133
75
73
66
31
71
78
108
140
136
70
84
86
18
72
88
60
105
112
91
131
112
243
255
255
255
255
230
255
255
255
62
122
156
18
22
27
17
27
25
62
47
30
38
29
11
31
31
24
18
22
24
27
27
22
47
40
34
36
20
24
28
17
21
11
12
1
255
255
255
255
255
255
48
86
69
49
57
47
4
77
83
131
78
58
227
228
215
34
48
51
82
56
46
191
129
115
77
24
10
52
67
69
37
59
57
87
104
96
150
160
140
255
255
249
255
255
255
255
255
255
255
255
223
255
255
216
255
255
255
255
255
255
203
225
224
36
34
66
178
248
255
255
255
255
255
255
255
255
255
255
236
255
255
139
158
167
29
38
57
121
96
69
255
227
192
255
255
255
255
255
255
198
202
204
88
85
89
56
41
36
36
32
23
29
27
27
29
27
34
22
26
34
22
24
32
29
28
24
52
45
45
60
57
57
28
22
24
34
42
49
26
33
36
49
67
73
102
79
75
228
205
204
255
255
255
255
255
255
255
255
255
255
255
255
255
255
255
162
155
163
94
106
107
255
255
255
255
255
255
218
239
255
121
140
155
47
53
64
15
13
19
49
46
41
23
19
13
41
44
52
16
15
14
17
10
18
10
24
41
24
30
30
60
55
43
17
31
22
34
32
21
17
28
46
78
97
111
158
181
194
249
255
255
255
255
255
254
255
255
131
158
194
48
17
24
228
203
170
255
255
255
255
255
255
247
255
255
223
236
254
167
179
197
78
89
93
143
169
174
236
227
205
44
79
77
69
81
62
62
73
77
129
130
135
38
49
55
56
54
55
60
50
41
64
53
47
61
49
42
39
30
23
8
3
10
25
24
21
44
42
56
21
40
53
190
189
175
68
48
38
63
79
70
255
255
255
125
112
87
174
174
166
119
100
79
167
172
155
120
96
79
182
193
157
255
255
227
255
255
249
187
189
186
46
35
24
17
9
14
22
25
18
10
11
12
7
7
19
11
31
46
19
19
25
40
68
79
23
28
27
34
18
14
64
75
74
202
182
156
175
169
162
212
211
219
85
67
56
85
88
100
109
107
112
191
191
186
207
205
203
185
183
180
153
148
146
155
162
155
68
46
48
115
143
147
255
255
254
94
59
29
204
196
144
76
44
34
188
179
108
42
17
32
255
255
203
252
240
184
120
110
97
106
94
80
130
124
111
89
75
57
65
53
54
24
33
48
38
49
66
56
84
77
180
167
140
105
70
69
35
34
58
40
49
47
120
127
122
154
153
166
138
145
166
136
135
151
50
55
45
78
74
77
77
77
77
87
87
87
94
94
96
93
91
98
88
82
93
90
82
94
95
87
95
92
84
86
84
77
76
84
78
76
89
82
82
82
73
74
65
56
59
59
50
51
61
53
48
49
41
33
28
20
14
23
15
12
21
12
7
5
8
15
16
33
37
22
48
53
25
55
64
40
66
79
58
79
91
63
81
92
65
83
92
83
99
105
107
113
123
111
113
126
105
112
120
116
123
122
77
86
89
255
255
255
255
255
255
60
17
16
19
11
18
24
9
16
65
46
32
120
140
142
255
255
255
216
190
196
75
80
86
78
78
82
77
71
74
64
57
62
48
46
48
34
36
40
26
31
34
17
19
21
13
24
29
110
118
126
116
107
100
22
31
27
32
34
22
45
44
31
38
30
17
43
31
21
157
134
142
252
184
166
21
25
19
119
50
42
133
60
60
18
42
53
225
218
230
148
159
152
115
117
139
135
163
169
44
36
64
120
68
26
17
4
15
10
4
2
19
23
24
7
21
19
28
13
17
113
65
34
142
58
41
34
18
7
215
204
209
19
63
48
248
252
247
12
66
91
200
119
60
147
109
84
31
22
22
18
5
10
11
23
31
22
37
51
37
49
65
152
69
56
201
158
131
160
127
134
163
188
196
248
213
216
50
103
123
250
173
145
113
107
94
4
17
28
8
27
39
15
31
46
20
35
52
43
35
44
218
148
123
153
102
79
199
128
94
104
55
24
169
128
95
161
126
103
88
86
74
13
14
22
68
74
100
255
255
255
255
255
255
255
255
255
255
255
255
255
255
255
227
220
209
184
145
134
241
204
173
255
255
255
255
255
255
255
255
255
104
113
107
214
255
240
76
7
20
255
255
255
8
50
61
154
186
168
63
81
75
66
83
58
36
40
21
17
25
22
46
63
36
63
85
85
17
54
68
255
255
255
180
255
255
74
15
31
57
41
27
14
11
15
37
16
26
29
15
23
48
18
24
44
5
22
255
255
255
255
255
255
145
77
33
155
199
177
33
27
54
216
226
182
10
31
30
86
122
102
40
58
49
7
20
5
80
98
83
40
41
38
43
10
6
13
30
14
172
223
235
43
111
107
255
255
255
255
255
255
15
65
75
34
48
51
43
78
83
39
65
48
57
80
70
50
66
57
65
101
89
12
7
8
71
93
86
7
24
18
63
99
77
255
241
208
255
255
255
189
161
152
22
17
23
152
112
97
241
255
217
108
137
102
203
215
197
187
214
189
110
127
123
82
131
131
64
57
50
42
82
89
83
109
104
61
82
87
28
60
77
78
103
107
110
155
143
251
255
255
255
255
255
255
255
255
52
105
146
21
24
33
7
17
28
71
56
40
69
62
49
58
55
47
49
44
33
32
36
38
56
50
42
41
22
20
33
33
37
33
33
38
255
255
255
255
255
255
49
92
78
34
40
33
2
65
64
119
77
60
211
212
194
15
43
49
83
62
47
178
138
113
255
255
255
255
255
255
255
255
246
255
255
235
255
255
246
255
255
233
188
193
187
48
59
80
34
39
47
38
43
56
174
225
244
255
255
255
213
227
210
7
52
93
204
255
255
128
165
198
66
46
36
172
144
137
255
246
236
255
255
255
255
255
255
255
255
255
234
251
255
163
179
210
88
81
80
187
181
165
251
246
246
213
216
220
134
142
150
61
63
75
17
21
19
46
46
38
39
36
30
45
35
25
50
38
28
74
66
50
51
47
38
53
55
53
17
15
21
55
70
75
38
43
46
15
5
3
52
48
56
89
76
79
117
90
80
124
92
82
156
126
111
239
225
223
241
234
237
86
93
99
73
55
44
199
186
173
255
255
255
255
255
255
255
255
255
185
193
204
72
83
91
56
56
65
14
15
21
9
9
3
17
9
22
17
11
12
43
34
23
12
22
17
31
24
19
21
16
42
24
24
38
10
40
68
30
48
65
70
77
83
167
160
158
255
249
242
255
255
255
191
203
215
43
63
91
108
81
59
210
175
130
244
220
187
255
252
239
255
247
252
101
107
122
215
208
192
25
52
51
60
64
56
43
49
58
119
122
128
45
46
49
79
79
76
64
63
60
39
30
27
8
8
17
24
24
32
28
31
34
18
27
37
38
37
52
18
29
41
195
191
175
83
58
44
47
62
62
255
255
255
146
132
92
163
162
148
137
118
89
151
155
131
134
110
82
175
183
138
255
255
225
255
255
255
184
192
190
30
28
29
10
8
19
14
12
16
7
9
28
10
13
46
23
28
55
36
35
44
43
71
85
13
21
19
35
22
21
47
65
62
199
186
162
168
165
163
207
207
213
112
85
75
75
89
99
43
50
57
39
35
28
123
115
113
118
111
103
117
105
92
85
80
88
14
9
6
109
152
147
255
255
255
139
86
42
234
217
166
116
76
49
215
198
141
85
39
43
255
255
227
255
255
214
123
122
122
130
150
158
184
209
208
225
236
223
227
239
228
217
225
212
230
226
212
231
230
209
255
255
249
166
133
122
55
60
61
77
84
94
80
100
109
131
147
159
203
221
239
218
214
236
29
9
22
39
32
36
18
18
18
13
13
12
7
5
4
11
19
12
21
30
29
27
35
37
37
44
45
49
54
59
60
62
73
76
74
91
91
87
107
94
93
104
92
97
92
92
101
91
95
106
100
97
109
105
97
109
107
102
114
116
110
120
123
118
123
123
119
120
121
114
114
114
110
110
112
109
110
115
106
110
113
103
109
107
98
100
99
88
84
81
72
65
59
53
52
50
38
45
46
51
58
60
64
45
26
255
255
255
255
255
255
83
60
61
48
41
47
21
20
4
94
80
68
79
95
94
255
255
255
230
202
203
41
50
44
55
66
62
59
65
58
55
56
53
49
51
53
45
49
57
46
50
59
47
51
54
37
41
43
83
93
100
109
95
90
34
30
25
56
65
47
21
30
28
27
19
19
29
14
8
136
116
129
255
223
206
62
80
80
115
54
45
122
48
50
42
48
59
229
212
216
107
99
92
135
146
171
104
133
144
57
11
43
86
47
7
15
13
20
24
20
17
31
33
31
22
35
24
36
17
18
138
79
37
141
56
18
41
38
67
215
214
218
64
31
41
246
255
255
79
23
34
213
139
79
115
83
64
15
13
17
8
3
5
18
24
28
12
22
15
25
12
8
142
51
17
166
120
83
172
159
172
93
115
117
255
255
255
30
60
85
242
162
126
91
81
71
18
40
47
22
35
35
23
29
27
29
27
24
80
42
26
255
174
140
32
57
68
219
192
182
81
96
121
118
124
120
181
124
87
132
116
101
21
27
52
45
76
108
133
217
255
95
142
172
155
172
189
180
200
226
192
211
231
23
63
80
118
83
75
20
59
70
20
63
74
128
111
103
255
252
226
11
25
29
192
240
222
117
45
34
238
255
255
26
25
38
155
185
162
51
61
67
74
92
69
17
20
13
26
39
26
47
71
46
98
126
132
45
33
45
255
255
255
156
255
255
61
18
28
75
49
34
27
26
31
56
27
29
2
17
32
26
35
49
16
19
42
255
255
255
255
255
255
192
131
81
173
218
192
59
20
39
223
239
196
5
13
22
86
123
104
32
47
45
0
22
3
63
80
65
38
44
38
45
13
19
2
12
4
193
251
240
13
52
45
255
255
255
255
239
212
20
54
63
56
89
89
20
64
63
51
87
63
20
61
50
34
80
63
62
103
87
20
31
26
74
92
85
37
53
48
49
77
58
255
255
238
255
255
255
160
135
132
29
18
24
159
117
100
247
255
223
93
123
90
230
236
212
140
166
137
128
156
151
72
121
117
52
28
31
77
119
121
80
97
103
77
101
109
20
59
89
101
111
108
111
163
163
246
255
255
255
255
255
255
255
255
41
104
149
11
29
33
12
29
28
85
76
65
55
54
43
65
71
62
82
85
75
59
66
54
70
69
65
50
46
37
47
46
56
48
30
30
255
255
255
255
255
255
62
107
97
30
32
30
30
50
53
146
98
77
208
214
192
52
49
55
116
92
66
80
107
107
145
140
131
97
59
45
62
29
22
42
20
23
77
69
52
70
76
62
43
60
85
31
38
60
20
14
18
16
12
18
187
246
255
255
255
255
194
196
177
4
58
100
201
255
255
129
161
188
7
10
13
16
8
8
41
21
21
58
43
37
105
86
74
158
131
116
240
220
194
255
255
255
255
255
255
142
146
156
154
147
121
255
255
255
255
255
255
255
255
255
255
255
255
206
209
221
138
143
157
106
105
119
79
85
93
38
37
51
40
41
41
32
36
29
34
34
25
5
17
22
56
51
61
66
58
61
43
43
53
25
17
35
5
8
12
24
10
21
21
24
41
61
59
51
197
187
179
255
255
255
255
255
255
236
249
252
99
112
125
44
37
21
141
138
122
217
216
206
255
255
255
253
255
255
194
207
236
110
122
146
53
56
57
27
13
10
33
17
7
13
6
9
33
21
29
51
23
8
21
15
17
30
15
6
23
9
34
13
11
31
26
23
38
56
50
59
101
97
86
170
166
142
232
232
222
245
255
255
211
238
255
198
220
232
135
141
149
60
55
47
204
197
194
202
190
183
61
75
79
75
73
60
49
43
42
101
106
121
48
54
65
84
91
92
73
75
71
37
20
8
13
10
28
25
28
42
14
33
47
18
30
43
31
38
48
7
25
41
180
175
160
96
63
43
69
61
59
255
255
255
175
156
106
153
157
130
156
136
90
136
144
111
140
120
82
188
188
137
255
255
233
255
255
255
167
178
177
35
30
20
40
26
15
34
32
9
17
12
28
30
11
19
42
27
38
31
20
38
20
59
101
31
63
96
55
89
119
102
137
155
192
190
185
130
130
137
202
200
200
137
98
82
111
131
140
89
88
87
133
142
139
170
181
179
171
177
176
149
153
155
101
109
123
27
25
29
118
164
157
255
255
255
154
95
41
246
232
187
156
109
64
215
204
153
118
72
56
255
255
215
255
255
223
188
190
176
182
182
168
105
89
86
82
67
64
28
20
34
26
48
53
61
62
56
50
75
70
255
255
255
169
129
114
75
70
69
69
67
75
50
58
74
54
68
67
202
234
246
249
245
255
87
79
84
93
91
94
88
88
94
86
88
95
88
94
99
88
95
98
83
85
91
86
86
88
90
90
88
85
83
80
77
71
72
77
69
74
76
68
71
63
56
55
46
39
39
29
23
26
20
17
18
21
22
18
10
13
4
7
11
1
9
3
5
15
18
16
32
38
29
37
42
32
35
42
34
37
45
35
33
43
31
27
38
30
28
33
28
33
36
25
38
35
24
39
23
11
29
18
1
13
10
27
53
41
49
223
249
255
255
255
255
86
61
49
63
66
71
13
16
10
113
106
94
54
63
47
255
255
255
255
243
245
49
45
47
27
28
35
35
35
43
46
46
51
53
52
54
63
63
61
69
71
66
73
77
73
84
86
87
110
119
126
137
119
120
55
38
33
62
68
48
8
17
22
27
24
23
17
14
9
130
118
136
255
230
215
76
79
84
91
75
65
116
88
66
152
107
93
252
207
186
85
58
20
143
141
147
86
110
102
97
73
77
62
39
48
25
32
42
23
41
42
17
25
27
14
23
17
32
4
12
144
65
45
141
74
58
91
72
102
195
200
209
128
88
106
209
239
242
129
62
32
217
146
94
86
60
39
12
8
10
20
20
19
7
14
13
8
4
9
54
26
17
164
83
43
113
71
22
186
187
196
5
28
24
246
255
255
87
16
31
226
157
117
73
51
34
11
20
30
29
38
53
39
48
72
36
44
67
105
70
68
228
151
112
51
44
65
218
207
186
149
140
146
102
143
142
212
162
128
134
113
98
19
28
43
158
177
204
255
255
255
255
255
255
255
255
255
255
255
255
255
255
255
183
184
188
224
173
153
255
255
255
255
255
255
255
255
255
255
255
248
146
129
110
174
227
213
163
101
88
227
255
247
56
18
14
169
191
167
37
42
55
96
110
93
16
12
16
39
52
29
36
58
30
125
171
181
83
7
11
255
255
255
128
247
255
45
13
19
82
67
50
27
30
18
53
34
34
49
33
39
41
27
10
40
32
23
255
255
255
251
255
255
238
191
143
162
216
184
92
46
13
216
239
198
24
15
12
85
123
109
33
38
44
5
32
10
47
61
38
23
44
34
45
14
31
8
11
23
194
255
255
92
32
14
255
255
255
236
196
182
20
54
57
57
92
88
1
48
46
45
75
53
41
77
63
48
86
68
34
52
39
20
23
21
45
53
46
32
29
25
32
49
35
255
255
255
255
255
255
147
127
130
27
56
62
208
174
145
255
255
255
47
77
59
249
245
217
95
116
90
132
163
157
57
99
98
36
16
30
124
164
164
69
79
93
101
125
124
1
72
105
90
102
92
127
186
189
200
255
255
255
255
255
255
255
255
24
94
140
9
8
11
12
11
12
78
73
61
54
54
50
89
90
75
61
62
51
86
85
66
57
60
54
62
52
37
35
29
43
72
51
40
255
255
255
255
255
255
81
125
117
32
32
34
54
37
45
160
109
81
191
216
192
56
9
24
137
110
79
89
119
122
122
133
125
9
9
30
12
7
13
22
17
25
80
74
58
75
86
75
41
58
89
38
43
64
28
21
22
22
17
13
209
255
255
255
255
255
197
190
178
25
74
117
220
255
255
134
165
187
37
38
30
24
25
14
13
8
4
7
13
19
28
25
23
17
8
13
35
36
33
53
45
28
114
113
113
255
255
250
255
255
255
206
222
225
96
127
131
37
5
6
176
145
136
255
233
226
255
255
255
255
255
255
255
255
255
255
255
254
163
169
167
74
80
84
12
27
33
49
33
31
38
48
51
65
64
66
47
54
59
49
53
63
42
41
52
14
5
25
13
13
20
5
3
5
31
24
24
45
28
19
111
86
68
209
192
174
255
255
255
255
255
255
255
255
255
182
186
193
39
48
55
109
96
88
218
207
203
255
255
255
255
255
255
255
255
255
255
255
255
243
252
255
183
190
209
78
86
103
14
22
38
25
24
21
23
11
18
10
5
10
10
20
29
34
35
57
38
35
50
32
31
29
46
45
35
109
97
82
174
171
148
217
214
195
251
245
230
228
230
229
104
108
126
61
49
33
86
79
58
139
136
106
125
136
125
122
139
155
72
87
109
87
98
111
89
93
96
36
21
38
11
26
50
38
41
55
25
24
35
27
20
27
41
39
37
53
53
55
148
148
131
141
116
84
145
118
89
255
255
255
255
241
188
246
239
195
255
228
177
239
227
186
255
252
195
255
255
196
255
255
195
214
205
193
141
179
195
150
189
200
187
224
235
232
255
255
255
255
255
255
255
255
255
255
255
255
255
255
255
255
255
255
255
255
255
255
255
255
255
255
255
255
255
157
137
127
138
140
139
158
126
113
116
136
143
101
89
89
39
44
34
84
81
81
68
56
52
49
45
42
107
119
131
49
41
36
121
158
157
255
255
255
168
110
55
239
229
187
188
137
83
185
182
131
138
83
49
231
232
189
255
244
205
222
225
206
216
208
206
28
41
36
48
36
49
5
22
38
39
47
60
34
25
25
22
41
39
255
255
236
193
157
140
68
83
88
113
126
128
100
113
127
26
26
36
182
217
224
239
237
255
47
28
43
32
24
34
15
16
14
20
22
13
27
26
12
38
35
20
45
41
28
44
40
26
44
40
23
40
36
19
32
25
15
32
23
20
33
27
19
31
27
14
26
23
2
23
20
5
20
18
6
23
24
15
7
9
15
2
6
16
4
8
16
1
14
22
6
26
32
21
41
46
34
52
58
37
56
59
38
56
61
44
61
69
52
69
80
60
78
89
68
89
96
78
95
101
88
96
101
90
97
105
98
102
115
170
182
184
255
255
255
132
127
127
129
155
156
146
164
161
170
171
164
128
125
118
194
205
201
223
208
214
78
83
75
80
90
93
91
95
106
81
81
91
61
62
70
52
56
64
56
60
67
60
66
69
55
62
63
94
119
122
162
150
158
76
56
50
59
62
43
25
9
5
26
28
36
13
11
11
141
133
151
255
232
227
99
54
33
58
19
8
42
28
11
111
62
57
184
162
134
51
25
1
135
114
106
98
112
99
61
93
88
45
72
76
57
96
109
60
98
116
45
78
92
27
57
68
45
32
42
129
38
39
140
74
57
123
98
124
168
181
189
176
142
161
151
199
215
159
77
46
193
126
81
57
41
18
9
12
14
4
10
12
9
12
19
12
16
22
86
44
36
182
100
57
36
10
41
192
201
210
82
48
65
209
246
255
152
71
38
194
140
108
52
31
10
9
15
18
25
21
28
15
11
8
25
13
22
120
63
34
197
123
74
101
109
137
152
157
140
187
179
176
34
84
87
212
148
94
91
65
51
24
41
58
236
255
255
255
255
255
137
176
176
13
16
24
255
248
241
255
255
255
63
128
152
163
113
99
225
252
255
72
98
99
57
63
66
8
41
52
236
209
183
144
216
200
211
155
138
209
254
229
95
65
54
181
199
170
9
9
10
130
142
123
36
37
24
57
77
52
21
39
15
135
200
212
124
59
43
255
255
255
93
206
255
65
28
0
61
55
42
15
11
15
25
23
34
44
32
42
3
4
22
32
38
33
255
255
255
180
255
255
237
210
166
128
183
152
114
75
40
200
227
185
40
37
12
81
121
107
38
34
46
18
46
29
32
45
31
13
44
35
38
9
15
2
25
49
175
255
255
160
97
80
255
255
255
186
155
167
44
53
47
53
87
80
8
28
29
29
38
26
28
31
29
6
19
9
10
12
5
13
17
15
48
40
34
32
29
22
18
31
24
255
255
255
255
255
255
151
148
154
32
22
34
255
255
223
235
255
227
20
36
27
232
227
196
74
85
65
127
148
143
49
78
79
21
23
25
151
186
179
39
64
87
102
130
128
8
66
85
75
81
68
145
210
204
149
216
217
255
255
255
255
255
255
19
69
121
34
24
21
27
21
15
73
64
51
32
31
25
69
70
55
55
49
36
101
97
73
48
47
39
66
55
33
41
26
41
84
70
50
255
255
255
255
255
255
89
133
127
47
41
44
64
29
47
161
118
82
179
212
191
84
21
19
132
110
76
65
99
99
131
139
128
10
13
21
25
20
16
29
35
35
80
70
60
71
71
71
41
60
82
38
51
68
5
12
18
17
14
3
227
255
255
255
255
255
195
185
173
32
81
126
243
255
255
131
164
179
12
6
17
4
4
11
11
10
10
22
21
22
16
14
19
6
13
28
20
29
39
53
52
48
18
26
33
121
126
124
134
124
99
229
214
192
255
255
255
255
255
255
255
255
255
198
203
213
110
131
147
34
10
34
159
116
86
229
194
167
255
255
253
255
255
255
255
255
255
214
221
226
118
135
150
84
87
106
51
53
69
49
54
60
74
77
68
40
56
78
17
5
19
21
15
10
27
24
31
30
28
33
34
40
46
16
20
18
52
43
40
81
72
57
118
109
96
203
196
185
255
255
255
255
255
255
194
194
204
82
93
100
55
38
36
180
157
148
231
203
189
239
219
202
255
255
246
255
247
250
139
141
161
34
39
45
17
14
11
7
10
6
4
10
16
17
23
42
32
35
53
30
37
38
18
24
36
7
11
8
68
73
77
49
49
49
84
89
84
171
183
174
247
254
255
255
255
255
188
203
229
57
82
121
81
57
22
208
197
166
244
245
241
217
225
245
184
203
227
143
173
198
146
166
191
153
162
181
145
159
174
158
175
191
175
192
203
200
215
225
211
226
224
177
185
185
147
152
155
195
169
145
168
140
75
141
124
80
127
101
78
55
60
57
102
93
50
112
103
53
140
122
96
247
237
212
255
255
255
255
255
255
255
255
255
255
253
236
216
204
186
206
195
178
216
208
187
187
157
119
107
94
109
41
45
87
35
65
107
66
100
134
113
110
108
60
67
67
76
81
82
120
101
93
106
117
120
90
82
78
40
47
41
85
86
91
38
32
37
11
11
32
98
118
124
67
55
39
106
138
138
255
255
255
202
139
90
224
217
177
220
157
99
172
167
123
163
108
63
215
213
175
255
240
195
228
241
219
213
212
216
16
25
26
25
21
35
55
73
71
43
58
55
18
35
41
9
25
37
255
250
236
238
199
181
37
27
24
29
20
5
87
95
105
55
51
54
159
184
190
243
248
255
71
57
66
27
26
33
15
8
22
8
11
22
10
12
24
15
13
30
24
21
41
32
28
49
37
36
51
45
49
58
57
65
70
62
72
77
69
79
83
83
92
93
94
102
100
102
110
106
108
116
112
111
118
116
110
115
120
115
117
126
119
120
130
124
128
132
128
132
128
123
124
121
119
119
119
118
118
116
106
109
102
93
100
89
88
95
83
81
89
75
73
81
68
68
70
61
61
63
49
48
55
39
47
48
45
81
83
78
212
208
199
147
133
129
108
101
106
55
55
63
89
78
70
46
38
28
115
133
133
186
178
188
50
34
38
24
19
24
18
18
12
18
18
17
21
23
26
22
26
31
23
25
28
22
18
22
20
19
20
68
101
104
171
168
182
97
77
72
49
51
35
56
39
20
31
34
36
23
23
5
161
153
162
255
255
255
148
182
219
134
158
188
124
143
165
104
116
132
149
126
109
12
34
35
95
73
74
80
85
84
95
77
67
110
45
18
117
55
25
105
51
25
74
15
14
50
15
37
56
41
49
91
35
43
120
62
50
190
139
155
167
164
160
224
180
194
137
184
204
153
67
38
149
94
60
49
39
19
5
7
11
12
17
20
9
15
17
6
5
6
101
43
23
181
100
59
22
34
79
174
190
195
143
102
125
142
203
227
195
102
74
152
106
78
28
18
13
13
17
12
12
2
17
15
11
22
14
7
18
146
74
43
187
116
62
145
157
187
79
91
80
198
205
217
56
14
40
210
138
88
60
37
11
20
15
20
255
255
255
255
255
255
63
94
91
93
75
63
255
254
249
252
255
255
47
114
130
155
98
78
213
222
215
68
93
90
65
85
79
33
53
60
235
204
169
115
197
185
244
197
173
169
231
203
122
102
86
176
195
158
41
41
28
143
153
124
57
52
39
59
84
56
7
10
7
132
206
216
169
112
95
255
255
255
67
173
241
74
47
24
47
45
38
14
8
13
11
11
21
46
43
40
10
8
17
65
60
68
255
255
255
128
235
255
241
221
169
116
164
138
158
118
77
181
211
168
52
49
18
86
124
104
39
35
51
48
73
61
21
40
43
16
48
49
34
18
29
14
44
67
159
249
255
221
162
158
255
255
255
147
114
130
17
14
13
31
64
57
28
10
2
22
21
18
32
41
38
5
4
12
9
4
5
12
19
18
48
40
32
28
31
25
2
13
12
255
255
255
255
255
255
125
139
148
71
36
24
255
255
255
185
213
175
15
34
21
209
214
181
61
65
51
108
131
128
42
69
74
2
15
21
156
177
160
20
38
38
82
104
94
23
30
35
78
73
62
147
206
198
113
174
183
255
255
255
255
255
255
36
43
89
28
20
18
20
14
11
81
64
56
31
33
27
52
53
49
51
49
36
66
71
56
15
25
18
55
50
28
29
16
31
82
78
55
255
255
255
255
255
255
90
136
138
48
27
30
70
25
52
159
128
91
173
208
193
83
17
16
128
112
78
75
114
101
149
158
141
61
59
50
70
60
62
74
53
57
62
47
40
37
39
48
37
58
76
51
75
81
17
15
14
6
9
8
233
255
255
255
255
255
186
171
157
41
85
130
234
255
255
113
145
155
26
20
19
17
17
29
15
15
12
28
25
31
14
16
26
6
12
27
27
41
62
65
74
89
33
38
51
79
77
85
8
8
9
43
53
56
29
41
32
70
46
46
158
126
120
242
211
197
255
255
255
255
255
255
255
255
255
200
206
217
132
142
151
32
40
41
141
102
99
221
189
191
255
255
255
255
255
255
255
255
255
255
255
255
255
255
255
255
255
255
229
235
242
103
120
138
23
35
48
8
14
15
39
32
42
4
5
1
27
23
33
13
10
12
13
13
17
25
24
21
69
60
56
144
132
113
217
196
174
255
255
255
255
255
255
255
255
255
255
255
255
249
248
249
171
171
171
27
25
35
229
228
245
255
255
255
212
228
244
130
143
162
59
61
76
13
10
15
25
22
26
27
48
52
28
42
60
1
20
22
75
85
91
50
44
43
58
56
43
82
82
82
73
73
86
140
137
136
224
219
210
255
255
255
227
248
255
96
114
149
67
60
19
200
184
149
255
255
241
255
255
253
255
255
219
255
230
187
244
210
168
236
207
170
231
203
170
226
203
179
206
184
160
149
125
103
88
60
48
39
35
28
113
107
79
143
121
89
118
88
61
96
81
62
129
120
107
144
142
138
134
140
152
109
117
132
89
88
98
127
135
147
165
180
194
202
216
234
243
253
255
255
255
255
255
255
255
255
255
255
255
255
255
255
255
255
255
255
255
255
255
255
255
255
255
181
172
168
154
174
190
119
127
134
117
128
135
62
60
60
30
37
32
100
97
99
37
31
25
12
11
27
70
93
97
77
59
41
97
126
115
255
255
255
246
180
136
198
198
159
250
174
120
146
142
106
182
124
87
204
197
154
255
255
205
237
242
216
165
180
181
15
38
54
2
33
46
51
78
85
8
21
49
28
27
22
24
21
14
253
255
248
227
177
156
100
98
107
170
168
165
129
120
111
22
9
15
138
149
159
227
234
247
78
74
72
79
78
91
90
92
101
98
99
100
99
97
96
102
98
99
106
104
104
103
103
100
100
99
93
96
94
85
90
86
79
83
81
71
80
78
67
73
72
61
65
64
54
65
61
51
62
57
46
50
44
36
39
31
29
34
26
28
34
24
28
33
22
27
27
17
25
16
11
15
7
4
3
8
4
5
15
12
15
11
4
11
13
8
10
13
11
18
15
12
11
14
15
7
12
8
14
15
8
4
8
22
17
54
59
59
197
203
195
162
164
153
158
172
162
187
187
185
202
192
181
204
195
193
217
225
226
255
255
255
92
73
73
23
20
12
14
18
8
15
21
10
21
23
22
28
28
28
29
26
26
24
20
22
23
23
23
48
80
85
170
176
187
120
101
103
32
36
31
54
41
28
21
21
18
10
5
13
173
165
163
255
255
255
234
233
242
255
255
255
255
255
255
253
255
255
140
166
202
34
41
68
63
42
19
89
97
139
146
180
233
117
158
206
79
124
169
50
107
149
9
78
118
31
39
82
47
36
74
45
38
60
49
35
39
116
95
97
89
121
147
157
149
167
104
106
130
133
89
87
94
84
76
40
49
54
29
41
55
19
44
56
30
51
62
33
43
56
110
53
44
173
97
64
68
77
116
142
161
161
187
158
183
65
145
167
210
115
84
108
75
43
8
5
20
14
14
15
7
22
14
12
18
19
23
12
12
165
86
54
160
96
44
185
194
218
20
27
20
202
226
238
125
53
20
189
126
79
38
26
4
28
17
28
255
255
255
255
255
255
18
28
32
74
67
67
252
247
255
203
234
238
32
102
103
157
99
78
198
196
175
45
52
41
77
94
85
38
33
64
234
211
179
81
170
176
255
228
201
127
194
171
130
118
92
159
180
142
44
43
28
136
145
113
63
68
60
53
77
55
24
24
40
127
203
215
210
164
150
255
255
255
56
155
225
71
53
36
58
51
48
15
20
31
2
7
21
56
55
46
34
32
38
105
102
114
255
255
255
75
188
227
255
255
214
99
149
141
197
159
115
159
188
153
52
50
16
95
132
107
45
41
55
87
115
100
16
39
46
24
55
38
24
28
30
24
52
73
155
239
255
255
225
225
255
255
255
92
50
63
44
61
56
47
94
89
32
22
15
16
9
8
32
46
41
13
13
19
7
10
1
13
24
21
37
36
28
19
22
19
26
11
8
255
255
255
255
255
255
85
95
94
56
24
26
255
255
255
198
228
186
38
44
41
211
232
203
33
44
41
86
120
118
29
58
71
17
35
47
158
181
168
37
30
47
55
80
72
46
13
21
74
62
56
142
194
187
66
121
135
255
255
255
249
255
255
47
23
63
35
14
13
26
18
16
95
72
62
12
26
21
46
43
40
28
22
23
43
38
37
27
25
16
54
38
23
29
17
26
98
97
80
255
255
255
255
255
255
87
137
146
33
12
7
79
8
34
169
138
107
177
207
191
71
22
28
144
119
92
130
164
132
156
170
134
33
23
0
24
18
14
24
21
7
1
5
18
32
34
48
53
68
90
66
89
95
55
55
44
69
77
65
238
255
255
255
255
255
166
151
137
39
91
138
220
255
255
102
134
147
19
15
22
34
31
38
21
19
14
28
24
31
19
25
39
15
28
25
19
18
18
51
56
62
36
35
40
33
26
28
57
59
74
38
42
56
15
20
25
11
13
11
26
26
23
26
34
44
23
2
18
125
90
69
198
163
146
228
202
193
255
255
255
255
255
255
255
255
255
217
229
238
133
154
175
20
40
74
86
58
22
128
94
69
144
108
89
203
168
156
255
255
237
255
255
255
193
191
184
80
81
80
69
64
67
10
14
12
34
33
30
42
39
40
57
54
36
31
29
3
12
10
23
25
33
40
11
16
30
26
12
18
114
96
107
170
136
127
197
161
138
181
151
129
214
187
165
242
228
213
106
106
101
86
73
58
190
174
162
255
255
255
255
255
255
255
255
255
171
189
196
70
78
83
14
33
49
17
21
13
70
79
79
50
47
60
39
28
11
75
68
62
20
30
49
11
7
17
19
24
18
53
41
44
163
168
170
231
250
255
221
242
255
149
178
213
86
117
141
80
117
135
100
145
172
127
173
210
145
188
228
152
190
224
165
196
219
200
223
241
251
255
255
255
255
255
255
255
255
255
255
255
255
255
255
255
255
255
255
255
255
255
255
255
255
255
255
255
255
255
255
255
243
255
255
239
255
255
226
255
255
255
251
245
236
212
204
211
182
179
186
168
172
180
161
176
184
136
146
142
88
113
141
31
38
53
17
16
14
14
38
53
227
255
255
255
255
255
138
115
102
34
57
66
176
183
197
180
182
195
106
116
120
110
107
106
28
27
29
12
23
46
39
55
57
94
66
44
153
147
119
255
255
255
255
254
199
236
231
192
255
223
169
163
178
137
235
198
147
250
237
164
255
247
185
165
159
148
119
161
179
152
186
194
173
204
210
219
255
255
255
255
255
255
255
255
255
255
255
255
255
255
169
136
119
98
118
116
74
64
47
87
84
68
76
88
81
138
139
146
181
183
198
38
41
32
41
48
57
37
38
39
33
24
16
27
23
14
20
26
21
18
27
19
21
27
16
22
25
13
20
18
12
20
17
17
21
16
17
25
14
15
17
14
12
10
13
14
18
13
14
12
11
13
10
10
10
15
15
12
15
15
8
14
17
7
12
15
5
8
11
5
10
14
5
7
15
9
9
15
12
16
19
19
20
22
29
17
18
26
11
11
24
13
14
18
18
23
21
22
11
19
22
4
3
16
17
13
58
69
68
253
255
253
192
162
139
92
76
69
73
73
87
56
48
41
37
15
11
121
144
136
255
255
255
137
112
113
29
33
43
31
37
45
36
46
55
42
58
68
43
62
71
41
58
67
46
60
69
56
66
79
56
77
85
137
149
150
122
106
107
27
33
31
51
45
29
7
19
11
19
17
8
179
169
163
255
255
255
152
170
179
104
124
132
40
69
88
18
32
61
73
97
137
113
139
163
55
68
95
185
176
191
255
242
240
255
255
255
255
255
255
255
255
255
242
255
255
209
233
255
202
226
255
197
228
255
179
213
239
112
148
168
24
59
73
59
65
69
76
84
110
55
73
108
35
37
78
74
7
36
105
47
9
114
61
21
102
47
11
74
25
10
88
44
27
132
81
56
150
143
162
134
140
131
220
203
222
89
124
143
198
124
96
71
56
37
10
21
28
15
15
13
6
8
7
5
6
12
22
7
1
164
90
54
111
61
21
196
204
218
36
23
22
184
218
225
167
91
56
160
112
64
19
9
15
71
51
67
255
255
255
255
255
255
24
1
7
83
77
76
255
255
255
180
213
217
24
93
86
161
105
83
198
192
157
43
46
21
94
125
126
65
26
63
245
246
222
39
133
155
255
252
229
96
157
144
133
124
97
142
163
134
31
30
10
115
121
92
43
55
51
57
79
61
43
61
85
127
205
224
250
220
215
255
255
255
48
136
199
67
50
30
63
47
36
22
13
12
24
15
4
72
59
49
57
49
48
145
159
177
255
255
255
55
101
139
245
255
234
59
116
122
210
185
140
141
170
144
53
57
26
100
137
112
42
35
48
114
146
125
17
20
27
23
49
31
16
42
36
31
61
89
139
220
246
255
255
255
255
255
255
33
13
8
14
12
16
55
98
94
26
18
16
13
31
23
24
56
45
24
32
28
15
17
10
21
39
25
41
62
54
14
31
27
41
21
20
255
255
255
255
255
255
71
63
43
47
17
24
255
255
255
222
252
202
33
15
26
215
252
233
17
24
29
65
109
114
20
51
69
27
51
64
175
204
200
76
68
83
53
88
89
47
14
28
60
53
52
144
199
194
6
69
84
255
255
255
198
255
255
47
15
45
62
33
10
16
4
7
104
75
62
21
12
13
58
43
40
18
4
11
41
29
34
10
13
17
36
29
24
36
35
35
114
113
106
255
255
255
242
255
255
85
137
143
23
10
12
100
18
7
183
150
124
169
198
179
70
10
20
149
122
100
144
179
136
139
151
112
79
82
77
97
98
91
110
100
90
114
102
82
176
164
130
255
255
235
255
255
255
255
255
255
255
255
255
255
255
255
249
255
255
134
123
106
34
48
89
215
255
255
255
255
255
225
229
222
181
187
187
122
126
136
66
70
79
27
39
50
7
25
24
24
17
14
37
43
50
23
21
31
8
12
15
32
34
28
45
41
20
52
48
31
31
31
30
30
36
32
42
45
32
49
51
51
21
25
36
30
27
22
17
15
24
17
20
12
98
81
77
186
158
156
254
226
223
255
255
255
255
255
255
255
255
255
255
255
255
255
255
255
255
255
255
174
186
199
41
25
33
233
204
186
255
255
255
255
255
255
252
255
251
154
158
158
86
90
89
24
31
36
40
40
41
14
15
26
14
19
23
10
8
14
37
31
45
34
41
50
26
28
20
37
42
35
47
48
44
27
36
55
126
118
95
248
237
218
255
255
255
211
211
219
106
114
123
36
25
14
169
147
131
255
240
224
255
255
255
248
244
233
170
177
160
135
145
134
103
117
130
62
77
111
48
30
31
39
34
29
25
29
34
27
17
17
31
25
18
33
17
16
48
56
50
82
93
110
164
169
185
245
240
232
255
255
249
255
255
255
255
255
245
239
228
216
200
190
177
182
171
159
193
177
171
202
180
171
169
150
135
130
119
107
109
101
104
82
79
86
56
68
74
50
73
84
36
67
79
29
50
51
9
21
22
19
8
12
30
50
69
22
48
64
45
93
127
12
31
63
11
35
60
7
38
50
19
24
36
21
22
43
17
29
43
13
36
71
15
35
43
32
23
19
41
38
39
197
226
240
255
255
255
226
209
208
218
186
180
82
51
42
120
147
162
231
254
255
241
255
255
201
228
240
183
213
227
197
216
228
195
212
222
161
173
180
237
222
192
205
185
122
179
166
127
162
136
94
40
66
50
114
118
74
134
136
83
147
112
89
189
180
160
255
255
235
255
246
221
254
214
193
238
196
166
203
160
122
162
121
77
128
94
59
162
141
139
24
14
45
149
165
162
32
31
24
97
106
100
110
116
98
125
122
118
165
165
182
53
53
55
42
43
53
31
31
35
20
19
19
14
15
18
12
14
15
15
17
12
26
23
14
24
19
8
18
16
7
19
19
14
23
17
16
24
15
13
17
15
10
17
11
8
24
15
7
15
6
5
13
5
3
17
13
10
10
4
8
6
11
20
10
15
30
19
26
44
24
34
51
23
36
49
27
42
51
36
49
62
45
56
72
59
70
86
65
78
89
63
80
79
62
81
75
69
83
80
67
84
79
64
82
77
92
109
105
255
255
255
235
198
177
28
38
36
45
49
62
40
24
16
30
17
22
86
117
108
255
255
255
190
164
164
52
56
51
47
47
39
44
46
39
41
39
38
42
37
39
37
29
33
26
20
21
14
12
8
4
25
24
108
124
124
126
115
116
37
37
34
66
62
46
15
24
20
4
3
7
186
178
174
255
255
255
74
68
62
98
96
99
127
136
151
179
186
207
172
182
205
99
109
114
104
100
125
172
194
219
153
169
202
131
152
179
92
118
140
37
67
80
60
24
13
147
113
109
206
170
168
241
209
207
255
245
246
255
255
255
255
255
255
236
255
255
218
252
255
193
223
255
167
210
255
138
196
242
89
153
204
37
106
168
7
68
135
39
38
94
52
38
61
48
39
38
78
79
96
69
98
121
135
140
160
65
68
77
125
82
59
40
37
39
12
31
48
18
39
60
18
49
68
31
55
64
56
51
51
167
100
62
52
34
50
187
197
205
87
64
65
154
195
204
188
107
63
137
94
44
5
12
27
81
73
94
255
255
255
255
255
255
205
215
214
212
224
224
255
255
255
163
192
197
23
69
72
146
101
80
187
176
144
80
71
49
109
139
145
101
29
14
250
255
249
2
88
109
255
255
242
72
125
120
133
133
106
123
141
126
31
31
1
96
101
74
40
59
46
71
97
72
76
108
133
131
213
232
255
255
255
255
255
255
29
102
161
66
55
38
60
51
41
28
27
25
33
21
18
65
53
40
67
61
58
165
197
220
255
255
255
57
40
92
197
238
213
39
97
109
212
203
153
121
151
124
55
65
37
92
129
106
34
27
39
127
155
130
24
3
4
1
38
25
8
43
37
47
89
115
115
203
223
255
255
255
255
255
255
33
25
15
46
50
47
32
66
64
22
24
16
7
23
13
18
43
26
24
43
33
25
18
21
32
48
43
26
33
31
26
48
36
50
23
25
255
255
255
255
255
255
63
39
17
46
38
49
255
255
254
227
250
195
50
41
53
219
255
255
26
43
48
58
113
124
23
60
79
39
68
81
193
225
229
92
80
81
54
95
99
38
21
40
49
43
48
162
218
212
41
34
52
255
255
255
163
255
255
51
13
35
71
48
38
20
30
34
86
71
58
8
14
11
37
36
33
38
40
31
53
57
55
32
48
36
42
45
27
50
44
40
117
118
122
255
255
255
217
255
255
91
137
139
25
13
18
125
47
19
187
155
132
148
183
173
89
16
5
96
83
67
215
198
168
255
255
255
255
255
255
255
255
255
255
255
255
255
255
255
255
255
232
207
162
115
130
108
103
83
53
50
44
26
49
73
151
210
108
176
207
118
100
74
86
24
32
70
109
158
172
151
144
255
247
221
255
255
255
255
255
255
255
255
255
255
255
255
255
255
252
176
183
177
110
121
128
58
59
76
32
30
44
52
51
47
12
5
22
31
33
34
56
62
54
31
34
26
32
36
32
39
41
35
21
18
17
29
25
31
18
13
11
42
42
41
15
12
16
35
28
32
28
17
18
39
20
4
98
77
61
148
120
103
177
140
118
188
156
144
212
185
176
255
239
230
255
255
255
191
189
194
31
42
57
117
92
73
226
200
178
255
255
255
255
255
255
255
255
255
233
238
231
153
155
161
91
90
98
41
41
46
24
21
32
22
29
31
22
13
19
14
9
28
25
37
32
44
62
68
43
43
37
59
54
34
72
55
47
126
106
95
219
204
191
255
255
255
255
253
255
169
167
177
42
53
66
88
77
81
176
167
160
247
235
210
255
255
255
255
255
255
243
253
255
97
109
129
5
7
22
28
34
19
11
6
5
10
7
12
23
21
0
7
12
16
56
51
37
68
53
49
61
57
51
49
62
69
8
8
16
36
41
35
21
22
28
29
21
21
26
17
34
21
14
36
31
10
21
30
14
27
29
16
30
3
34
43
19
51
63
34
51
72
25
42
65
21
50
66
28
50
65
19
36
63
17
38
75
34
50
81
31
65
109
18
22
48
29
32
35
6
25
26
10
10
11
11
10
18
1
25
33
13
24
51
8
32
36
28
24
18
20
16
21
166
184
193
190
212
204
69
65
66
138
108
110
237
207
202
171
142
142
18
37
28
171
175
165
206
209
196
178
173
158
162
149
121
154
136
104
105
90
57
68
59
70
168
170
161
183
185
174
145
155
148
129
147
149
185
191
184
193
186
182
141
142
150
106
127
135
110
133
144
147
170
184
159
180
197
165
191
202
192
233
241
229
255
253
255
255
252
255
255
255
140
109
77
120
156
168
94
100
98
72
78
76
76
82
73
135
140
131
221
222
230
97
92
91
24
32
38
28
31
32
40
38
38
44
46
48
37
46
49
38
50
53
50
60
62
58
68
72
61
69
73
60
68
72
69
75
80
80
82
89
78
84
91
77
85
90
81
87
92
82
87
94
82
86
94
83
87
93
82
88
89
78
89
86
76
86
80
71
78
68
60
65
54
52
54
45
52
51
46
52
51
50
47
50
49
36
40
38
17
16
13
10
4
13
12
19
17
22
21
28
7
13
16
2
15
18
11
29
24
255
255
255
255
244
224
7
11
15
51
65
71
40
43
42
63
63
48
79
108
92
255
255
255
207
184
183
58
64
75
52
64
77
53
70
81
60
75
85
65
82
87
69
85
89
75
89
96
88
98
111
102
110
121
146
169
176
162
159
158
54
48
42
87
83
68
2
17
18
26
27
26
192
185
185
255
255
255
134
151
160
32
56
67
63
49
46
96
86
92
62
63
70
35
35
33
68
56
69
115
113
108
101
86
75
118
101
101
164
145
151
186
173
179
189
187
190
200
205
208
206
223
225
189
216
222
135
162
182
55
82
108
26
26
47
60
26
17
124
94
87
186
164
162
229
215
222
252
254
255
255
255
255
254
255
255
241
255
255
217
248
255
200
233
255
190
218
242
143
168
183
86
106
117
102
112
128
104
129
157
45
94
129
41
38
84
75
19
54
101
29
22
118
44
10
110
43
10
94
37
33
134
85
66
52
59
78
169
166
160
121
92
94
127
156
158
188
121
86
110
79
49
15
33
43
43
54
79
228
255
255
255
255
255
255
255
255
255
255
255
255
255
255
194
203
201
120
113
106
156
130
110
255
217
179
255
239
185
255
254
228
123
81
78
238
255
243
52
31
45
238
255
238
37
81
85
133
143
115
102
113
110
48
47
16
78
84
61
53
75
57
73
102
73
112
153
177
122
205
219
255
255
255
255
255
255
7
66
122
52
50
33
39
36
28
33
29
25
41
20
16
50
45
31
84
76
69
205
245
255
255
255
255
91
43
77
202
247
226
34
91
99
213
213
159
93
122
94
48
67
45
73
114
94
25
19
28
132
161
132
51
30
21
15
36
23
7
32
33
67
126
147
103
191
211
255
255
255
255
255
255
38
0
18
23
28
42
14
22
32
22
18
12
9
16
4
21
12
1
21
53
34
21
23
21
33
56
49
20
27
20
34
61
46
63
34
38
255
255
255
255
255
255
52
21
28
72
51
58
255
255
255
201
224
168
85
79
90
231
255
255
40
38
39
72
130
145
35
78
93
48
83
94
198
233
237
108
101
95
48
99
101
30
27
45
54
36
48
181
241
232
73
7
25
255
255
255
136
253
255
57
16
10
66
46
31
17
20
18
92
84
70
48
54
47
50
55
51
32
25
20
43
54
47
32
38
22
29
35
28
26
40
48
115
127
138
255
255
255
192
224
225
97
138
136
33
8
19
134
60
28
186
157
135
140
178
174
105
41
27
15
20
14
155
96
82
112
75
52
102
50
25
64
29
23
24
19
29
15
37
40
160
166
162
255
255
255
255
255
255
255
255
255
255
255
255
255
255
255
199
252
255
129
104
70
59
61
102
225
255
255
255
255
255
233
249
246
108
127
139
18
18
34
106
80
60
197
161
134
255
230
197
255
255
242
255
255
255
255
255
255
217
220
217
116
118
108
45
46
47
53
56
55
26
31
26
41
39
26
51
57
43
25
26
19
4
6
16
14
12
7
4
7
19
32
33
35
10
10
12
10
18
27
15
8
16
32
24
32
31
26
26
23
32
47
35
23
12
5
14
21
34
18
5
30
23
16
135
118
111
252
230
216
255
255
255
255
255
255
233
227
227
130
131
133
13
27
40
108
80
53
197
170
143
255
249
237
255
255
255
255
255
255
210
213
227
116
122
140
61
71
92
45
47
60
49
53
55
14
35
55
24
23
8
39
40
28
28
29
37
25
30
34
34
39
46
49
48
34
144
134
119
225
203
190
255
255
255
255
243
216
190
177
146
101
111
97
61
80
84
30
42
54
94
95
103
225
238
246
231
244
255
145
155
173
53
63
79
9
25
27
24
21
26
20
17
16
68
62
31
75
52
32
39
39
40
34
43
45
10
9
18
30
33
30
17
16
12
33
30
26
8
18
34
12
26
45
5
24
47
8
30
60
27
30
55
43
56
70
54
65
79
63
55
65
46
38
44
35
44
48
56
74
74
79
86
86
51
67
82
43
53
65
29
51
72
33
32
31
37
24
8
8
24
32
10
27
24
18
12
12
17
40
58
53
58
78
98
108
119
136
149
155
168
173
177
193
188
191
142
161
151
22
48
49
17
14
22
80
79
71
163
152
143
195
186
183
153
152
145
149
146
131
146
144
137
181
175
176
217
216
214
232
243
231
237
239
237
255
254
255
255
255
255
255
255
255
255
255
255
255
255
253
255
255
247
248
254
244
255
255
255
255
255
255
255
247
239
224
199
194
180
152
136
123
115
116
108
80
78
81
57
50
169
197
203
255
255
240
159
168
171
250
255
255
140
157
168
61
74
82
29
33
28
225
237
242
158
157
151
62
56
54
75
64
62
70
54
55
65
53
56
49
45
44
42
36
27
42
29
16
30
20
7
26
18
11
26
12
9
22
5
10
25
15
18
18
15
20
4
13
15
16
24
17
9
23
24
10
26
30
19
33
37
25
38
42
29
46
52
37
52
64
50
63
80
61
75
91
62
80
93
65
85
97
75
95
107
82
102
114
87
107
119
92
109
119
97
107
114
100
111
116
101
119
123
98
122
124
99
122
124
85
99
101
220
223
215
255
255
246
27
9
8
26
49
55
45
67
68
59
65
55
74
93
76
255
255
255
195
178
170
70
70
68
64
64
62
64
64
64
61
58
57
58
53
48
57
49
46
50
42
38
43
36
32
37
28
24
130
157
169
176
178
176
64
55
48
99
94
81
19
10
4
39
39
34
184
176
180
255
255
255
104
108
127
101
112
116
21
21
19
65
59
76
59
60
85
50
63
85
65
82
117
126
143
164
149
151
168
176
171
189
155
158
168
117
127
131
69
83
89
18
39
47
22
9
15
62
37
31
116
109
105
145
142
152
124
121
134
140
138
152
164
158
177
180
187
204
185
211
226
147
186
200
87
126
147
26
57
90
35
7
29
103
70
55
170
140
136
223
200
202
253
240
248
255
255
255
255
255
255
250
255
255
220
251
255
184
218
255
157
195
241
119
173
211
74
144
182
50
120
172
54
111
169
108
126
162
78
89
107
83
75
63
91
78
87
55
81
82
97
55
35
91
46
8
68
22
22
88
109
137
240
255
255
217
245
252
202
213
212
182
194
193
200
220
210
61
100
110
100
52
37
96
124
123
145
189
200
195
208
210
228
225
201
80
49
32
206
253
220
108
38
21
221
255
227
14
22
36
136
153
120
74
78
80
71
74
43
56
67
54
58
86
67
63
99
74
145
186
211
92
172
178
255
255
255
255
255
255
28
46
92
51
48
32
27
26
16
32
37
30
45
27
21
34
36
29
77
77
69
255
255
255
255
255
255
139
72
26
194
242
234
19
61
67
209
212
159
65
93
67
43
69
50
65
108
97
9
1
13
133
164
137
78
60
48
15
35
24
18
31
29
85
148
170
92
171
191
255
255
255
255
255
255
19
30
7
43
48
51
21
45
52
25
27
17
15
34
15
24
10
14
35
67
48
19
35
28
41
56
51
32
42
30
35
63
42
86
54
59
255
255
255
255
255
252
72
52
34
91
83
88
255
255
255
180
212
160
99
97
102
236
255
255
22
13
5
72
133
149
52
88
97
52
95
102
186
227
219
119
126
126
33
95
104
18
30
46
59
28
34
187
251
240
108
52
27
255
255
255
103
219
255
50
18
13
66
53
39
23
29
21
101
100
89
6
1
5
38
57
63
4
3
4
43
60
55
37
37
30
8
16
14
36
53
63
119
135
143
255
255
255
163
183
190
104
145
132
35
29
38
138
63
36
184
161
138
132
168
165
120
60
42
87
87
69
253
229
198
255
255
255
255
255
255
255
255
255
255
255
255
255
255
255
255
255
255
255
255
229
157
123
78
131
92
56
102
72
80
255
255
255
255
255
255
133
117
79
78
145
191
242
255
255
193
171
144
255
255
231
255
255
255
255
255
255
255
255
255
255
255
255
232
236
228
130
147
159
30
56
87
102
72
41
245
237
216
255
255
255
255
255
255
202
219
229
127
143
167
74
89
114
17
32
55
8
15
35
14
4
16
27
11
8
13
5
26
18
30
48
28
28
30
28
20
25
34
15
12
31
20
13
34
32
24
19
20
27
51
45
27
25
29
31
42
31
23
32
28
25
30
29
27
36
21
26
64
46
46
148
125
110
218
196
177
255
252
239
255
255
255
255
255
255
242
250
255
145
164
188
25
49
66
87
68
57
187
167
156
255
248
232
255
255
255
255
255
255
255
255
255
255
255
255
211
207
216
72
69
89
22
21
18
42
39
34
34
44
42
38
32
37
7
5
5
4
9
24
30
62
97
90
79
82
172
132
103
224
201
169
255
248
227
255
255
255
255
255
246
107
102
107
81
82
74
189
185
183
240
242
253
231
242
255
169
182
201
80
95
113
96
91
73
96
72
48
54
45
38
34
26
18
8
14
21
17
25
28
15
5
16
33
27
26
15
6
24
20
24
33
7
14
21
18
24
31
34
29
32
46
45
44
44
52
62
66
78
91
68
87
100
62
86
95
85
114
121
131
161
163
146
180
183
179
202
202
218
238
241
240
255
255
255
255
255
255
255
255
255
255
255
255
255
255
255
255
255
255
255
255
255
255
255
255
252
239
255
248
228
252
232
210
161
142
120
64
22
8
18
39
53
32
45
48
44
44
38
89
82
77
129
121
108
163
141
117
140
114
98
127
104
88
114
114
89
90
106
95
72
78
86
65
76
81
51
57
69
27
22
33
46
32
7
43
18
5
21
9
13
5
24
41
5
37
66
13
39
65
14
14
18
44
46
58
34
12
18
28
51
81
64
62
78
39
47
58
136
182
192
255
255
255
175
132
134
133
137
126
178
180
168
144
155
156
60
65
70
207
216
223
190
184
175
25
30
30
48
58
62
60
60
65
69
65
70
64
69
77
70
81
86
89
94
98
102
108
112
106
115
118
108
116
120
115
123
127
117
127
132
107
120
128
102
115
121
103
113
119
110
115
126
120
122
133
121
119
132
115
114
129
112
117
128
113
117
121
111
110
105
103
101
92
93
88
84
86
78
82
82
76
83
77
75
78
68
67
65
55
51
49
44
37
39
39
32
35
41
33
38
32
30
37
31
26
38
47
41
52
127
127
114
255
255
250
249
242
239
247
243
239
243
244
235
236
232
221
221
211
199
228
214
211
141
123
117
7
8
14
8
14
12
21
21
21
27
26
26
21
21
18
20
20
20
14
14
14
12
12
12
20
14
11
109
140
151
180
188
184
73
58
50
93
83
76
53
33
30
36
35
35
163
155
160
255
255
255
186
185
197
89
99
89
46
29
27
32
5
50
100
135
174
88
81
72
110
138
195
180
195
220
95
87
79
83
60
75
144
118
131
166
147
150
180
164
162
199
192
188
184
193
185
119
144
142
33
46
54
55
55
56
68
64
42
75
68
54
76
61
59
60
50
37
67
52
41
85
71
66
102
96
94
127
118
122
155
150
158
178
179
188
178
188
196
149
165
179
98
120
133
53
80
90
24
53
69
29
7
32
103
62
45
159
122
103
206
184
175
246
233
233
255
255
255
255
255
255
247
255
255
251
255
255
227
240
255
175
199
220
160
183
214
153
190
229
108
164
210
38
112
168
27
59
118
239
230
231
255
255
255
255
255
255
255
255
255
255
246
247
255
255
255
135
160
158
171
122
102
255
255
255
255
255
255
255
255
253
196
182
159
187
173
153
171
224
197
154
102
76
198
251
213
64
34
18
135
161
122
39
41
43
85
97
66
29
39
39
55
86
64
49
89
71
168
205
228
44
124
120
255
255
255
219
255
255
36
31
62
69
64
50
48
38
31
52
49
47
43
33
33
23
31
39
62
67
67
255
255
255
255
255
255
157
115
74
162
215
214
26
44
50
199
203
155
39
65
46
51
79
61
59
99
96
10
24
24
122
153
134
86
79
68
9
49
32
37
62
54
110
180
198
71
149
165
255
255
255
255
255
255
42
72
73
43
72
81
20
68
66
33
22
20
19
44
31
17
17
15
50
75
60
28
49
38
44
57
49
32
45
34
43
72
48
131
96
89
255
255
255
255
255
242
74
61
39
87
51
51
255
255
255
183
224
173
121
125
115
235
255
255
34
27
11
66
125
138
58
83
85
51
104
105
168
210
193
122
142
142
23
87
92
17
38
36
30
4
7
201
255
243
141
86
60
255
255
255
87
193
250
55
38
24
63
64
57
49
63
70
69
70
56
28
16
14
24
34
42
24
33
46
22
24
32
40
26
20
43
24
27
27
46
62
123
141
146
255
255
255
126
133
142
94
131
107
17
42
54
151
81
61
195
177
158
117
143
146
150
84
64
145
132
119
156
170
154
204
188
151
165
123
86
143
103
76
121
88
69
102
77
59
87
79
91
54
76
89
27
25
5
41
32
37
37
80
119
255
255
255
255
255
255
112
99
51
113
176
218
255
255
255
43
72
89
75
80
80
48
34
25
88
71
69
127
102
88
185
155
133
236
207
178
255
253
221
255
255
255
255
255
255
148
170
175
94
67
46
216
186
154
255
239
213
255
255
255
255
255
255
255
255
255
255
255
255
197
211
222
127
144
162
88
104
127
59
76
104
30
41
52
25
36
44
12
22
29
15
14
7
9
27
32
28
26
35
73
68
50
29
27
23
18
9
7
2
2
4
41
43
32
18
10
19
43
41
45
20
24
36
28
25
30
17
20
35
54
37
38
115
84
68
195
161
142
255
255
247
255
255
255
255
255
255
213
216
232
129
144
166
51
70
98
39
20
44
73
41
45
105
87
60
196
177
164
255
246
250
224
218
226
119
119
128
44
55
59
35
37
46
17
14
26
15
19
36
27
54
92
34
39
60
19
40
43
16
50
65
38
43
60
32
16
33
147
141
127
248
247
245
248
250
251
163
170
177
51
57
73
52
52
45
141
141
139
203
210
214
255
255
255
255
255
255
255
255
255
255
255
255
255
255
255
255
255
255
255
255
255
255
255
255
255
255
255
255
255
255
255
255
255
255
255
255
211
208
213
151
170
184
142
172
196
157
179
204
164
183
205
148
178
193
181
200
200
218
209
204
177
153
154
142
112
103
141
113
90
140
116
91
120
103
79
85
59
33
61
32
28
53
19
5
58
40
56
13
38
63
84
107
119
129
142
138
152
157
156
152
150
150
54
62
64
129
111
101
110
80
74
24
22
24
21
24
25
23
27
34
56
48
50
62
56
50
24
41
52
25
42
55
23
57
66
38
59
85
46
46
69
22
33
33
13
18
14
15
8
1
35
29
10
41
27
15
31
13
31
20
9
22
20
15
23
24
19
32
19
34
45
27
52
58
29
31
38
51
59
72
53
54
51
55
43
12
106
130
127
255
255
255
255
247
244
184
189
198
111
120
119
53
59
63
92
99
100
153
152
162
170
160
150
63
67
78
87
83
98
84
74
84
78
75
80
73
78
79
76
76
73
72
62
59
63
57
54
57
53
53
54
49
50
49
40
43
41
29
33
35
26
31
36
31
38
36
31
39
38
34
38
33
32
34
28
28
29
26
26
23
24
24
19
18
19
12
10
12
3
7
10
11
11
12
10
16
16
16
19
19
21
18
18
20
24
23
26
24
27
26
11
24
20
14
23
19
28
25
25
19
21
18
18
17
20
53
49
55
29
24
18
157
133
114
94
69
60
33
19
32
21
38
58
39
31
34
36
39
28
104
109
110
110
104
107
20
18
28
16
18
17
25
21
23
27
24
24
23
19
20
19
19
19
15
15
15
8
8
8
23
16
10
84
121
134
187
203
196
86
67
59
80
68
63
85
64
59
22
20
15
143
135
139
244
250
255
78
58
66
36
21
48
56
39
32
16
14
70
131
157
189
59
45
34
122
146
205
147
157
172
140
139
134
154
152
151
177
175
181
165
166
176
126
134
148
93
114
124
122
126
130
133
160
161
20
31
27
57
60
75
56
61
67
34
22
44
56
33
50
120
111
123
179
178
183
173
181
183
134
144
154
100
108
127
84
89
106
58
68
76
8
8
13
91
78
72
148
134
129
136
134
128
124
134
128
141
144
142
156
154
157
167
169
178
171
176
194
161
173
190
131
148
158
91
106
122
37
49
74
67
42
19
156
126
105
192
171
157
230
218
213
255
255
255
255
255
255
255
255
255
208
249
255
255
255
255
255
255
255
24
70
98
86
75
57
203
205
209
243
246
248
65
123
134
146
80
55
242
255
255
125
162
159
54
50
38
70
57
61
255
254
230
132
196
180
194
153
122
174
233
202
87
67
43
134
164
125
13
14
21
93
109
79
7
13
23
55
88
69
26
69
62
179
220
237
12
74
76
255
255
255
178
255
255
53
8
34
90
76
54
46
32
7
48
50
55
17
24
33
21
25
38
33
44
43
255
255
255
255
255
255
172
141
102
166
220
213
40
24
36
195
203
158
14
36
25
51
82
64
41
77
69
21
38
43
102
133
116
80
82
71
8
69
60
38
59
56
131
215
225
41
123
130
255
255
255
255
255
255
20
31
32
13
22
28
20
25
18
40
29
30
13
36
31
16
25
15
62
93
74
26
45
31
50
57
47
19
35
25
50
71
46
183
151
131
255
255
255
255
255
241
24
26
11
146
109
105
255
255
255
163
204
157
170
179
158
235
255
255
58
55
41
70
129
137
59
74
69
48
106
110
157
189
178
121
139
141
16
78
90
15
52
53
14
22
15
238
255
254
177
116
76
255
255
255
102
190
238
66
49
35
78
43
14
136
79
53
205
138
96
247
172
130
255
182
136
255
180
125
255
181
125
255
196
142
255
208
156
197
145
104
192
195
170
255
255
255
100
92
112
84
110
88
21
47
53
165
103
86
199
179
160
89
111
110
167
103
86
167
150
134
139
173
153
102
118
93
38
50
49
34
45
42
36
43
33
27
29
16
32
47
73
30
60
77
8
5
26
45
37
38
80
107
125
255
255
255
255
255
255
102
86
35
111
168
210
234
255
255
69
92
93
53
55
43
12
11
18
21
22
37
23
19
30
11
4
14
8
10
10
23
24
31
79
79
63
156
146
132
255
255
255
255
255
255
251
255
255
155
189
217
64
102
132
50
47
70
105
71
41
175
140
108
253
222
191
255
255
243
255
255
255
255
255
255
253
255
255
201
222
246
142
174
197
76
99
131
51
60
87
44
41
62
87
85
82
48
45
49
19
27
33
7
12
17
41
41
32
16
11
24
37
41
43
35
22
28
4
16
21
38
35
36
7
12
10
22
21
32
24
34
40
32
17
13
90
76
75
117
102
93
182
163
150
255
255
250
255
255
255
255
255
255
255
255
255
255
255
255
186
187
201
29
35
43
159
143
127
247
228
215
255
255
250
255
255
255
235
238
250
158
169
181
78
92
116
35
29
58
18
31
34
34
62
81
45
50
69
24
11
39
45
31
20
53
42
39
111
102
92
195
188
179
246
245
245
242
248
255
186
194
202
96
103
118
28
17
16
114
96
64
144
124
87
130
114
80
94
81
56
70
52
44
66
45
47
55
38
39
35
24
10
10
1
24
13
25
41
40
26
11
72
89
104
165
191
205
168
161
165
66
51
62
89
92
97
166
156
152
111
100
98
41
57
56
162
185
184
224
248
253
251
255
255
255
255
255
255
255
255
255
255
255
255
255
255
255
255
255
255
255
255
255
255
247
255
255
242
255
246
223
255
244
216
255
255
225
255
255
245
76
61
78
130
119
110
157
144
139
110
95
92
52
50
44
65
48
44
69
67
78
51
64
86
43
60
70
35
57
59
45
44
60
50
38
38
21
26
31
28
25
36
14
6
26
35
26
25
25
20
26
11
26
41
37
44
58
37
54
76
45
59
72
7
35
49
25
52
63
25
59
76
97
126
150
154
186
201
188
215
222
188
210
217
221
208
171
121
91
78
124
137
135
164
168
165
118
108
90
113
96
80
122
103
98
123
110
107
16
27
51
48
47
57
20
24
18
18
25
27
26
34
41
26
28
30
21
19
20
33
34
31
24
28
24
15
16
12
14
13
17
16
17
24
26
25
31
35
33
33
39
38
37
39
40
37
26
27
27
24
26
23
29
35
27
26
34
29
22
31
33
16
24
31
15
23
37
21
28
37
30
34
37
36
35
35
34
32
29
30
29
28
34
28
26
35
26
15
29
22
11
31
21
20
25
21
10
18
11
11
53
46
50
38
38
36
194
187
174
207
190
182
188
170
163
172
163
157
179
173
155
186
189
171
200
201
186
198
181
174
59
42
27
36
29
23
30
19
14
21
14
8
19
17
11
22
18
14
22
12
11
20
6
1
27
12
7
69
103
119
193
206
207
108
83
80
45
38
24
90
83
72
82
69
68
165
149
153
255
255
255
24
16
15
75
66
68
31
28
16
23
47
96
110
133
147
34
44
75
78
115
153
81
81
92
70
67
61
51
37
43
83
68
60
108
90
79
127
110
110
113
114
115
142
131
138
85
100
98
41
43
41
53
62
72
37
33
25
66
69
88
66
52
58
143
159
172
62
91
93
17
18
37
58
35
18
98
75
50
138
113
89
150
136
119
114
124
113
65
65
62
18
17
15
49
23
22
44
40
37
42
53
39
32
39
39
46
59
64
27
32
36
37
22
7
68
48
40
91
77
61
118
107
99
147
132
132
138
126
131
118
118
127
109
120
138
92
110
139
71
92
124
43
58
87
53
55
70
255
208
165
255
255
255
54
50
58
74
56
49
201
203
208
220
233
233
62
116
131
176
117
91
255
255
255
137
163
160
60
62
55
118
91
85
255
255
253
87
168
159
224
198
163
147
210
182
88
85
58
140
166
138
14
19
30
104
114
87
38
35
38
55
88
74
9
40
42
186
239
249
57
21
41
255
255
255
131
225
255
79
56
43
73
62
43
22
13
9
58
39
47
28
15
40
37
17
24
15
12
23
255
255
255
247
255
255
215
178
141
183
222
208
79
32
22
189
207
162
20
6
14
39
78
56
20
51
34
18
41
26
82
108
94
69
76
65
14
79
80
37
51
40
144
234
243
12
78
83
255
255
255
255
255
255
41
51
32
53
50
47
32
42
33
47
33
37
14
15
12
24
39
30
53
80
62
7
11
10
51
47
38
14
19
17
53
53
38
228
203
182
255
255
255
255
231
211
28
14
40
137
96
92
255
255
234
153
189
149
201
210
188
223
255
246
84
85
79
81
145
153
60
65
57
49
106
117
151
172
171
117
129
133
9
70
89
22
61
70
30
34
11
255
255
255
180
131
81
255
255
255
109
184
226
47
37
37
198
135
99
255
203
155
255
225
168
255
234
170
255
235
176
255
235
171
255
231
162
255
229
166
255
219
169
255
182
138
255
255
234
255
255
255
78
66
93
90
103
91
31
50
58
160
105
78
187
173
150
71
102
100
159
113
91
164
154
132
141
162
149
90
102
87
31
32
44
3
14
21
17
13
15
26
14
16
48
57
76
59
75
90
36
40
52
56
52
37
88
101
106
255
255
255
255
255
255
104
80
43
112
166
206
211
255
255
36
69
81
5
4
8
38
38
48
29
28
34
47
37
45
20
15
32
7
17
28
29
31
38
73
84
49
24
27
31
100
88
57
145
118
107
198
173
174
238
225
230
255
255
255
255
255
255
255
255
255
255
255
255
197
224
234
114
146
164
38
60
83
62
44
33
131
108
95
183
159
141
248
234
214
255
255
255
255
255
255
255
255
255
255
255
255
255
255
255
255
255
255
235
243
244
126
134
142
31
41
56
10
29
34
21
18
10
40
29
21
21
11
7
10
11
15
25
25
31
26
33
35
22
26
27
31
32
34
25
29
27
19
22
33
18
14
23
52
42
57
73
37
5
83
51
44
123
89
60
224
206
195
255
255
255
234
238
249
127
137
157
19
31
60
78
66
30
173
151
132
251
224
216
255
255
244
255
239
216
213
206
188
173
188
187
156
181
190
133
155
170
74
85
96
26
27
30
7
17
13
17
15
15
42
22
10
68
55
33
131
121
101
205
199
190
254
255
255
255
255
255
255
255
255
249
255
255
250
255
252
255
255
253
255
255
252
255
255
254
255
255
255
255
255
252
255
243
228
191
172
168
103
130
146
67
32
33
159
167
153
159
123
105
183
168
146
95
75
47
69
67
63
96
106
105
134
150
171
111
93
100
113
91
70
103
85
55
86
79
53
66
59
35
56
37
21
58
47
37
66
47
69
49
39
38
43
49
75
15
22
26
22
12
19
123
124
100
247
218
197
196
186
199
128
131
148
29
41
53
91
74
64
167
153
144
185
166
157
152
142
135
129
132
134
134
143
150
152
164
171
185
199
209
221
229
243
237
247
255
248
255
254
251
255
255
248
255
255
242
255
255
245
255
255
243
247
255
251
254
255
255
255
255
255
255
255
255
252
248
255
245
240
251
225
214
220
205
192
218
200
180
204
181
158
156
123
90
41
28
41
58
41
24
67
92
107
202
174
145
66
80
94
48
70
98
111
111
120
41
61
77
59
54
61
25
22
8
35
33
34
48
35
36
37
24
12
32
23
10
42
34
24
36
25
12
32
12
1
27
17
16
28
20
19
20
12
8
8
12
21
14
19
28
23
30
31
24
32
30
21
30
28
23
37
36
30
48
43
41
62
53
54
67
61
63
71
72
66
78
81
73
91
94
80
101
107
88
106
117
89
106
119
82
101
113
85
101
114
101
113
122
112
123
129
127
133
145
144
146
158
142
143
145
117
124
121
253
241
219
128
86
59
15
18
20
50
69
87
28
17
7
44
34
20
124
164
154
228
219
230
76
75
84
69
87
99
90
101
113
101
103
118
96
97
108
91
97
105
90
98
106
84
89
98
82
82
89
87
104
116
188
190
205
133
107
104
33
29
35
11
17
2
58
46
28
199
170
173
255
255
255
83
78
84
131
142
159
123
142
162
73
90
113
94
105
109
43
61
100
64
107
132
38
31
40
89
81
86
94
99
111
147
152
173
129
134
157
63
75
84
12
13
13
52
33
40
46
43
31
46
53
52
36
34
32
27
17
25
60
65
68
24
34
40
105
104
99
119
106
103
174
166
174
191
194
202
166
175
184
140
144
151
144
132
136
159
172
162
43
68
64
54
52
52
42
45
45
16
31
42
78
83
69
141
133
127
156
142
142
189
182
190
203
201
210
199
202
201
177
178
180
105
108
127
41
38
40
107
93
82
106
98
91
118
106
102
129
103
107
110
83
88
111
87
86
117
107
104
255
236
208
255
255
247
186
187
171
175
184
186
233
232
239
197
220
222
45
105
123
207
160
138
255
255
255
78
108
103
32
43
71
151
126
120
255
255
255
41
126
119
249
237
196
106
170
142
102
108
84
142
163
142
23
27
31
112
117
91
53
48
35
55
86
62
32
6
5
191
254
255
114
47
36
255
255
255
83
166
216
49
20
27
163
91
58
248
152
92
255
172
96
255
180
97
255
186
111
209
152
97
255
255
255
212
255
255
245
209
173
184
212
185
106
63
37
189
210
159
46
24
24
38
81
52
8
31
25
14
41
24
65
84
81
55
71
55
22
80
81
33
37
22
165
251
255
55
22
30
255
255
255
237
219
232
41
58
37
15
24
20
5
33
23
58
47
49
21
20
21
45
59
44
44
61
45
2
7
4
51
43
35
11
8
3
54
46
36
255
244
231
255
255
255
226
190
161
25
6
23
132
96
82
255
255
228
117
145
107
205
207
182
194
227
209
110
112
105
91
152
159
58
55
50
53
103
113
144
163
166
112
124
122
6
67
80
27
62
79
37
46
8
255
255
255
207
162
116
255
255
255
77
151
191
31
10
13
255
176
115
214
147
91
85
53
37
73
43
22
66
33
11
53
23
8
43
19
6
37
17
17
165
108
83
255
188
117
255
255
255
255
255
255
43
34
54
90
100
86
15
58
69
153
96
68
177
174
147
64
107
111
149
118
88
154
150
140
145
161
153
92
110
95
48
22
27
42
16
12
56
47
49
69
67
73
64
81
98
67
75
93
15
26
22
26
17
22
61
87
105
255
255
255
255
255
255
97
71
37
125
175
213
214
255
255
41
66
81
21
14
22
49
51
58
16
18
17
49
41
35
17
12
12
13
18
10
30
30
27
75
78
26
8
22
34
36
40
22
19
26
38
32
34
32
29
24
28
40
22
21
61
45
41
88
72
61
156
141
128
236
223
202
255
255
255
255
255
255
255
255
255
241
251
255
201
219
245
130
153
186
45
63
100
66
44
47
106
77
41
154
128
99
178
149
127
216
185
160
255
255
235
255
255
255
255
255
255
174
199
216
98
131
153
41
68
92
27
48
69
16
30
49
11
5
13
33
33
29
10
8
5
28
32
29
31
35
37
16
20
21
16
18
23
12
20
43
34
17
3
23
30
43
23
29
50
52
45
40
70
55
46
154
139
136
234
223
217
255
255
253
254
255
253
208
218
223
135
161
177
45
82
120
60
13
45
151
112
66
225
185
144
255
233
196
255
255
249
255
255
255
179
191
208
91
96
117
32
37
52
26
18
28
15
20
26
15
29
34
11
26
34
49
46
42
97
87
56
97
84
61
91
78
48
84
74
49
74
62
52
67
48
43
54
44
42
26
25
18
7
6
12
34
56
71
114
143
161
134
138
149
117
143
144
251
225
206
164
115
89
178
171
149
192
150
103
106
106
97
63
35
17
144
183
210
106
134
159
41
45
42
28
35
22
19
11
16
10
1
7
14
11
17
10
24
26
36
41
73
36
27
11
38
25
58
25
13
29
32
12
18
118
110
82
191
150
119
100
84
79
133
136
139
182
185
191
150
151
159
32
42
52
111
89
75
181
151
134
176
143
118
141
113
82
119
99
70
110
94
78
109
90
79
112
89
69
93
72
41
61
45
18
68
45
12
46
25
2
16
17
25
18
18
39
38
45
63
36
58
75
18
43
51
12
47
65
53
82
78
121
138
138
181
190
180
204
205
188
189
180
162
144
117
74
22
37
65
93
78
65
40
56
71
159
122
79
117
103
89
151
168
182
193
194
208
85
110
123
116
125
141
69
80
91
71
84
95
75
85
97
79
89
103
86
93
111
96
100
119
106
112
117
107
114
109
102
107
106
104
106
115
112
107
122
111
105
117
105
112
120
120
134
143
144
150
160
149
149
159
143
145
154
131
136
141
106
109
110
80
77
81
69
65
74
70
71
81
72
72
83
73
66
73
72
59
60
57
47
42
44
34
24
41
28
12
39
31
13
32
24
22
50
42
46
33
26
8
11
7
17
78
87
81
255
255
247
151
110
79
39
43
34
91
89
97
61
34
25
56
36
14
138
177
163
253
242
249
103
73
65
32
31
38
29
25
30
23
21
11
17
11
15
9
6
22
15
15
24
10
21
20
18
21
17
30
62
65
149
156
172
172
159
164
95
94
96
96
86
72
94
88
63
253
218
209
206
217
226
141
145
170
197
210
226
173
188
187
70
87
67
125
114
117
111
100
125
133
177
196
32
34
43
116
102
110
80
96
95
42
32
24
72
55
59
87
85
98
66
72
76
36
33
37
21
28
41
21
20
36
3
11
15
6
25
25
42
43
34
40
67
58
63
59
47
22
28
8
48
57
60
19
24
41
48
41
56
28
30
28
79
60
55
66
83
75
35
25
30
58
79
83
47
41
43
64
67
81
125
104
92
150
152
143
123
128
129
130
134
143
92
105
123
35
56
85
5
17
54
110
116
122
80
76
83
28
26
24
11
20
26
14
11
12
60
54
55
110
101
111
135
131
137
92
118
131
150
107
86
239
210
187
255
235
218
255
241
227
255
255
255
219
239
222
131
133
123
229
196
174
255
255
255
255
255
255
255
255
237
142
132
112
255
255
233
15
83
75
255
255
219
64
127
101
122
134
109
124
145
126
34
36
24
112
115
91
67
60
44
53
84
56
69
52
55
184
252
255
179
119
110
255
255
255
96
160
201
151
115
88
243
178
119
255
195
135
255
192
140
255
185
137
255
179
133
255
248
189
255
255
255
178
255
255
255
237
203
167
202
168
136
90
69
193
203
155
65
47
48
56
91
64
0
18
16
29
52
29
54
69
76
49
70
51
36
91
91
22
18
6
181
255
255
121
47
35
255
255
255
180
161
175
41
61
48
28
38
39
10
22
22
64
53
56
18
27
24
49
65
49
45
52
40
8
13
1
55
45
38
2
2
6
53
47
40
255
255
255
255
255
255
196
170
145
9
28
40
146
117
106
255
255
255
97
128
97
219
220
193
169
199
178
131
136
127
88
146
146
53
51
48
52
98
97
129
149
156
103
122
118
25
55
67
26
55
76
63
81
44
255
255
255
255
216
176
255
255
255
41
124
159
38
24
5
255
179
112
204
134
89
76
47
44
35
15
23
13
9
11
10
6
8
4
2
4
6
9
12
176
114
88
255
192
117
255
255
255
255
255
255
18
6
20
84
96
76
9
62
82
163
103
83
183
182
163
70
108
118
147
115
87
149
143
142
142
164
156
95
118
111
106
94
77
107
115
86
92
107
91
79
86
74
98
123
123
111
129
137
129
136
135
156
152
154
178
197
198
255
255
255
255
255
255
93
68
39
130
173
211
202
253
255
69
79
90
33
49
54
41
55
60
10
3
11
43
40
21
28
37
28
24
33
20
41
42
29
74
63
25
24
34
45
53
50
20
30
28
29
16
16
31
15
13
7
33
27
14
23
14
13
33
37
39
26
38
37
7
17
17
47
37
34
87
77
76
117
109
111
162
151
150
203
189
187
243
229
227
255
255
255
255
255
255
255
255
255
255
255
255
255
255
255
255
255
255
161
186
204
19
47
71
156
125
97
255
247
218
255
255
255
255
255
255
255
255
255
255
255
255
187
204
222
102
129
147
34
57
77
22
30
47
20
23
23
16
12
8
16
5
6
13
4
24
29
24
20
5
18
36
36
16
13
46
36
25
20
24
23
20
27
29
12
8
14
48
44
37
79
70
56
159
138
134
251
228
226
255
255
255
255
255
255
215
223
208
171
192
187
159
193
193
129
161
163
7
24
27
160
156
155
255
255
255
255
255
255
220
227
235
136
149
165
73
79
98
30
39
55
68
75
78
82
86
80
12
12
19
21
10
17
32
20
16
24
21
16
18
16
13
26
28
28
33
19
17
34
22
21
92
116
122
127
138
149
32
32
40
34
56
53
193
198
179
196
184
165
228
219
202
184
160
136
86
94
90
44
45
52
122
143
159
100
126
153
38
73
91
62
96
103
62
103
115
88
123
144
120
144
171
147
158
181
174
176
191
206
212
210
249
255
255
255
255
255
255
255
255
255
255
255
204
181
172
49
46
48
17
27
31
48
44
44
130
120
115
193
184
181
170
167
163
150
152
152
159
168
175
170
182
186
190
194
194
214
209
201
223
217
208
233
229
229
253
246
245
252
244
235
234
233
222
237
238
232
253
247
240
255
255
242
255
255
247
255
255
248
255
250
237
254
231
228
245
213
198
228
194
178
214
187
172
205
174
162
198
173
161
255
231
188
151
121
98
177
181
180
190
193
187
141
128
113
65
77
88
108
140
164
255
255
255
31
27
37
90
87
95
43
35
34
38
33
28
42
28
28
26
19
14
16
19
8
19
11
20
17
5
19
17
12
11
14
18
14
15
13
15
7
13
18
7
13
11
50
66
62
109
111
118
143
141
151
172
166
176
181
171
177
158
144
152
109
95
102
48
53
44
43
49
58
76
83
93
96
106
115
109
124
131
117
134
144
113
129
144
110
125
143
114
131
144
125
141
143
137
146
142
155
158
157
166
168
174
166
163
170
127
115
112
222
203
178
163
140
116
81
97
106
125
137
155
151
166
171
175
173
169
162
154
138
203
196
190
106
106
118
102
108
109
109
114
113
113
116
123
112
114
122
113
115
119
113
113
117
105
105
107
100
101
100
104
113
114
148
157
167
193
185
192
168
164
166
188
171
161
163
149
141
255
255
255
186
193
203
164
183
205
36
68
74
173
158
155
78
115
93
164
154
157
54
50
55
182
205
226
96
118
125
94
100
127
145
166
202
148
168
206
121
137
169
91
89
109
92
92
98
114
127
148
224
228
252
255
255
255
249
255
255
223
255
255
134
171
198
34
49
50
62
46
41
106
99
84
150
137
144
189
188
191
150
158
157
79
78
83
61
52
75
20
25
7
50
65
55
33
39
44
38
22
25
74
81
86
82
61
69
92
87
73
56
38
37
86
71
74
112
104
104
124
126
116
121
121
118
161
161
156
76
76
72
39
49
48
25
17
18
38
49
48
96
87
84
107
125
126
17
20
37
76
59
48
128
102
84
150
150
126
153
171
156
152
172
168
185
193
185
94
130
131
68
19
37
138
157
152
101
147
153
48
55
56
154
131
105
14
5
15
231
243
216
43
41
35
255
255
240
42
100
83
141
161
136
108
133
117
46
54
42
100
109
87
79
74
60
40
66
40
121
123
128
154
224
228
248
201
196
255
255
255
99
161
188
156
107
65
167
115
69
95
57
49
38
18
11
27
7
7
81
30
1
255
255
241
255
255
255
138
246
255
255
242
211
149
192
164
158
111
84
187
189
148
72
66
65
72
97
81
9
3
7
51
73
49
31
49
56
44
71
51
47
107
101
15
11
21
187
255
255
185
116
92
255
255
255
124
88
112
64
94
79
52
79
72
43
68
60
60
86
76
20
62
48
38
62
44
52
62
49
6
12
8
60
44
40
2
4
12
47
47
43
255
255
255
255
255
255
177
165
155
9
51
62
163
137
124
255
255
255
101
142
123
231
227
200
151
177
157
133
144
130
75
129
129
50
40
45
47
87
77
91
109
111
77
98
93
49
30
44
29
53
68
93
122
92
232
255
250
255
255
238
255
255
255
46
116
143
65
27
9
247
157
96
187
125
85
72
49
46
29
12
18
6
6
5
6
6
9
4
4
5
7
11
11
180
116
81
255
193
119
255
255
255
255
255
255
13
24
30
85
98
83
18
47
71
183
125
108
196
194
183
46
84
88
155
116
98
98
97
86
159
165
153
209
206
197
255
255
255
255
255
255
255
255
255
255
255
230
255
255
255
255
255
255
255
255
255
255
255
255
255
255
255
255
255
255
169
168
181
102
73
40
95
122
153
236
247
248
255
255
255
252
243
240
176
183
174
165
185
186
147
162
172
88
92
112
54
70
97
63
78
107
97
87
84
27
27
30
64
52
35
36
37
27
20
18
20
26
23
18
35
30
20
34
27
14
24
12
7
23
28
30
18
25
28
25
29
31
27
33
35
17
29
34
32
36
41
50
53
49
53
52
52
31
18
3
96
71
48
139
111
76
184
157
127
206
177
157
246
213
188
255
245
231
255
255
255
253
255
255
170
203
222
72
113
140
14
26
55
91
57
31
173
140
111
255
231
209
255
255
255
255
255
255
255
255
255
235
244
255
153
170
192
95
113
132
73
85
97
65
73
76
41
50
59
26
8
15
37
32
23
17
16
24
12
14
12
4
8
17
20
20
21
11
7
10
25
34
36
25
18
14
43
52
69
80
86
108
132
114
95
203
183
161
251
231
204
255
255
236
255
255
255
190
193
201
67
74
97
37
28
14
131
113
94
199
180
176
238
222
225
234
226
235
219
222
232
205
217
221
165
184
182
156
179
183
176
192
205
197
206
211
216
219
210
235
239
233
211
223
228
136
147
157
125
140
144
146
149
145
88
74
53
112
91
72
149
120
89
215
169
117
194
152
99
72
27
33
82
71
62
20
13
16
118
122
132
69
62
69
197
189
196
255
255
255
255
255
255
255
255
238
254
226
201
241
222
199
246
229
214
225
199
176
186
150
124
154
114
88
147
106
83
147
118
94
137
115
105
126
134
123
60
61
62
7
11
19
12
12
15
48
47
46
95
81
74
141
121
104
128
107
84
100
76
56
97
68
51
90
65
58
75
55
51
73
61
67
82
66
56
85
68
48
69
51
38
42
31
31
21
19
21
45
37
29
34
34
41
4
12
33
26
19
16
21
31
57
1
23
34
24
35
51
49
57
65
43
27
7
41
54
64
255
238
212
255
231
200
40
37
46
87
69
51
82
69
73
112
122
126
45
69
89
231
238
247
122
115
120
124
130
142
101
115
118
95
109
105
96
101
98
101
108
106
108
114
120
114
118
130
120
127
132
123
129
126
117
118
109
97
91
80
59
46
47
71
87
85
136
146
143
156
146
146
130
128
120
122
126
114
131
137
127
147
155
154
174
182
193
189
198
206
164
168
175
85
76
86
49
52
42
73
76
65
83
80
70
72
71
61
56
54
46
51
46
40
50
43
41
48
42
43
52
45
43
45
44
39
34
38
27
25
29
51
111
100
94
182
163
139
175
153
128
162
130
114
132
97
69
131
98
65
104
80
60
108
106
101
40
46
48
40
40
49
36
37
45
31
35
33
28
30
17
27
24
10
22
17
5
22
15
8
30
21
20
27
31
28
71
77
77
113
99
104
58
48
48
89
66
48
70
59
63
255
255
255
116
109
108
63
93
102
89
54
53
181
190
179
51
88
80
167
170
165
30
41
28
146
157
179
108
111
101
112
91
70
155
132
119
177
158
153
178
164
163
152
155
159
150
156
169
224
240
255
184
179
185
196
179
184
206
196
206
237
240
252
255
255
255
148
169
203
69
61
69
100
93
89
51
65
87
45
49
80
51
55
76
138
126
151
84
96
117
101
123
135
134
164
178
129
166
190
91
131
160
17
38
61
27
7
18
89
85
73
67
75
82
138
134
141
123
122
127
56
63
65
61
56
60
57
65
52
30
28
38
33
44
44
20
11
11
40
59
59
70
59
51
88
86
86
122
103
101
114
110
120
199
168
139
253
233
203
255
252
236
255
244
228
255
255
255
152
182
167
111
90
78
213
231
214
255
255
255
255
255
231
240
214
181
136
123
106
219
238
205
75
10
14
255
255
255
32
81
71
166
194
169
102
130
120
54
72
59
84
98
80
82
84
69
13
32
18
153
161
162
103
169
162
255
255
255
255
255
255
106
151
162
151
102
61
151
104
69
108
63
56
32
12
12
12
3
4
97
43
6
255
255
255
255
255
255
100
212
243
248
247
223
141
189
175
177
142
107
165
173
139
80
84
81
70
99
85
11
10
3
67
89
64
16
21
31
29
66
47
42
104
97
34
53
60
194
255
255
247
185
159
255
255
255
84
46
73
72
95
78
43
56
49
41
37
32
49
47
48
45
74
64
42
57
45
66
73
61
10
22
25
62
43
41
13
10
22
31
43
39
255
255
255
255
255
255
143
147
144
8
68
76
195
162
135
255
255
255
87
139
133
238
239
211
123
151
139
139
153
142
68
110
121
47
28
35
52
81
73
59
67
67
46
66
69
50
27
39
142
146
143
198
208
183
255
255
255
255
255
255
255
255
255
49
62
77
126
107
101
252
177
119
166
114
74
77
53
50
20
8
13
13
7
8
18
13
4
17
5
4
10
7
9
193
122
79
255
188
108
255
255
255
255
255
255
84
110
96
76
89
70
30
45
58
198
140
127
184
182
165
34
78
85
154
116
108
112
107
101
203
160
121
251
217
177
230
227
255
156
109
255
179
106
255
244
187
255
246
225
186
171
148
108
116
131
128
55
104
142
102
153
185
59
142
198
102
130
155
99
65
34
0
60
102
18
69
99
72
45
40
183
152
150
85
120
110
219
227
198
255
255
255
255
255
255
198
234
223
174
236
244
253
255
255
226
244
249
91
106
119
29
23
30
47
48
39
21
38
32
55
59
52
14
6
10
9
23
25
8
18
17
12
6
10
36
35
44
59
59
67
67
67
77
81
80
91
81
79
87
36
31
41
36
36
31
11
9
28
31
26
19
79
70
65
26
22
45
66
40
18
64
49
38
102
93
72
170
148
126
230
210
184
255
255
234
255
255
255
255
255
255
228
237
245
142
165
181
47
80
100
29
7
24
91
71
40
175
155
132
255
246
233
255
255
255
255
255
255
255
255
255
255
255
255
255
255
255
187
207
222
89
109
137
31
37
63
18
15
35
7
14
8
29
34
32
25
31
33
6
5
13
18
48
81
17
44
69
15
20
25
41
62
67
37
45
49
21
25
7
107
99
102
197
193
182
254
255
243
255
255
255
205
223
228
127
144
160
40
56
80
39
21
13
118
95
69
201
176
154
229
202
184
222
192
172
207
177
146
188
166
132
175
157
128
177
153
131
176
148
125
168
148
141
34
52
59
149
158
171
126
126
122
168
165
150
195
201
195
138
158
168
134
159
180
187
195
204
172
166
154
121
120
108
106
109
112
34
55
60
138
136
131
51
75
91
39
79
97
89
117
134
128
144
163
148
154
166
165
160
165
204
196
191
255
255
254
255
255
255
255
255
255
255
255
255
221
199
167
46
48
51
171
172
164
180
174
167
125
122
120
58
56
56
46
36
27
37
36
27
12
15
16
32
27
32
59
42
40
31
16
7
1
14
31
28
32
42
43
38
29
39
33
19
56
44
37
34
20
23
8
10
0
39
27
18
54
45
39
25
37
49
17
28
39
28
46
70
45
60
70
66
72
80
86
95
105
106
112
120
132
139
146
191
180
152
204
162
124
152
149
152
181
177
164
126
103
78
47
66
83
93
100
107
149
152
165
38
31
25
90
91
99
71
67
62
62
55
47
58
54
49
48
49
46
36
36
36
38
35
35
32
32
22
29
25
13
21
12
20
43
63
75
155
171
172
221
222
221
182
172
184
102
101
117
51
73
79
35
65
64
32
62
61
53
78
76
83
108
112
140
159
166
218
229
234
204
200
203
98
89
84
31
32
27
7
4
8
22
26
17
17
18
8
13
12
7
15
17
20
18
21
33
24
23
35
20
21
27
20
30
32
38
51
73
44
49
53
105
110
118
96
114
135
150
163
184
155
167
177
168
166
167
142
145
143
145
154
149
74
80
69
21
23
30
25
24
34
26
26
24
30
29
19
29
25
14
29
24
13
34
27
26
38
23
18
27
25
19
67
73
64
94
90
91
47
46
37
36
25
8
38
41
57
255
255
255
108
97
97
73
114
115
112
89
85
163
190
177
4
29
32
165
180
162
35
29
52
217
234
255
181
199
228
156
180
216
134
171
207
120
158
197
106
133
173
63
94
122
149
139
155
214
230
241
60
55
47
19
2
16
26
20
25
46
19
12
186
173
167
238
253
244
123
123
130
156
149
157
198
194
194
223
218
223
197
207
216
134
152
160
165
195
192
197
214
210
236
247
253
245
244
255
245
255
255
201
234
255
83
104
120
91
93
85
80
85
68
31
20
15
73
63
41
99
89
83
113
116
114
13
26
21
18
18
33
42
51
67
36
58
64
34
13
19
24
12
7
52
56
63
59
50
46
85
41
24
255
255
243
188
218
211
51
71
77
177
173
171
255
255
255
92
149
151
52
12
17
225
252
240
198
233
231
86
73
64
18
21
50
228
203
189
198
226
187
116
52
53
255
255
255
8
42
34
185
219
195
96
123
119
70
93
79
69
86
73
79
86
68
5
15
14
165
180
178
64
127
117
255
255
255
255
255
255
109
132
137
137
94
64
136
95
71
113
71
46
27
18
8
18
11
10
131
58
21
255
255
255
255
255
255
73
185
223
255
255
255
139
199
195
209
188
151
135
164
135
78
97
93
60
104
89
7
3
17
74
106
84
11
4
29
3
59
49
34
82
90
51
93
100
176
255
255
255
247
227
255
255
255
60
45
58
53
76
56
41
83
64
42
92
71
62
118
94
47
94
78
42
60
54
66
69
63
8
19
17
48
38
34
12
8
19
4
26
26
255
255
255
255
255
255
114
129
124
17
80
87
234
204
170
255
255
255
56
111
114
244
255
237
106
146
140
138
167
164
61
113
127
33
11
11
64
91
84
28
24
17
38
62
63
38
25
13
224
202
167
231
163
91
255
255
255
255
255
255
255
248
205
212
118
104
165
154
164
255
244
198
148
97
61
79
48
42
27
18
19
23
17
24
14
18
12
20
10
2
15
3
10
208
128
83
255
188
113
255
255
255
255
255
255
255
255
255
255
247
187
76
119
101
192
138
130
176
178
154
153
195
197
223
200
181
138
173
175
105
134
153
121
142
169
76
93
255
161
211
137
255
255
126
234
255
136
237
255
255
255
255
255
255
255
255
255
255
255
255
255
255
255
255
255
187
224
246
76
42
22
117
169
207
255
255
255
255
255
255
255
248
255
118
103
124
187
113
147
111
111
151
83
90
120
82
7
43
77
118
132
175
201
182
255
255
255
255
255
255
255
255
255
255
255
255
255
255
255
232
234
235
172
172
173
102
103
102
47
50
50
5
11
19
36
31
32
51
53
42
35
36
27
16
17
8
25
23
10
41
39
35
29
26
27
19
27
40
31
24
5
76
65
52
48
39
53
45
25
32
24
15
28
19
34
31
15
18
23
19
28
26
12
19
19
32
24
22
77
60
50
147
129
113
229
215
198
255
255
255
255
255
255
255
255
255
250
255
255
173
190
206
76
97
116
34
7
17
58
53
58
69
42
48
112
86
69
189
178
166
255
255
255
255
255
255
234
242
244
168
183
194
106
124
132
56
80
87
15
45
63
12
57
111
18
35
68
29
30
59
36
58
59
8
22
42
15
12
32
30
16
15
32
23
23
32
29
24
70
65
56
124
112
97
184
172
169
213
208
219
218
218
237
198
202
220
175
187
193
158
179
178
149
174
181
158
172
186
179
183
184
214
215
200
239
239
228
226
230
230
191
183
190
56
68
65
159
174
196
175
187
208
218
228
241
228
237
251
232
246
255
255
255
255
255
255
255
255
255
255
255
255
255
244
245
240
76
84
83
187
180
171
255
248
225
255
255
219
255
222
189
225
183
157
218
187
165
222
199
182
207
171
149
181
142
117
146
101
62
129
86
49
141
111
75
254
221
172
215
194
176
74
70
75
49
48
46
128
125
117
178
172
160
191
182
169
164
160
153
140
139
136
151
150
151
185
179
187
203
191
199
194
187
192
197
196
202
223
220
227
244
239
244
244
238
243
241
236
243
237
240
244
247
248
237
255
255
246
255
255
255
255
255
255
255
244
243
255
248
230
255
241
218
249
230
214
234
207
195
236
202
192
211
175
162
118
80
76
14
24
8
71
65
64
145
123
95
88
70
62
52
56
61
121
125
142
12
8
14
78
85
98
28
36
36
35
29
28
40
32
34
37
35
36
35
34
34
36
33
33
25
24
23
24
22
24
26
30
39
69
77
90
188
190
180
156
148
147
38
25
54
40
35
55
26
49
73
24
55
85
7
62
89
15
63
77
22
53
56
20
35
46
132
163
180
235
247
252
124
110
110
35
25
24
19
5
8
23
16
11
22
18
13
15
11
2
18
16
4
15
16
13
10
9
12
17
10
10
20
17
20
43
44
62
64
67
61
152
144
134
113
96
74
140
127
120
109
93
86
135
116
100
113
97
90
163
166
170
139
134
123
11
25
44
21
34
56
25
42
55
34
50
56
31
48
54
28
42
54
35
48
66
49
65
77
62
79
84
79
85
84
61
64
66
25
38
44
57
59
61
86
81
70
255
255
255
117
114
122
119
138
136
172
143
136
209
229
213
53
26
21
176
195
172
138
121
145
252
255
255
99
100
103
125
103
92
179
154
151
188
169
174
181
170
181
180
178
196
255
255
255
219
255
255
26
27
40
10
4
10
12
11
11
34
38
47
200
178
190
239
255
255
77
101
133
40
70
107
21
37
74
2
17
50
31
8
25
84
73
79
168
181
185
117
110
118
34
21
31
58
40
39
94
82
76
201
198
222
169
182
191
91
99
101
171
175
175
201
203
206
180
186
197
136
153
158
159
165
162
177
180
193
255
255
255
255
255
255
255
255
255
168
205
205
44
62
57
80
78
80
82
69
63
34
69
77
255
231
201
255
255
255
204
229
233
255
255
255
255
255
255
86
137
137
84
45
35
213
244
237
170
201
206
111
105
99
56
58
64
246
215
203
161
205
173
151
85
83
247
255
249
32
17
12
184
222
197
72
105
101
84
109
94
43
67
54
67
77
55
11
18
23
161
185
187
37
96
86
255
255
255
237
255
255
100
114
118
119
79
61
126
83
61
123
74
39
29
18
5
26
18
10
173
81
38
255
255
255
255
255
255
30
123
171
255
255
255
122
191
192
234
229
194
113
160
139
71
100
92
56
114
101
15
4
10
83
124
102
25
18
10
15
56
47
21
62
74
60
112
124
142
232
249
255
255
255
255
255
255
41
32
35
30
31
24
38
57
53
31
32
30
39
49
41
32
41
37
36
32
33
44
45
36
21
8
14
47
42
37
19
17
14
18
16
14
255
255
255
255
255
255
97
105
93
27
89
96
244
215
174
255
255
255
59
113
116
255
255
255
129
174
175
141
175
184
116
172
188
19
21
25
81
108
104
94
113
116
122
143
127
94
87
115
255
206
180
223
123
148
255
149
73
207
111
92
142
133
189
232
111
128
206
204
199
255
246
211
136
86
59
51
20
16
53
50
41
59
55
52
31
35
27
28
42
51
43
52
62
200
112
57
255
206
166
131
147
227
255
199
128
255
255
166
255
255
255
211
233
172
166
122
105
218
214
187
255
255
255
156
94
34
255
255
255
220
253
245
255
255
247
153
140
255
222
255
180
63
78
138
118
137
255
113
156
255
41
99
117
136
138
143
255
255
255
36
72
90
255
255
255
247
255
255
56
29
8
184
251
255
232
255
255
176
160
160
132
188
189
139
190
149
56
54
67
219
205
212
255
255
255
134
183
195
172
227
255
89
37
18
54
115
132
24
14
44
154
113
62
228
180
137
244
192
164
255
250
225
255
255
255
255
255
255
255
255
255
255
255
255
255
255
255
211
226
235
138
158
170
81
98
110
33
44
54
24
27
38
2
12
33
12
20
38
53
42
24
70
64
49
15
13
19
31
21
17
26
29
27
28
40
30
5
4
8
24
29
23
15
21
14
8
8
8
14
21
16
33
41
37
37
34
33
28
26
19
53
37
26
109
82
63
187
162
142
251
241
222
255
255
255
255
255
255
255
255
255
255
255
255
255
255
255
201
220
240
80
90
120
56
39
15
141
124
101
214
198
189
255
241
244
255
255
255
255
255
255
238
252
255
193
209
216
144
172
203
100
143
165
60
98
127
42
67
96
27
41
51
15
13
5
23
22
33
27
24
31
19
19
12
23
20
13
10
7
5
29
22
24
84
70
53
164
146
120
200
180
155
206
184
160
190
166
138
162
143
115
152
136
112
153
128
105
124
85
60
75
38
39
120
151
174
255
255
255
255
255
255
255
255
255
255
255
255
255
255
255
255
255
255
255
255
255
255
255
255
255
255
255
255
255
255
247
234
224
16
31
37
7
19
21
20
22
13
19
22
24
35
32
46
17
22
43
18
32
53
22
9
25
45
51
53
12
24
22
10
10
9
57
51
28
189
153
108
169
146
126
161
159
152
121
126
117
82
90
91
27
40
47
71
54
35
111
100
78
120
113
91
109
105
81
94
90
73
112
101
94
122
106
109
110
96
96
100
86
72
109
91
68
106
85
69
78
65
54
42
37
27
34
22
8
48
22
7
59
39
35
32
23
27
5
28
51
59
74
83
74
101
110
123
150
150
138
158
159
164
176
173
154
150
128
86
61
35
92
104
102
74
57
53
92
76
48
74
73
81
126
123
119
198
206
217
36
28
41
96
109
122
28
37
43
31
19
14
27
16
14
13
18
18
17
15
17
19
18
21
9
16
17
13
19
24
23
32
45
39
52
66
187
203
205
158
170
179
44
36
69
38
60
79
30
33
50
43
15
33
46
18
32
29
19
50
34
56
76
21
52
75
95
155
177
219
251
255
158
151
162
91
112
114
92
116
118
101
121
126
104
123
132
103
127
135
114
136
141
121
139
145
122
140
149
120
142
151
116
136
144
119
127
140
131
140
138
203
195
187
103
73
64
76
77
83
27
35
53
68
58
43
19
12
19
147
172
175
196
192
195
76
68
78
71
70
73
65
66
59
69
66
57
68
60
52
61
54
47
55
50
45
49
41
36
43
34
25
59
50
41
45
38
34
31
28
38
30
32
41
31
40
58
255
255
255
66
66
73
41
56
53
151
130
129
213
218
206
153
148
139
167
181
163
198
168
189
252
255
255
150
166
188
124
139
159
88
123
143
83
117
140
79
99
124
101
103
137
228
249
255
207
236
231
84
68
71
39
35
37
16
8
11
78
59
74
255
246
252
255
255
255
178
172
171
157
159
162
107
111
105
128
110
101
175
174
181
191
219
242
203
230
254
166
175
185
67
69
62
25
18
12
46
37
42
179
177
197
150
169
171
40
12
11
39
8
14
50
31
20
71
46
18
109
82
65
198
181
180
222
221
229
155
158
151
151
142
135
205
189
184
255
255
255
190
215
206
91
107
106
66
76
88
91
95
73
100
45
11
255
255
214
255
255
245
255
246
215
230
237
216
97
89
66
113
81
64
176
195
183
240
220
202
241
201
188
143
132
127
218
191
174
130
188
162
173
117
110
218
255
243
47
8
7
189
233
212
50
78
75
91
125
109
22
29
12
62
72
51
27
14
29
158
193
193
24
59
51
255
255
255
198
255
255
89
100
100
100
64
48
120
77
49
124
73
45
20
10
13
19
17
5
207
106
57
255
255
255
255
255
255
65
61
112
255
255
255
109
172
179
255
255
242
107
160
149
77
107
101
64
124
117
21
21
18
95
139
121
40
40
37
20
65
55
50
79
77
96
146
151
125
221
242
255
255
255
255
255
255
22
4
12
17
15
7
33
61
63
8
8
12
20
24
12
4
11
8
19
15
18
30
33
25
22
15
21
39
37
28
14
17
12
27
11
7
255
255
255
255
255
255
55
45
39
76
114
113
239
212
178
255
255
255
65
118
103
247
255
255
157
189
182
130
156
158
174
222
240
52
52
49
86
112
117
255
255
255
204
183
135
226
221
255
255
244
179
255
238
244
44
64
39
172
165
181
126
168
191
137
159
170
255
255
255
193
157
132
97
58
44
48
50
72
85
85
115
93
86
116
53
52
67
159
168
188
226
222
241
213
182
207
255
214
231
87
55
196
255
120
36
216
107
86
255
255
255
255
255
236
151
125
87
255
255
230
255
255
226
120
60
25
255
255
255
255
255
255
255
255
255
255
255
255
255
255
167
203
205
112
98
74
255
86
101
255
106
88
81
255
255
255
255
255
255
255
255
255
227
255
255
255
255
255
249
255
255
210
255
255
193
246
255
50
61
79
147
222
171
255
255
255
169
209
183
165
251
209
31
13
10
156
199
223
255
255
255
127
94
103
226
255
255
255
255
255
255
255
255
255
255
255
227
251
255
184
211
239
103
136
158
18
52
74
78
31
7
166
111
71
239
189
143
255
249
207
255
255
252
255
255
255
255
255
255
255
255
255
255
255
255
255
255
255
242
248
255
230
245
251
224
242
249
211
224
233
164
179
179
122
134
123
91
100
94
59
64
62
17
20
10
29
27
22
50
48
43
52
42
41
17
13
13
24
27
25
24
20
20
22
24
25
20
20
26
62
67
79
61
86
106
65
41
35
97
86
87
77
34
5
92
70
42
167
160
138
255
255
240
255
255
255
224
233
235
166
186
192
104
138
142
31
67
76
53
27
26
125
89
77
193
138
86
255
216
181
255
255
255
255
255
255
226
255
255
219
246
255
174
190
200
87
96
108
36
46
60
32
26
29
12
7
18
6
6
21
15
19
43
60
60
55
81
82
61
47
47
37
20
14
16
16
29
36
18
19
21
38
35
33
27
17
13
19
25
34
10
13
26
156
170
179
255
255
255
255
191
165
65
37
32
35
24
35
34
25
29
53
9
17
32
17
26
15
37
41
162
162
159
255
255
255
255
255
253
42
36
40
36
22
18
27
14
10
26
12
11
38
22
8
32
15
8
33
27
43
33
18
3
50
50
55
28
31
32
34
31
36
64
61
48
188
148
110
114
81
63
106
102
106
44
43
37
107
98
101
173
170
165
167
168
159
161
154
147
160
151
145
175
170
165
195
191
189
200
191
192
199
184
185
205
188
189
212
198
200
218
209
210
231
225
223
253
249
241
255
255
247
255
255
249
255
255
255
255
255
253
255
245
233
254
239
237
255
250
241
255
250
220
255
248
214
255
224
192
255
220
201
255
255
237
255
217
177
82
104
95
191
186
169
184
167
157
127
141
157
38
24
18
230
243
255
104
93
105
103
119
124
97
111
119
92
101
106
97
99
98
99
101
98
94
98
98
89
98
101
91
100
104
88
93
100
84
83
94
79
76
81
160
196
209
164
209
227
67
89
99
43
45
45
33
27
29
71
62
60
94
77
63
86
69
40
61
44
27
26
19
42
62
140
161
167
215
235
129
105
115
55
42
41
41
27
22
34
24
15
27
20
18
24
20
12
27
16
7
17
16
11
10
17
17
13
15
13
12
4
7
30
23
37
78
97
95
218
207
204
104
61
45
44
61
65
78
97
112
73
71
85
63
62
74
160
165
156
172
161
169
52
65
83
64
76
93
69
79
95
69
80
93
60
76
86
54
68
84
64
76
96
77
94
108
87
109
113
110
132
127
124
145
138
140
161
156
168
190
192
191
209
213
255
255
255
47
49
53
9
13
10
118
91
94
133
139
133
95
79
70
65
69
55
189
165
179
165
188
191
65
57
68
163
162
174
209
224
233
164
168
186
177
162
194
226
237
255
217
255
255
132
153
156
67
34
31
46
46
51
23
15
18
90
75
88
255
254
255
232
248
255
116
131
144
192
175
190
225
237
246
215
224
231
82
137
149
99
93
93
181
177
207
223
232
255
96
114
123
5
16
10
54
50
59
136
139
157
140
151
155
125
125
130
196
186
191
189
192
199
166
177
194
142
163
184
219
231
249
160
182
187
27
34
45
36
42
49
41
29
40
218
205
209
192
210
198
66
65
49
98
105
103
55
67
87
14
99
70
113
106
61
144
229
191
187
153
170
202
240
255
121
132
155
113
105
96
120
168
178
151
183
182
165
153
142
58
64
62
198
176
155
96
168
152
193
151
139
191
255
246
71
46
39
213
255
255
63
64
65
112
147
142
62
36
25
51
68
44
44
31
48
147
191
188
56
45
44
255
255
255
176
255
255
82
91
86
86
54
38
118
74
48
122
70
47
17
4
8
7
18
8
231
127
70
255
255
255
255
255
255
109
55
59
255
255
255
81
144
151
255
255
255
104
153
147
93
120
117
78
130
120
42
54
44
112
155
140
54
65
63
45
87
69
69
55
38
136
184
211
124
196
208
255
255
255
255
255
255
26
35
29
27
49
39
24
52
43
18
14
5
7
16
7
6
4
14
17
24
26
25
25
25
16
21
27
33
22
19
21
25
18
43
29
19
255
255
255
255
255
255
42
57
58
87
103
104
255
216
184
255
255
255
29
30
10
244
255
255
65
125
163
61
108
146
183
240
255
42
27
36
82
96
112
255
255
255
235
171
114
255
255
255
255
255
249
226
217
255
137
163
182
153
255
246
106
166
150
230
255
255
154
231
223
85
34
46
21
43
61
71
94
136
45
63
115
91
89
138
42
59
94
199
196
214
210
187
180
255
255
255
184
232
255
208
81
82
225
132
94
41
49
91
255
255
217
255
255
255
192
153
115
255
255
225
242
216
178
76
51
35
255
255
239
255
244
195
255
255
255
66
46
227
255
255
139
229
229
152
102
95
255
102
112
255
138
138
44
255
255
255
255
255
239
255
255
255
129
104
79
255
255
255
255
255
255
203
240
255
70
90
106
80
118
119
230
255
255
255
255
255
198
212
205
255
255
255
58
62
61
224
244
255
255
255
255
42
41
74
255
255
255
170
182
173
146
125
111
198
171
161
250
219
207
255
255
255
255
255
255
255
255
255
255
255
255
255
255
255
255
255
255
202
232
255
113
158
202
35
82
119
34
24
55
56
38
14
101
76
43
173
141
110
250
208
174
255
255
216
255
255
220
255
255
223
255
251
224
232
197
160
206
180
139
217
206
183
177
175
174
121
125
139
81
93
105
41
49
59
29
35
46
17
17
29
7
4
10
15
7
1
24
22
12
57
69
82
32
58
81
44
32
31
76
84
81
44
43
53
39
24
27
32
33
40
33
32
43
49
30
17
124
103
89
183
159
152
228
210
205
255
255
254
255
255
255
230
254
255
184
217
232
118
145
160
67
85
100
96
75
72
20
34
43
70
104
137
162
199
222
244
247
255
255
255
255
226
238
245
180
202
211
134
147
162
77
84
106
79
77
92
97
93
76
45
56
48
26
42
44
26
37
40
20
24
27
26
28
38
31
27
28
19
24
28
10
8
20
141
156
163
255
255
255
255
213
189
34
57
52
48
24
22
48
48
38
31
11
14
35
31
29
31
25
25
143
133
124
255
255
255
255
255
255
115
131
159
122
139
168
146
161
184
164
177
185
179
188
183
207
212
196
227
233
211
239
245
221
255
255
252
255
255
255
255
255
255
255
255
255
255
248
229
100
90
91
69
73
72
74
62
54
65
66
67
46
34
38
48
33
23
79
51
30
79
53
23
82
61
39
90
65
39
94
65
50
86
58
54
63
46
42
56
49
40
71
58
43
80
58
47
65
48
35
41
27
17
41
19
19
70
44
34
62
39
23
24
14
13
27
16
27
10
19
42
10
33
37
72
78
86
40
46
55
12
21
29
210
218
185
255
255
239
134
120
112
30
48
62
10
26
36
129
141
154
83
69
60
202
218
230
145
133
138
52
63
74
46
49
56
32
31
41
24
30
39
29
40
41
36
41
44
31
41
45
32
42
44
43
48
50
57
59
70
63
71
85
156
202
220
237
255
255
177
132
109
180
127
94
136
91
73
33
12
9
27
23
39
16
13
13
16
6
8
25
15
11
58
141
171
195
255
255
158
159
162
108
132
128
114
137
144
127
148
158
127
146
156
121
142
151
129
145
151
138
148
151
134
147
150
124
148
148
124
148
148
133
147
154
96
95
91
146
136
135
168
168
176
212
212
208
229
223
223
217
202
200
202
197
183
171
160
145
60
44
50
81
90
90
100
105
103
94
97
89
88
87
80
82
77
76
80
74
76
76
69
74
66
61
61
60
58
53
71
71
64
95
95
89
105
106
105
108
108
109
118
113
108
255
255
255
57
57
62
36
29
33
127
91
104
211
214
222
216
225
240
204
230
243
255
241
255
226
244
251
158
154
160
122
155
145
74
77
84
46
96
92
141
149
158
180
195
210
174
181
178
122
112
97
70
59
60
39
44
45
10
12
7
84
74
83
224
206
212
164
172
169
134
119
115
255
239
241
255
255
255
255
255
255
255
255
255
96
106
122
110
93
104
237
249
255
128
152
164
21
14
23
125
122
136
124
129
156
117
112
123
169
183
175
38
52
63
24
8
31
47
21
11
132
98
92
255
255
255
164
199
204
15
19
23
36
30
43
74
63
73
255
255
255
255
255
255
160
169
185
87
97
108
98
97
100
160
236
209
198
181
173
255
255
255
174
98
84
226
226
206
110
133
154
120
90
73
230
251
247
255
247
216
201
180
154
108
116
116
222
219
198
60
146
152
218
187
172
164
242
250
106
91
75
218
255
255
20
17
13
115
166
172
47
42
45
11
49
46
64
47
52
125
174
175
88
38
26
255
255
255
157
255
255
72
77
68
80
48
31
116
72
53
120
68
43
10
12
17
87
91
98
255
255
242
255
255
255
230
255
255
114
56
8
219
255
255
44
99
121
255
255
255
79
127
125
96
129
125
69
118
110
45
72
71
113
154
143
67
80
82
33
78
54
38
94
167
142
245
255
77
98
127
255
255
255
255
255
255
152
155
167
158
170
189
160
182
194
166
179
190
163
161
184
170
163
189
167
167
182
147
151
160
145
161
169
147
163
173
141
159
166
155
167
169
255
255
255
255
255
243
62
56
71
47
38
60
229
194
162
242
255
255
142
144
161
255
255
255
118
105
139
107
109
151
213
251
255
91
132
151
53
110
136
255
255
255
88
143
154
195
224
249
250
209
195
255
255
255
247
215
216
206
201
194
186
107
100
255
255
235
255
255
255
255
255
255
255
255
255
255
255
255
255
255
255
255
255
255
255
255
255
247
235
255
247
243
215
255
255
255
255
255
255
255
255
233
255
255
223
255
255
255
255
255
255
255
255
255
68
119
140
255
255
228
255
255
255
255
255
255
255
255
255
233
253
239
255
255
255
231
230
255
236
210
226
239
241
217
139
177
255
87
132
255
152
163
73
255
255
255
255
255
247
255
255
255
165
106
61
123
63
13
150
100
48
124
97
50
65
62
36
106
145
128
249
255
231
255
245
210
101
170
139
255
255
255
117
114
117
255
255
255
255
255
255
38
47
103
255
255
255
207
211
187
29
23
26
20
15
4
13
29
56
66
110
139
50
92
114
34
24
33
96
63
54
154
118
105
208
177
162
255
229
220
255
255
255
255
255
255
255
255
255
255
255
255
255
255
255
255
255
255
251
255
255
215
234
252
196
223
246
165
193
221
100
143
187
112
166
217
40
104
162
128
95
100
255
249
220
255
255
255
255
255
255
255
255
255
255
255
255
236
248
254
159
176
191
97
119
131
75
107
123
57
87
111
26
51
66
20
23
22
60
72
66
38
57
71
45
33
32
34
33
36
29
26
29
32
36
39
41
41
46
30
38
38
31
45
38
29
39
43
49
40
44
100
94
78
172
151
123
231
191
157
255
239
212
255
255
236
233
228
222
163
106
68
108
48
59
81
36
28
13
12
22
43
25
30
82
78
79
140
146
129
197
196
172
244
230
227
255
255
255
255
255
255
255
255
255
255
255
255
255
255
255
255
255
255
255
255
255
255
255
255
255
253
230
255
233
224
255
255
255
255
213
186
21
66
45
55
72
52
47
75
52
24
30
16
31
43
38
15
33
34
108
99
87
255
255
255
255
255
250
252
226
189
248
215
176
238
199
169
231
195
168
222
184
151
223
171
133
235
178
137
223
170
123
185
140
109
151
120
97
149
126
106
143
114
92
142
94
77
142
136
138
134
138
141
69
74
76
39
50
55
26
25
31
27
14
11
40
24
10
29
30
29
52
56
59
58
56
66
28
25
31
10
8
9
7
7
3
41
47
40
52
48
44
21
10
2
9
19
26
18
31
36
29
34
41
45
51
46
17
23
36
33
35
33
23
21
30
3
21
43
13
26
23
65
61
65
36
37
24
14
21
30
180
177
149
255
220
165
131
117
99
174
166
166
180
158
156
20
9
21
147
156
153
176
181
185
82
74
75
100
107
123
124
124
138
121
123
132
116
122
120
114
118
114
111
112
113
108
113
114
106
114
112
101
108
107
96
99
105
86
88
97
186
229
239
255
255
255
192
155
140
156
122
92
217
143
107
60
27
25
31
23
37
10
17
12
2
14
10
24
22
14
50
138
178
228
255
255
154
148
144
48
42
45
54
44
53
45
39
39
44
39
42
34
34
30
33
21
22
35
24
24
44
32
30
41
36
35
36
34
35
34
36
39
43
51
70
61
62
56
106
72
59
66
18
7
35
51
65
18
11
35
26
33
38
35
43
52
43
43
30
36
32
27
18
10
4
23
16
8
23
15
12
29
14
8
35
17
15
24
8
5
12
7
15
7
9
19
7
10
12
11
11
11
3
10
10
18
22
27
30
34
40
255
255
255
161
153
153
166
183
177
97
134
128
244
233
236
100
134
135
201
205
200
220
192
198
138
138
138
94
82
109
115
117
117
137
138
151
74
50
54
238
255
255
154
175
192
69
70
73
29
27
42
17
31
30
19
27
18
6
5
9
125
109
117
245
231
241
137
149
143
106
79
82
255
243
245
143
174
181
255
208
210
254
240
235
81
99
94
75
69
58
191
202
220
145
162
174
52
40
47
199
188
205
163
168
190
86
100
106
111
91
76
169
166
161
179
178
177
179
171
183
207
197
213
255
255
255
122
152
161
43
36
43
54
52
65
147
103
111
255
255
255
197
203
199
73
39
47
163
148
149
153
133
123
86
167
103
255
140
140
255
255
255
128
120
131
171
187
197
56
121
149
99
78
62
216
244
239
145
171
172
65
90
98
117
109
98
233
243
218
59
130
149
242
222
207
140
216
229
135
125
107
203
255
255
31
34
30
134
188
187
66
64
58
22
61
56
57
50
53
106
155
165
130
78
62
255
255
255
128
239
255
62
62
56
93
46
33
122
74
52
107
71
45
109
114
122
255
255
255
255
255
255
255
255
255
195
255
255
136
133
120
236
255
255
40
75
97
255
255
255
51
91
94
103
143
139
56
102
97
65
85
91
97
137
129
71
86
98
15
57
39
48
133
225
121
203
241
17
51
111
255
255
255
223
223
219
54
50
39
60
55
43
58
49
42
60
47
31
67
49
38
69
46
40
76
67
76
46
29
34
62
69
75
70
49
45
72
62
57
103
89
75
255
255
255
212
182
173
98
64
45
75
45
37
202
190
155
181
231
233
150
129
125
249
255
255
59
93
122
116
165
201
176
202
255
29
38
46
15
35
51
255
255
255
127
129
100
175
169
173
135
87
35
199
179
190
248
247
239
175
244
225
146
169
147
207
186
154
218
204
175
156
127
101
79
75
76
49
43
31
60
39
14
70
47
33
68
40
9
31
15
10
190
189
145
231
229
187
62
66
77
255
178
83
233
147
83
88
30
55
232
179
128
255
255
235
164
146
124
189
175
143
74
53
53
86
48
24
91
71
42
156
143
125
134
149
127
228
234
255
217
231
148
255
255
157
255
255
223
255
255
255
36
42
33
236
220
255
255
255
255
255
198
134
173
168
170
237
233
232
222
227
251
204
218
253
126
150
192
124
148
147
255
255
227
220
182
161
134
167
152
255
255
255
129
138
139
255
255
255
255
255
255
74
91
152
255
255
255
181
179
148
20
20
24
61
74
91
215
251
255
255
255
255
248
255
255
175
214
237
126
158
173
62
76
79
23
19
5
32
27
32
49
26
53
48
46
53
52
43
43
83
79
64
127
113
101
196
166
152
225
196
181
235
215
194
231
210
190
238
205
181
216
187
176
194
208
237
170
188
218
238
255
255
159
189
226
66
99
129
24
30
65
83
48
24
138
93
51
199
158
117
255
255
250
255
255
255
255
255
255
255
255
255
255
255
255
240
238
235
237
235
230
225
240
240
186
201
216
108
118
139
17
35
50
33
25
27
42
36
32
26
25
27
4
7
12
10
10
18
7
3
15
12
23
45
8
58
74
37
42
49
71
80
93
58
33
38
204
255
255
159
209
203
98
162
184
208
152
148
255
229
205
237
235
218
192
198
183
140
142
141
79
77
98
30
45
51
82
55
43
49
12
9
62
37
22
61
38
19
58
37
13
42
26
11
22
16
13
15
10
8
51
44
32
72
83
94
255
255
255
240
203
171
2
38
27
22
43
22
25
47
26
11
38
22
21
43
31
12
38
38
86
72
73
255
255
255
252
230
234
130
149
175
150
169
189
168
188
200
166
184
194
170
187
203
197
213
228
221
237
243
228
240
233
255
255
255
247
250
244
237
231
230
255
255
255
255
255
249
148
132
126
50
44
24
126
116
95
169
169
153
186
182
179
162
153
153
121
115
109
95
98
89
105
112
97
137
140
137
156
159
160
150
160
165
141
161
170
155
178
186
179
194
201
192
199
201
209
215
210
214
218
214
218
214
216
245
242
242
255
255
255
242
252
241
227
240
223
239
251
231
255
255
248
255
255
255
255
255
255
255
255
255
255
255
255
220
191
152
41
37
46
65
45
30
76
92
96
129
109
94
10
11
18
76
82
97
39
31
38
112
116
132
68
73
73
31
32
18
27
22
11
21
12
7
21
18
16
17
18
17
11
8
9
18
15
9
17
21
12
37
41
37
181
221
224
255
255
255
236
195
180
108
99
77
223
151
102
79
38
19
14
17
28
16
24
15
26
18
10
34
20
11
44
113
157
224
255
255
198
193
185
77
79
75
51
70
82
46
79
96
55
78
95
49
68
85
51
66
85
57
76
93
58
78
92
53
78
88
59
90
100
72
106
115
72
101
102
6
15
17
133
144
153
171
177
183
191
190
196
191
185
186
179
183
172
133
138
136
73
81
95
65
84
91
105
123
136
105
120
132
103
115
123
106
113
120
115
117
126
120
118
130
118
119
130
115
126
130
115
131
131
113
129
129
106
122
122
103
120
119
104
123
119
255
255
255
255
255
247
160
173
144
142
165
118
222
167
188
184
231
222
48
54
55
95
49
61
83
103
117
145
176
194
93
119
115
101
129
146
105
86
95
246
242
255
124
140
155
76
72
88
70
82
96
39
34
39
10
25
12
25
15
26
189
172
170
255
255
255
76
97
82
151
125
134
255
255
255
106
112
105
255
255
255
224
206
219
25
20
70
111
89
61
166
184
212
128
139
153
54
27
31
200
192
208
89
119
130
121
128
131
83
90
86
47
46
36
33
28
14
68
67
71
205
215
225
174
216
215
95
39
48
177
122
132
180
120
121
216
96
87
220
204
209
141
239
255
94
158
187
159
137
127
232
190
152
31
87
69
255
243
192
225
255
211
251
195
200
213
224
219
97
100
96
88
82
61
230
212
192
255
255
252
202
195
168
48
35
35
222
235
220
91
135
151
238
236
220
116
180
180
145
149
132
193
245
231
39
55
43
138
189
180
75
83
77
31
71
64
43
55
61
77
128
142
160
120
110
255
255
255
106
210
249
65
58
50
113
55
48
132
84
51
77
66
40
255
255
255
255
255
255
255
255
255
142
147
137
163
163
158
99
82
70
255
255
255
82
88
92
255
255
255
64
64
57
121
155
152
66
99
94
70
86
87
93
134
119
86
103
114
28
79
76
59
130
212
140
246
255
69
97
150
255
255
255
245
255
255
152
173
182
147
177
190
155
181
189
158
170
175
144
156
164
148
160
168
185
187
190
164
170
164
162
182
181
129
153
157
136
162
166
160
177
172
255
255
255
195
190
191
75
84
55
110
105
68
234
236
204
210
253
255
165
160
168
236
255
255
89
107
148
244
255
255
255
255
255
213
252
240
147
176
183
255
255
255
255
255
255
255
255
255
255
255
255
239
242
233
255
244
230
255
255
255
255
255
255
255
255
255
255
255
255
255
255
255
223
221
197
207
214
186
255
254
222
255
255
255
255
255
255
255
255
255
255
255
255
255
255
250
255
255
255
255
255
255
255
255
255
255
255
255
255
255
255
255
255
255
198
162
137
255
255
255
255
255
255
255
255
255
255
255
255
255
255
255
255
255
255
255
255
255
244
193
140
145
101
133
255
255
255
255
255
255
185
222
255
207
245
255
145
176
255
52
47
166
134
89
115
138
57
16
188
129
84
184
160
129
148
143
141
172
153
136
255
255
255
255
247
229
255
242
234
255
255
255
255
255
255
255
255
255
255
255
255
106
114
162
255
255
255
173
191
188
93
113
127
239
255
255
255
255
255
255
255
255
255
255
255
255
255
255
255
255
255
237
255
255
69
82
106
40
57
76
127
171
207
132
188
203
106
155
171
86
101
101
126
147
168
104
117
138
40
43
54
12
15
19
45
44
41
78
85
87
36
53
89
61
122
178
49
37
23
156
172
207
255
245
255
255
255
255
255
255
255
255
255
255
255
255
255
194
213
235
215
240
245
255
255
255
255
255
255
255
255
255
255
255
255
255
247
219
204
165
142
214
176
154
245
211
188
255
247
220
255
255
247
253
255
248
207
220
223
170
191
201
126
148
165
72
93
104
19
43
41
18
18
30
18
64
88
36
35
52
63
74
77
45
17
15
214
255
247
159
200
204
184
166
148
139
202
226
137
185
220
78
130
155
27
5
20
129
123
91
187
181
160
230
218
206
255
242
229
255
253
246
255
255
255
255
255
255
255
255
255
255
255
255
255
255
247
255
252
228
255
241
204
253
226
199
255
255
255
255
255
227
5
20
31
13
11
15
15
20
15
14
39
27
11
40
25
6
45
42
99
91
99
255
255
255
255
255
255
224
202
162
234
205
161
232
202
178
204
187
178
176
168
166
183
161
157
202
167
161
184
139
113
161
130
113
118
98
84
101
87
80
96
87
60
196
175
132
237
204
171
164
165
161
114
125
121
62
56
67
45
35
41
104
81
75
160
128
120
160
131
115
141
118
95
141
117
96
158
127
105
177
138
112
178
131
104
175
129
98
190
147
113
177
136
101
141
106
74
128
91
65
130
89
69
127
84
64
116
76
57
102
65
53
104
65
54
114
75
73
100
55
45
98
76
71
80
44
41
51
26
16
82
83
76
122
83
52
98
107
123
127
111
118
63
69
72
95
79
60
126
132
134
171
173
184
97
89
100
113
117
131
104
113
126
75
92
106
71
88
98
69
87
97
72
89
101
86
99
110
101
108
117
104
110
117
95
106
112
81
96
100
148
180
186
255
255
255
252
220
198
76
79
68
218
153
103
104
52
20
15
22
32
24
22
11
22
23
17
25
21
16
7
72
119
173
255
255
201
199
187
121
102
98
108
98
107
103
101
111
97
96
99
89
91
86
91
93
90
96
95
92
90
87
83
83
80
79
86
80
82
87
75
77
67
57
54
74
89
88
149
162
144
68
51
57
66
45
58
47
19
15
65
45
48
55
61
65
130
146
151
78
71
82
24
16
5
26
17
1
26
15
1
26
11
5
25
6
5
20
8
9
20
10
13
19
12
15
12
16
21
19
22
25
8
18
19
16
25
27
29
36
36
255
255
255
255
246
217
123
134
143
180
208
160
179
137
181
187
234
239
34
35
58
74
69
65
137
155
154
207
195
190
142
132
115
150
140
140
68
52
55
180
164
169
140
157
175
113
105
138
111
112
136
100
103
111
28
42
37
32
29
30
204
186
182
223
221
227
79
92
89
114
99
118
255
255
255
128
110
87
255
255
255
135
127
160
101
66
49
168
159
179
186
208
255
108
105
131
92
63
77
178
170
191
67
51
57
50
52
59
144
136
122
142
145
125
123
119
107
124
140
155
207
235
245
78
15
28
255
206
183
255
171
132
226
164
146
223
167
161
114
98
95
49
105
91
43
93
98
127
88
81
255
232
185
203
173
137
255
255
255
156
159
148
128
102
102
49
48
62
140
107
113
104
127
138
98
117
134
198
197
211
222
227
234
20
44
71
155
192
197
113
169
188
212
243
236
106
149
146
136
153
142
215
247
228
166
186
164
171
182
166
133
127
108
119
107
90
87
93
76
47
86
103
178
146
137
255
255
255
102
180
218
84
63
45
114
70
56
115
79
48
75
45
40
255
255
255
255
255
255
130
173
187
152
187
192
246
254
247
118
152
155
222
243
245
198
209
198
255
255
255
111
116
100
163
186
175
155
172
168
104
119
114
104
130
118
101
112
119
91
115
120
77
43
32
99
184
234
40
90
122
255
255
255
246
255
255
46
42
28
22
26
24
22
25
24
43
29
25
22
10
5
31
14
15
101
87
82
42
32
31
101
91
87
42
39
41
76
79
79
147
124
111
255
255
255
255
255
255
226
214
183
168
137
106
255
255
255
215
239
224
197
150
121
208
220
218
129
119
131
255
255
255
93
108
139
160
176
151
34
20
40
255
255
255
205
210
209
174
169
171
90
109
145
89
91
95
211
212
202
255
255
255
255
255
255
211
255
255
167
194
179
89
118
169
178
150
184
168
144
165
173
100
93
72
49
72
76
89
112
116
98
91
255
255
255
233
191
160
77
106
123
255
217
159
255
229
164
113
77
58
255
255
255
255
255
255
233
179
137
255
255
255
255
241
209
149
115
81
255
255
241
255
255
255
255
255
254
222
225
199
186
222
255
255
255
255
255
255
255
255
255
255
164
187
255
29
66
155
75
48
104
43
37
149
81
133
245
168
211
255
230
250
255
149
175
199
73
105
158
119
127
156
255
255
255
170
165
155
216
216
215
130
125
124
102
77
69
161
146
144
193
187
179
58
60
83
255
255
255
188
232
236
255
255
255
255
255
255
239
250
255
140
132
126
235
213
201
255
255
255
255
255
255
255
255
255
237
255
255
157
183
205
255
255
255
185
196
173
184
231
242
69
99
117
153
187
206
162
193
205
90
102
105
27
25
20
72
68
54
79
81
72
17
32
83
74
130
179
79
68
63
5
46
98
29
37
63
38
18
7
59
52
42
90
72
42
119
138
162
255
255
255
255
255
255
154
135
110
53
30
13
76
50
32
200
192
184
255
255
255
254
254
248
255
255
255
213
226
233
121
146
164
20
33
55
125
87
53
186
142
103
207
166
123
231
199
167
255
255
233
255
255
255
255
255
255
242
242
253
180
172
173
157
154
151
168
149
134
138
118
95
127
177
175
55
132
153
230
176
157
255
255
255
255
255
255
255
255
255
60
65
79
2
10
24
39
34
23
90
65
48
49
34
37
55
41
27
64
48
29
48
32
24
17
8
7
11
2
9
13
7
21
31
24
11
97
112
99
255
255
255
255
255
255
12
25
38
15
19
26
15
25
22
15
37
26
17
36
28
18
45
45
93
100
97
255
255
255
255
255
255
69
65
53
35
33
44
18
8
8
38
26
17
2
7
12
39
16
16
12
41
79
9
10
37
50
71
91
31
60
106
73
108
176
57
90
180
154
157
179
168
144
137
74
71
70
116
118
96
173
169
160
185
178
185
145
146
153
114
123
119
116
133
125
140
153
151
164
170
170
180
186
183
180
192
191
181
202
208
182
204
214
166
184
193
158
174
180
180
192
188
208
209
196
221
218
201
237
234
219
255
254
243
255
255
250
255
255
230
234
237
215
246
243
226
255
255
255
255
255
255
255
255
255
255
255
255
255
255
227
111
77
66
186
175
159
187
166
164
108
100
115
109
100
101
130
141
154
169
156
167
56
56
58
72
69
67
40
43
50
39
39
37
31
26
23
22
17
16
20
15
10
18
16
8
25
18
14
21
14
7
12
11
8
94
125
131
255
255
255
255
253
231
50
58
48
215
157
115
119
62
31
8
25
39
29
34
40
47
41
39
55
45
36
48
34
74
148
234
255
199
210
205
83
83
81
54
70
73
43
69
73
45
69
78
53
73
82
63
81
89
68
86
93
69
89
97
72
89
101
79
100
111
86
115
121
78
105
103
43
40
36
142
154
135
175
179
183
184
189
203
187
198
206
183
193
201
132
147
151
103
101
96
61
67
75
114
126
142
119
131
147
117
127
143
117
123
137
121
125
135
124
128
137
122
129
139
120
133
140
121
136
138
122
134
133
120
129
127
118
123
121
116
121
116
255
255
255
137
127
109
203
181
160
98
96
108
255
255
255
182
215
220
108
108
125
91
128
158
127
160
168
179
130
118
140
141
122
124
144
147
35
73
105
162
148
144
121
148
134
91
96
98
110
124
134
208
213
221
222
232
234
187
195
192
154
151
147
141
124
131
87
96
95
38
61
55
189
183
196
169
140
146
187
200
228
90
127
185
117
76
19
156
191
255
73
125
207
76
75
64
92
80
83
134
137
166
48
21
8
48
35
22
190
187
166
57
69
71
45
31
26
191
213
202
161
203
237
209
146
128
162
110
100
62
79
76
4
74
38
114
68
52
83
67
90
79
55
81
148
178
158
74
90
106
255
243
189
215
137
99
255
255
238
152
110
85
187
156
128
179
166
136
199
170
150
175
166
142
234
197
174
232
187
171
97
110
114
106
96
101
123
128
122
64
31
39
145
127
100
125
111
105
34
53
75
116
127
106
89
90
69
43
32
26
56
88
84
34
21
7
54
25
20
20
48
77
187
169
156
255
255
255
110
157
191
109
88
47
113
83
60
61
41
27
192
146
145
255
255
255
107
184
187
255
255
255
255
255
255
255
255
255
255
255
255
97
87
84
49
71
77
137
161
156
16
18
28
66
103
101
113
141
144
23
55
55
63
76
64
49
69
62
57
84
85
145
141
119
60
93
116
49
107
124
255
255
255
228
255
255
46
34
25
17
11
14
12
17
17
40
33
32
38
28
30
33
19
25
91
84
77
27
25
37
89
76
69
40
30
35
32
49
73
255
245
246
255
255
255
255
255
255
53
76
68
255
255
255
255
255
255
126
153
145
190
164
125
61
78
79
228
192
173
234
235
220
49
46
22
200
204
182
108
69
50
255
255
255
114
127
130
224
220
216
164
149
143
153
116
82
199
159
146
67
52
86
65
56
85
33
46
61
15
56
43
240
255
255
255
233
249
255
218
239
255
177
167
111
69
63
198
160
155
210
172
156
193
192
171
255
255
237
80
117
115
255
212
159
113
74
65
218
204
173
255
255
255
255
255
255
153
114
102
255
255
255
255
255
236
193
177
158
255
255
255
255
255
255
255
255
255
255
255
224
255
255
255
255
255
255
155
144
154
67
69
61
103
117
61
149
160
127
181
198
184
208
215
184
203
186
114
80
72
43
190
178
186
174
171
165
82
101
120
120
121
119
255
255
255
192
158
126
255
255
231
255
228
195
255
255
237
151
174
178
117
133
127
168
141
152
255
255
255
139
111
119
161
153
154
96
127
130
130
121
134
109
105
96
114
87
70
63
39
25
148
120
112
255
255
255
255
255
255
212
253
246
249
251
206
185
155
109
255
255
253
62
76
98
87
91
102
69
99
95
160
175
173
156
177
176
144
159
160
113
130
141
66
102
145
115
182
244
202
255
255
238
255
255
174
214
238
82
104
118
42
57
51
91
130
148
255
255
255
255
255
255
255
247
219
78
55
55
47
41
59
65
59
76
215
210
229
255
255
255
231
230
240
124
111
170
176
144
171
242
218
220
255
255
255
255
255
255
220
239
254
168
205
224
129
167
189
55
103
117
206
206
204
255
255
255
255
255
255
255
255
255
255
255
249
220
187
146
182
143
101
139
116
91
183
181
183
255
255
255
255
255
253
255
255
255
255
255
255
233
243
249
56
75
94
55
53
63
104
79
72
43
47
58
57
74
83
92
121
120
102
130
125
80
103
104
51
66
78
25
35
41
34
32
22
73
87
85
255
255
255
255
255
255
12
7
12
25
32
37
26
32
43
22
38
45
23
51
59
18
45
39
78
101
85
255
255
255
255
255
255
93
99
97
91
101
111
81
100
117
73
95
116
68
105
132
91
128
156
100
134
158
89
102
85
89
119
182
60
82
213
49
86
218
59
103
231
161
188
255
216
221
255
129
135
202
39
49
66
43
37
33
67
56
52
87
71
69
148
127
106
174
148
120
167
138
110
162
133
105
164
134
105
172
137
102
172
133
93
169
125
84
172
128
90
158
117
82
137
99
66
132
97
66
121
86
58
106
72
52
102
67
57
98
66
53
89
59
48
85
67
61
74
46
46
97
85
82
50
32
25
43
14
21
94
108
90
255
255
223
250
197
177
81
84
100
50
49
58
29
34
53
138
131
137
127
131
142
125
112
120
74
82
80
109
116
112
90
104
107
84
102
101
84
104
104
89
106
113
97
110
117
107
114
121
113
120
127
113
126
129
98
116
113
109
145
146
255
255
255
255
255
255
167
111
72
166
119
90
79
45
37
99
78
60
123
92
62
102
74
48
36
26
22
47
8
49
186
255
255
254
255
255
119
108
105
104
97
104
101
94
100
102
91
96
98
97
94
99
106
101
102
101
99
97
87
83
92
78
73
97
77
77
98
76
80
82
78
79
50
60
55
33
38
17
56
46
31
81
64
72
45
32
28
41
29
18
37
28
15
31
22
21
35
43
48
21
17
16
15
6
4
20
9
5
22
5
7
17
12
14
8
22
21
12
21
19
8
24
25
11
35
41
24
41
51
23
41
51
24
42
50
29
43
50
255
255
255
123
160
175
204
255
255
255
251
255
255
255
255
150
159
137
126
112
81
136
144
134
248
244
239
180
222
219
235
215
203
246
255
253
158
154
153
246
242
235
123
168
154
169
161
153
140
147
129
214
178
182
255
255
255
255
255
255
255
255
255
206
221
219
151
173
174
133
153
162
161
181
196
182
199
220
56
68
68
160
212
255
31
48
89
185
202
255
163
170
193
195
155
147
174
136
147
21
33
92
105
74
17
118
98
67
157
153
114
80
57
42
35
45
63
152
156
131
202
238
255
144
116
147
26
41
51
97
161
84
93
195
138
147
208
161
10
124
103
143
94
100
144
150
115
75
90
96
231
217
160
188
129
93
255
247
203
118
120
119
53
52
47
66
22
20
110
60
51
58
71
60
30
56
67
107
142
146
170
212
210
193
223
216
216
251
247
246
255
255
255
255
255
255
255
255
255
255
255
255
255
255
255
255
255
247
255
255
233
246
228
222
223
199
234
228
213
181
192
194
164
162
158
218
255
255
129
144
168
160
131
73
122
100
71
34
25
16
255
229
250
179
206
239
209
127
102
255
255
255
255
255
238
255
255
255
244
255
251
212
235
223
202
215
208
210
225
214
176
213
204
154
188
185
163
178
175
107
109
110
118
115
117
125
125
126
241
239
231
255
255
255
255
255
255
143
195
195
255
255
255
205
242
236
51
31
28
45
40
37
39
44
48
47
45
51
47
48
53
44
52
46
87
90
83
41
46
52
83
80
78
142
162
223
255
255
255
255
255
255
255
255
255
107
99
57
194
205
215
255
255
255
255
255
255
206
208
192
255
255
218
168
155
125
238
189
135
155
150
135
116
97
95
171
163
155
159
112
87
255
255
255
111
96
103
204
204
195
20
26
7
45
37
59
164
128
79
123
121
115
58
111
134
16
59
84
34
55
36
255
255
255
255
255
255
242
237
255
255
200
215
186
107
67
255
161
122
255
246
207
119
66
43
255
255
231
18
44
38
255
218
166
153
176
163
255
255
219
255
208
168
255
255
246
185
184
191
255
255
255
255
255
188
255
205
149
255
255
255
204
233
198
255
255
255
250
188
168
255
255
255
139
132
125
147
152
145
142
147
125
181
192
172
136
152
143
141
168
231
141
156
176
255
255
234
233
215
147
109
98
99
183
163
137
94
85
78
92
91
87
255
255
255
181
184
161
255
255
242
193
209
208
201
188
192
162
168
179
81
84
63
208
184
179
255
255
255
236
225
203
255
255
255
254
255
255
225
172
193
143
115
114
32
26
26
111
72
58
220
135
101
192
161
153
152
184
211
51
77
63
238
187
134
157
150
124
255
255
244
255
255
237
71
76
82
44
27
41
139
144
131
255
255
255
255
255
255
255
255
255
255
255
255
255
255
255
255
255
255
255
255
255
255
255
255
255
255
255
168
192
192
240
255
255
255
255
255
255
255
255
99
71
76
56
40
55
50
45
49
43
38
31
187
195
255
255
255
255
255
255
198
255
254
44
182
144
26
66
81
95
43
79
102
34
17
50
116
80
63
176
146
122
214
182
165
248
255
255
255
255
255
182
171
154
163
137
103
209
190
150
218
212
211
147
158
173
158
165
179
123
138
158
153
170
195
255
255
255
255
255
255
93
98
116
255
255
255
255
255
255
255
210
82
241
208
108
255
249
194
255
255
235
255
253
196
255
198
127
229
171
94
226
196
131
249
236
209
255
255
254
255
255
254
255
255
246
255
255
255
255
255
248
81
75
70
112
115
119
129
133
140
121
132
138
120
144
145
106
127
123
116
147
126
255
255
255
255
255
255
255
255
250
255
255
253
255
255
251
255
255
241
255
251
235
255
242
233
255
246
227
255
226
193
226
228
255
148
145
174
107
108
53
124
135
104
118
131
97
81
83
125
133
136
227
110
122
181
70
72
83
49
53
62
29
31
27
71
63
39
33
30
26
15
21
23
34
38
40
26
36
48
18
27
40
16
29
40
18
27
42
27
12
26
47
17
7
46
13
7
28
16
14
12
15
21
23
29
38
30
29
41
10
22
32
27
30
41
54
58
51
14
17
35
70
83
98
70
91
100
65
85
89
87
109
106
255
213
143
191
133
89
152
141
130
183
162
162
137
117
107
35
33
29
78
73
68
85
75
79
101
103
100
91
91
87
19
19
19
19
17
14
21
17
20
16
16
21
10
16
17
10
20
23
13
27
34
13
30
42
31
45
57
65
104
115
210
255
255
217
233
242
118
62
44
83
36
27
63
78
60
191
154
112
227
165
121
210
146
108
115
81
63
22
34
61
187
255
255
244
255
255
94
107
117
89
105
111
85
99
109
80
100
111
85
112
116
94
119
120
99
122
124
98
122
123
92
121
123
88
118
123
85
114
120
99
114
124
48
44
50
103
106
92
146
135
130
165
159
160
188
195
193
198
205
199
169
176
173
113
107
109
34
43
43
108
124
128
118
133
140
114
125
138
114
120
134
115
119
129
115
119
127
113
118
123
113
119
119
116
120
121
122
123
127
131
126
135
133
123
133
127
121
123
255
255
255
109
144
187
218
255
255
255
255
255
255
255
255
98
92
54
69
58
12
108
101
102
210
183
168
166
145
126
255
233
196
149
167
149
49
25
64
208
175
153
255
254
211
173
154
114
174
166
147
150
131
118
171
146
118
221
196
168
254
236
214
255
255
234
255
255
241
255
250
227
196
195
169
255
255
255
136
172
166
237
255
255
218
225
208
239
224
254
69
120
162
112
35
46
99
25
36
179
90
22
13
16
62
255
248
208
255
223
178
168
127
114
20
47
75
107
155
187
58
104
116
92
52
60
141
143
154
155
203
157
77
89
61
114
193
119
48
137
120
51
53
49
218
215
209
228
241
255
255
255
255
217
194
141
221
210
166
149
154
164
135
124
138
72
112
120
201
212
209
155
195
189
52
72
83
100
136
143
109
144
154
133
134
140
149
158
165
103
121
140
151
151
162
134
137
161
51
76
124
64
71
98
28
12
44
25
13
41
19
27
61
34
20
46
98
71
82
95
102
105
50
56
61
170
239
255
177
192
209
217
213
203
176
213
216
158
206
224
198
194
238
161
127
145
255
207
207
248
229
246
255
225
216
255
255
255
89
101
123
144
147
78
94
110
80
89
82
70
64
76
71
106
132
119
117
135
124
85
111
92
104
129
100
164
195
161
255
255
255
255
255
255
255
255
255
141
200
207
255
255
255
188
204
204
33
26
34
35
30
39
9
27
43
13
24
33
4
15
30
10
11
22
74
68
70
24
12
37
141
139
169
255
255
255
255
255
255
221
159
157
115
82
110
86
127
157
81
62
140
255
255
255
255
255
255
167
127
141
255
255
218
122
131
102
162
130
91
102
120
113
121
128
114
212
221
213
186
160
142
255
246
195
163
129
108
87
84
77
134
123
111
93
83
79
77
47
44
53
53
34
93
131
152
49
9
52
24
19
7
255
255
255
255
255
255
255
255
255
243
186
240
110
75
84
137
92
112
215
161
163
110
68
48
255
222
207
27
29
28
255
177
126
251
227
200
222
154
124
82
43
21
163
141
84
86
66
58
255
255
209
255
255
165
255
211
150
255
255
255
103
107
60
232
183
68
111
116
255
161
159
194
25
24
18
72
80
99
68
74
68
123
139
166
146
172
238
169
224
255
126
174
242
255
255
255
255
255
255
35
27
72
165
144
115
28
19
45
91
74
68
255
255
255
255
255
255
135
139
106
255
255
225
224
211
209
100
113
101
59
37
54
122
98
86
255
255
255
74
125
154
153
176
155
214
253
255
255
251
255
194
148
145
15
5
10
142
85
63
217
128
98
145
133
124
151
180
208
108
82
24
255
211
162
110
78
117
237
203
205
255
255
255
255
255
255
199
195
197
120
103
84
102
117
116
111
128
128
84
99
95
102
126
115
171
194
185
143
163
164
129
132
136
205
208
208
255
255
255
255
255
255
255
255
255
255
255
255
178
132
121
39
28
40
29
26
31
18
12
4
5
5
35
98
166
255
215
255
255
255
255
181
255
255
186
255
255
140
148
157
196
204
247
252
223
255
255
138
195
207
67
84
81
52
92
110
255
255
255
255
255
255
25
16
20
127
124
109
132
118
90
203
193
192
230
252
255
117
157
178
134
110
102
255
255
255
255
255
255
255
255
255
185
208
255
165
255
255
255
187
255
255
110
115
255
143
101
255
158
52
182
107
35
64
68
130
37
131
198
38
141
212
19
114
195
23
40
117
60
17
21
122
71
22
153
96
57
241
217
205
255
237
209
126
115
110
91
87
89
87
77
71
84
79
65
75
75
67
74
82
89
121
161
155
255
255
255
255
227
231
59
96
138
60
94
137
74
111
134
84
124
133
110
139
142
134
153
155
126
142
151
27
72
206
177
188
255
183
185
169
208
241
255
255
255
255
255
255
255
255
255
255
200
202
181
190
192
250
170
157
166
184
170
158
193
187
179
209
211
193
210
213
195
196
193
189
194
196
198
210
219
216
224
233
220
230
236
215
237
240
221
245
246
233
241
236
229
233
226
219
244
238
223
250
247
229
244
249
234
254
255
248
255
255
255
253
244
245
232
224
229
251
235
237
255
255
250
255
255
243
255
255
235
255
255
237
255
237
198
132
102
109
109
91
86
3
21
41
157
130
103
89
89
97
96
106
119
107
112
125
89
92
88
131
135
128
102
102
104
94
97
100
95
101
105
100
104
113
94
96
106
85
88
96
89
94
99
92
101
98
80
91
86
78
95
98
184
255
255
169
211
228
20
22
21
4
14
13
142
104
73
182
116
77
88
53
33
193
129
79
155
91
51
7
32
47
136
230
255
212
244
255
95
81
70
53
49
47
53
42
49
50
41
47
38
39
41
39
39
39
41
35
34
36
28
21
31
20
17
30
13
19
30
10
21
43
35
43
32
43
42
152
136
130
73
49
53
61
70
74
63
78
75
60
57
40
57
56
45
110
116
117
139
131
137
29
36
41
16
26
30
10
17
25
7
14
24
4
23
31
11
34
37
15
40
41
22
46
50
24
50
65
22
47
67
23
44
60
30
44
54
32
47
49
255
255
255
131
191
245
102
89
75
255
255
197
140
141
104
33
34
59
136
154
166
216
255
255
55
105
141
132
93
63
154
144
105
17
31
24
14
25
38
91
67
56
233
219
208
211
204
184
213
205
185
134
136
109
92
87
57
81
67
47
112
95
77
120
97
72
96
83
54
72
65
76
239
250
255
255
255
255
130
186
183
255
255
255
206
255
255
255
255
255
156
214
222
173
151
141
126
116
131
163
61
53
192
172
149
255
255
149
44
39
118
147
201
245
222
255
255
191
246
255
146
174
237
130
85
129
22
61
87
99
149
86
15
148
108
77
70
19
149
111
122
146
175
212
200
222
233
17
83
103
208
220
233
164
195
227
255
255
255
160
189
213
222
199
205
255
255
255
255
255
253
255
255
255
98
149
169
124
157
168
167
197
192
219
237
218
255
255
255
255
255
255
255
255
255
255
255
255
251
255
255
255
255
255
255
255
255
249
255
255
214
255
255
222
255
255
255
255
255
242
255
255
163
200
218
179
250
255
102
122
133
255
255
255
255
255
255
255
255
255
207
255
245
170
142
157
240
210
249
115
110
127
255
255
255
203
199
255
90
91
96
255
255
214
217
232
221
133
142
140
77
91
87
88
103
93
109
118
119
104
102
107
84
60
76
147
133
124
243
255
255
132
167
244
255
255
255
206
244
255
255
255
255
255
255
255
255
255
255
255
255
255
255
255
255
255
255
255
255
255
255
255
255
255
255
255
255
255
255
255
255
255
255
255
245
255
193
220
255
255
255
255
255
255
255
254
255
255
127
159
138
255
255
255
255
255
222
80
65
63
248
207
189
107
128
120
193
165
135
174
178
169
185
170
170
255
255
255
141
173
186
160
132
106
255
251
216
189
195
178
251
238
218
225
216
196
201
195
175
194
187
152
244
245
220
255
255
255
255
255
255
255
255
255
247
255
255
255
255
255
212
219
254
29
18
27
163
106
87
176
87
58
39
72
96
255
255
255
148
168
159
253
201
168
255
240
209
74
59
57
79
71
62
205
183
136
186
149
136
255
255
244
255
255
255
255
255
243
255
255
255
202
205
186
184
160
166
116
164
255
24
34
66
64
73
81
47
38
32
194
224
255
179
239
255
158
223
255
173
243
255
145
192
255
255
255
255
255
255
255
44
48
47
184
155
103
56
64
77
56
53
52
255
255
255
255
255
255
168
180
170
48
52
33
138
108
100
50
29
43
75
65
64
67
41
44
255
221
209
57
90
72
119
116
100
154
185
193
255
255
255
222
167
158
40
17
14
118
58
41
223
129
102
198
161
139
158
185
206
33
31
92
255
202
142
255
225
181
97
117
104
67
59
62
255
255
231
255
255
255
104
108
119
235
211
182
255
255
225
255
255
255
233
255
233
124
148
146
116
113
119
112
98
107
101
93
101
192
203
238
243
252
255
213
244
255
255
255
255
120
75
67
18
11
7
15
13
10
10
7
10
20
27
72
41
137
255
65
131
255
105
144
196
255
242
228
255
255
249
255
255
255
255
255
233
255
255
216
255
255
255
168
196
198
147
194
214
255
255
255
226
196
173
179
173
184
107
72
63
18
50
61
164
174
165
255
255
255
255
255
255
255
255
255
46
75
88
188
185
176
255
255
255
255
255
255
66
161
255
102
68
47
153
119
96
227
153
106
255
154
16
239
183
128
194
232
252
203
220
218
198
208
189
205
232
251
228
246
255
255
255
255
255
255
255
255
255
255
255
255
255
255
255
255
151
145
142
72
72
77
29
33
40
32
34
43
30
31
30
35
53
53
114
166
175
255
255
255
255
255
255
255
255
255
255
255
255
255
255
250
255
246
238
255
246
239
255
255
240
255
255
230
232
149
124
13
65
140
160
159
161
200
204
219
255
255
255
255
249
255
255
255
255
242
225
212
130
119
146
89
80
163
58
71
94
29
22
25
91
68
50
124
100
76
133
94
67
130
83
50
108
69
37
90
58
33
95
61
32
108
73
42
117
81
47
114
72
36
102
49
14
82
26
7
52
7
25
46
8
25
56
15
18
60
25
11
55
24
21
43
24
40
55
49
61
21
58
91
62
89
111
28
76
97
53
87
97
151
116
82
117
96
89
204
193
196
203
202
210
120
121
120
43
66
86
76
78
91
164
177
181
34
39
37
80
91
83
30
34
33
24
26
27
15
24
26
17
28
37
24
31
39
20
26
34
21
29
41
24
36
47
26
42
48
55
71
77
158
227
242
162
228
255
21
49
67
17
17
24
165
111
86
196
128
82
20
14
11
181
120
76
187
108
67
26
38
34
98
197
245
195
248
255
111
111
112
80
105
116
89
111
130
98
118
134
103
124
130
109
128
129
114
133
130
113
136
127
112
135
123
108
129
123
103
123
129
109
125
137
90
96
97
123
103
100
72
45
55
26
57
53
50
65
60
66
85
74
58
70
69
46
42
43
121
117
115
132
141
130
138
154
148
132
148
152
129
143
153
122
137
144
119
131
134
122
131
128
127
138
130
134
141
138
139
140
144
142
138
144
143
136
137
138
137
129
255
255
255
226
239
255
139
86
56
209
169
108
57
63
55
75
66
65
222
243
240
145
199
193
165
177
183
171
200
190
135
143
126
120
122
119
137
135
142
132
135
142
156
156
159
185
185
183
134
136
130
57
63
56
35
25
14
43
45
59
32
57
69
10
39
70
133
129
141
255
255
255
255
255
255
255
255
252
109
103
59
215
198
161
255
255
255
255
255
255
153
107
62
152
82
32
168
103
88
81
100
167
255
255
211
147
77
39
255
255
255
255
255
255
255
255
232
96
105
101
227
207
185
113
117
145
155
99
84
85
22
71
31
117
143
154
154
205
133
103
113
225
205
214
255
255
255
255
255
255
249
255
255
227
255
249
255
255
255
255
255
255
255
255
255
255
255
255
255
255
255
255
255
255
91
130
132
35
34
37
43
50
60
17
23
47
44
34
14
67
63
53
43
42
38
8
4
14
29
40
43
65
74
73
90
116
118
119
143
142
98
111
101
97
106
93
138
151
138
128
146
132
185
215
231
253
255
255
84
112
106
228
255
255
255
241
209
255
255
238
255
255
255
255
255
255
121
102
111
49
49
53
218
194
238
191
175
233
255
235
255
255
255
255
111
127
127
191
241
253
183
232
254
87
110
146
39
47
22
58
97
97
21
51
47
122
84
165
255
255
255
255
255
255
255
255
255
186
192
255
255
232
255
255
255
255
255
255
255
255
255
255
255
255
255
255
255
255
255
255
255
255
255
255
255
255
255
255
255
255
255
255
255
133
165
113
232
255
255
255
255
255
255
255
255
255
255
227
255
214
69
255
255
177
136
163
188
125
113
88
255
255
255
255
255
255
255
254
235
255
255
255
255
255
255
223
191
185
255
255
255
255
255
255
255
255
255
255
255
255
255
255
255
255
255
255
255
255
255
255
255
255
255
255
255
255
255
255
255
255
255
255
255
255
255
255
173
255
255
255
255
255
255
235
226
204
106
127
136
25
69
81
255
255
249
255
255
255
255
255
255
255
255
234
253
255
243
233
248
246
83
64
73
205
195
165
76
194
214
239
76
41
255
255
255
255
255
255
255
255
235
194
171
105
222
178
190
81
93
187
29
29
36
104
110
110
109
142
195
255
255
255
244
255
255
185
219
255
143
167
213
54
80
102
255
255
255
255
255
255
111
123
112
163
140
99
78
90
92
73
67
77
255
255
255
255
255
255
255
255
255
255
255
255
227
240
230
232
219
197
141
149
125
125
145
156
251
245
254
76
129
143
178
173
173
255
255
255
255
253
255
152
108
108
63
37
29
72
31
18
187
108
83
166
127
99
178
172
165
113
140
171
94
40
49
255
219
196
255
255
255
255
255
255
134
149
140
255
255
235
255
255
254
186
204
203
170
204
208
255
255
255
255
255
255
160
140
133
115
79
82
110
89
86
102
93
90
123
136
184
143
154
253
55
98
187
224
211
255
116
64
45
12
8
8
7
11
8
7
7
9
22
46
99
15
89
229
46
83
175
15
96
165
87
128
168
255
255
164
160
44
81
135
153
157
171
127
92
255
255
241
255
255
255
255
255
255
255
255
218
179
204
248
183
167
181
139
147
192
168
154
155
170
149
146
191
167
158
255
255
255
255
255
255
255
255
255
48
86
94
255
245
155
255
255
113
155
79
113
139
180
251
154
225
255
178
244
255
255
255
255
255
255
255
255
255
255
80
128
123
31
29
17
36
83
114
53
47
74
137
143
190
153
138
163
176
154
187
255
255
255
255
255
255
255
245
254
68
59
70
103
88
93
102
87
85
51
45
51
16
30
31
116
154
161
255
255
255
255
255
255
100
84
99
41
24
6
20
30
46
63
102
100
129
160
155
195
230
241
255
255
255
255
255
255
165
155
198
118
112
119
104
99
120
171
166
190
71
57
58
94
104
121
116
112
115
118
109
61
88
97
110
187
181
203
186
187
190
198
219
255
255
255
255
255
255
255
255
255
255
242
255
255
214
236
241
227
244
239
233
245
248
229
239
241
229
237
237
235
242
242
255
255
254
255
255
255
255
255
255
255
255
255
255
255
255
255
255
255
255
255
255
255
255
255
255
255
255
255
255
255
255
255
255
255
255
255
255
255
255
241
199
184
21
22
42
65
22
40
51
36
60
100
109
114
36
47
68
143
147
154
38
52
38
129
139
130
99
102
91
93
96
84
100
97
88
96
89
87
84
78
79
87
75
75
93
82
77
97
89
76
96
90
77
116
111
100
176
206
203
230
255
255
109
148
173
7
12
13
153
104
84
194
127
80
41
11
4
154
95
62
202
117
80
67
60
43
114
196
236
217
255
255
123
111
100
43
31
9
39
25
8
40
24
13
35
17
5
33
14
13
36
8
11
35
14
12
25
14
18
17
15
21
14
16
21
18
24
33
27
45
64
87
98
102
158
159
160
187
195
184
203
209
192
188
189
173
188
170
163
187
175
176
136
137
141
68
88
96
42
67
78
45
66
77
47
70
87
49
81
106
58
90
115
63
93
112
58
96
115
62
101
126
68
104
130
68
103
125
74
107
126
89
119
132
255
255
255
255
255
255
185
164
127
127
127
108
12
17
27
160
144
121
255
255
255
158
159
132
255
255
255
196
255
251
117
117
115
130
127
120
106
103
92
74
77
58
66
65
41
77
73
55
72
71
65
63
62
67
48
45
50
35
28
23
21
26
33
25
27
44
255
228
207
255
255
255
255
255
255
125
71
87
39
57
112
60
46
104
86
28
73
113
73
80
146
56
34
125
60
26
144
62
28
137
140
176
255
255
255
99
113
146
255
255
255
203
171
146
138
97
71
133
96
73
255
230
182
95
171
212
172
154
142
108
51
84
110
127
130
255
255
255
158
157
188
255
219
210
209
173
139
204
174
128
114
80
71
147
180
212
186
249
255
164
246
255
255
247
249
95
169
213
255
255
255
255
255
255
216
219
216
55
78
86
55
52
52
70
72
71
62
69
75
47
55
57
45
51
55
46
50
49
37
27
16
23
33
46
26
12
16
51
69
84
31
46
61
22
35
40
39
49
61
107
118
129
255
255
255
203
255
255
110
133
116
255
255
255
255
255
255
215
255
255
255
255
255
255
255
255
82
120
118
99
88
86
203
198
204
154
162
129
179
170
167
255
254
255
254
225
155
255
255
255
255
255
255
255
255
255
118
141
151
205
251
197
156
137
145
72
146
221
114
111
150
183
189
226
70
58
42
96
102
98
60
60
26
84
57
57
99
70
60
91
64
53
86
67
65
72
36
27
72
40
17
99
77
50
110
78
54
48
27
28
178
189
176
255
255
255
180
255
255
6
46
64
177
255
255
137
231
255
157
125
106
241
200
183
175
79
128
189
157
118
255
255
255
188
195
174
255
232
222
255
255
255
197
199
155
255
255
255
255
255
255
248
239
229
119
89
104
133
113
110
130
106
87
158
131
113
222
188
168
255
238
205
245
220
177
217
196
154
216
183
139
196
160
121
149
110
65
172
159
143
255
255
255
255
198
185
235
224
255
98
134
203
255
255
255
255
255
255
104
122
104
87
78
52
127
115
117
98
98
91
78
177
200
145
253
255
255
255
255
233
255
255
144
167
156
202
172
149
29
27
50
190
155
48
133
83
140
60
24
48
45
53
54
63
56
43
255
255
255
255
255
255
76
93
163
116
91
82
56
89
103
255
255
255
255
255
255
222
217
188
118
96
76
176
169
143
144
208
247
255
255
255
228
255
255
25
37
80
144
128
97
241
239
220
255
247
219
196
174
149
154
148
130
167
175
175
164
153
133
106
113
142
255
255
255
255
255
255
207
163
151
73
51
38
43
31
28
36
17
12
171
106
83
101
56
21
181
133
113
255
231
223
255
233
229
58
100
101
186
182
171
255
255
255
209
202
189
200
175
171
165
154
138
113
94
71
135
142
130
255
255
255
231
223
209
92
78
69
85
71
65
15
16
13
56
37
42
139
137
164
238
226
237
117
123
110
255
255
255
146
94
82
15
12
25
8
5
13
7
15
34
13
43
83
16
41
133
30
62
163
5
44
128
13
56
115
255
255
255
255
249
154
255
255
255
75
84
72
192
175
163
255
255
250
250
209
176
91
133
192
204
206
220
173
222
255
255
246
255
130
106
85
74
58
55
100
66
60
162
142
133
255
255
255
255
255
255
253
246
239
250
243
214
255
255
194
255
181
175
61
130
215
49
132
213
26
98
185
70
141
204
255
255
255
255
255
255
155
196
186
18
8
26
17
80
103
29
44
42
142
165
161
202
255
255
222
255
255
167
173
175
255
255
255
255
255
255
91
76
84
130
107
111
135
114
129
158
151
174
116
119
161
106
95
93
255
255
255
255
255
255
255
255
255
255
255
255
241
255
255
255
255
255
255
255
255
255
255
255
255
255
255
241
207
235
148
142
231
94
116
154
18
25
48
143
143
174
52
46
45
51
53
61
43
43
45
148
138
114
145
150
88
147
175
163
62
73
81
186
218
255
255
255
255
244
240
255
230
223
255
172
171
255
48
29
77
63
48
44
93
61
49
97
70
55
87
64
40
87
56
30
93
56
29
80
33
11
69
29
12
73
44
26
69
43
9
61
35
8
61
36
33
49
29
36
43
52
81
25
56
82
32
46
56
28
46
42
230
212
173
255
251
255
255
255
255
255
255
255
255
255
255
144
158
196
57
67
90
151
148
156
88
98
93
144
152
155
119
137
149
131
154
158
140
168
171
142
175
192
137
173
189
148
173
181
168
182
194
173
191
203
164
190
192
144
170
170
84
105
109
166
215
229
161
207
229
15
7
22
108
77
62
184
125
86
123
81
67
147
83
61
173
105
70
90
79
54
115
170
199
182
239
255
171
209
207
195
232
226
206
237
233
220
241
237
225
242
243
226
237
239
224
236
230
219
237
227
222
239
226
227
241
229
225
240
237
217
230
231
191
192
182
131
114
95
77
44
52
43
19
22
80
70
59
32
21
9
67
64
74
44
55
71
61
70
63
177
185
166
222
233
219
220
231
222
227
239
234
227
244
239
224
240
229
225
233
216
227
228
209
227
221
202
229
218
197
236
222
199
248
230
202
255
244
210
255
255
255
255
255
255
111
129
135
78
93
96
125
132
127
255
255
238
255
255
253
145
134
119
255
255
255
255
255
255
14
32
34
13
5
12
22
15
5
33
32
18
32
22
17
20
15
17
21
14
29
26
21
27
16
17
35
11
20
21
4
8
12
52
29
27
255
255
255
255
255
255
59
94
64
255
190
238
127
117
139
147
101
132
49
72
101
71
104
141
93
12
34
125
48
28
124
59
52
143
119
109
255
244
202
255
255
234
255
255
237
165
140
112
77
47
29
156
105
73
255
255
250
161
246
255
252
212
176
76
76
59
199
195
197
255
255
255
163
161
165
221
169
177
77
59
80
50
51
87
167
160
205
39
128
223
137
238
255
24
84
118
255
223
190
165
43
73
255
125
89
255
255
209
255
255
255
102
143
153
27
21
25
22
39
26
40
50
62
43
56
73
29
46
67
29
44
60
53
63
71
42
53
68
33
44
60
57
93
120
36
62
78
5
24
32
42
51
57
230
255
255
255
255
255
75
119
115
77
39
25
255
255
244
255
255
255
255
255
255
87
53
90
255
255
255
255
255
255
163
178
172
255
255
255
255
255
255
226
242
255
77
108
215
64
114
196
79
175
255
77
80
106
255
255
255
129
180
205
185
219
165
70
99
178
90
155
197
85
101
132
47
100
143
192
247
255
233
255
255
185
220
191
10
17
26
24
23
23
47
46
58
47
62
62
33
30
39
18
18
25
99
91
74
253
216
126
255
255
255
255
255
255
255
255
255
78
95
108
80
171
209
185
227
195
99
138
162
205
137
88
206
204
154
255
228
255
255
255
255
255
255
210
125
62
192
255
255
255
255
255
255
195
153
164
255
255
255
249
207
203
224
255
255
247
255
255
98
125
117
28
15
13
48
39
42
46
37
20
67
63
60
66
53
59
87
78
91
93
89
107
62
67
75
116
135
117
255
255
255
255
255
255
60
109
196
208
158
183
255
255
255
255
255
205
255
255
255
255
255
213
255
255
255
255
255
255
224
212
220
54
169
197
219
255
255
100
185
139
255
255
255
200
255
255
19
23
47
198
180
138
224
167
26
107
94
202
30
9
39
99
108
105
74
92
121
255
255
255
145
172
255
145
193
249
50
79
112
212
211
192
255
255
255
255
255
255
60
83
98
143
141
136
255
255
255
255
255
255
255
255
255
255
255
255
255
255
255
163
211
226
63
41
40
90
93
92
73
92
97
80
88
93
21
29
31
211
222
227
255
255
255
255
255
255
212
179
160
28
34
47
51
38
44
37
35
33
9
14
2
182
143
127
104
113
120
96
84
93
219
151
132
255
255
255
255
255
255
66
59
50
217
207
190
215
205
189
225
220
211
176
192
187
129
143
141
126
165
172
246
255
254
178
168
159
69
28
18
99
54
43
86
55
52
20
19
13
182
168
190
255
255
255
176
185
225
255
255
255
255
255
255
169
155
186
80
81
95
74
78
106
75
69
91
65
46
15
36
9
79
8
34
111
86
75
106
255
255
255
255
236
120
255
255
233
255
255
201
125
141
133
3
24
25
209
220
230
255
255
255
47
98
111
255
255
255
249
218
231
76
55
35
10
16
21
28
36
34
43
44
48
255
255
255
255
255
255
61
99
114
98
134
102
255
255
154
255
217
181
3
85
168
8
66
132
6
38
95
8
42
108
255
255
255
255
255
255
224
255
255
5
123
135
53
106
110
131
174
179
213
237
239
255
255
255
255
255
255
215
209
221
179
186
211
255
255
255
134
131
132
146
133
137
52
66
100
145
168
231
250
255
255
246
242
255
197
175
150
169
147
125
255
255
255
255
255
255
242
255
255
157
192
174
57
81
51
81
105
109
174
191
186
145
142
74
135
114
206
167
210
255
54
41
40
138
138
163
65
60
61
38
36
43
19
28
34
106
91
90
96
112
110
179
171
113
210
245
255
242
253
255
117
110
86
169
199
197
195
213
194
196
220
237
193
212
219
255
255
230
255
255
255
230
226
222
216
217
214
225
227
222
239
246
228
254
255
235
255
255
250
255
255
255
255
255
255
255
255
255
255
255
252
255
255
255
255
255
255
255
255
255
255
255
255
255
255
254
116
83
69
114
124
184
202
193
224
151
113
133
170
154
173
194
185
219
181
187
231
179
177
208
45
51
37
136
141
115
143
142
116
144
133
99
154
133
95
149
126
91
133
111
85
130
100
74
144
108
81
157
121
84
154
124
76
136
110
61
125
96
64
151
182
200
158
206
228
10
13
20
51
29
22
145
99
68
187
118
83
174
93
62
114
62
32
72
73
52
93
139
159
113
156
206
80
67
69
69
32
10
60
27
8
57
31
16
63
35
18
71
39
3
70
35
7
63
34
14
63
43
21
69
39
24
71
34
20
61
31
11
35
26
42
106
123
128
139
153
153
145
160
145
188
180
166
180
162
156
171
156
154
171
164
162
190
204
207
99
102
113
14
24
32
9
29
38
26
34
45
32
14
36
28
22
46
21
31
52
15
32
52
5
42
66
10
56
80
16
66
94
24
75
111
39
85
124
255
255
255
255
255
255
10
5
10
63
66
60
251
255
255
255
255
255
208
189
183
48
41
53
255
255
255
255
255
255
22
37
53
40
47
58
24
36
38
23
25
20
32
41
36
56
59
55
49
49
53
34
33
37
18
19
20
11
20
18
26
41
45
68
49
50
255
255
255
255
255
255
117
63
58
205
163
234
97
39
65
187
75
99
67
72
86
43
43
43
69
87
126
16
73
110
79
70
82
155
129
117
117
86
46
201
175
173
149
117
95
85
61
50
21
41
66
112
68
60
255
226
221
255
255
255
255
243
217
54
75
70
58
50
71
251
247
255
47
0
13
241
198
236
182
204
255
147
174
255
99
174
243
94
125
103
162
113
170
255
255
255
255
255
234
196
168
169
140
181
188
255
210
164
255
255
255
182
226
234
24
21
10
33
23
16
8
8
17
26
36
54
36
56
75
45
69
98
49
84
120
48
91
134
30
86
138
37
77
117
15
33
55
41
45
55
254
253
244
255
255
255
234
219
159
80
43
118
187
139
199
186
168
176
102
79
105
255
255
255
255
255
255
255
255
255
255
255
255
255
255
255
255
255
255
154
182
203
160
142
29
119
137
166
48
64
173
119
190
255
110
125
173
255
255
255
210
241
255
103
171
128
94
82
145
68
109
160
76
153
200
226
255
255
206
255
255
230
230
224
235
255
255
53
64
77
12
22
36
54
51
56
32
46
40
52
48
62
120
103
95
255
239
162
255
255
255
255
255
255
255
255
184
255
192
82
255
161
132
255
122
8
255
205
71
170
180
150
125
77
119
255
248
223
255
255
255
255
255
235
223
101
209
38
140
255
255
255
255
255
255
148
255
255
255
221
190
255
207
255
255
255
255
255
255
255
255
173
218
220
10
24
34
21
12
21
56
53
57
80
70
78
46
38
38
15
13
26
34
21
20
54
41
36
255
255
255
255
255
255
255
255
255
255
255
255
44
69
140
255
255
255
191
132
78
255
255
255
255
255
255
255
255
255
255
255
247
255
255
255
244
189
59
255
255
253
255
255
255
255
255
255
188
233
213
40
41
12
255
243
169
141
115
46
95
117
217
54
72
91
99
99
113
255
255
255
255
255
255
169
105
84
70
52
74
113
111
152
255
242
168
255
255
255
255
255
205
106
115
97
157
141
124
255
255
255
255
255
255
248
177
153
238
200
179
255
255
255
255
255
255
33
71
100
38
14
19
65
63
64
175
210
192
255
255
255
255
255
255
255
255
255
191
155
138
11
27
33
55
53
45
2
24
36
56
45
46
42
20
25
178
142
134
180
157
138
178
138
130
179
150
131
255
255
255
255
255
255
150
155
151
112
109
104
188
192
179
184
183
163
126
118
100
50
48
59
129
191
208
255
255
255
212
195
178
139
96
90
111
77
86
77
55
54
32
23
8
223
216
242
255
255
255
115
110
123
239
249
248
255
255
255
255
255
255
255
255
255
242
228
255
174
155
164
144
127
122
110
82
51
67
54
83
255
255
255
255
255
255
247
205
113
168
162
145
255
255
254
255
255
255
255
255
255
210
218
220
255
238
255
71
122
134
255
255
255
235
192
202
44
19
16
93
81
72
114
90
78
98
71
61
255
255
255
255
255
255
147
125
99
170
161
114
255
255
255
255
255
249
60
63
131
15
28
76
7
12
41
23
14
48
233
155
161
255
255
255
255
255
255
22
255
255
92
130
156
191
252
255
175
197
215
183
185
174
162
160
154
175
182
187
104
110
117
255
255
255
187
189
193
138
131
147
102
130
166
149
196
236
199
196
208
224
228
255
219
199
225
186
177
224
128
113
148
199
110
92
113
49
69
247
179
200
249
185
217
179
115
131
116
49
67
229
255
248
175
101
81
185
252
255
80
83
113
118
130
146
76
69
78
25
17
26
17
29
32
73
67
77
49
65
103
51
46
90
245
255
255
205
202
219
254
255
255
255
255
255
255
255
255
255
255
255
243
233
242
188
156
96
197
164
121
129
84
68
117
91
70
98
67
51
72
38
26
62
16
11
63
17
12
73
36
8
81
52
7
78
46
6
73
41
38
83
67
65
45
8
25
39
42
42
5
3
19
47
60
101
96
121
209
56
67
100
112
154
171
223
255
255
255
255
255
199
219
239
97
116
129
193
184
217
107
103
114
85
102
112
91
115
136
99
127
148
93
131
154
78
126
155
73
121
145
79
118
142
108
134
166
130
157
179
142
172
180
140
167
177
93
111
136
140
207
246
123
172
201
36
33
44
7
15
22
41
23
3
78
50
22
79
55
38
44
26
15
29
47
43
112
157
166
159
224
255
117
161
171
130
167
165
145
175
173
177
194
196
186
199
214
168
186
205
163
187
196
167
192
193
164
189
183
168
197
193
178
206
205
173
197
196
151
164
160
140
143
121
144
129
106
69
49
38
73
53
56
34
26
17
32
10
4
34
29
24
178
179
175
173
175
171
154
161
156
162
161
149
158
159
144
122
135
127
129
146
141
142
149
141
145
141
132
149
145
134
155
156
141
155
158
147
157
158
155
175
177
176
255
255
255
255
255
255
14
12
11
71
79
78
255
255
255
255
255
255
184
157
134
109
60
49
255
255
255
255
255
255
15
25
29
1
1
10
31
35
33
32
45
46
42
48
56
17
21
41
28
28
44
3
2
11
8
9
13
18
21
34
24
29
39
57
22
17
255
234
203
255
255
255
30
85
55
183
162
225
117
24
46
230
143
181
74
100
125
44
78
114
91
92
111
76
97
142
85
124
146
191
158
156
14
5
39
174
180
190
71
60
68
47
37
58
8
4
27
43
26
27
150
107
110
239
226
220
129
104
73
53
26
4
111
102
114
167
189
214
142
77
77
255
224
255
168
218
255
160
132
210
65
66
103
58
98
151
157
227
255
152
173
170
143
116
83
75
65
64
73
36
58
255
194
120
255
255
255
184
228
229
14
14
28
11
12
25
26
31
43
11
4
3
10
16
26
33
33
48
49
48
58
35
56
71
23
51
65
22
25
27
26
5
13
140
102
77
255
255
255
255
255
255
192
157
185
166
64
69
255
239
255
50
31
113
255
255
255
255
255
255
222
255
255
94
56
119
255
227
220
255
255
255
255
255
255
147
141
122
255
255
193
50
66
121
188
157
66
198
215
222
169
233
255
242
232
252
157
145
145
117
175
185
164
167
220
137
122
163
255
255
255
255
255
255
139
157
120
255
255
237
170
204
189
73
78
86
89
95
108
87
90
98
73
78
88
89
80
92
213
183
152
255
255
237
255
255
255
237
147
121
149
25
101
163
19
185
221
89
151
255
135
49
255
221
34
255
255
255
229
217
232
255
217
124
219
189
68
76
14
160
124
255
255
181
253
255
79
107
114
168
79
113
167
72
255
121
94
135
142
192
226
87
91
90
255
255
255
167
218
219
27
45
50
40
61
74
29
44
55
26
20
39
60
70
83
25
33
52
44
50
68
25
32
39
255
255
255
255
255
255
99
93
81
255
255
255
60
155
226
255
255
255
158
130
124
255
255
237
235
227
205
215
203
178
255
255
208
255
255
197
242
166
142
192
124
67
227
181
43
158
117
157
80
33
208
89
62
96
255
255
197
182
173
158
100
118
191
92
100
115
14
24
32
255
255
255
255
255
255
149
95
120
217
182
187
169
104
32
218
109
88
255
255
154
255
255
255
255
255
231
103
90
87
255
255
255
255
255
255
133
129
117
197
150
125
255
255
255
255
255
255
84
67
43
95
96
74
255
255
255
255
255
255
255
255
255
198
161
150
91
69
63
0
20
32
32
31
29
25
30
37
66
67
73
78
51
46
52
22
23
120
76
79
239
190
183
199
170
155
142
114
101
141
127
115
255
255
255
255
255
255
120
144
152
19
10
29
89
111
113
184
212
201
255
255
255
255
255
255
255
255
255
215
154
141
87
41
32
60
35
13
57
31
13
47
68
94
255
255
255
255
255
255
104
96
92
120
112
110
73
79
87
255
255
255
255
255
255
255
255
255
255
255
255
184
177
190
124
108
96
169
177
180
255
255
255
255
255
244
134
105
84
93
78
77
166
141
139
236
227
233
255
255
255
255
255
255
232
231
255
125
174
199
255
255
255
241
204
210
42
44
39
141
103
89
50
24
31
51
25
14
238
255
255
255
255
255
104
118
126
68
84
89
255
255
227
255
255
255
190
145
147
8
15
46
9
7
17
33
44
60
170
101
103
255
48
34
255
255
255
255
255
255
214
255
255
255
255
255
180
201
207
133
123
114
105
96
96
143
140
148
138
132
131
255
255
255
247
246
255
151
140
159
205
226
255
255
255
255
100
77
79
64
107
162
78
72
73
58
62
51
4
94
129
138
61
57
165
135
185
113
144
174
122
41
41
196
194
177
255
255
248
252
212
148
58
41
90
146
201
255
76
105
168
91
113
114
84
80
96
12
4
5
27
30
32
52
63
73
12
27
38
53
41
83
133
156
200
177
222
255
252
255
255
252
255
255
249
246
255
229
222
231
149
123
123
68
103
60
204
205
172
114
104
106
98
79
72
143
126
120
144
132
105
140
128
101
144
127
102
144
126
102
131
119
100
119
105
86
96
78
81
100
74
60
170
137
112
221
174
133
213
167
138
150
99
80
17
66
156
152
181
215
238
255
255
236
248
255
241
234
246
244
240
251
220
216
214
150
140
151
41
24
41
104
107
115
105
101
102
109
96
93
124
104
90
119
95
71
78
46
25
43
10
26
37
15
24
31
5
16
25
28
25
24
19
27
96
114
136
213
255
255
105
135
165
36
33
26
18
16
17
21
19
24
14
8
17
5
12
16
14
34
30
102
79
64
132
138
153
255
255
255
190
198
198
44
27
29
58
36
37
36
23
10
44
32
19
41
22
20
29
24
12
38
31
31
60
50
45
57
47
47
76
60
57
81
66
54
58
50
34
51
43
21
117
103
88
49
71
82
95
117
127
143
146
150
143
138
145
106
112
122
106
111
110
80
73
72
10
22
18
18
33
24
71
64
58
32
30
23
57
53
49
27
17
19
12
4
7
22
27
24
8
17
18
18
26
21
32
40
37
35
46
46
255
255
255
255
255
255
32
62
84
36
24
34
240
217
206
255
255
255
184
201
198
160
113
117
255
255
255
255
255
255
18
36
43
7
17
17
28
26
18
17
13
0
28
18
20
23
21
20
24
23
32
17
15
21
22
14
27
16
5
15
21
28
37
48
21
17
255
200
167
255
255
255
58
126
82
179
160
204
148
54
76
207
148
176
34
61
76
84
95
136
120
130
148
88
104
157
78
126
161
166
145
144
96
90
112
153
154
160
27
25
24
13
18
10
17
26
36
26
21
17
59
50
69
177
190
230
82
89
82
42
53
74
107
103
101
103
133
166
127
35
24
255
218
243
233
255
255
121
115
180
138
140
217
99
163
231
88
107
119
89
46
14
100
84
49
59
54
29
112
44
52
255
255
250
255
255
255
106
131
135
86
86
85
89
88
82
72
75
64
58
51
36
46
29
31
17
21
37
60
36
37
15
21
30
14
16
36
21
10
38
38
6
22
255
218
194
255
255
255
159
152
101
130
202
255
170
112
86
172
196
221
238
133
79
255
255
255
193
222
255
107
193
240
27
65
56
93
64
63
145
113
96
151
131
122
222
178
130
255
255
255
76
47
43
250
225
162
191
152
133
197
209
196
170
137
126
76
66
60
165
75
65
150
188
224
255
210
152
255
255
255
240
151
123
255
255
255
255
255
251
50
69
58
38
33
33
63
61
64
50
45
49
79
64
59
216
196
173
255
255
248
255
255
228
255
211
157
126
37
166
8
96
194
20
65
133
18
63
131
39
72
142
255
150
29
255
255
255
219
242
217
46
32
57
68
37
68
132
224
255
244
255
255
165
151
211
177
124
55
255
226
184
255
253
255
181
114
79
47
111
146
104
117
170
255
255
255
153
183
129
26
52
82
36
44
83
37
11
36
62
34
27
46
50
64
13
20
26
33
62
92
44
78
117
255
255
255
255
255
255
69
62
56
255
255
255
124
190
249
255
255
255
110
67
50
200
139
109
206
187
164
255
155
121
255
255
152
255
195
56
244
219
69
236
243
121
243
252
197
255
255
255
171
224
255
58
142
255
219
184
80
202
188
104
54
62
111
53
51
55
186
206
255
255
255
255
209
192
255
96
131
178
132
127
141
128
154
253
138
105
129
168
77
44
255
255
226
255
255
255
90
76
43
255
255
255
255
255
255
255
255
255
255
255
255
253
255
255
168
212
243
36
11
46
164
138
126
255
255
255
255
255
255
89
44
39
44
44
51
48
53
65
38
49
65
10
21
40
34
41
60
38
41
40
44
27
21
15
15
10
25
17
17
67
36
37
82
49
55
37
20
24
8
15
12
219
209
185
255
255
255
255
255
255
176
222
221
255
255
255
255
255
255
255
255
255
255
255
255
173
133
140
82
50
37
9
4
21
26
11
28
32
10
25
132
140
166
255
255
255
168
161
163
48
57
54
55
74
89
153
167
182
120
121
124
113
112
98
127
132
124
231
227
240
227
232
252
154
152
157
214
226
213
255
255
255
214
179
140
44
106
132
91
176
209
50
130
172
41
33
45
81
68
52
109
87
91
85
75
126
211
212
248
255
255
255
228
232
255
65
46
49
84
62
47
85
75
77
81
76
80
182
208
200
255
255
255
167
178
184
51
64
93
181
200
199
255
255
255
255
255
255
170
147
127
83
85
78
140
150
189
157
175
237
118
169
241
255
16
63
255
255
255
255
255
255
255
255
255
194
173
183
60
68
102
73
107
140
118
152
187
115
147
168
243
255
255
255
255
255
143
179
202
190
198
214
255
255
255
105
90
75
79
93
93
62
117
138
98
166
181
108
203
222
126
183
218
160
125
175
98
90
83
173
23
62
117
130
143
145
180
196
61
86
108
47
50
64
50
109
201
99
137
227
74
93
87
105
95
114
19
16
13
33
32
36
44
58
71
57
49
31
62
62
149
30
83
126
149
184
230
178
177
204
130
114
132
110
98
100
114
122
127
114
128
106
201
216
137
190
164
104
17
34
56
22
25
29
97
109
114
119
171
187
85
135
155
48
77
108
61
89
133
67
103
164
101
157
206
255
255
255
255
255
255
255
255
255
118
124
135
74
92
107
152
167
149
183
213
218
206
228
250
193
196
211
137
130
136
123
110
117
91
90
88
113
106
119
55
48
26
59
77
86
89
75
76
19
42
45
37
91
103
31
104
158
71
66
176
107
62
127
55
60
87
56
65
57
68
86
50
147
158
80
166
163
98
25
27
91
228
255
255
158
163
183
24
15
7
13
22
15
35
35
23
55
49
42
69
59
53
59
48
37
141
118
86
76
62
92
255
255
255
255
255
246
40
36
48
18
30
46
30
58
79
62
77
87
56
69
76
44
61
63
34
47
51
41
53
53
32
53
55
43
55
50
14
39
38
48
68
59
65
81
81
145
137
120
123
109
102
127
96
84
126
85
67
107
77
54
103
84
65
97
93
82
114
104
107
118
114
115
139
131
122
108
105
97
57
68
70
74
81
86
68
74
85
60
70
78
79
90
98
87
100
109
71
86
91
55
71
77
61
78
87
255
255
255
255
255
255
65
83
94
48
84
99
162
101
82
255
255
255
190
205
189
243
195
179
255
255
255
201
219
185
9
19
33
33
41
52
39
26
28
7
12
14
17
17
25
2
3
15
17
17
13
17
15
13
9
13
7
22
11
8
45
59
68
62
59
62
255
245
214
255
255
255
123
144
145
201
164
221
155
97
128
115
80
90
45
69
89
112
123
150
106
107
120
119
141
189
67
103
136
107
110
108
91
94
110
50
60
72
193
180
183
255
255
255
255
255
255
193
206
219
8
13
31
255
255
255
95
105
65
146
136
150
70
82
62
73
80
102
18
57
92
188
93
86
255
255
255
148
195
255
163
191
255
75
78
94
76
18
45
147
95
87
114
105
95
62
61
55
196
111
100
255
255
255
255
255
255
28
21
22
55
55
63
51
56
61
40
33
29
37
34
17
24
25
15
22
9
5
60
30
17
34
9
11
27
2
17
7
5
11
54
28
20
255
255
255
255
255
255
28
42
70
29
112
168
126
100
85
31
68
95
226
140
101
255
213
164
255
255
255
255
255
255
179
194
146
66
48
36
21
41
44
21
23
33
255
223
165
255
255
244
97
52
46
170
148
90
240
206
207
247
255
255
188
166
178
133
120
121
210
157
136
120
32
84
255
255
255
255
255
255
200
153
122
255
255
255
255
255
249
19
36
31
33
46
51
32
49
58
50
69
68
172
157
137
255
255
255
255
255
203
156
132
80
218
135
92
121
50
181
5
91
188
2
24
16
4
34
32
3
89
134
255
51
130
255
255
253
255
255
255
60
61
57
21
30
122
255
255
255
226
255
255
109
83
5
239
135
179
255
255
206
255
239
155
255
212
76
171
116
77
230
160
111
255
255
255
255
255
255
205
201
83
73
70
52
37
37
58
34
27
37
37
35
45
26
21
25
33
64
92
78
131
165
255
255
255
255
255
255
110
100
108
210
197
179
226
216
212
175
109
60
25
41
94
165
65
54
198
189
183
111
132
110
161
178
74
201
199
55
255
215
41
218
187
87
245
218
125
255
229
160
227
252
255
219
255
255
184
131
76
187
173
29
34
30
42
106
109
143
255
255
255
255
255
255
97
123
162
133
131
142
179
162
188
34
86
177
130
182
255
63
34
39
255
237
105
255
255
255
191
100
51
157
210
209
234
255
255
255
255
255
255
255
255
193
255
255
134
196
229
51
81
77
247
248
255
255
255
255
117
108
76
46
67
69
22
13
18
9
9
19
32
24
26
50
67
87
27
39
57
28
22
20
41
27
27
12
11
19
2
11
14
9
11
14
22
21
26
32
26
38
7
14
2
24
34
5
255
229
190
255
255
255
194
210
188
255
255
244
232
202
178
132
104
117
50
52
86
55
43
55
20
16
5
23
14
23
8
0
11
42
19
11
125
136
154
255
255
255
164
149
150
113
125
132
133
140
156
112
112
125
39
48
65
58
62
62
107
117
114
200
197
200
121
111
121
204
211
219
113
117
132
255
255
255
255
255
215
187
255
255
138
209
224
151
252
255
61
135
168
21
25
15
46
44
70
78
58
83
154
141
180
255
255
255
255
255
255
59
45
61
17
20
22
46
41
29
78
62
59
150
153
141
255
255
255
255
255
255
110
118
125
69
77
74
255
255
255
255
255
255
168
128
114
35
17
43
94
107
181
111
94
158
118
72
164
120
123
255
224
52
70
255
175
148
255
172
141
172
215
255
255
255
255
255
255
255
255
255
255
255
255
255
255
255
255
255
255
255
255
255
255
255
255
255
240
211
176
165
141
99
142
98
54
187
142
138
195
122
100
159
101
99
161
82
68
100
72
35
46
52
20
45
92
52
125
117
93
207
202
187
93
77
64
61
69
70
72
113
196
153
183
255
53
71
61
118
107
130
36
31
31
29
27
38
42
52
66
82
83
58
31
55
157
158
192
248
206
167
183
146
152
206
91
102
121
23
31
21
1
8
32
106
131
87
255
255
172
169
147
97
15
28
36
21
78
156
48
90
182
113
78
72
137
164
121
51
76
85
66
103
118
50
60
76
76
106
110
255
255
255
86
97
85
255
255
255
110
103
110
48
74
92
148
171
142
224
226
179
188
187
199
164
177
191
130
135
140
92
93
95
59
62
53
67
86
89
136
176
179
177
189
215
90
128
178
181
220
229
236
255
255
191
237
253
192
155
168
184
77
149
235
119
119
65
60
80
67
87
80
108
93
74
151
204
211
161
143
149
245
255
255
217
237
248
44
45
38
49
51
32
61
51
33
63
47
34
58
48
27
66
54
34
130
108
70
86
48
67
255
255
255
255
255
255
147
175
180
175
209
212
158
178
173
126
129
119
130
138
131
156
174
176
163
166
169
111
109
111
76
80
86
91
86
83
103
92
74
104
100
91
68
66
83
103
97
79
50
47
50
65
70
75
107
101
105
113
93
89
63
41
36
59
64
69
111
89
99
56
40
38
25
6
14
11
4
11
16
13
20
50
42
32
89
74
60
95
84
70
147
150
135
209
221
201
197
211
202
130
138
138
88
88
85
255
255
255
255
255
255
73
82
66
96
107
118
84
35
18
255
255
255
141
168
152
255
255
252
255
255
255
80
85
62
27
23
20
23
31
26
56
54
51
25
22
21
9
10
14
12
18
15
7
10
12
9
12
9
13
13
12
16
31
37
98
113
121
126
116
108
255
255
255
255
255
255
88
113
110
111
111
157
63
113
173
24
30
53
73
67
94
111
103
137
86
82
104
133
157
207
110
137
173
123
132
134
115
127
138
89
73
75
255
255
255
255
255
255
255
255
255
255
255
255
219
176
157
255
255
255
8
17
15
230
232
250
111
132
152
57
63
85
42
42
63
35
13
24
210
151
183
94
119
183
131
126
171
50
111
153
34
35
80
164
165
191
62
80
118
48
61
113
254
176
174
255
255
255
242
255
235
31
28
36
41
42
46
31
39
37
28
29
19
30
25
17
26
27
33
15
16
25
35
21
3
25
13
11
27
22
25
28
25
32
104
72
68
255
255
255
255
255
238
72
103
135
86
53
34
69
106
140
102
52
76
168
93
50
49
39
74
187
137
166
255
255
255
255
249
174
152
135
105
81
100
95
193
214
203
255
255
255
204
202
156
96
53
14
59
48
8
233
199
195
200
210
207
159
136
139
116
101
101
200
202
183
203
160
135
255
255
255
139
131
133
255
230
205
255
255
255
255
255
234
32
54
63
27
31
40
21
28
45
13
25
40
255
255
255
255
255
255
46
44
19
70
48
29
212
111
51
118
29
147
3
82
151
19
58
62
28
22
38
18
45
68
199
23
188
255
255
190
255
255
255
88
85
60
118
167
255
255
255
255
101
145
235
54
13
208
255
233
204
255
207
100
174
90
105
237
137
24
197
138
87
243
180
86
255
230
186
255
255
255
255
255
238
201
191
113
54
30
47
46
24
32
24
12
17
32
31
32
45
65
78
209
227
247
255
255
255
255
236
161
123
82
74
151
124
90
220
255
255
240
255
255
255
255
255
179
255
255
188
196
242
255
205
154
240
209
142
200
228
161
255
255
194
215
196
152
66
63
28
103
74
29
111
135
255
235
255
255
158
99
117
160
143
29
53
52
44
121
127
163
249
255
255
224
236
255
64
64
62
68
54
41
192
180
227
64
47
41
109
182
255
85
99
129
255
255
178
255
255
255
186
81
46
216
107
83
178
34
82
119
104
159
45
200
248
55
222
255
28
122
143
39
95
125
255
255
255
255
255
255
48
42
24
43
55
48
38
32
37
32
24
42
48
40
61
69
81
91
39
54
56
41
29
27
35
25
28
11
8
11
4
4
6
0
4
7
9
11
10
28
21
26
31
14
30
22
4
23
123
86
79
255
245
234
219
169
109
255
228
184
120
121
137
58
18
33
34
18
30
38
28
32
26
16
15
27
23
19
16
14
14
37
22
18
64
72
94
219
203
200
230
203
180
194
184
165
253
255
251
255
255
255
253
255
255
147
159
169
148
150
151
175
162
165
41
48
52
53
38
40
112
104
104
173
157
125
255
255
184
168
120
107
45
86
144
133
181
182
184
251
255
12
7
41
30
44
131
63
85
166
119
118
137
255
255
255
255
255
255
80
66
81
38
36
35
10
8
4
56
43
42
104
89
74
130
152
161
255
255
255
255
255
255
135
166
183
255
255
255
255
255
255
206
181
173
95
82
123
112
96
161
152
118
144
122
70
57
51
98
249
37
126
255
27
18
52
48
38
75
255
255
255
255
255
255
198
184
180
122
114
104
83
87
122
247
255
255
109
89
87
149
122
121
128
146
193
78
114
104
246
255
232
217
255
253
186
255
255
142
255
255
148
255
255
156
199
189
84
84
57
120
169
141
108
68
62
191
244
219
255
255
255
249
224
200
243
209
177
191
205
255
240
255
255
19
32
18
111
107
127
46
46
54
12
17
25
44
53
64
91
90
77
30
38
123
187
207
255
193
177
178
76
78
29
55
60
106
71
70
112
14
23
30
71
74
36
244
255
177
241
255
232
115
148
151
82
97
137
112
110
72
52
47
159
147
161
95
108
122
76
108
132
104
98
106
74
90
96
64
255
255
255
220
212
237
255
255
255
151
140
109
204
181
154
193
193
164
255
255
255
236
200
184
139
158
183
118
122
132
102
92
104
71
61
68
54
59
64
209
255
255
255
255
255
195
255
255
255
255
255
182
185
147
255
209
80
255
255
155
93
163
255
244
171
131
169
118
95
102
173
231
54
125
203
156
209
255
74
105
173
255
255
255
239
239
230
41
32
75
22
13
43
7
14
33
6
8
24
36
28
47
51
75
118
110
155
221
141
150
197
158
188
169
255
255
255
169
175
161
156
153
136
136
152
134
121
136
125
71
67
46
49
40
32
99
103
92
52
46
56
53
58
67
41
57
67
40
58
68
64
81
93
57
55
79
74
74
69
94
138
146
60
112
128
41
75
94
32
50
46
47
81
95
119
158
176
99
108
121
47
29
41
100
62
59
89
75
75
78
87
96
67
85
96
47
63
69
49
75
66
216
233
198
251
250
201
255
255
237
247
237
222
155
168
179
255
255
255
255
255
255
67
66
56
99
92
85
98
58
68
255
255
255
79
109
88
255
255
255
214
220
178
59
35
19
55
31
16
46
29
19
65
56
50
54
49
48
43
43
44
41
43
44
25
28
34
27
29
36
5
22
36
59
56
52
142
131
123
220
182
159
255
255
255
255
255
255
28
40
31
95
103
143
171
184
241
161
106
86
89
63
48
128
95
133
130
103
119
178
162
201
255
249
255
255
249
233
255
225
211
111
78
61
255
255
255
141
185
200
183
178
171
196
222
245
207
135
115
152
171
190
171
146
152
255
255
255
92
92
117
65
69
104
36
43
55
30
42
53
142
93
89
139
98
98
139
111
101
96
142
174
92
174
208
210
168
183
139
76
84
146
40
68
255
255
248
255
255
255
189
215
196
23
18
12
26
24
19
28
17
13
2
9
17
31
25
29
25
27
27
11
5
21
21
16
4
4
11
8
40
42
34
58
55
54
166
135
121
255
255
255
197
154
98
136
84
49
115
157
177
21
68
124
107
105
159
143
148
191
31
68
106
148
205
255
228
255
255
200
142
109
207
182
175
199
223
235
255
255
255
241
255
254
31
92
140
118
103
71
32
28
32
220
192
188
197
204
201
154
129
132
87
70
66
159
159
149
137
68
33
255
255
255
105
118
125
255
255
255
255
255
255
194
190
169
29
41
58
29
34
50
18
32
46
16
4
25
255
255
255
255
255
255
45
37
81
108
85
76
211
115
53
112
24
144
4
59
117
63
73
77
64
40
85
64
38
60
142
60
210
255
255
141
255
255
255
130
121
96
217
255
255
186
237
255
35
74
175
254
182
179
255
255
45
197
97
41
64
94
147
143
70
89
119
20
182
134
83
194
80
67
114
255
173
109
255
255
255
255
255
236
47
56
40
21
19
19
26
30
31
52
53
58
53
45
52
255
255
255
255
255
255
255
208
149
188
135
128
208
201
189
255
255
255
255
255
255
255
245
210
255
255
255
255
255
255
130
72
69
180
67
62
61
54
93
94
177
138
211
231
82
163
162
78
186
177
123
160
196
255
149
228
255
140
68
95
139
122
52
41
49
53
123
138
174
254
255
255
200
207
254
36
43
38
18
4
22
175
162
197
110
119
154
69
126
244
198
226
255
255
255
191
189
234
147
181
151
134
212
136
117
207
104
95
196
115
107
169
120
117
152
103
107
121
96
109
114
164
198
255
255
255
255
255
255
26
24
40
12
24
21
9
12
8
26
34
34
45
52
51
58
71
69
33
48
52
19
17
20
12
13
8
4
7
4
3
9
2
6
7
5
10
5
12
14
8
13
27
19
34
25
17
34
69
67
116
168
132
187
156
90
26
172
133
133
46
57
86
41
7
35
28
1
28
18
11
28
4
4
14
17
17
20
31
14
11
39
23
11
15
26
58
99
97
107
188
168
148
189
163
132
159
132
109
190
174
162
255
255
255
255
255
255
218
215
230
129
114
120
62
57
72
98
96
114
89
77
65
36
35
37
156
127
100
187
86
46
114
120
163
146
95
49
255
255
255
132
140
159
104
140
210
99
162
224
223
255
255
255
255
255
255
255
255
62
55
59
38
31
27
27
22
17
45
32
32
114
97
85
82
88
79
190
231
255
232
242
255
216
233
239
255
255
255
255
255
234
58
34
27
19
49
156
16
53
161
7
53
100
45
86
118
67
39
109
22
119
255
5
52
129
36
47
77
255
255
255
255
255
255
82
74
101
86
95
110
53
74
96
255
255
255
250
249
254
255
255
255
255
255
255
255
238
200
255
239
179
241
228
157
218
193
141
78
110
68
116
78
62
169
156
139
207
190
137
99
115
100
255
255
255
255
255
255
255
255
199
255
200
147
255
186
130
245
239
255
255
255
255
52
14
27
96
103
109
66
69
78
18
19
23
59
67
87
85
84
89
3
23
103
137
134
233
164
182
225
172
220
207
87
79
79
155
149
210
97
100
154
118
135
175
99
83
177
138
153
56
224
255
255
255
255
255
232
255
255
176
165
232
75
108
134
128
180
173
205
236
217
255
255
255
255
255
246
141
128
97
74
67
55
165
182
172
171
171
161
135
122
93
92
71
32
208
253
253
235
241
239
145
161
156
78
74
55
4
20
16
32
29
54
71
76
124
176
231
246
255
255
246
179
255
255
255
255
255
121
100
159
181
166
183
248
189
97
255
255
255
116
90
137
255
255
255
255
255
255
255
255
255
255
255
255
255
255
255
255
255
255
125
92
50
44
82
129
74
121
144
83
119
139
52
71
92
41
31
65
76
142
216
190
239
255
255
255
255
102
78
112
237
227
203
231
203
181
143
111
97
39
31
44
18
48
76
28
29
11
73
75
51
150
157
126
97
85
60
40
51
51
54
42
20
35
19
11
31
48
66
96
142
167
219
247
234
255
255
255
255
255
255
255
246
230
147
108
91
97
137
170
235
255
255
214
252
232
204
255
255
136
185
196
107
136
143
71
93
95
35
30
31
67
44
42
180
223
199
255
255
226
51
24
28
42
39
20
147
171
164
255
255
255
255
255
255
255
255
255
32
17
20
42
26
13
171
150
139
255
255
255
84
51
59
255
255
255
101
116
86
81
60
59
80
63
61
85
69
69
109
93
90
130
116
111
129
116
111
122
107
98
119
104
93
121
107
96
120
107
96
135
108
86
151
121
102
255
242
232
255
255
255
107
123
102
72
67
72
166
130
133
254
237
249
139
55
24
128
129
142
142
144
214
170
199
254
104
145
180
192
139
75
182
141
133
255
255
255
57
64
69
255
255
255
130
160
166
97
121
100
122
177
198
72
79
67
54
96
127
255
252
249
185
210
230
17
25
23
39
46
69
12
21
24
31
5
16
170
121
125
124
94
105
145
119
117
107
63
70
164
125
116
118
119
106
71
55
48
133
39
51
255
255
255
255
255
255
104
132
122
19
20
19
8
12
14
18
14
20
16
13
10
35
24
38
22
20
15
3
4
17
21
23
17
15
23
28
46
44
46
22
36
38
170
151
131
255
255
232
168
123
75
190
133
121
138
151
171
102
116
123
32
42
73
150
130
130
113
128
142
255
255
255
255
255
247
197
151
71
99
88
49
138
178
180
139
192
192
113
93
97
62
125
166
134
152
167
31
56
67
185
141
117
194
200
237
178
183
255
100
107
138
189
172
146
128
83
63
255
255
255
120
121
105
255
255
251
255
255
228
97
96
91
22
30
28
24
28
28
22
40
51
44
48
67
255
255
255
255
255
252
67
58
100
132
113
112
210
120
57
111
13
134
2
40
92
80
67
37
21
25
48
77
46
51
102
70
194
255
255
94
255
255
255
81
79
53
207
255
255
44
88
135
35
7
106
255
255
163
255
225
93
51
35
92
14
100
198
85
73
89
122
18
63
102
30
120
43
88
169
110
24
86
255
255
255
255
255
255
137
158
106
64
67
75
62
59
66
39
33
25
35
32
30
202
189
187
255
255
255
255
255
255
28
12
4
252
227
225
255
255
255
244
255
255
88
175
215
247
208
224
255
255
255
151
131
131
168
31
17
42
7
58
87
199
119
245
255
210
159
153
163
24
42
154
67
113
255
55
111
255
168
121
25
134
128
80
43
47
58
158
166
213
255
255
255
162
163
207
49
43
55
10
39
70
168
133
137
127
155
222
31
32
80
245
255
255
255
255
255
134
180
110
118
112
99
83
100
99
69
98
97
104
136
139
132
172
182
156
194
208
149
148
155
118
186
206
255
255
255
241
218
194
39
57
61
15
15
20
15
19
22
32
41
43
34
39
38
44
53
52
28
29
38
2
2
8
1
2
6
2
2
7
3
4
8
14
5
2
44
13
20
84
67
72
140
147
166
174
183
226
132
134
202
36
44
97
53
43
76
49
53
84
6
21
41
24
8
39
31
4
26
27
17
33
31
24
23
43
40
41
44
32
28
39
24
20
9
16
52
15
24
52
60
53
58
133
115
101
135
111
87
91
79
80
140
134
144
221
215
234
253
254
255
155
160
179
90
93
108
107
102
122
66
68
96
8
42
78
80
99
126
175
160
160
183
165
172
99
77
48
215
213
174
255
255
255
255
255
255
255
255
255
255
255
255
255
255
255
199
169
204
57
37
37
41
21
20
68
43
49
15
11
16
118
95
85
136
133
108
120
153
175
140
175
220
158
153
154
255
255
255
148
118
110
15
18
14
17
26
120
19
64
191
3
55
125
5
46
90
35
34
12
38
76
222
15
86
210
33
44
54
255
255
255
255
255
255
86
93
84
72
96
87
53
64
62
203
242
255
255
255
255
202
178
213
255
240
255
165
134
139
106
82
88
185
74
80
242
161
155
18
42
82
62
66
88
118
169
151
192
121
85
255
255
255
255
255
255
255
255
236
161
98
75
112
76
60
110
83
64
214
233
255
255
255
255
89
47
51
79
95
89
69
75
82
21
15
28
64
67
94
79
80
94
19
10
55
132
97
179
195
163
198
239
255
255
175
181
180
163
152
194
231
247
255
248
243
255
164
202
255
135
190
255
159
140
108
255
255
255
255
255
255
255
255
255
131
169
180
67
86
76
106
112
104
242
219
198
232
206
194
231
193
201
226
195
194
186
174
142
139
135
121
75
70
97
123
126
139
220
250
247
255
255
255
255
255
255
142
128
124
65
90
142
189
204
255
205
216
255
103
126
142
166
152
106
149
220
235
232
255
255
114
173
208
35
101
93
127
56
100
255
255
236
255
219
194
255
255
255
255
255
255
136
139
161
231
198
214
108
112
178
230
155
159
184
141
150
87
73
46
83
99
85
69
109
114
111
134
120
43
75
12
130
226
255
148
228
249
133
197
242
255
255
255
125
101
77
223
208
186
255
245
224
165
171
174
150
157
146
189
198
186
204
197
190
255
255
234
215
177
135
107
102
111
58
84
97
70
93
117
131
162
186
255
255
255
255
250
229
199
184
159
255
255
247
255
255
255
235
237
255
164
185
216
250
255
255
135
123
92
210
203
163
255
244
218
228
229
223
191
222
228
189
205
208
64
99
96
245
255
235
176
145
118
198
181
136
168
136
115
48
65
58
255
255
255
255
255
255
255
255
255
25
11
13
122
123
110
237
247
219
106
136
107
226
197
200
195
220
187
9
28
11
29
24
20
31
27
19
32
28
20
39
31
22
55
41
30
65
49
37
67
50
35
78
55
35
107
71
49
128
87
69
110
77
63
96
73
61
255
239
236
255
255
255
108
104
105
133
132
128
139
128
111
196
201
192
183
120
121
210
211
193
144
151
186
225
223
255
255
255
255
255
255
255
126
128
165
255
255
255
166
145
132
255
255
255
245
248
255
86
92
100
193
194
213
122
69
53
116
147
153
255
241
239
122
165
178
14
18
25
27
34
43
19
14
28
61
40
43
179
129
119
15
16
16
145
110
119
144
110
108
104
112
106
45
94
88
91
100
93
50
85
82
255
255
255
255
255
255
72
101
95
32
35
39
7
13
24
4
7
14
24
17
23
25
21
17
20
21
3
27
26
14
30
29
29
24
24
25
55
55
58
59
52
53
161
142
123
255
245
209
255
233
192
239
208
202
179
153
154
182
178
158
61
79
65
75
26
17
154
127
110
255
255
255
255
255
255
127
91
52
142
133
118
225
255
255
202
255
255
217
134
87
215
163
149
255
239
213
125
140
127
61
14
86
205
200
255
255
255
255
233
255
255
192
177
172
100
77
81
255
255
249
27
27
11
255
255
234
255
241
168
72
73
77
76
78
83
60
74
86
27
58
94
95
106
137
255
255
255
237
238
178
106
103
149
145
129
123
224
139
84
117
3
111
3
44
94
48
55
23
62
42
12
49
30
28
79
58
177
255
241
79
255
255
255
69
75
48
216
255
255
32
47
113
170
106
46
255
255
240
186
140
85
3
30
102
16
92
202
14
74
123
17
36
91
14
33
86
2
73
148
25
77
149
255
252
188
255
255
255
226
240
150
39
34
29
36
29
29
16
15
23
24
28
35
100
73
59
255
255
255
255
255
255
15
34
34
173
147
145
255
255
255
255
255
255
60
43
19
252
210
233
255
255
255
52
137
159
115
67
69
186
77
43
189
242
226
218
224
230
217
128
131
255
190
81
238
216
228
119
121
238
185
157
35
129
132
98
38
50
60
217
220
255
255
255
255
90
101
116
51
49
50
12
51
98
169
97
73
125
163
248
14
49
77
186
190
255
255
255
255
117
186
104
60
33
47
66
42
52
53
57
68
73
81
94
135
160
173
160
207
213
176
200
205
137
185
193
255
255
255
163
153
140
52
62
65
11
2
13
30
35
37
37
27
43
30
34
34
32
44
43
19
14
27
0
3
5
1
2
6
1
3
7
1
6
8
49
5
7
117
42
64
228
219
244
255
255
255
255
255
255
255
255
255
93
79
62
39
53
92
24
39
60
17
18
35
23
12
35
32
12
25
36
23
40
34
19
24
40
25
24
46
29
24
34
16
21
20
17
46
12
22
55
8
11
38
43
38
51
109
92
88
126
115
126
127
121
136
84
73
92
121
117
140
152
154
176
112
122
137
103
111
127
103
99
115
80
75
85
129
132
139
157
149
142
74
53
41
66
85
77
135
105
62
255
255
255
255
255
255
255
243
255
209
164
189
118
89
111
70
47
79
56
13
9
99
53
51
42
25
27
58
40
33
85
59
51
196
163
127
164
179
176
141
197
246
150
172
190
255
255
255
164
131
125
10
8
18
11
18
60
18
61
185
10
77
187
7
42
94
11
23
19
47
42
153
19
100
243
18
10
36
255
255
255
255
255
255
83
66
70
66
66
68
65
61
71
123
153
197
255
255
255
244
216
234
82
65
76
103
94
122
127
119
175
244
169
167
244
186
134
24
91
83
61
146
141
145
182
150
135
175
205
255
255
255
255
255
235
203
160
141
58
57
68
31
46
53
46
55
54
192
224
255
255
255
255
113
67
73
65
83
70
44
48
54
52
41
60
36
46
64
73
74
83
40
38
13
193
173
216
255
255
255
208
231
255
115
119
118
59
56
70
232
249
255
255
255
255
216
183
223
117
175
243
255
255
255
188
161
188
167
137
109
255
234
195
184
104
109
65
50
51
198
187
184
255
255
255
155
144
126
141
102
103
47
38
44
126
127
99
202
187
150
159
170
152
168
184
171
140
143
148
170
193
192
255
255
255
239
196
142
173
179
187
214
220
231
128
131
142
126
122
111
67
65
105
15
75
84
93
156
178
116
167
146
156
115
181
126
114
159
249
237
191
140
72
23
255
255
255
255
255
183
90
209
255
255
255
255
134
206
255
255
202
241
132
108
119
205
176
157
103
91
76
12
41
68
130
180
161
89
161
98
149
226
255
160
255
255
77
125
193
255
255
255
132
87
94
144
153
143
255
255
250
255
255
251
55
91
74
255
255
255
159
88
53
216
235
198
228
189
125
99
81
71
72
87
86
63
79
96
125
171
169
198
247
207
79
69
51
135
63
61
81
59
45
247
255
255
248
255
255
185
148
134
129
178
182
154
187
177
115
70
49
194
161
128
220
187
158
184
178
163
255
253
249
144
110
119
136
141
132
144
124
86
58
33
15
164
157
127
54
70
57
194
225
204
255
255
255
255
255
255
69
58
55
201
209
189
189
198
182
73
57
54
235
225
214
147
172
143
35
37
30
17
18
15
18
16
5
14
12
6
7
5
7
3
0
8
5
4
8
3
5
9
7
8
15
10
7
27
3
11
27
16
18
26
53
45
39
236
194
190
255
255
255
163
154
145
140
144
133
147
157
154
151
205
209
239
230
220
166
189
148
20
25
31
21
10
5
255
255
255
255
255
254
239
222
220
255
255
255
100
87
79
161
148
132
255
254
249
214
227
243
226
192
206
71
47
44
147
209
254
254
231
255
190
250
255
26
44
72
5
15
13
25
22
25
70
52
65
188
138
146
196
146
142
82
70
60
236
187
176
186
235
206
194
255
239
161
249
233
128
137
123
255
255
255
255
255
255
108
130
118
76
69
69
59
52
56
58
57
56
67
67
69
60
58
65
44
43
47
22
21
25
18
20
27
24
30
32
53
58
50
55
58
51
46
27
15
206
180
149
255
255
254
223
255
255
168
155
164
222
181
143
182
205
228
255
255
255
255
255
255
255
255
255
212
218
194
68
89
77
49
66
78
178
216
204
255
255
255
255
215
172
108
65
55
255
161
158
172
158
217
38
57
119
220
232
255
200
209
210
208
247
255
111
93
108
109
45
15
255
255
255
43
55
25
255
255
255
248
217
148
18
7
4
33
31
45
29
32
45
31
19
37
182
154
150
255
255
255
152
153
103
161
168
209
130
112
100
241
167
110
132
26
84
2
50
107
4
25
26
4
22
15
7
17
10
64
63
180
255
210
69
255
255
255
72
97
65
255
255
255
133
112
77
255
203
29
255
255
250
80
77
91
1
30
97
14
71
176
36
70
106
30
48
113
40
82
176
7
90
189
11
58
115
202
142
108
255
255
255
255
255
227
7
21
11
25
36
28
23
26
26
17
15
4
125
97
39
255
255
255
255
255
255
252
255
255
69
99
135
255
214
226
255
255
255
255
255
171
255
255
255
255
255
255
126
136
146
109
4
38
97
142
171
170
205
222
188
147
102
255
205
118
255
197
124
255
253
254
130
145
239
181
161
59
114
120
105
77
75
107
255
255
255
231
255
255
25
37
37
54
63
61
12
57
103
173
75
40
115
167
252
1
95
180
93
119
221
255
255
255
218
255
206
67
84
101
39
92
102
42
36
38
110
118
127
182
207
213
158
183
194
204
239
255
130
169
178
255
255
255
83
100
87
47
55
60
2
7
0
31
35
37
36
28
43
34
39
41
24
34
38
10
8
22
1
2
9
3
2
8
1
4
7
4
1
7
81
4
15
195
98
124
255
255
255
255
255
255
210
217
206
255
255
255
144
136
146
24
36
63
20
30
41
17
16
23
17
12
29
24
17
28
36
20
33
31
18
24
27
10
7
26
12
17
17
9
21
19
16
22
18
29
46
7
23
45
11
22
38
38
35
40
32
37
58
18
23
45
14
21
27
28
26
37
77
74
92
59
57
62
79
86
108
91
99
114
64
70
73
61
57
47
111
112
125
69
72
57
25
45
41
149
155
163
184
216
255
72
60
72
30
18
23
19
10
22
40
38
53
42
40
34
70
32
16
108
55
26
62
44
50
71
42
43
42
21
28
144
92
63
185
147
108
147
154
156
179
179
183
207
188
169
149
113
113
20
12
25
9
14
18
12
36
133
4
74
217
2
74
158
5
28
44
56
6
73
21
86
222
44
76
146
255
255
255
255
255
255
64
21
32
49
38
45
42
46
47
84
106
144
255
255
255
255
255
255
5
11
15
24
23
64
97
106
202
241
236
252
223
205
139
94
42
7
148
179
92
166
147
45
255
255
255
255
255
255
119
84
86
64
48
73
42
39
59
37
40
57
43
43
51
178
214
255
255
255
255
127
76
90
64
73
64
10
23
13
36
31
35
10
26
31
65
70
73
59
56
38
220
214
235
255
255
255
133
136
212
47
60
92
2
6
5
97
103
130
255
255
255
255
255
255
138
110
122
255
255
255
255
255
255
255
255
255
202
193
196
180
123
116
95
43
57
218
213
219
233
180
162
136
142
132
184
142
156
81
69
84
24
18
34
117
114
76
184
185
177
255
252
248
255
255
255
255
255
218
255
255
208
214
141
94
255
240
239
255
255
255
247
237
255
32
20
33
104
145
171
87
111
116
49
98
114
68
96
255
218
147
255
238
129
107
221
219
246
128
77
25
255
255
255
255
253
169
75
222
255
251
255
255
127
150
209
253
255
255
52
58
69
244
212
210
76
62
69
91
38
24
31
119
142
110
255
209
218
173
241
126
255
255
120
115
182
255
255
255
77
47
32
112
88
72
149
152
146
255
255
255
84
94
104
255
255
255
195
113
73
169
173
125
255
226
161
75
70
70
38
37
42
25
39
54
107
163
144
122
188
142
161
11
30
221
72
77
233
85
91
46
85
89
132
125
107
222
243
233
89
149
148
255
255
255
133
82
89
97
71
76
149
111
97
117
102
77
206
206
179
182
139
130
22
46
49
72
88
87
203
187
132
178
127
79
112
106
89
132
118
98
245
221
233
255
255
255
65
54
47
187
185
173
186
205
189
133
159
143
159
160
151
130
142
118
43
50
38
18
18
20
15
15
10
17
15
7
12
12
10
17
17
15
15
15
11
9
9
9
7
4
8
3
4
5
13
5
11
7
9
16
21
24
33
158
128
135
227
240
255
192
212
244
191
211
245
230
228
248
183
195
184
255
255
255
174
212
177
44
59
67
70
69
77
255
255
255
166
193
173
255
255
240
216
250
243
76
84
101
4
10
16
146
114
119
213
203
208
125
79
78
114
116
117
255
255
255
254
219
217
255
255
255
76
154
208
33
81
123
71
89
131
104
113
143
72
90
103
84
77
83
255
255
237
204
176
156
155
195
182
181
225
207
201
213
195
255
193
178
255
249
236
255
255
255
87
111
91
96
83
66
98
83
66
92
78
61
96
83
66
100
87
65
110
98
78
118
105
92
124
112
106
170
157
145
197
186
171
176
158
143
152
137
131
97
80
80
255
255
246
204
255
255
123
125
132
157
119
120
255
255
255
255
255
255
255
255
255
255
255
255
15
18
38
166
149
128
255
255
241
255
255
255
255
255
255
251
152
95
163
126
53
203
143
160
238
215
255
35
31
47
255
255
255
131
174
173
184
252
255
31
33
132
99
7
28
255
255
255
65
91
48
255
255
255
255
236
161
62
62
66
22
28
22
6
5
4
27
16
11
240
199
181
255
255
255
58
71
29
190
194
228
112
84
78
254
182
122
138
39
76
3
58
120
3
12
28
1
7
13
5
14
23
54
68
190
255
190
49
255
255
255
65
82
62
246
255
255
120
97
58
255
225
91
255
255
255
22
31
74
5
29
81
10
54
144
40
59
83
17
27
42
43
43
34
5
18
45
10
15
22
104
71
57
255
255
255
255
255
255
38
37
18
15
17
19
27
35
29
107
77
38
194
138
14
112
128
225
255
255
255
255
255
255
255
255
255
130
174
241
251
191
179
255
255
255
173
161
208
246
255
238
162
188
177
124
86
57
154
192
201
110
135
155
42
40
30
135
126
132
140
137
130
255
255
255
97
117
224
192
174
81
89
96
89
95
91
123
255
255
255
163
182
213
46
39
47
59
67
70
30
48
98
178
54
27
96
134
196
20
134
255
17
65
153
244
255
255
255
255
255
100
153
153
89
142
157
90
122
120
125
136
130
137
143
145
83
73
74
210
230
247
109
154
154
255
255
255
41
61
51
50
55
55
31
24
30
29
31
32
27
33
38
41
39
43
22
24
34
4
12
28
2
0
7
4
2
11
2
3
7
5
4
4
93
3
15
255
152
174
255
255
255
142
255
255
255
255
255
255
255
255
92
89
104
15
15
38
16
17
32
11
18
26
12
15
21
15
17
23
21
16
24
14
17
17
10
5
3
10
12
14
7
7
19
14
14
18
22
27
35
15
26
48
8
21
42
22
20
28
10
10
25
34
39
50
44
49
71
24
29
42
39
35
49
14
23
25
85
86
107
83
85
110
49
45
45
50
57
70
104
108
116
81
80
69
37
36
57
166
187
219
121
145
184
38
28
36
21
21
21
15
21
23
7
8
27
27
47
111
51
44
119
45
10
89
47
16
29
58
25
25
56
31
24
101
58
47
150
96
56
114
89
56
97
60
40
106
64
43
86
63
69
25
23
37
3
10
11
5
20
76
5
58
172
3
94
204
1
45
78
55
31
12
21
59
175
51
121
238
255
255
255
255
255
255
56
29
26
46
65
70
36
41
45
66
82
107
255
255
255
255
255
255
31
16
16
21
15
43
102
76
145
252
255
255
255
255
255
194
168
109
255
248
23
114
59
167
255
255
255
255
255
216
48
38
66
25
37
55
28
32
46
26
30
43
29
26
27
181
219
255
255
255
255
129
78
92
76
75
74
3
9
15
34
42
35
7
24
30
68
78
79
62
58
32
184
187
196
255
255
255
162
154
242
20
57
118
17
23
24
12
12
18
117
132
165
255
255
255
255
255
255
125
112
83
255
255
255
255
255
255
255
255
255
164
139
103
43
85
100
148
174
189
255
253
245
175
143
108
124
93
125
40
42
91
68
58
42
71
58
82
70
57
98
53
73
89
115
106
139
176
148
60
225
147
103
122
99
137
88
43
98
255
255
244
255
255
255
255
255
255
36
21
36
165
228
246
175
207
241
183
216
255
255
133
249
255
215
199
224
107
255
53
64
60
255
255
255
255
187
100
61
201
237
150
202
220
2
77
116
188
253
255
49
38
50
197
187
194
87
55
59
122
73
71
123
9
40
127
207
185
121
204
209
168
163
203
255
241
255
228
229
255
42
50
29
56
31
37
57
49
65
253
255
255
207
201
186
255
239
177
192
118
58
104
68
12
255
224
146
111
133
121
58
49
39
55
52
48
72
132
119
23
168
126
50
53
35
89
31
27
138
79
74
175
97
77
9
54
54
255
255
255
18
67
83
255
255
255
165
133
125
23
23
19
92
64
75
49
53
42
187
203
163
208
166
147
67
46
34
138
151
119
218
165
106
68
44
68
72
74
75
131
70
62
207
187
215
255
255
255
33
24
22
122
100
99
202
189
187
236
235
224
200
206
185
118
122
115
41
45
51
15
14
20
15
14
8
14
13
6
4
4
2
4
4
4
4
4
4
8
8
5
12
7
5
16
6
4
2
1
3
10
6
4
11
7
20
79
60
79
185
176
193
177
176
196
189
194
213
145
163
174
65
38
67
255
255
255
178
202
169
32
25
10
33
14
15
255
255
253
102
136
119
177
167
153
182
207
214
145
166
185
35
17
16
31
34
37
175
186
192
167
195
202
255
255
255
135
196
245
239
161
93
224
222
227
77
136
194
84
136
198
226
234
255
255
255
255
253
255
255
125
109
107
255
255
254
143
123
111
104
111
106
70
67
64
255
245
222
247
198
188
255
255
248
255
255
255
41
69
58
45
33
20
56
43
26
53
38
27
58
38
33
76
55
46
90
72
57
102
85
70
117
96
69
142
118
85
95
72
57
113
88
66
150
114
100
193
164
134
253
255
255
139
203
222
79
74
74
57
86
142
252
255
255
145
132
89
28
20
16
59
48
48
123
106
108
70
53
50
125
96
63
198
177
158
132
67
60
186
88
9
107
86
32
255
211
194
219
209
242
26
46
18
255
255
255
144
182
177
198
255
255
72
19
65
72
26
52
255
255
255
54
89
68
255
255
255
255
254
188
69
53
57
44
49
51
17
22
18
18
30
34
194
147
126
255
255
255
252
255
245
117
118
153
99
74
75
255
183
127
132
33
91
4
60
127
3
11
16
2
14
18
3
14
36
51
66
199
255
187
56
255
255
255
58
53
36
176
206
194
172
108
39
255
255
164
226
238
240
7
19
62
4
22
72
9
46
120
19
53
109
29
18
54
24
28
103
4
42
117
14
26
45
57
35
60
255
255
254
255
255
255
77
82
34
27
26
25
33
33
24
192
140
66
110
88
76
255
227
255
172
119
100
255
255
255
255
255
255
255
255
255
255
212
106
255
255
123
228
205
132
255
255
255
255
255
255
143
103
71
251
255
255
131
169
195
143
152
157
143
151
175
211
199
178
255
255
255
29
32
151
201
186
108
64
68
68
91
82
105
255
255
255
157
178
228
63
54
56
58
57
69
50
32
80
173
50
60
77
51
58
28
117
255
36
95
222
169
220
219
241
255
153
127
124
119
168
179
178
121
114
116
77
59
54
62
76
94
97
118
126
161
159
164
115
187
183
224
255
255
18
28
14
28
26
20
56
56
62
21
29
28
23
28
34
35
29
29
21
25
32
15
24
43
5
3
10
3
4
12
1
3
13
3
3
5
77
1
5
255
163
182
255
255
255
85
180
182
255
255
255
255
255
255
19
18
17
1
10
19
8
6
17
8
7
21
7
10
11
4
10
16
14
10
27
8
13
21
4
7
6
7
8
9
6
7
12
9
11
22
19
17
29
19
20
36
14
17
42
25
28
51
13
20
11
41
40
43
36
40
56
56
63
81
17
12
20
25
37
35
68
67
86
86
78
116
4
12
18
27
26
31
59
57
66
66
58
54
73
87
117
186
196
226
110
96
120
37
22
41
21
22
33
17
15
10
36
61
124
77
113
210
74
104
187
42
100
208
16
29
128
52
39
39
62
53
28
52
33
34
109
65
56
90
68
52
51
33
26
82
44
38
59
51
55
30
32
45
3
5
11
2
7
41
6
35
117
4
91
205
2
44
89
43
42
52
41
33
118
42
136
255
255
255
255
255
255
255
77
40
31
92
107
125
26
40
37
41
59
74
255
255
255
255
255
255
71
52
56
25
14
14
88
58
85
255
255
255
255
255
255
255
126
63
255
189
113
237
255
233
255
255
255
255
189
123
18
25
41
16
31
39
13
20
30
6
18
24
22
15
14
188
229
255
255
255
255
126
71
82
91
86
88
8
10
11
38
45
35
12
23
35
80
89
92
51
48
22
117
132
137
255
255
255
227
197
255
13
55
136
29
41
53
13
4
14
24
25
31
230
255
255
255
255
255
255
255
208
142
96
43
170
146
160
255
255
234
255
255
242
255
255
236
241
236
203
239
206
192
202
189
178
78
99
111
152
151
170
52
31
29
111
129
151
104
68
77
44
72
98
11
18
97
110
102
86
148
87
104
144
66
32
80
107
150
53
49
165
255
249
206
255
255
255
255
240
255
174
230
242
255
255
255
255
201
159
255
255
128
172
136
105
222
45
255
52
76
83
255
255
255
234
153
76
57
139
165
132
175
205
50
55
105
146
174
207
139
147
126
140
150
136
66
45
12
26
26
29
112
59
29
154
102
86
83
198
177
189
133
76
199
155
169
59
87
90
142
164
148
114
133
140
82
105
120
78
112
121
86
60
35
109
80
36
123
93
55
119
111
91
188
152
91
86
97
94
78
34
18
65
31
29
34
69
77
39
176
159
182
159
132
201
40
47
125
142
128
162
137
123
134
79
68
255
255
241
117
67
60
254
251
234
255
241
221
84
92
96
133
127
128
67
79
76
175
206
171
180
142
126
34
17
22
128
138
100
151
123
101
82
115
129
119
138
145
113
133
151
189
224
255
255
255
255
11
9
9
10
2
7
22
8
4
29
16
12
23
18
10
15
14
18
4
10
6
4
5
7
8
7
11
11
8
13
12
10
13
12
12
14
12
12
16
14
14
14
12
10
8
10
8
5
15
8
6
9
8
10
24
13
24
32
56
103
56
50
67
11
25
64
37
54
90
57
61
103
121
106
132
255
255
255
190
206
188
53
58
73
80
48
60
255
255
252
106
133
120
129
123
115
208
224
239
200
240
253
25
18
17
42
48
66
255
255
255
255
255
255
151
162
165
127
54
19
255
211
137
151
144
123
24
35
62
163
126
136
255
226
198
189
169
147
255
255
255
127
142
127
255
194
172
110
127
115
62
73
69
84
100
96
222
171
141
224
199
196
255
255
255
222
247
224
44
56
50
28
26
19
26
21
13
21
20
10
16
12
8
14
8
12
12
10
5
20
14
7
24
12
8
46
52
58
82
80
92
63
67
69
29
25
49
112
91
69
154
184
198
48
111
142
72
51
39
79
121
173
220
240
233
78
74
44
54
38
33
29
17
12
57
56
58
95
113
111
157
167
160
234
248
241
255
255
255
255
255
238
106
127
97
255
255
255
164
179
235
103
103
94
255
255
255
80
122
117
178
225
255
88
29
63
229
187
156
255
255
255
88
115
139
255
255
255
255
251
216
161
153
139
132
128
116
109
107
93
108
103
97
81
64
68
221
183
140
255
255
195
73
71
27
63
44
50
246
172
120
149
50
81
2
57
124
2
8
13
1
17
23
2
10
42
49
67
204
255
174
48
255
255
255
59
45
43
159
206
192
208
151
93
255
255
181
177
176
180
8
17
48
7
4
22
8
41
118
3
48
133
8
8
46
2
10
33
6
41
145
11
28
64
27
13
66
255
255
225
255
255
255
109
132
68
42
58
58
22
31
37
248
175
80
133
131
62
255
255
255
139
168
206
129
100
82
170
170
213
252
217
255
255
234
133
255
255
224
255
235
181
255
255
255
255
255
255
87
56
80
255
255
255
199
249
255
102
97
99
169
186
199
234
209
167
255
255
255
87
69
61
190
185
134
48
48
65
62
44
50
255
255
255
200
216
255
62
51
38
53
46
69
40
29
84
127
8
84
128
47
103
126
82
60
164
126
141
255
249
184
255
255
200
190
201
218
156
215
247
128
183
213
123
158
169
124
149
155
146
151
155
76
32
33
180
255
255
154
196
171
38
47
48
39
52
59
57
61
69
24
31
41
21
21
31
16
8
4
26
26
27
33
40
56
17
13
29
1
4
11
3
5
12
3
2
2
41
3
5
255
155
170
255
255
255
117
91
79
255
255
255
187
158
125
13
16
24
4
16
32
13
4
17
4
5
2
13
2
13
4
5
8
14
9
19
3
4
16
8
11
10
9
3
3
0
2
11
3
8
15
6
7
15
14
15
19
17
16
23
24
27
53
19
28
38
51
55
49
48
43
45
64
77
97
29
37
46
15
26
18
47
58
66
94
89
124
31
30
42
41
47
60
72
80
96
80
76
72
110
123
159
205
196
226
86
66
78
31
25
26
23
19
21
13
20
55
76
121
210
79
115
199
57
74
118
60
110
198
71
116
223
28
27
82
43
35
52
13
7
18
77
43
49
90
62
67
56
15
24
75
45
43
45
43
38
31
32
37
8
8
4
9
5
20
8
27
95
4
85
204
3
56
130
21
44
62
55
8
70
21
130
255
255
248
243
255
255
255
85
47
37
127
141
161
28
29
31
25
28
38
251
255
255
255
255
255
120
98
106
12
16
16
50
41
51
255
255
255
255
255
255
109
255
255
163
255
255
255
255
255
255
255
161
146
93
78
16
19
27
18
19
24
11
11
23
7
10
10
19
12
7
191
236
255
255
255
255
122
63
74
104
98
102
17
21
17
31
32
27
20
28
42
89
89
99
36
35
18
59
82
92
255
255
255
255
242
255
11
49
139
33
53
82
11
8
10
15
12
21
180
204
255
255
255
255
255
255
255
215
173
64
108
83
70
39
38
48
74
47
27
161
135
107
143
141
141
202
239
243
255
250
212
8
23
57
159
164
154
84
64
31
155
165
162
133
99
68
132
130
132
85
72
67
92
92
97
110
99
114
123
85
149
81
50
153
40
60
87
92
31
153
255
255
230
255
255
255
194
201
245
255
255
251
255
176
98
255
255
255
255
83
255
225
61
254
42
47
74
207
210
187
255
255
214
179
155
103
160
145
133
164
119
70
193
187
161
229
230
200
199
197
170
185
166
138
184
153
129
163
135
113
140
128
107
68
84
80
151
147
103
228
210
179
214
208
174
213
201
191
178
192
199
155
198
199
139
183
174
138
156
143
137
142
121
140
130
86
141
139
87
120
141
111
36
80
87
17
43
49
26
51
55
39
70
75
68
141
129
238
231
194
62
67
74
223
200
172
49
98
121
158
152
151
205
218
217
150
133
120
157
173
167
255
255
255
54
88
87
164
151
140
147
145
132
151
182
159
189
154
137
40
58
64
124
131
94
105
87
38
77
75
51
124
100
75
112
73
43
252
255
255
255
255
255
26
17
22
27
18
23
29
25
33
32
31
36
26
29
25
17
16
22
7
7
15
8
5
11
12
8
7
12
10
7
11
13
10
8
12
10
5
9
7
10
13
12
21
21
21
26
22
26
19
18
25
16
17
21
32
22
22
56
52
72
60
61
89
31
36
63
48
54
82
37
47
73
107
86
88
255
255
255
219
235
226
24
8
21
219
193
189
255
255
255
165
176
161
105
107
88
255
255
255
220
255
255
17
20
10
124
134
144
255
255
255
236
255
235
53
27
10
255
193
130
230
206
164
69
75
77
53
39
44
224
138
96
227
148
85
59
49
14
217
168
169
254
248
224
176
151
135
84
128
115
48
41
38
78
97
88
88
110
114
212
241
229
194
223
202
109
136
118
28
37
38
14
12
15
18
15
17
14
14
17
11
9
15
5
4
7
8
9
8
12
13
10
8
13
19
14
11
26
15
12
11
7
13
10
15
20
30
152
130
109
132
171
195
13
67
109
90
61
34
91
133
182
215
227
208
50
56
31
10
13
10
13
14
14
5
10
6
10
14
8
41
39
21
77
62
42
122
86
61
255
255
218
190
194
156
255
255
255
119
156
232
82
82
101
255
255
255
93
112
122
229
255
255
108
96
137
243
191
150
255
223
176
185
161
141
255
255
236
185
167
134
181
154
120
151
130
92
115
90
50
89
56
25
72
48
26
153
137
109
251
255
232
55
85
91
97
17
41
255
168
93
187
68
60
4
54
116
2
2
18
1
24
35
49
28
25
105
83
186
255
118
43
255
255
255
116
109
80
214
239
215
255
207
100
255
247
123
114
94
104
22
45
72
39
81
108
42
76
138
17
52
148
5
44
87
5
35
85
5
58
176
6
16
61
2
15
38
255
243
199
255
255
255
177
203
109
99
105
85
41
51
78
225
156
98
205
224
179
217
160
125
138
138
194
101
122
143
76
98
144
80
94
223
226
176
90
215
185
143
117
97
66
255
255
255
255
255
255
21
37
63
232
229
224
255
255
255
32
20
34
170
185
204
151
121
84
255
255
255
154
121
97
164
169
154
47
37
54
25
11
19
255
255
255
239
252
255
49
39
30
58
65
68
60
74
101
11
65
134
144
83
164
252
121
32
255
195
94
255
255
147
255
177
104
185
32
33
184
108
85
176
167
169
167
166
176
117
118
123
66
37
33
32
112
117
235
255
255
71
87
68
76
82
82
92
96
107
85
94
103
34
36
47
31
37
41
14
25
26
5
5
2
29
34
43
29
29
41
4
1
9
3
4
6
5
3
1
12
0
8
233
182
188
255
255
255
132
78
74
255
255
255
104
78
62
13
14
30
16
20
32
14
5
22
2
7
5
12
6
12
10
7
18
16
12
24
6
5
12
7
7
10
8
6
10
3
1
4
3
8
11
2
2
6
10
13
22
15
15
15
20
19
36
20
24
39
44
56
56
85
89
102
33
41
53
69
86
103
7
14
21
30
38
41
89
92
122
42
34
41
25
16
10
77
73
96
73
65
57
140
145
185
199
185
220
44
37
50
10
12
14
10
10
13
42
65
118
91
150
255
84
103
169
39
31
24
66
86
160
80
111
170
31
73
132
41
65
130
31
32
69
51
44
79
89
93
156
28
52
143
71
70
125
28
26
22
25
24
24
5
5
5
5
10
5
2
29
82
2
67
178
2
65
158
5
53
85
54
29
24
7
111
245
251
214
190
255
255
255
86
52
40
129
141
159
10
5
8
7
8
10
204
211
242
255
255
255
168
150
164
11
17
25
22
17
19
255
153
183
255
136
161
255
187
46
255
211
63
255
255
99
255
214
70
49
39
53
27
20
40
11
10
22
10
11
19
7
6
13
15
16
6
193
238
255
255
255
255
124
64
76
115
112
117
12
21
17
10
10
7
35
33
55
88
77
91
21
21
3
24
42
62
255
255
255
255
255
255
32
56
136
29
59
106
28
23
32
15
13
20
164
186
252
255
255
255
255
255
255
195
166
84
162
134
141
179
169
159
176
177
175
149
148
153
135
138
144
227
238
216
213
214
195
123
134
136
114
132
123
101
107
87
172
197
196
205
175
133
109
119
151
71
52
53
52
56
66
106
109
116
117
91
96
78
74
173
52
71
177
18
68
132
134
20
100
255
255
255
255
255
255
255
246
248
209
217
213
255
255
159
110
48
198
75
114
172
55
104
110
102
123
125
225
215
195
255
255
223
252
234
199
213
193
149
154
151
121
148
142
123
144
141
127
163
161
143
183
179
155
171
168
145
122
117
100
60
56
45
75
80
57
144
140
118
153
147
132
115
112
108
93
98
91
96
102
90
91
99
87
95
103
88
120
119
96
137
127
98
127
114
89
94
84
79
70
61
61
63
54
54
54
48
51
47
43
38
91
93
75
246
210
168
86
60
39
221
190
156
44
42
51
100
92
80
145
148
139
103
89
66
98
125
119
255
255
255
128
138
130
214
186
172
177
173
151
168
170
163
168
143
115
28
35
32
113
106
82
117
103
63
103
89
52
73
63
43
39
32
29
255
255
255
255
255
255
41
41
41
22
22
22
11
11
11
7
7
7
13
13
13
15
15
15
26
28
27
26
32
29
22
30
26
18
26
22
15
21
18
15
19
17
18
22
20
25
27
26
32
32
32
33
33
33
31
31
31
30
30
30
31
31
31
24
24
26
8
8
14
4
4
7
10
8
2
11
12
9
103
78
68
255
255
255
206
228
219
196
169
150
255
255
255
243
246
234
54
56
41
96
89
89
255
255
255
203
246
240
10
9
12
200
218
224
255
255
255
129
151
126
65
39
18
255
226
160
236
202
145
38
28
41
91
74
101
246
161
111
144
80
6
67
81
99
45
100
105
41
39
51
47
53
45
92
140
138
24
49
53
27
59
62
101
150
159
60
87
76
36
54
30
28
35
26
19
19
19
12
12
12
12
12
12
18
18
18
24
24
24
32
32
32
37
36
34
35
35
29
25
29
22
24
24
26
29
20
24
29
23
25
29
28
34
181
156
136
114
165
191
44
43
77
105
62
27
96
141
189
229
233
198
50
54
41
0
10
23
8
8
13
14
7
10
24
15
5
31
14
2
28
18
10
33
36
30
200
157
133
252
231
201
255
253
255
123
160
238
81
79
93
255
255
255
78
31
26
255
255
255
66
104
162
163
161
144
255
255
255
255
255
255
219
220
199
72
88
88
27
40
50
21
32
44
19
29
41
20
30
42
15
25
40
189
188
173
226
255
255
62
94
122
42
94
138
255
159
101
192
39
108
1
44
103
2
6
3
2
36
54
124
76
23
161
69
123
156
65
85
255
255
250
164
134
103
246
251
227
255
224
101
214
131
58
108
110
116
255
255
255
255
255
255
255
255
255
111
80
86
2
55
89
3
41
69
7
84
204
13
31
118
92
36
36
255
234
182
255
255
255
228
246
172
126
113
96
98
84
94
83
64
104
134
92
63
148
127
66
14
33
46
71
62
84
48
32
18
59
46
172
161
120
86
97
97
72
59
58
42
255
255
255
255
255
255
79
36
3
251
227
209
255
255
255
126
144
155
225
238
255
109
79
65
255
255
255
164
132
174
125
145
158
27
18
26
10
17
46
255
254
255
255
255
255
45
44
65
64
57
63
41
43
53
51
73
102
105
142
204
108
130
199
131
99
119
147
127
142
123
209
232
120
237
250
77
171
197
28
81
104
50
61
72
91
94
108
17
34
42
55
144
140
248
255
255
87
88
92
130
141
154
132
138
154
89
96
105
24
24
26
27
27
33
31
31
41
29
29
33
12
12
18
30
32
39
13
15
11
3
1
11
7
5
10
3
2
11
221
198
198
255
255
255
196
172
160
255
255
255
43
37
34
11
17
32
13
15
25
4
9
26
5
5
11
11
10
14
12
10
16
17
17
17
9
9
8
8
8
8
7
7
7
4
5
4
2
7
13
2
2
1
8
12
24
12
12
13
15
12
22
21
18
27
31
35
34
104
112
127
52
53
54
100
106
118
65
76
86
18
16
17
78
83
112
30
33
43
20
17
21
95
87
107
59
51
42
165
164
209
177
164
201
21
18
30
4
2
13
3
1
4
70
105
182
115
162
255
81
63
84
23
66
132
89
118
196
32
36
43
27
48
77
55
92
161
47
66
119
32
47
93
112
122
203
54
64
127
122
135
238
42
51
86
14
16
20
11
10
8
4
1
11
4
23
65
2
52
149
2
71
170
3
54
97
59
49
30
11
84
219
255
197
160
255
255
255
79
47
40
118
119
138
15
10
31
2
4
8
159
167
190
255
255
255
216
199
225
4
10
19
13
12
13
255
208
223
255
255
255
88
255
255
255
222
255
255
255
203
138
87
66
16
28
42
26
22
46
4
10
11
14
12
17
8
5
15
15
19
5
189
233
255
255
255
255
135
75
85
122
125
126
5
14
17
8
14
16
31
33
39
73
64
76
19
22
22
1
17
37
255
255
255
255
255
255
69
71
121
17
67
130
43
46
64
4
8
8
127
152
199
255
255
255
255
255
255
160
141
59
70
43
103
60
38
56
77
56
53
73
56
42
38
31
33
150
162
144
184
186
171
86
70
66
81
96
89
117
110
85
205
229
229
244
208
171
86
97
129
49
27
49
31
31
42
116
120
131
115
110
131
71
37
50
61
85
213
6
48
107
74
36
144
113
56
16
125
103
87
155
116
113
174
228
255
255
255
255
145
127
74
27
21
32
42
37
42
46
43
46
72
72
64
144
133
107
153
144
116
107
94
73
51
47
36
49
45
35
56
52
42
69
65
51
72
68
52
67
63
45
60
57
42
54
54
45
62
61
55
79
74
73
86
79
82
79
74
71
67
63
53
55
51
41
46
41
36
42
36
32
58
52
44
83
76
71
89
81
83
73
65
69
58
50
54
52
45
46
49
44
41
41
41
38
88
92
77
211
192
162
193
178
156
193
179
144
83
78
64
98
97
84
106
108
101
57
51
39
43
64
65
201
202
181
208
204
192
196
175
159
135
132
111
156
147
122
87
72
41
16
24
14
66
62
45
112
108
90
107
105
84
75
74
49
77
78
47
255
255
255
255
255
255
43
36
46
47
39
46
48
40
44
47
39
43
40
32
36
33
25
29
41
33
37
57
49
53
63
55
59
56
50
53
45
43
44
33
33
33
20
20
20
15
13
14
14
12
13
4
4
4
8
8
8
11
11
11
10
10
10
14
14
14
11
11
11
16
16
16
17
17
17
20
18
21
140
112
102
255
255
255
110
144
136
255
255
255
255
255
255
58
66
53
13
11
13
122
111
105
255
255
255
176
222
220
20
10
38
234
254
255
255
255
255
83
98
77
27
12
1
235
184
136
255
255
198
82
69
29
139
108
144
255
214
168
86
67
71
93
102
150
141
132
118
160
164
144
125
106
93
122
151
159
111
111
97
92
65
62
136
158
154
81
85
91
83
88
97
74
75
81
67
67
67
65
65
65
72
72
72
75
75
75
69
69
69
58
58
58
47
49
48
36
40
38
32
34
33
27
28
30
20
24
20
19
19
10
66
55
45
241
228
210
116
158
177
83
46
43
76
27
40
134
172
194
201
199
157
32
35
27
24
25
16
26
25
28
27
28
20
26
29
14
19
25
17
13
21
15
9
17
13
53
40
43
103
89
77
151
143
189
130
143
194
72
73
59
157
150
184
178
208
255
220
255
255
34
23
65
81
64
68
89
70
57
79
61
44
51
43
30
28
28
20
24
24
18
22
20
19
19
14
13
16
14
8
17
18
18
255
255
246
250
255
255
163
126
121
217
160
149
255
109
123
142
26
184
7
25
80
1
11
31
1
39
56
154
91
36
163
66
63
137
84
75
255
236
173
64
12
60
191
184
153
255
176
45
170
117
18
255
247
255
255
255
255
255
255
250
255
255
255
208
173
108
5
82
148
3
26
57
2
72
164
22
70
213
216
114
48
255
255
240
255
255
237
124
141
94
105
89
43
80
70
56
76
77
103
73
94
132
42
60
106
48
59
36
53
43
24
54
59
89
77
50
106
101
30
145
189
125
53
199
162
100
255
255
251
255
255
255
30
38
34
255
255
255
255
255
255
148
139
111
255
255
255
191
171
154
178
190
255
204
154
193
126
146
161
27
15
19
18
26
58
235
230
255
255
255
255
63
70
113
63
61
79
56
49
77
60
58
83
140
131
172
231
217
255
255
255
255
255
255
255
255
255
231
255
253
226
129
174
171
92
120
127
89
113
119
86
93
107
33
60
71
95
168
157
245
255
255
92
91
99
32
38
37
48
45
54
41
44
48
10
10
10
5
8
11
14
17
25
22
24
29
18
18
18
18
18
26
19
22
12
7
5
11
10
7
7
5
4
12
177
167
165
255
255
255
173
165
149
255
255
255
11
22
33
8
24
36
7
8
22
3
13
26
2
6
8
7
7
7
7
8
6
18
18
18
4
5
4
5
5
2
2
2
4
3
3
4
1
3
14
2
1
6
2
7
20
11
12
19
15
13
22
18
17
25
16
18
20
84
85
96
130
129
148
46
38
39
138
137
157
28
30
31
83
84
117
39
49
62
35
41
62
115
108
139
54
49
58
183
177
229
143
134
163
10
11
18
5
5
1
7
7
21
96
128
224
119
146
240
32
56
109
95
130
200
72
78
101
22
45
77
17
42
82
56
89
152
61
94
171
19
25
68
98
107
175
65
57
70
92
109
196
78
92
148
16
18
28
14
11
10
1
2
11
3
16
60
6
42
136
5
78
178
2
53
106
55
66
76
17
52
179
255
199
136
255
255
255
64
47
48
99
97
108
31
32
53
1
6
8
118
127
145
255
255
255
255
239
255
21
8
13
8
11
12
244
241
245
255
255
255
159
149
125
255
255
255
255
255
255
96
60
74
10
19
40
21
23
35
11
11
11
13
11
14
7
4
14
15
18
13
175
218
255
255
255
255
153
93
99
123
132
129
7
7
16
17
26
25
19
21
22
68
63
72
44
47
53
15
1
14
225
239
255
255
255
255
121
85
101
3
58
137
48
69
99
8
4
14
77
104
136
255
255
255
255
255
255
163
147
83
88
67
61
22
38
96
36
44
49
34
38
52
22
28
45
87
105
94
151
174
156
57
63
61
85
120
116
108
113
87
189
205
197
255
255
255
187
167
148
42
39
15
42
48
69
116
128
145
117
108
124
70
48
52
54
53
128
12
85
158
80
40
92
42
1
31
12
26
36
61
61
68
83
109
126
255
255
255
255
255
255
86
84
72
22
22
26
26
30
18
25
29
19
31
25
15
31
21
24
27
17
18
18
13
18
13
9
12
7
4
8
7
3
10
11
6
6
11
7
13
7
5
10
7
11
10
12
16
12
18
19
11
19
17
6
19
15
5
23
20
13
22
18
10
17
14
10
15
16
10
15
19
7
19
22
14
21
22
19
20
21
19
22
24
17
23
27
16
25
27
18
24
24
19
51
52
43
130
125
104
183
169
143
157
143
114
99
95
77
103
104
87
92
91
78
50
46
41
36
42
46
78
83
76
111
105
97
90
78
67
37
32
32
20
14
7
20
12
29
20
18
18
28
27
25
47
43
40
59
53
49
54
48
40
53
48
35
255
255
255
255
255
255
52
60
48
32
40
29
17
24
17
12
19
13
10
18
14
3
9
5
26
25
25
28
28
28
25
23
24
27
23
25
30
28
29
36
36
36
39
39
39
39
38
38
41
41
41
45
45
45
43
43
43
39
39
39
46
46
46
55
55
55
57
57
57
55
55
55
45
43
42
36
31
30
172
140
126
255
255
255
24
45
36
255
255
255
165
176
152
17
7
18
16
7
11
127
129
114
255
255
255
175
202
209
12
30
64
248
255
255
255
255
255
63
80
57
10
15
25
140
95
61
255
255
222
161
150
100
175
135
161
255
255
224
103
95
60
159
189
215
127
159
171
100
144
167
91
141
153
76
104
122
72
82
83
33
66
62
82
96
91
32
21
13
22
24
13
27
27
30
30
30
30
35
35
35
39
39
39
39
39
39
34
34
34
21
21
21
14
12
12
13
15
9
16
27
19
15
15
18
18
19
15
17
26
17
104
86
85
216
222
200
61
52
66
173
189
246
153
189
255
94
131
143
143
126
89
92
93
112
88
88
101
80
78
70
65
67
48
53
60
50
55
64
64
59
67
65
54
54
52
49
46
43
45
45
51
96
101
161
94
124
208
132
157
237
225
232
255
255
255
255
224
237
255
114
124
122
49
59
48
44
51
38
42
46
34
38
39
32
29
29
23
17
17
12
7
7
5
7
5
3
11
12
4
69
66
56
255
255
255
255
255
255
123
89
95
129
61
45
104
57
179
95
59
211
23
11
58
0
12
39
0
34
57
132
65
16
248
139
23
255
227
157
235
237
193
97
153
177
141
178
183
255
227
173
151
142
52
255
255
255
250
255
255
123
75
47
255
255
255
255
245
200
2
62
111
2
57
105
2
22
68
106
102
232
255
255
207
255
255
255
151
215
168
23
51
47
12
12
8
13
17
17
17
25
19
8
4
12
58
54
110
12
12
104
91
80
47
42
43
77
87
82
18
43
38
185
81
33
86
109
44
20
255
251
192
255
255
255
180
119
60
255
255
255
255
255
255
109
87
61
255
255
255
191
158
127
255
247
255
153
107
123
151
169
173
37
29
36
24
38
67
183
177
196
255
255
255
117
128
191
48
55
61
75
68
92
82
75
102
68
59
72
86
71
83
125
100
113
174
133
135
211
152
138
254
255
255
167
218
199
86
95
90
87
93
98
80
86
91
63
76
73
142
200
189
222
255
255
31
27
32
46
50
49
67
64
72
38
40
40
4
5
5
0
2
4
4
6
12
10
12
14
15
18
24
14
19
22
11
18
8
4
4
9
5
6
3
4
4
12
143
145
143
255
255
255
146
153
142
255
255
255
4
18
31
10
29
44
6
6
16
1
14
17
3
5
9
2
3
2
3
5
1
16
16
16
9
7
14
4
4
6
3
3
7
3
3
5
1
3
14
2
4
13
1
4
14
2
7
19
10
8
24
16
16
22
11
16
9
38
37
41
147
138
161
89
89
99
139
131
166
58
63
70
73
65
105
55
58
83
71
75
98
142
137
172
74
77
97
172
170
214
102
94
105
8
8
12
1
3
9
16
19
46
100
124
214
79
104
161
83
87
139
69
64
81
32
7
18
31
49
80
42
55
106
35
36
75
74
95
177
21
48
97
50
54
83
73
67
75
59
72
125
61
84
144
36
34
52
16
11
17
0
4
6
6
15
59
5
31
118
6
73
174
4
55
124
42
87
123
37
23
118
255
210
127
255
255
255
51
39
48
64
63
66
50
55
76
3
13
11
86
101
109
255
255
255
255
255
255
55
39
47
5
4
10
170
179
185
255
255
255
255
220
196
255
255
255
255
255
255
77
45
69
12
21
43
28
25
33
14
8
14
13
9
11
7
5
11
12
13
13
159
200
255
255
255
255
174
115
117
120
132
128
17
13
7
25
37
32
6
4
14
42
43
44
64
70
73
28
20
10
164
189
247
255
255
255
182
116
102
22
32
102
45
81
128
21
17
30
42
64
94
255
255
255
255
255
255
151
141
118
142
126
11
42
26
74
8
17
17
9
12
20
5
8
11
67
80
79
140
173
155
154
183
163
154
179
162
87
92
70
84
73
62
144
143
110
212
225
192
102
88
69
37
44
53
108
110
123
106
87
100
60
44
41
39
8
45
13
49
80
74
46
38
43
37
57
20
31
46
28
33
37
44
38
49
149
154
139
255
255
255
255
255
255
73
69
65
9
4
11
16
13
11
6
13
2
4
10
14
2
10
7
10
12
11
13
14
12
9
11
8
10
10
16
4
7
14
10
11
20
4
0
17
4
1
13
2
4
6
0
0
0
1
3
5
4
3
7
7
8
4
8
8
14
10
12
16
11
14
14
10
12
6
6
8
10
4
5
6
7
7
10
10
13
10
13
16
7
15
15
14
18
17
16
14
15
18
22
21
13
40
31
18
47
34
24
37
29
26
27
26
27
24
25
20
21
21
14
22
21
20
29
28
22
35
31
20
30
25
24
12
14
12
8
13
8
18
16
23
18
15
23
12
11
14
10
10
13
11
11
15
14
13
22
10
8
17
255
255
255
255
255
255
61
53
55
63
55
53
62
54
50
66
58
54
68
60
56
68
60
56
79
74
68
87
85
78
87
87
79
76
78
69
64
68
58
55
57
48
42
40
33
30
26
20
20
18
13
8
8
7
13
13
13
3
3
3
16
16
16
15
15
15
4
4
4
9
9
9
13
17
15
11
5
11
188
157
148
255
255
255
152
124
114
255
255
255
133
143
116
62
54
47
57
50
40
131
142
121
255
255
255
194
214
216
115
124
150
255
255
255
255
255
211
48
53
30
19
7
17
93
47
23
255
255
199
207
195
140
180
149
151
255
254
210
124
102
46
66
58
78
97
104
84
98
117
100
87
98
86
51
56
50
56
60
53
78
79
76
57
63
60
21
29
27
18
22
24
25
25
28
19
19
19
16
16
16
19
19
19
26
26
26
29
29
29
14
14
14
8
2
9
14
11
10
14
28
24
13
24
29
23
22
30
30
29
37
77
59
63
165
169
145
225
204
212
255
255
255
238
233
248
113
129
169
66
36
34
86
76
69
68
71
73
51
60
57
44
45
47
40
38
39
46
44
41
53
50
42
53
50
54
44
41
45
31
30
32
70
68
92
124
128
176
134
135
189
123
114
142
70
67
73
84
81
82
82
90
84
21
27
25
14
18
19
11
16
14
13
12
10
13
13
11
20
20
22
20
17
21
21
16
22
22
18
19
108
103
92
255
255
255
237
249
240
65
58
62
13
5
11
28
93
202
87
52
200
39
11
52
1
12
30
1
34
61
108
43
20
255
246
109
255
255
182
104
112
100
87
118
142
117
148
159
255
255
255
112
136
96
255
255
255
198
252
255
111
64
59
255
255
255
255
248
198
4
42
91
2
45
97
4
25
25
249
161
137
255
255
248
255
255
225
44
96
71
21
5
19
19
11
21
19
8
15
24
15
18
14
17
14
91
86
147
63
76
171
130
128
111
26
31
32
92
85
32
8
8
140
55
44
104
49
56
58
243
255
229
255
255
255
109
91
76
255
255
255
255
255
255
99
82
52
186
195
208
118
99
78
210
195
240
94
96
58
183
201
198
21
21
31
29
43
62
137
130
141
255
255
255
155
170
233
15
24
26
7
4
11
17
10
13
23
15
18
43
35
57
63
27
12
71
62
79
60
58
78
204
227
236
210
255
250
66
54
49
54
15
12
10
13
14
22
46
54
149
217
219
181
237
240
27
13
17
40
36
29
78
77
83
36
37
38
1
2
5
2
4
10
3
3
5
8
7
5
5
9
11
14
17
15
10
10
13
6
2
15
5
5
5
7
2
16
151
156
154
255
255
255
152
156
154
255
255
255
4
16
25
15
28
46
5
7
10
5
14
6
1
7
9
7
8
10
10
9
12
10
9
12
10
11
15
2
3
4
2
6
8
3
4
8
2
4
13
2
4
15
1
2
8
0
3
15
8
9
24
17
22
27
12
14
11
7
4
2
82
74
89
95
90
102
101
90
115
55
59
66
54
42
65
55
51
67
59
56
72
132
124
154
100
95
107
120
118
145
75
61
71
9
5
13
2
1
12
23
31
69
76
87
159
52
72
105
36
30
32
10
21
35
14
11
22
17
24
37
52
59
111
19
29
43
49
49
96
59
75
128
30
35
57
21
20
38
11
37
90
27
55
114
44
47
77
22
15
29
0
0
5
4
15
47
7
23
95
7
63
163
3
51
128
22
100
156
63
40
42
255
226
138
255
254
246
38
26
32
24
22
22
64
65
87
3
13
16
64
86
87
230
237
255
255
255
255
103
88
100
6
7
10
86
88
99
255
255
255
255
255
247
255
255
255
255
255
255
41
35
51
22
29
41
22
26
28
10
16
16
13
15
15
7
7
8
8
8
4
148
188
254
255
255
255
189
131
133
117
129
125
26
21
14
33
43
37
9
11
9
14
18
25
72
73
72
39
37
29
116
135
195
255
255
255
237
156
127
30
4
40
37
85
153
31
31
50
26
41
76
255
255
255
255
255
255
120
112
127
148
130
33
91
82
57
30
32
34
29
32
41
33
44
49
48
47
56
34
44
43
81
106
93
88
99
97
27
26
35
49
59
53
135
153
136
255
255
232
97
71
52
25
21
24
92
87
98
95
86
108
64
50
40
35
9
38
7
29
56
53
34
31
42
27
58
36
32
49
33
23
39
36
31
37
25
19
42
157
161
126
255
255
255
236
236
219
40
41
27
6
4
6
13
4
7
8
5
2
9
4
13
12
12
21
16
15
18
15
14
16
19
18
22
14
7
12
17
16
22
15
12
18
13
15
9
10
14
4
15
19
9
19
22
14
16
17
15
12
11
11
5
5
14
2
7
11
4
7
13
5
6
9
2
3
10
3
2
8
4
1
10
2
2
10
2
3
4
7
7
9
16
12
16
15
13
16
11
12
11
5
7
11
8
7
8
10
10
11
10
7
15
11
7
15
8
8
1
6
2
2
7
5
5
4
6
7
13
10
6
10
4
10
5
8
10
3
9
8
5
4
8
9
9
8
7
7
5
2
2
0
8
8
14
8
8
8
255
255
255
255
255
255
9
1
5
10
4
7
6
2
2
6
2
5
9
1
3
14
7
4
26
19
15
34
31
25
43
36
32
49
40
37
51
45
40
50
48
41
47
47
39
46
46
38
51
51
43
61
61
53
65
65
58
63
63
57
65
65
63
71
71
71
78
78
78
78
78
78
73
72
72
66
68
70
152
137
133
209
206
175
111
89
89
216
209
180
117
122
114
84
86
87
67
84
77
75
94
89
250
255
255
254
255
244
211
223
213
245
255
255
110
125
90
86
95
90
69
81
77
83
59
45
255
255
172
207
181
119
173
150
140
237
173
124
169
134
106
88
98
79
26
34
38
9
14
25
19
9
10
29
15
14
34
24
24
26
15
22
15
1
11
7
8
4
10
7
8
15
15
15
14
14
14
17
17
17
13
13
13
15
15
15
14
14
14
14
14
14
14
10
14
18
8
18
21
19
26
17
23
29
18
10
21
24
12
22
13
10
12
62
60
49
107
87
96
110
116
173
127
108
181
126
124
169
36
24
53
21
18
20
22
8
27
17
22
21
19
20
18
9
5
14
16
15
16
2
2
11
19
21
12
21
17
16
16
15
16
5
4
6
20
29
16
49
55
36
102
100
77
135
128
111
125
122
109
56
69
50
21
29
26
14
12
19
12
8
11
7
7
4
3
11
4
8
15
11
13
20
17
12
18
17
16
18
23
135
131
115
255
255
255
193
205
195
38
41
40
11
10
25
32
80
170
91
51
191
37
17
75
3
13
14
1
37
65
99
35
29
255
255
154
255
255
180
20
32
14
11
21
25
133
125
107
255
255
255
137
161
137
255
255
255
255
255
255
255
255
255
255
255
255
229
172
136
3
44
121
2
40
89
5
34
49
255
224
61
255
255
126
105
106
56
30
17
31
22
20
13
12
13
21
9
9
12
7
11
14
20
12
26
141
146
224
89
104
219
159
161
143
99
111
118
60
59
52
35
22
131
22
40
81
25
40
27
255
255
255
255
255
255
141
128
100
255
255
255
253
255
255
88
83
71
166
171
186
83
88
86
131
144
226
136
135
57
200
217
218
13
21
37
32
45
59
148
144
168
255
255
255
130
146
193
52
46
66
58
47
80
58
54
93
42
41
80
18
41
106
28
29
95
15
58
108
0
6
5
211
165
164
255
255
255
100
107
113
139
20
34
22
32
46
12
26
26
168
240
250
181
248
255
17
3
9
17
15
18
58
58
67
15
14
20
7
10
10
4
5
4
1
2
6
7
7
4
5
5
5
8
8
8
4
2
9
10
5
19
9
7
14
7
4
15
168
168
166
255
255
255
170
167
171
255
255
255
3
14
19
19
24
45
1
8
3
10
15
12
9
9
17
10
8
15
7
8
5
3
5
1
5
7
11
8
10
14
5
3
7
0
2
2
0
4
10
0
4
18
1
1
5
1
2
16
4
8
22
14
24
32
26
28
32
13
19
28
18
12
12
70
75
86
33
34
49
77
86
108
7
14
8
34
33
42
15
14
26
76
70
95
36
21
36
81
72
98
57
42
57
4
4
8
1
0
10
29
44
85
41
47
97
36
45
94
22
42
74
6
4
22
19
21
47
9
15
32
25
24
57
41
43
83
10
11
25
44
52
90
20
35
58
14
11
23
15
31
78
26
58
120
43
58
104
22
17
36
0
0
8
2
14
40
4
22
82
4
55
149
2
49
131
8
99
165
85
81
52
255
253
157
255
201
163
14
7
5
11
14
15
67
63
86
11
14
25
52
76
76
186
194
227
255
255
255
155
140
162
13
14
16
31
28
38
255
255
255
255
255
255
255
255
255
255
255
247
31
21
39
27
24
34
13
19
16
8
10
13
12
18
15
9
9
11
5
5
1
141
181
243
255
255
255
196
137
145
116
128
124
33
26
26
34
41
31
2
5
17
13
11
13
65
62
66
51
56
50
79
92
142
255
255
255
255
193
163
17
25
20
25
84
161
32
45
76
10
26
56
236
253
255
255
255
255
99
92
127
121
100
41
117
103
46
58
57
53
45
43
36
60
50
55
73
58
67
69
60
60
76
55
61
44
29
27
58
58
58
18
34
48
174
193
179
255
251
205
66
38
27
33
28
36
67
75
78
93
85
109
79
49
36
32
9
44
9
12
24
39
26
34
26
12
26
30
19
33
43
35
48
32
33
39
15
21
18
22
29
5
200
199
168
255
255
255
174
180
160
19
16
17
9
2
11
15
11
14
18
13
18
15
14
13
8
7
7
7
12
13
15
13
17
17
13
19
15
14
24
6
6
11
4
1
10
4
4
4
10
8
12
4
0
12
3
5
9
3
5
12
8
11
17
1
4
8
2
5
8
3
7
12
5
4
12
4
3
6
7
6
9
3
3
11
6
7
7
12
13
10
18
21
12
21
26
20
20
27
22
15
20
12
12
18
8
11
18
9
8
12
6
5
9
17
4
3
3
4
4
2
5
11
10
22
24
12
16
19
12
3
9
3
4
5
4
5
11
8
3
5
7
2
2
7
4
4
5
6
6
10
8
8
11
10
10
10
255
255
255
255
255
255
11
19
15
11
18
15
8
15
12
2
10
6
1
9
5
2
10
6
6
10
8
11
10
10
13
10
11
17
11
14
22
14
18
19
13
16
14
13
13
22
21
21
34
34
32
43
43
38
42
42
34
38
38
30
42
42
34
45
45
37
42
42
34
44
44
36
54
53
43
57
57
45
66
61
55
133
123
108
70
78
76
99
92
65
119
110
101
113
110
95
111
109
92
90
89
81
85
111
141
181
211
200
141
181
182
94
111
134
88
94
68
92
89
60
103
77
70
161
93
17
255
244
174
144
134
88
200
170
154
181
125
59
97
51
3
83
80
60
21
32
22
26
14
19
34
23
29
32
29
34
41
38
36
48
52
41
60
59
49
80
73
63
90
87
80
88
88
86
89
89
89
92
92
92
86
86
86
70
70
70
61
61
61
72
72
72
81
82
84
66
74
81
41
55
64
24
32
40
14
14
21
9
13
15
14
2
10
10
6
11
38
22
28
95
68
85
113
91
109
49
54
52
36
20
23
32
29
25
30
32
24
13
32
21
16
26
20
9
12
5
20
16
1
27
24
18
31
24
26
15
9
20
9
9
20
21
24
14
21
21
14
15
8
10
17
15
9
19
18
22
17
22
8
2
6
2
7
7
7
13
7
18
10
13
20
19
21
18
16
16
10
8
8
7
0
0
2
8
8
11
19
23
29
162
158
135
255
255
255
152
171
159
30
31
26
23
8
13
62
50
133
87
46
177
17
25
88
2
13
15
3
37
63
108
43
30
255
255
157
255
255
183
9
29
17
7
7
1
189
178
164
255
255
255
103
136
118
134
107
123
254
229
255
255
255
255
255
235
255
112
42
166
11
62
177
2
41
78
4
12
25
255
230
70
255
255
116
83
85
20
41
35
34
11
3
16
8
8
17
8
7
10
4
10
15
48
38
68
160
162
255
46
51
163
120
112
71
82
72
72
33
49
140
47
55
182
85
75
94
86
76
77
196
180
162
255
255
255
173
197
205
235
223
186
255
255
255
191
255
255
226
242
255
154
171
187
185
196
255
142
137
73
195
210
211
28
35
61
58
57
77
147
135
157
255
255
255
98
113
149
65
57
83
61
57
88
78
70
102
97
78
96
66
50
103
2
43
87
5
79
165
27
48
75
177
122
112
255
208
190
126
169
155
129
61
65
47
40
54
21
21
30
168
242
248
188
255
255
11
18
24
17
17
31
38
38
41
11
7
9
2
2
4
3
6
8
3
4
7
2
2
8
5
5
14
3
3
9
2
2
8
4
1
13
12
10
18
8
5
18
178
168
164
255
255
255
165
151
147
255
255
255
26
23
34
23
21
47
7
11
14
15
13
20
4
6
11
1
2
2
3
4
4
1
1
1
4
4
1
5
8
10
9
8
13
0
2
2
1
4
4
3
2
18
3
2
13
1
1
17
1
5
23
7
21
33
57
64
74
40
45
56
41
53
65
64
70
86
54
65
71
86
99
117
73
84
96
9
12
28
27
36
42
123
120
138
72
78
68
110
105
118
26
24
32
2
5
10
4
0
1
43
64
115
25
42
86
6
6
16
43
59
109
41
50
93
66
78
123
73
84
131
54
56
79
28
21
16
18
24
52
13
6
4
35
43
62
8
21
37
9
17
43
35
67
129
43
71
144
17
18
49
1
1
9
2
14
46
7
21
78
7
47
132
7
48
137
5
89
160
104
124
112
255
255
188
247
153
101
18
31
41
30
32
39
60
57
73
26
25
43
44
67
68
146
154
181
255
255
255
203
185
215
14
15
22
12
10
8
255
255
255
255
255
248
255
255
255
255
215
192
20
11
34
17
22
32
7
17
15
8
7
16
11
17
19
15
15
15
5
5
4
137
177
239
255
255
255
203
143
155
115
127
123
42
34
38
32
35
26
20
17
25
32
31
25
48
47
61
65
73
70
37
62
94
255
255
255
255
229
215
7
39
63
10
74
146
31
61
109
2
17
36
222
241
255
255
255
255
94
86
125
79
69
45
110
93
20
61
38
63
12
5
23
21
22
21
25
26
31
31
33
41
33
30
42
11
13
17
18
41
34
36
52
51
236
255
255
255
250
202
38
23
17
33
49
57
67
82
82
94
77
94
75
39
17
26
1
49
12
2
12
45
23
37
29
22
16
24
16
40
25
20
26
27
24
33
42
43
67
39
43
55
66
70
67
247
255
246
255
255
255
113
117
99
24
29
30
26
23
25
20
16
8
8
9
7
4
3
11
6
11
12
3
5
6
4
10
12
3
7
9
10
0
12
4
1
8
3
3
3
3
3
3
8
7
11
8
5
14
4
3
7
5
8
10
7
11
7
9
7
3
8
5
3
6
5
5
6
6
6
7
7
7
3
2
9
8
7
18
13
15
13
15
17
17
15
15
23
10
12
15
9
7
4
12
14
10
9
9
4
6
6
6
8
8
11
5
5
5
2
4
4
15
19
11
16
9
8
5
8
8
5
8
8
5
2
4
7
6
5
5
5
5
4
4
11
5
4
8
4
4
4
6
5
8
12
11
15
255
255
255
255
255
255
22
24
23
22
22
22
22
22
22
19
19
19
19
21
20
18
22
22
13
15
18
10
11
13
11
11
11
4
4
4
8
8
8
18
16
17
18
18
18
19
17
18
10
10
10
10
10
10
10
10
10
8
8
10
5
4
13
5
3
18
8
7
22
11
8
24
21
18
27
17
21
31
27
33
41
78
77
71
122
129
121
122
131
129
80
88
96
54
62
69
51
62
63
43
63
65
39
72
102
67
102
147
107
134
171
123
145
164
99
126
143
34
76
124
102
18
74
228
131
56
219
181
152
21
53
53
229
191
158
208
175
99
112
104
82
68
76
66
28
35
30
25
17
25
28
20
19
31
27
19
30
28
26
21
14
19
13
11
7
20
22
33
24
20
35
29
22
30
40
33
36
53
45
49
60
52
56
56
49
50
62
58
52
80
77
69
92
86
80
106
96
95
112
106
113
113
109
119
112
105
116
111
105
114
108
106
109
92
91
91
73
71
73
72
71
80
81
84
93
85
95
93
86
93
84
79
76
70
63
58
53
51
47
41
40
35
31
26
26
25
19
19
9
20
20
17
19
17
15
12
18
20
10
17
17
18
16
2
20
24
16
25
26
24
14
17
11
14
14
25
8
10
9
5
5
5
2
11
15
17
20
24
20
17
27
8
7
13
11
12
12
14
10
18
12
8
27
21
18
37
27
30
47
176
172
150
255
255
255
120
142
130
35
32
29
41
13
5
67
37
125
71
39
165
1
27
82
1
12
25
1
33
57
127
52
25
255
255
157
255
255
176
14
24
30
18
30
21
220
206
194
255
255
255
101
125
119
48
35
37
79
63
74
44
20
40
22
38
128
29
97
255
19
70
193
2
27
53
5
19
22
255
216
72
255
255
112
99
98
26
27
31
15
11
17
12
22
26
28
25
29
29
32
38
34
91
85
132
137
137
241
70
73
89
89
90
88
43
31
46
71
84
214
50
68
180
10
7
23
10
20
22
83
85
82
186
190
171
240
250
231
174
181
168
72
24
37
176
149
126
100
53
56
132
153
171
167
174
255
129
129
63
174
189
189
42
47
82
60
61
93
128
122
156
206
200
237
74
85
106
47
53
70
35
46
65
41
48
53
99
68
67
107
26
53
13
24
19
13
80
154
119
174
158
205
255
255
129
227
254
136
115
122
102
63
69
44
29
36
24
17
23
157
218
216
190
255
255
17
42
55
10
7
2
26
26
24
18
10
11
6
5
7
3
2
9
2
3
3
3
3
3
1
2
7
4
2
12
5
4
10
4
6
10
11
15
18
7
11
19
147
131
124
255
255
255
61
51
50
255
255
255
94
86
75
18
15
35
13
20
22
12
3
15
6
7
11
2
4
1
1
2
5
4
5
7
2
3
8
3
3
7
8
11
14
2
5
5
3
3
2
4
2
12
4
2
20
2
3
12
3
4
23
7
16
34
74
84
98
42
42
41
73
87
113
8
5
13
105
121
139
39
49
63
117
134
160
17
15
26
32
44
53
157
151
167
26
30
25
154
148
157
12
15
25
6
6
17
8
4
12
55
81
152
36
63
133
49
69
129
61
64
103
59
69
103
29
26
53
38
31
60
31
41
77
26
47
94
38
63
121
39
75
145
15
51
103
15
13
35
27
15
25
46
68
121
61
91
190
34
38
92
2
2
6
1
12
47
10
20
76
1
42
119
11
45
135
3
73
149
121
162
165
255
255
227
232
118
52
43
54
76
41
44
54
56
60
70
33
37
51
36
44
49
118
128
154
255
255
255
243
221
254
1
5
13
4
10
3
188
188
182
253
237
220
236
220
194
172
146
144
6
11
28
14
18
24
11
14
22
6
6
9
8
15
25
16
18
22
3
8
14
135
173
235
255
255
255
211
151
163
111
125
120
52
44
46
32
32
25
37
31
32
50
49
48
24
31
40
80
86
80
14
24
44
255
255
255
255
255
255
39
43
104
20
67
148
28
81
162
5
8
22
209
232
255
255
255
255
99
85
122
43
49
55
105
100
19
84
58
67
10
6
44
11
8
14
21
21
28
26
27
32
22
22
25
10
14
9
5
4
11
29
64
64
255
255
255
252
224
176
6
32
32
44
63
75
70
71
76
86
64
79
61
33
8
23
11
51
9
7
35
50
20
28
28
23
17
24
22
43
22
20
32
28
29
50
38
33
52
65
58
76
69
62
73
140
145
147
255
255
255
247
248
213
56
51
39
15
11
15
7
7
13
5
5
6
8
10
9
10
18
14
12
24
18
13
24
17
14
16
6
9
11
7
10
6
12
8
4
16
8
4
16
6
2
14
11
8
17
18
17
19
25
25
25
19
22
20
6
14
10
3
7
5
10
8
8
14
6
10
14
10
12
14
13
12
15
16
20
11
14
6
4
5
2
10
9
12
14
15
17
7
7
7
7
12
10
3
9
6
7
5
3
10
9
5
8
10
2
8
9
2
12
14
7
8
9
12
11
12
11
7
4
7
4
2
6
8
2
4
12
8
10
14
12
16
12
9
18
6
4
10
6
4
10
10
9
12
255
255
255
255
255
255
12
6
9
17
10
13
19
12
16
20
12
16
17
10
13
13
7
9
10
11
10
6
5
8
12
12
12
11
11
11
12
12
12
17
16
16
20
20
20
15
15
15
9
9
9
12
12
12
13
13
13
9
9
5
10
9
15
13
10
21
14
11
22
13
9
22
20
16
24
24
23
23
20
22
20
23
22
16
30
27
19
36
35
34
37
39
42
31
36
35
32
34
33
36
36
38
33
37
45
37
47
54
52
65
76
47
71
103
58
47
97
166
76
49
213
155
86
181
166
148
55
89
103
56
4
1
209
185
145
214
186
108
41
21
18
21
19
24
22
18
20
6
2
10
17
11
8
28
24
14
27
27
16
36
38
26
53
52
37
70
67
51
78
76
61
77
76
66
82
82
74
87
87
80
85
85
79
71
71
69
63
64
61
74
74
74
82
85
87
65
73
74
37
44
43
17
19
18
11
7
8
16
7
12
8
10
14
9
14
15
14
14
5
26
16
11
33
14
5
40
20
7
59
41
27
79
62
50
84
69
61
93
74
67
106
85
76
105
95
94
98
97
99
99
99
96
102
104
95
102
105
93
97
98
84
79
80
73
56
57
58
43
43
50
29
32
38
13
19
17
12
14
10
8
12
7
17
18
24
19
17
18
20
14
25
18
16
26
18
21
35
27
34
49
32
44
58
35
44
55
33
43
58
191
191
172
255
255
255
95
109
97
53
41
43
34
15
7
62
36
125
76
32
146
2
24
76
1
12
16
1
32
50
141
61
17
255
255
146
255
250
158
33
38
55
34
43
60
251
229
220
255
255
255
96
115
114
33
15
22
46
27
36
42
30
48
20
43
134
28
112
255
31
48
174
1
36
62
5
38
43
255
199
72
255
255
105
118
122
36
46
45
44
43
41
53
31
41
45
31
42
42
27
32
27
133
130
203
75
78
164
131
125
113
125
129
164
84
108
157
61
68
197
31
44
133
32
26
18
44
39
38
54
49
48
63
56
49
72
66
56
82
94
109
108
160
207
129
197
255
157
208
235
145
160
177
88
89
179
130
135
69
155
165
171
51
52
95
86
107
156
175
183
226
162
160
178
36
34
42
35
44
54
42
37
66
21
26
27
86
63
68
122
34
20
34
6
38
23
47
120
212
254
196
255
255
255
178
255
255
83
219
228
27
64
67
43
20
18
37
38
33
83
119
120
224
255
255
200
247
255
78
83
80
19
17
17
22
17
19
21
16
18
20
16
22
25
20
34
46
41
60
68
64
88
74
70
98
73
71
94
75
76
94
83
85
110
81
82
112
108
102
118
255
255
255
110
126
118
255
255
255
197
185
164
23
27
34
18
23
29
7
10
9
3
1
9
3
7
7
3
3
3
1
1
1
2
2
2
0
0
1
2
7
8
8
8
11
7
4
8
1
2
9
3
2
21
1
1
5
1
1
18
6
10
31
58
73
89
69
80
83
32
39
54
57
66
72
99
112
125
40
43
39
139
158
189
60
68
84
36
43
46
147
142
152
39
41
36
144
138
151
12
16
28
7
6
13
4
5
10
56
79
157
50
79
161
8
7
8
16
6
31
51
60
107
96
120
198
108
131
222
99
115
196
84
93
162
73
84
145
74
93
163
68
95
180
48
77
161
21
42
100
36
38
62
69
94
182
57
58
122
1
1
11
1
9
39
8
19
75
3
37
102
7
44
127
1
59
141
131
179
197
255
255
255
222
107
21
59
70
91
44
53
68
65
77
94
43
47
56
22
7
10
100
112
139
255
255
255
255
244
255
31
21
20
5
4
14
85
85
88
140
128
140
117
106
106
90
79
93
8
14
22
11
17
20
12
10
18
6
7
7
12
20
33
20
26
36
11
17
22
132
166
222
255
255
255
214
154
166
106
124
117
60
50
46
28
26
15
51
41
41
56
56
48
7
11
12
88
91
79
39
26
8
255
255
255
255
255
255
92
48
122
24
64
160
17
103
223
4
12
21
195
223
255
255
255
255
103
86
115
33
42
65
107
105
61
108
87
45
37
28
66
31
26
17
27
30
20
20
18
17
18
14
18
24
25
28
18
28
25
54
98
98
255
255
255
209
167
123
35
44
43
49
68
80
64
62
74
92
73
85
66
37
17
16
11
44
12
6
21
46
22
13
17
13
5
23
24
33
38
39
46
43
43
51
31
29
30
32
25
28
44
34
36
76
70
75
240
242
231
255
255
255
143
136
109
21
16
12
18
17
25
20
20
20
24
24
24
28
30
29
26
31
31
14
17
22
14
10
15
7
6
11
5
0
8
5
2
10
7
1
13
7
2
14
13
14
12
19
22
13
16
17
14
20
23
21
16
22
19
10
14
12
13
8
10
10
2
6
6
8
5
4
8
5
7
7
11
5
5
8
4
5
3
5
8
1
4
8
7
5
5
2
9
5
7
5
5
7
11
9
11
7
13
7
7
2
2
2
4
2
4
5
2
1
2
3
1
3
4
1
2
3
2
3
5
7
5
3
9
10
7
12
12
12
15
15
16
11
13
7
12
13
10
15
15
15
255
255
255
255
255
255
8
3
7
4
8
4
10
13
4
11
12
9
9
7
8
10
7
5
13
12
10
14
14
12
18
18
18
17
17
17
10
11
8
7
8
2
7
7
3
7
10
5
17
19
12
15
16
13
17
17
20
17
17
17
20
20
25
23
23
26
24
24
24
21
22
19
14
17
10
8
9
8
4
4
4
2
3
3
3
2
2
5
4
4
6
7
7
11
12
12
2
1
1
4
0
4
11
6
1
10
48
77
39
41
113
132
52
56
230
142
62
245
196
159
110
135
140
48
20
58
73
55
58
25
26
53
222
202
176
213
177
86
43
36
19
23
25
24
24
23
25
29
29
29
24
24
24
24
24
18
13
13
5
15
15
7
18
18
15
15
14
18
18
14
17
24
15
13
34
22
18
46
35
31
51
42
38
54
48
40
71
67
53
96
92
76
115
111
97
126
121
112
133
128
123
135
133
126
122
122
116
115
115
111
125
124
119
120
117
109
97
93
87
77
76
74
73
73
73
74
74
74
73
73
71
58
58
52
36
36
28
27
27
20
26
29
25
7
7
5
9
9
9
25
25
25
33
25
26
47
31
30
59
46
42
71
64
57
83
71
65
85
70
66
85
71
68
87
73
67
84
71
61
79
69
57
72
65
54
47
43
32
26
26
18
21
20
14
27
25
23
38
36
38
41
41
46
44
43
46
30
30
27
230
227
200
255
255
243
80
87
78
60
52
61
17
22
37
61
38
129
81
34
149
4
24
78
2
15
10
4
29
49
150
67
19
255
255
133
244
226
136
38
37
48
41
41
54
255
252
231
255
255
255
78
89
86
8
16
17
21
11
16
38
35
50
10
24
78
26
91
255
38
110
255
4
70
178
2
18
52
239
153
60
255
255
115
174
162
70
60
58
58
54
56
52
59
59
42
58
54
41
39
37
42
157
149
238
12
23
87
149
154
167
178
204
255
252
255
255
172
208
243
26
42
80
20
17
14
14
16
20
10
13
19
5
7
10
5
7
13
13
12
10
52
51
40
87
89
66
79
77
53
29
29
52
35
26
107
122
125
68
127
131
157
85
91
150
189
212
255
206
205
237
69
64
69
14
19
21
16
21
29
51
45
75
13
18
23
82
69
75
120
49
15
41
16
65
35
28
98
248
255
196
255
255
255
75
57
44
165
177
183
133
183
187
62
107
117
12
47
58
51
74
76
130
174
179
243
255
255
178
175
171
22
14
10
32
27
31
34
30
32
28
30
25
36
35
41
71
69
84
95
92
112
105
103
119
108
104
124
117
109
139
116
105
136
110
99
125
160
147
157
255
255
255
106
104
89
255
255
255
255
255
239
3
4
9
9
7
7
12
14
16
5
10
8
3
3
4
6
6
8
4
4
1
3
3
2
4
5
5
4
5
8
5
2
5
9
5
3
8
4
7
3
1
17
1
1
4
4
3
10
8
5
22
31
39
51
75
86
94
41
43
52
60
68
72
46
55
50
87
95
106
107
120
141
107
113
137
95
97
99
158
153
165
93
88
80
131
124
136
10
11
22
4
5
9
4
8
12
47
67
130
44
70
151
24
39
64
39
55
86
45
52
72
52
50
64
52
52
66
24
30
35
15
11
18
13
11
22
12
9
21
21
14
16
86
90
119
113
101
122
94
76
80
98
111
183
52
52
97
2
2
4
4
8
32
5
16
70
4
29
77
1
45
122
3
58
148
112
156
189
255
255
253
251
163
114
45
58
69
51
65
79
81
90
107
50
51
51
15
25
27
82
97
122
237
252
255
255
255
255
68
60
63
4
3
20
50
53
56
106
102
116
81
74
72
92
82
93
10
14
14
7
17
20
10
7
16
2
7
5
19
25
37
23
29
39
7
11
8
128
162
214
255
255
255
217
157
171
102
120
111
70
56
46
19
18
2
64
51
48
49
49
37
28
24
15
86
83
74
67
69
55
233
223
223
255
255
255
147
31
60
6
45
130
4
126
255
1
42
102
181
208
255
255
255
255
103
83
109
26
31
42
92
93
81
128
110
27
56
38
74
16
10
23
13
20
21
9
18
20
15
19
18
19
21
17
11
10
12
89
130
131
255
255
255
163
120
82
41
43
41
57
76
86
70
72
87
97
81
94
67
36
38
9
20
51
18
4
13
38
23
13
10
5
7
11
13
10
21
22
26
25
26
29
15
17
15
12
11
12
10
9
9
20
16
20
119
123
122
255
255
255
241
231
206
35
25
13
20
19
16
25
19
22
17
9
13
13
10
11
11
9
8
18
21
13
12
12
12
8
8
15
10
18
12
16
26
17
18
28
16
25
30
21
24
26
22
12
16
8
10
8
9
10
7
8
21
18
20
18
18
18
13
13
13
10
10
10
11
14
12
11
14
12
8
8
8
8
8
8
8
8
8
7
7
7
7
7
7
6
6
6
5
6
5
4
8
5
12
8
9
5
11
8
5
3
1
2
2
2
0
0
0
1
1
1
2
2
2
4
4
4
7
7
7
9
9
9
10
10
10
12
12
12
9
9
9
3
3
3
2
2
2
7
7
7
255
255
255
255
255
255
6
7
7
3
5
7
4
7
8
5
7
11
0
3
6
8
9
6
15
15
15
19
20
17
20
23
14
21
24
14
16
20
11
12
16
7
7
11
3
5
8
7
8
12
4
9
13
3
10
13
8
5
8
5
5
5
7
7
4
15
9
8
12
7
7
7
8
12
5
2
2
10
13
13
13
23
23
23
22
22
22
15
15
15
7
7
7
7
7
7
18
18
18
16
17
20
12
19
33
13
67
143
131
58
52
239
204
151
209
204
210
31
89
143
182
99
32
224
181
111
203
185
155
60
65
23
250
225
239
208
166
70
51
38
21
12
15
11
13
10
16
7
5
10
13
13
13
15
15
13
29
29
23
34
34
26
26
26
21
18
18
17
22
22
22
32
32
32
33
33
33
28
28
28
23
23
21
23
23
17
28
28
20
22
22
14
12
10
3
14
13
13
11
10
8
20
20
13
31
31
23
29
29
23
22
22
21
15
14
6
30
23
18
43
27
14
42
23
5
42
25
7
61
45
25
83
67
48
84
66
47
87
67
47
105
87
71
116
102
94
116
107
102
122
118
112
127
125
118
121
120
112
113
112
103
104
106
95
92
95
86
74
77
73
50
56
51
30
38
27
26
32
21
17
19
10
29
26
30
38
32
40
29
24
32
31
27
29
31
30
29
35
35
38
52
52
56
69
67
71
76
75
68
255
255
255
255
255
255
94
91
92
63
63
74
36
43
54
68
53
143
65
55
181
2
26
80
3
12
13
4
23
45
160
69
21
255
255
126
222
212
124
14
7
4
33
39
28
226
248
222
255
255
231
127
85
77
36
33
29
18
9
24
45
40
61
4
4
14
23
26
124
41
43
166
3
58
167
3
37
134
152
113
175
255
255
202
250
227
127
55
63
46
30
34
30
19
17
26
8
9
8
52
52
56
125
113
185
197
213
255
255
255
255
255
255
255
255
255
255
255
255
255
215
241
240
95
105
105
56
56
50
42
47
36
38
44
32
33
40
27
28
36
20
31
38
29
33
35
37
29
28
39
45
34
49
50
41
93
93
112
74
156
166
225
229
234
255
255
255
255
108
94
102
39
50
80
20
25
29
11
9
15
48
48
75
10
10
18
76
62
73
118
60
19
40
30
98
49
26
63
234
205
116
246
255
255
79
207
234
8
109
137
143
84
65
203
191
173
179
175
158
157
124
106
85
87
94
252
255
255
204
205
202
17
24
34
28
22
26
26
19
24
20
15
9
29
24
38
69
69
83
62
62
68
32
32
29
33
31
33
45
40
52
41
36
37
41
36
34
106
95
82
255
255
245
93
101
84
255
255
255
255
255
255
52
62
82
16
30
45
2
12
17
7
6
6
7
5
6
10
10
10
11
11
12
1
1
3
5
7
8
4
2
11
10
2
12
4
1
14
8
5
10
6
5
17
0
2
4
3
2
8
4
0
14
17
19
24
37
45
41
73
79
88
13
11
12
31
29
32
67
67
77
99
108
125
77
72
94
216
220
235
162
156
162
189
184
187
122
111
113
4
7
17
3
4
10
8
13
25
43
58
113
39
58
119
7
7
18
10
22
40
13
18
30
24
25
49
15
8
19
18
5
15
18
6
18
23
14
31
19
19
33
24
27
41
111
100
108
130
113
123
106
108
135
131
127
168
29
24
42
4
5
5
5
8
27
5
14
65
4
16
56
3
43
115
3
67
169
62
107
155
255
253
185
255
243
169
122
105
84
65
78
78
78
77
83
65
70
63
30
29
38
62
75
95
224
227
255
255
255
255
105
97
107
1
4
18
54
58
67
212
208
221
165
167
160
230
223
228
41
32
26
5
8
12
13
10
17
5
3
6
20
23
33
24
29
34
11
14
18
124
162
214
255
255
255
224
164
182
99
113
102
76
63
50
4
12
16
69
61
53
32
29
20
48
48
36
64
62
60
90
92
86
177
174
166
255
255
255
189
50
9
5
18
49
3
126
255
3
83
195
165
178
219
255
255
255
119
94
130
18
15
19
35
47
41
117
110
38
89
74
52
28
8
52
11
8
13
4
12
15
2
7
7
9
6
9
19
11
6
143
184
173
255
255
255
121
80
52
41
36
31
53
71
77
81
78
97
83
66
83
53
24
18
5
18
48
24
16
27
34
20
21
15
9
12
13
17
7
16
19
21
8
6
10
12
14
19
12
12
14
2
1
4
5
3
5
46
51
52
255
255
255
255
255
255
69
49
38
25
24
20
19
21
20
11
10
10
2
10
5
8
7
7
17
18
10
10
14
2
8
15
6
10
15
1
11
11
14
15
15
14
21
20
22
17
17
18
12
12
15
14
8
11
10
6
8
16
12
13
14
16
14
13
14
13
18
18
18
22
24
22
19
19
19
14
14
14
10
10
10
5
5
5
5
5
5
10
10
10
14
14
14
13
13
13
12
14
13
10
14
11
2
8
5
2
7
4
4
4
4
6
6
6
10
10
10
13
13
13
15
15
15
15
15
15
14
14
14
13
13
13
12
10
11
8
4
5
2
6
2
6
8
6
1
5
2
255
255
255
255
255
255
17
18
15
10
10
10
7
8
5
5
8
4
1
5
8
8
8
13
8
12
2
4
8
7
2
2
11
6
8
8
8
11
6
9
10
10
11
11
11
14
14
14
12
11
14
7
4
13
5
5
10
1
5
8
1
4
4
7
7
11
12
12
15
6
7
10
7
7
13
15
13
21
29
29
29
29
29
29
30
30
30
21
21
21
15
15
15
13
13
13
4
6
8
8
4
10
14
5
20
28
55
119
196
155
149
227
252
255
22
48
118
223
148
74
255
199
144
138
107
78
255
255
225
113
110
37
254
231
255
224
178
92
73
49
38
18
8
24
9
5
14
8
6
12
7
7
7
18
18
18
23
23
23
19
19
19
22
22
22
18
18
18
23
24
26
21
24
30
17
21
29
18
21
27
20
21
24
17
17
17
10
10
10
7
7
7
9
10
8
12
11
10
8
5
5
8
7
7
22
22
20
23
23
17
5
5
5
5
8
14
7
1
4
15
10
10
15
12
13
7
6
6
13
13
13
16
18
18
25
26
26
11
11
11
18
16
17
28
23
11
38
28
14
48
41
26
61
53
39
64
55
43
69
62
53
81
74
67
91
78
71
94
78
68
97
81
69
104
89
75
107
96
77
103
97
74
85
83
59
59
61
37
46
49
29
49
50
38
57
56
48
68
64
57
77
72
62
76
72
58
106
99
76
255
255
255
255
255
255
67
68
70
28
30
40
23
18
21
55
45
147
41
71
206
2
31
75
2
9
21
1
25
46
171
75
15
255
255
147
241
225
152
79
63
75
75
75
80
179
216
201
255
255
255
227
185
173
54
52
42
9
9
6
56
47
73
28
18
18
45
61
153
68
70
174
11
20
55
2
54
112
63
93
168
255
255
222
255
255
189
58
61
10
20
24
16
26
39
30
31
39
22
32
28
29
88
86
112
255
255
255
255
255
255
255
218
246
155
112
127
255
224
201
255
255
255
158
172
156
52
49
50
52
45
43
57
49
47
50
42
36
31
27
17
19
20
6
27
29
18
40
37
30
61
40
49
61
60
90
174
188
168
255
255
255
255
255
255
127
131
144
38
33
36
63
66
91
10
13
18
15
13
18
29
37
59
15
11
19
54
43
51
116
71
39
48
36
113
66
43
21
200
107
15
181
216
176
132
255
255
147
255
255
102
183
216
134
53
81
131
88
126
163
55
102
149
127
142
255
255
255
174
170
160
27
27
40
18
18
16
22
16
29
19
8
26
28
26
43
75
76
91
47
47
52
26
26
33
26
25
35
31
29
46
8
6
12
3
3
7
74
65
57
251
255
223
157
167
150
255
255
255
255
255
255
106
109
125
24
31
72
21
29
42
5
16
25
14
5
14
10
7
17
19
15
27
18
15
28
10
10
18
5
2
12
7
2
14
3
2
9
8
2
7
7
6
15
1
2
2
1
1
9
0
2
12
26
26
34
19
22
22
41
43
45
78
75
85
55
55
68
40
47
52
38
38
44
57
72
85
255
255
255
100
106
111
255
255
255
81
67
59
10
12
20
0
3
13
13
16
40
49
59
125
32
50
85
15
19
41
11
19
36
12
13
24
22
30
58
11
18
32
19
22
35
22
24
41
17
24
37
9
17
33
12
6
17
64
53
63
155
139
147
146
133
155
102
95
108
16
12
24
2
3
17
2
8
21
4
12
59
4
8
32
4
36
95
5
71
183
17
69
139
205
149
96
255
226
138
166
131
106
54
48
22
96
108
115
73
90
95
48
55
71
45
49
62
208
214
255
255
255
255
141
132
149
2
4
5
33
38
50
255
255
255
151
152
133
255
255
255
166
165
154
13
15
13
11
13
12
15
15
17
13
16
21
18
24
25
9
9
9
120
160
212
255
255
255
231
171
191
100
112
102
73
65
53
4
7
29
68
62
53
11
4
5
67
64
49
32
37
37
100
104
96
121
125
118
255
255
255
233
101
45
4
62
71
4
87
191
1
121
255
133
114
105
255
255
255
165
150
207
4
6
42
15
13
19
66
70
45
118
103
11
57
33
68
3
5
16
5
12
19
9
9
8
10
12
18
18
27
31
204
242
217
255
255
249
74
37
14
31
25
9
52
63
69
87
77
93
62
51
69
54
39
38
22
8
12
18
19
28
32
28
39
39
37
46
37
34
45
27
24
31
11
6
11
14
15
17
12
12
13
4
1
10
2
2
2
17
22
22
218
240
233
255
255
255
101
74
64
8
10
11
15
22
18
10
18
14
9
9
9
9
1
5
14
10
9
11
7
5
6
5
4
10
5
4
10
8
14
12
14
15
8
12
9
6
8
6
1
3
13
8
4
5
4
5
4
4
4
3
5
10
7
6
8
6
8
8
8
6
11
8
8
7
7
9
9
9
9
9
9
9
9
9
10
10
10
8
8
8
5
5
5
4
4
4
5
5
5
4
6
5
7
11
9
10
12
11
7
7
7
7
7
7
11
11
11
7
7
7
3
3
3
5
5
5
5
8
8
8
11
11
15
12
13
21
17
18
23
15
19
22
14
18
21
15
18
255
255
255
255
255
255
10
10
10
10
10
10
8
8
8
11
11
11
12
13
10
7
7
10
5
2
8
11
7
15
7
5
8
4
4
4
0
0
0
8
9
8
16
15
18
16
14
23
16
12
24
21
17
28
20
18
26
21
21
21
23
26
17
26
29
21
27
26
32
22
24
37
22
25
33
21
21
24
15
15
15
9
9
9
21
21
21
11
11
11
4
4
4
14
14
14
20
21
21
11
16
14
1
9
13
31
23
61
217
168
161
163
156
161
229
163
111
248
213
161
101
91
78
79
44
34
255
255
221
165
146
89
227
192
225
255
224
178
141
117
72
28
39
19
7
17
8
8
10
10
12
12
12
7
7
7
5
5
5
11
11
11
15
15
15
2
2
2
4
4
8
4
4
2
4
4
4
7
7
5
15
15
15
21
21
21
20
20
20
20
20
20
17
18
18
21
21
21
26
26
26
27
26
26
24
21
21
24
21
21
25
24
21
24
24
18
24
22
21
25
23
27
29
25
30
24
23
23
10
10
10
8
10
10
19
21
21
23
23
23
20
20
17
7
14
7
4
10
5
1
11
10
14
12
10
15
15
9
6
2
5
5
10
5
7
21
14
8
18
13
2
6
2
11
5
8
11
11
10
19
18
18
35
35
35
44
44
44
43
44
41
43
46
34
44
49
31
51
54
38
68
64
49
81
74
58
121
113
94
255
255
255
255
255
255
25
37
44
11
7
13
25
7
1
48
47
149
28
72
209
4
25
65
1
19
29
3
27
43
173
85
12
255
255
171
247
224
166
18
8
13
23
31
41
72
118
111
255
255
240
255
255
255
62
63
61
5
12
6
53
54
72
48
35
57
34
69
186
87
23
115
25
38
40
1
45
94
13
26
58
239
205
169
255
255
255
160
165
92
105
99
98
101
91
86
103
87
75
101
84
74
136
130
117
255
255
255
241
255
243
220
251
243
255
255
255
253
255
255
232
239
237
145
154
131
24
21
22
36
31
42
38
35
44
43
37
44
49
41
44
39
33
39
24
25
28
13
14
9
73
38
31
185
149
80
255
255
255
255
255
255
94
100
143
18
13
15
56
50
55
61
60
75
15
8
11
10
4
5
16
30
44
21
17
24
35
24
21
110
76
49
58
32
105
81
67
54
169
30
57
147
71
21
66
25
29
151
206
223
183
246
252
65
87
113
63
178
210
99
154
199
145
183
200
255
255
255
137
118
101
29
27
36
17
11
11
21
18
19
18
13
21
28
33
38
78
78
93
27
27
32
44
44
51
28
28
35
36
34
49
12
12
12
11
9
14
55
47
43
255
255
245
231
239
212
237
227
211
255
255
255
146
145
128
8
12
58
20
17
33
19
19
21
13
11
10
5
5
5
2
2
2
14
13
16
19
21
27
5
8
15
4
2
23
5
0
24
7
3
19
3
4
17
2
1
8
0
0
2
2
2
12
29
31
43
27
31
32
11
13
11
36
34
37
60
64
71
25
32
41
27
27
37
109
119
142
255
255
255
114
137
168
255
255
255
41
31
24
13
13
22
0
2
12
21
24
62
59
68
149
15
28
43
27
30
55
13
14
17
12
14
32
26
36
65
16
19
35
16
12
26
15
12
29
15
17
29
11
18
27
4
12
25
15
25
31
46
39
41
44
32
34
39
41
53
12
17
28
8
3
18
6
7
23
7
10
54
6
6
22
1
27
67
2
67
173
4
61
155
195
166
146
255
255
215
183
147
123
42
67
107
120
138
154
115
113
122
118
126
140
8
17
19
191
213
255
255
255
255
166
149
165
11
22
32
3
8
8
255
255
255
255
255
255
253
255
255
255
255
255
174
169
154
45
38
32
14
17
14
4
9
10
14
22
22
5
5
5
116
156
208
255
255
255
235
175
195
103
115
109
71
65
55
10
11
30
66
60
50
18
16
25
77
75
59
15
14
13
103
108
91
62
71
72
255
255
255
255
163
97
3
93
127
2
39
91
2
139
255
76
16
67
246
251
255
255
255
255
237
244
255
137
144
196
76
86
103
134
117
41
96
69
56
20
24
56
18
11
17
8
4
1
10
5
11
11
38
40
250
255
245
255
255
197
28
13
26
5
4
24
54
62
74
72
61
71
32
28
38
50
45
52
55
42
41
4
7
19
21
22
35
32
32
36
36
35
37
23
22
24
11
10
15
16
18
15
12
11
11
7
5
13
3
4
5
15
7
12
168
189
188
255
255
255
149
119
108
15
14
17
13
15
14
2
10
5
6
13
9
13
13
13
21
15
20
27
20
29
26
19
30
25
21
32
25
23
32
18
17
20
13
13
15
16
15
18
16
14
23
10
11
13
4
8
6
4
6
5
9
10
9
12
13
12
10
10
10
8
12
10
10
11
10
12
12
12
12
12
12
14
14
14
14
14
14
10
10
10
8
8
8
9
9
9
9
9
9
6
6
6
7
7
7
4
4
4
6
6
6
11
11
11
8
8
8
3
3
3
4
4
4
7
7
7
2
4
5
10
10
9
17
8
10
7
4
5
13
13
13
15
15
15
15
14
14
255
255
255
255
255
255
4
4
4
8
8
8
8
9
9
7
10
12
9
12
18
10
10
19
7
2
13
6
4
15
3
5
12
1
5
7
6
8
3
7
5
5
5
10
14
17
15
26
24
20
32
23
19
31
18
15
26
14
12
20
15
15
15
22
25
18
29
31
26
27
33
30
24
30
27
19
21
20
10
10
10
4
4
4
13
13
13
12
12
12
5
5
5
10
10
10
13
14
20
9
17
23
4
14
19
40
23
21
192
158
138
97
76
58
225
175
141
95
81
52
12
11
25
77
55
44
255
218
174
195
159
111
138
111
113
201
137
111
193
161
141
121
116
109
60
60
65
44
44
47
33
33
33
24
24
24
16
16
16
14
14
14
17
17
17
19
19
19
14
14
12
11
11
5
11
11
3
15
15
10
15
15
12
15
15
15
14
14
14
14
14
14
12
13
13
12
15
15
13
16
16
9
9
9
2
5
5
10
7
7
9
8
8
9
12
12
8
11
15
9
11
13
11
11
12
25
25
25
35
35
33
33
34
29
26
27
19
22
22
16
18
19
17
13
20
20
5
15
15
2
8
13
9
8
12
15
15
17
20
19
22
24
24
24
23
23
23
12
9
10
13
7
10
18
12
12
22
17
12
19
12
9
17
9
12
16
8
12
12
6
8
13
11
8
18
18
16
20
20
18
18
18
14
18
16
15
100
93
84
255
255
255
228
236
241
14
23
29
10
7
13
23
3
7
39
49
140
21
68
196
2
13
62
4
19
30
3
14
28
160
88
17
255
255
158
246
217
152
86
77
61
85
79
68
73
67
48
248
237
214
255
255
255
57
55
50
40
32
45
46
59
66
64
54
84
26
59
182
92
24
94
25
39
48
2
29
94
1
43
101
153
112
79
255
255
255
255
255
182
33
22
21
34
19
19
43
20
20
46
17
19
108
77
72
241
204
184
255
255
255
255
255
255
255
255
255
255
255
255
255
255
247
198
187
171
140
133
135
146
136
135
142
128
124
111
102
96
84
83
72
84
83
72
87
82
74
80
66
66
155
90
29
255
255
141
255
255
255
82
134
233
36
26
81
35
30
26
49
38
41
52
53
73
5
7
14
29
26
31
17
34
50
14
13
21
27
13
5
100
72
47
63
20
89
83
81
83
176
30
60
211
98
58
119
82
72
131
185
199
177
246
251
74
93
113
110
211
234
51
41
41
199
130
109
255
244
207
92
67
52
29
30
30
12
5
6
13
13
5
19
13
10
32
36
36
77
74
97
12
12
16
57
57
68
32
32
41
39
38
52
14
13
19
23
21
31
49
40
41
255
255
248
255
255
243
233
231
207
255
255
255
148
139
123
7
9
58
5
10
33
9
8
12
12
17
17
11
8
18
17
14
24
13
10
19
11
12
15
9
14
6
6
2
5
7
1
11
6
3
13
3
3
15
2
4
13
1
1
7
2
2
10
22
26
43
44
45
54
17
10
19
35
31
48
8
10
15
43
36
47
32
38
53
98
113
134
255
255
251
99
116
155
255
255
255
55
44
44
8
5
15
5
3
8
23
28
66
51
61
138
20
24
52
34
35
76
14
17
46
16
23
53
27
34
58
8
8
22
2
2
10
4
0
16
10
7
24
18
17
26
5
9
24
20
22
34
8
16
25
10
14
20
22
34
64
9
21
39
1
2
11
4
5
22
4
8
49
5
3
38
5
18
55
2
60
156
8
59
164
203
190
187
255
255
232
195
145
96
88
112
144
184
195
220
76
52
54
163
185
200
50
30
19
229
255
255
250
233
255
121
118
125
178
189
198
103
116
117
207
224
225
255
255
255
114
96
83
255
255
255
255
255
255
110
90
69
8
9
8
1
5
6
15
23
23
5
5
5
114
154
206
255
255
255
234
174
194
104
116
112
73
68
53
15
13
30
66
61
46
38
32
41
81
78
62
34
20
24
89
95
76
15
26
28
255
255
255
255
211
152
2
98
137
2
19
16
6
126
230
25
85
218
114
90
94
226
229
255
255
255
255
255
255
255
189
198
239
168
158
122
127
108
25
42
26
46
15
15
8
2
8
2
20
14
13
50
84
80
255
255
255
223
195
143
21
41
47
42
38
48
75
74
93
75
62
67
14
13
14
34
33
35
77
69
75
35
29
44
7
10
17
6
5
3
5
4
10
16
14
20
11
7
17
17
21
15
21
14
18
11
5
16
4
10
5
18
10
11
130
150
152
255
255
255
190
159
145
11
12
24
12
11
21
11
10
20
6
8
17
5
10
14
7
4
8
3
3
13
3
10
19
5
14
14
4
12
10
4
10
7
8
10
9
9
10
9
10
10
12
13
13
15
16
16
16
20
20
20
21
21
21
22
22
22
24
24
24
20
20
20
14
15
14
12
12
12
9
9
9
5
5
5
7
7
7
12
12
12
15
15
15
17
17
17
20
20
20
26
26
26
25
25
25
13
13
13
7
7
7
11
11
11
9
9
9
14
14
14
22
22
22
24
24
24
25
23
23
21
17
17
14
11
11
9
11
10
7
14
10
7
15
11
6
12
9
255
255
255
255
255
255
4
4
4
9
9
9
10
9
11
4
6
13
4
5
14
13
12
20
21
17
22
15
15
17
12
15
15
9
8
13
4
3
12
2
5
11
5
11
10
11
17
13
12
20
16
12
17
14
10
11
13
9
7
15
11
12
11
11
11
14
15
13
12
15
12
10
7
12
12
8
14
13
20
26
23
30
32
31
31
31
31
28
28
28
26
26
26
25
28
27
32
35
33
44
43
43
47
43
44
38
42
41
124
105
101
63
39
20
118
95
93
67
78
75
79
85
89
84
81
93
178
131
98
193
123
67
204
139
91
131
86
38
97
68
35
93
91
71
49
52
45
36
37
33
31
31
31
32
32
32
38
38
38
40
40
40
38
38
38
34
34
34
34
34
36
37
37
43
37
37
45
31
31
39
24
24
32
22
22
30
24
24
31
21
21
29
23
23
29
27
27
29
26
26
26
23
25
25
19
21
21
14
13
13
12
12
12
12
12
12
12
14
17
11
15
15
9
13
12
12
13
13
12
12
13
18
20
23
13
15
15
5
9
10
6
8
8
10
9
13
8
5
6
14
10
20
17
14
23
19
19
25
23
24
25
21
27
22
28
36
28
19
33
24
15
27
20
13
22
15
14
17
9
14
13
6
7
7
8
4
4
4
7
4
8
14
11
12
12
4
8
5
3
3
12
10
10
17
10
18
110
104
95
255
255
255
213
221
224
14
8
7
2
10
18
20
10
21
45
38
118
31
57
171
0
25
77
2
10
19
4
10
4
125
79
58
255
255
135
253
196
94
36
31
37
17
17
19
11
13
4
240
236
227
254
255
239
40
38
28
74
63
72
37
49
61
78
78
107
44
74
208
96
62
133
25
71
87
31
69
93
27
79
105
124
99
62
255
255
247
255
255
198
93
80
74
112
88
80
133
105
87
136
113
95
111
95
87
55
60
58
12
20
28
46
18
13
55
40
19
45
32
20
37
24
13
42
33
30
41
28
36
49
32
40
60
47
47
74
64
54
74
70
61
68
62
57
61
50
46
63
49
45
255
169
77
255
255
203
131
169
191
42
81
170
19
36
85
45
35
14
48
35
31
32
39
67
20
22
24
38
30
40
14
35
62
7
12
29
27
13
5
91
66
40
67
12
68
73
88
101
204
75
21
232
101
45
65
24
40
107
189
213
178
254
255
79
90
110
150
255
255
80
138
154
212
125
90
255
193
146
53
41
30
29
30
23
8
9
4
8
8
5
12
7
4
41
36
45
74
71
99
11
2
9
68
68
81
36
41
47
43
44
57
22
22
28
26
25
28
36
30
32
255
255
236
255
255
243
255
255
243
255
255
255
113
98
111
12
14
51
9
10
22
11
11
11
15
17
16
7
6
10
3
3
2
9
9
11
12
13
11
8
10
5
5
5
10
2
1
10
2
1
5
2
2
14
2
4
17
2
2
11
1
3
8
20
23
45
52
56
74
28
24
43
47
45
70
44
32
55
16
6
8
38
31
53
86
98
124
255
255
255
47
45
70
255
255
255
134
128
122
2
0
7
16
7
10
18
21
43
24
38
91
36
39
87
33
43
88
23
34
66
25
31
57
21
21
38
6
5
11
5
5
7
6
5
11
6
6
15
17
17
21
13
20
20
21
21
28
15
31
56
22
22
31
29
43
86
18
25
53
5
4
9
4
2
7
6
5
29
7
9
46
1
17
63
5
56
154
5
66
168
152
143
133
255
255
249
255
255
255
168
185
227
186
182
196
65
41
43
180
193
204
62
67
91
255
255
255
156
124
131
214
234
234
255
255
255
255
255
255
124
140
147
255
255
255
226
188
159
234
255
255
255
255
255
150
111
85
5
9
7
6
8
8
13
23
23
1
5
5
118
156
208
255
255
255
229
169
189
102
114
110
70
68
43
23
19
35
58
57
30
58
49
53
71
67
51
60
43
45
69
76
65
25
11
11
255
255
249
255
242
203
23
71
105
2
55
81
4
80
145
4
131
255
4
69
179
21
10
6
100
109
163
182
189
255
229
231
255
187
183
179
142
132
76
107
92
48
36
23
18
20
14
11
29
21
21
94
128
121
255
255
255
170
137
98
43
64
66
49
47
49
102
100
123
92
76
76
7
11
18
22
18
26
84
80
89
65
56
73
3
1
12
2
2
2
5
5
7
15
15
18
9
4
15
5
16
5
19
15
16
12
5
18
6
11
7
13
7
10
122
143
145
255
255
255
191
164
143
15
10
23
12
8
18
11
8
18
5
5
14
12
11
15
14
10
9
14
1
7
18
7
5
23
11
2
26
11
5
27
11
15
31
13
17
31
19
25
25
22
23
20
19
18
17
13
13
15
12
12
8
4
5
10
4
7
12
12
12
15
15
15
17
17
17
19
19
19
20
20
24
17
14
27
13
10
21
9
8
12
4
4
4
5
5
5
10
8
12
18
15
27
23
20
33
28
26
33
21
21
21
12
12
12
7
7
7
15
15
15
18
18
18
13
13
13
7
9
8
3
9
6
5
12
8
12
17
14
9
16
13
7
15
11
7
15
11
255
255
255
255
255
255
18
22
24
12
16
16
12
13
13
12
12
13
14
15
16
14
18
15
17
18
19
13
15
17
11
20
13
15
24
19
23
29
26
27
29
28
26
26
26
22
21
21
18
18
18
14
14
14
5
8
7
3
1
11
8
10
7
17
19
14
18
21
17
20
22
19
15
22
18
14
15
14
14
13
13
13
13
13
15
15
15
4
4
4
26
26
32
38
39
46
44
38
46
49
37
43
41
36
40
27
32
35
47
41
45
37
32
39
31
24
30
32
21
15
29
24
17
22
18
8
72
51
34
127
82
57
139
91
53
123
93
56
113
101
73
76
74
64
29
32
36
17
18
15
12
12
12
3
3
3
6
6
6
15
15
15
17
17
17
20
20
20
26
28
27
25
29
27
21
23
22
20
20
20
22
22
22
28
28
28
34
34
34
29
29
29
14
14
15
6
8
8
5
8
7
10
15
14
19
23
23
22
25
25
23
26
25
26
30
28
32
34
35
28
28
28
15
15
17
3
3
3
4
4
10
9
9
11
17
17
18
19
19
23
10
11
15
12
14
17
4
3
12
14
15
21
15
15
15
16
16
16
14
14
13
10
10
10
18
16
17
23
25
18
24
30
19
17
24
16
12
16
15
15
15
16
8
8
9
10
10
10
19
19
21
25
25
28
22
24
23
18
22
18
22
22
20
17
18
17
85
81
73
255
255
255
255
255
255
74
80
86
21
21
31
25
23
36
52
18
83
47
33
127
1
41
101
1
14
46
2
7
31
84
72
76
255
245
127
255
193
56
26
14
13
17
15
29
15
16
10
252
248
232
225
236
211
48
51
44
94
84
98
14
19
37
93
92
125
43
53
182
100
8
130
142
63
92
168
111
67
196
158
50
255
255
182
255
255
222
202
190
130
12
22
10
5
13
15
20
13
11
31
3
11
26
4
13
32
18
20
44
37
45
44
39
36
55
47
35
67
52
41
76
59
53
93
80
75
110
103
94
115
108
95
110
100
86
91
84
71
79
77
64
84
84
68
87
82
66
83
69
57
255
209
99
255
255
213
41
119
171
41
90
173
23
44
77
59
41
25
48
29
24
20
31
54
31
30
22
37
23
23
20
38
64
8
14
28
34
17
12
85
61
27
63
8
47
64
91
101
233
137
74
230
118
83
40
65
119
176
239
255
233
255
255
137
120
118
219
255
255
209
255
255
232
170
138
209
147
106
31
24
26
27
29
23
15
14
13
16
8
15
20
11
19
48
44
55
65
67
88
18
23
18
72
71
87
41
47
55
44
45
62
21
19
24
25
25
25
16
13
13
255
255
220
221
217
206
255
255
255
255
255
255
58
47
82
5
12
38
4
12
17
6
12
10
3
6
9
5
4
9
4
6
7
5
9
8
4
9
8
5
7
7
4
2
8
1
1
1
3
1
3
2
6
16
1
2
18
1
1
9
0
1
11
21
25
49
60
70
95
45
41
55
37
43
58
61
43
71
25
19
29
24
21
38
62
67
90
255
255
255
137
128
88
255
255
255
228
220
213
2
1
6
18
10
19
10
12
19
18
21
36
20
29
53
6
15
24
5
9
7
12
8
17
10
9
17
8
9
13
9
12
16
10
13
16
10
12
13
17
16
18
23
20
22
19
15
17
24
39
61
33
30
46
30
39
82
29
31
60
2
0
8
4
3
6
4
5
12
1
3
27
4
18
73
1
48
156
4
76
177
66
69
69
255
207
210
255
255
255
209
195
210
63
42
32
56
55
63
133
125
126
147
182
219
255
255
255
34
62
61
255
255
255
149
139
126
255
255
255
173
131
128
255
255
255
194
144
114
255
255
255
255
255
255
122
73
46
13
16
18
4
12
12
9
17
16
4
0
5
128
154
207
255
255
255
226
172
192
104
111
103
71
65
33
34
27
43
49
46
17
77
64
69
51
47
33
84
67
69
43
52
51
56
42
53
255
243
211
255
255
234
60
21
53
3
70
108
1
22
46
11
113
243
14
111
246
10
42
83
50
65
108
123
129
199
213
206
255
173
171
173
118
111
59
125
110
49
46
38
37
21
21
34
38
30
45
98
138
132
255
255
255
144
111
80
40
52
53
60
66
84
134
136
158
78
69
69
18
31
42
24
21
22
82
78
86
83
75
97
7
10
21
3
3
6
6
7
8
13
16
20
11
5
15
7
13
3
15
13
16
8
5
19
4
8
1
6
2
3
124
149
150
255
255
255
187
157
135
12
2
9
18
7
9
15
7
8
11
3
1
5
15
17
18
29
33
19
31
33
17
25
22
15
18
13
12
14
11
10
16
20
7
15
17
11
9
10
8
4
6
3
11
1
8
5
6
17
13
9
17
15
8
20
13
13
23
15
19
23
17
20
13
15
14
7
7
7
7
8
4
8
9
3
6
6
8
8
7
11
6
6
6
7
7
7
7
5
11
18
16
26
7
9
4
15
14
21
20
20
20
22
22
22
19
19
19
19
18
22
14
11
20
8
6
15
5
5
10
2
2
10
2
5
10
11
11
11
14
8
8
11
3
5
10
6
11
255
255
255
255
255
255
3
5
14
4
7
10
8
10
9
8
8
8
4
4
7
5
1
2
6
5
7
8
10
15
8
12
15
8
15
14
9
15
12
7
9
8
4
6
4
1
8
4
6
14
10
11
17
14
15
18
17
13
14
14
12
15
8
9
12
5
3
6
2
9
6
8
7
3
10
3
4
13
7
8
15
4
4
7
7
7
7
10
10
12
29
29
32
25
25
25
20
15
20
10
10
16
11
10
12
2
5
8
14
17
19
30
31
40
38
42
42
41
47
39
52
56
56
62
61
73
58
56
67
49
51
50
55
58
45
65
64
50
59
58
49
41
44
40
32
37
31
29
31
25
22
22
22
22
22
22
29
29
29
26
26
26
15
15
15
12
12
12
14
14
16
20
20
24
19
21
27
20
21
29
23
26
34
27
30
38
27
27
35
26
26
33
18
19
26
17
19
21
14
15
15
13
13
12
13
11
11
11
8
8
7
6
6
6
5
5
8
4
14
9
8
4
12
12
20
2
2
6
4
4
4
6
6
6
11
11
12
17
17
19
23
24
28
29
32
34
31
36
34
32
37
30
31
33
22
37
37
25
38
38
28
31
31
25
24
22
21
22
16
13
24
18
13
25
23
18
22
22
22
21
21
19
11
11
12
17
17
17
14
14
12
17
17
11
20
20
12
32
32
27
29
28
27
17
17
13
33
29
28
180
174
165
255
255
255
159
168
173
28
24
35
17
10
22
47
2
50
58
8
86
49
33
122
53
35
130
52
43
145
128
99
174
255
255
202
245
186
70
32
8
12
17
14
30
10
4
9
205
198
178
255
255
255
147
168
169
96
93
111
18
14
15
103
98
122
31
11
86
48
67
183
130
120
202
151
61
64
255
190
116
255
255
196
212
176
122
95
85
53
19
23
14
17
11
14
26
22
22
26
20
22
22
21
23
19
21
24
3
1
5
20
20
24
18
24
21
7
11
8
10
12
11
21
21
21
29
16
18
35
15
15
44
26
21
52
40
31
49
42
34
40
32
24
40
26
14
58
35
26
255
204
90
255
255
210
33
96
170
18
95
173
28
36
57
65
44
46
30
11
2
39
38
42
32
26
19
26
10
17
21
31
53
5
7
13
31
11
12
80
52
10
61
9
33
62
89
98
237
170
112
255
147
56
64
87
144
173
209
214
229
255
255
29
36
35
143
172
192
255
255
255
255
255
226
154
108
80
28
12
33
28
27
27
34
19
39
29
17
29
32
23
30
46
47
54
49
57
67
50
48
49
73
66
86
57
53
63
47
45
68
17
11
11
19
19
19
12
11
10
248
250
205
145
146
137
255
255
255
239
220
211
19
18
58
2
10
25
6
12
10
3
10
9
5
6
11
7
5
9
7
10
9
4
7
7
4
2
3
2
2
2
1
3
7
2
5
6
2
5
10
2
5
13
3
3
12
1
3
14
1
3
2
17
25
47
71
79
111
54
43
53
22
32
41
48
44
63
27
17
33
18
21
25
32
32
55
255
255
255
239
223
182
255
255
255
255
255
255
7
11
15
30
39
59
33
48
63
40
43
56
47
41
49
67
58
62
81
75
78
86
80
85
79
77
82
76
74
80
76
70
81
74
66
81
66
60
75
55
54
66
57
60
71
61
64
80
29
26
34
26
30
48
34
37
73
25
29
43
2
3
4
4
0
4
3
3
3
2
4
7
3
14
66
3
39
143
5
75
177
1
24
45
90
65
140
221
176
152
224
219
244
88
91
98
107
116
132
98
123
140
241
236
255
202
173
170
72
96
93
255
255
255
162
130
98
255
255
255
136
89
73
255
255
255
100
58
40
255
255
255
255
237
202
84
36
11
17
11
18
10
13
16
8
5
5
7
3
11
111
123
167
255
255
255
255
255
255
91
102
110
65
48
23
40
29
49
39
33
8
86
71
83
24
22
14
99
87
94
8
21
17
75
67
78
228
198
173
255
255
239
102
30
22
3
63
78
1
22
24
19
61
146
6
114
250
21
78
154
47
86
145
146
166
207
168
159
187
129
124
134
127
120
60
121
99
23
48
32
15
9
21
17
31
29
35
90
130
114
255
255
249
165
135
113
84
90
105
151
149
170
127
118
133
40
30
35
34
47
60
31
30
36
82
69
73
95
89
115
13
26
47
6
2
4
4
5
7
9
14
23
13
8
12
8
12
5
12
15
17
12
5
19
8
6
13
5
8
13
135
161
162
255
255
255
187
150
132
21
8
13
18
8
12
10
3
2
1
1
7
7
7
8
7
5
1
13
3
5
21
11
13
25
19
13
28
24
13
31
26
19
29
25
25
24
24
26
20
27
31
17
24
33
18
19
32
20
15
28
10
8
19
3
4
8
7
2
1
7
9
8
14
17
15
12
12
12
4
5
3
7
9
10
5
0
7
9
2
5
15
7
11
18
10
14
16
9
10
17
13
18
9
12
12
3
0
7
4
4
4
9
9
9
13
13
13
12
11
15
5
4
9
8
8
8
7
7
7
11
11
11
11
10
13
5
8
14
6
5
8
11
6
3
17
11
8
255
255
255
255
254
255
5
5
14
3
3
12
5
5
13
8
8
14
9
9
11
6
6
5
4
4
0
7
7
4
8
8
8
8
8
3
8
8
2
7
7
4
4
10
7
5
10
7
4
4
4
9
8
11
7
8
9
8
10
4
14
13
16
21
20
24
23
24
21
25
28
21
30
34
22
31
35
23
30
34
23
27
31
20
23
27
15
19
22
13
18
18
22
20
20
25
14
13
24
22
20
34
24
21
34
21
18
27
14
13
16
13
15
9
15
17
13
15
16
13
20
18
24
16
19
12
24
27
19
11
15
5
26
30
18
17
18
14
4
4
4
6
6
6
14
14
14
17
17
17
14
14
14
11
11
11
2
2
2
8
8
8
9
9
9
13
13
13
15
18
17
11
17
16
1
5
4
4
5
5
13
14
14
23
23
23
24
24
24
14
14
14
3
4
4
11
7
8
9
4
6
8
6
7
14
14
14
16
16
16
13
11
12
7
2
4
4
7
11
5
4
10
10
10
16
4
4
4
4
4
4
5
5
5
1
1
3
5
5
14
6
6
2
16
16
11
29
29
22
29
29
22
23
23
15
18
18
10
15
15
7
17
17
10
22
22
20
9
9
8
5
5
5
6
6
6
14
14
15
31
31
29
40
40
40
37
37
37
29
29
27
21
21
15
13
12
7
8
4
6
4
4
9
2
2
8
2
1
13
64
58
49
255
255
255
198
212
209
49
52
53
55
50
44
69
37
8
56
8
59
56
19
100
62
22
118
62
27
122
156
129
163
255
255
255
174
160
113
12
18
15
21
19
25
21
26
24
78
63
53
225
219
183
255
255
249
205
220
218
51
59
51
155
156
158
94
98
72
108
112
115
156
143
161
166
176
185
182
194
180
139
130
117
25
34
45
35
46
48
46
55
52
48
56
50
44
50
41
43
45
38
41
41
37
28
28
28
27
27
27
21
21
21
28
28
28
25
25
25
27
27
27
20
20
20
10
10
10
13
13
13
11
11
11
13
13
13
10
10
10
10
10
10
3
3
3
34
4
18
255
213
100
255
255
222
71
92
174
24
91
165
10
18
27
59
45
56
24
15
27
42
20
22
25
15
35
9
7
14
8
16
28
12
7
8
18
5
17
79
39
6
70
22
24
54
77
95
206
151
94
255
209
99
66
25
93
101
113
107
232
255
255
175
165
164
154
146
150
255
255
255
255
255
255
123
88
75
31
14
45
36
27
34
47
26
61
31
22
29
25
16
23
33
36
46
33
46
49
72
67
69
65
63
75
69
61
69
52
49
70
17
9
5
11
11
11
16
18
14
238
238
199
139
143
124
255
255
255
225
210
202
7
8
38
2
10
20
6
10
4
2
2
5
5
3
15
7
7
8
5
6
5
4
7
6
3
1
4
4
2
2
2
2
8
1
4
10
2
4
12
2
0
4
5
5
14
12
8
28
11
9
28
13
21
39
79
79
116
56
47
52
25
29
38
41
42
53
22
17
28
10
14
16
7
15
33
232
233
231
255
255
240
246
255
255
255
255
255
30
35
35
94
110
143
106
117
143
102
109
139
71
66
85
33
22
23
10
6
9
19
10
8
22
18
10
30
27
19
40
39
31
49
48
40
52
50
44
53
48
49
68
65
77
94
90
115
107
104
132
59
58
83
20
21
38
10
12
12
1
4
12
4
4
17
5
7
17
4
6
15
3
5
49
6
34
115
5
66
159
5
23
38
12
53
132
114
74
51
255
255
255
153
126
120
201
219
232
233
219
233
162
122
140
49
22
28
63
72
70
255
255
255
235
193
147
221
255
255
136
162
160
255
255
255
48
88
111
255
255
255
214
157
122
62
20
10
15
10
11
4
7
10
1
10
7
0
6
8
59
63
88
255
251
255
255
255
255
255
241
255
99
97
135
21
28
51
29
26
8
77
65
77
6
4
18
101
93
94
17
5
11
82
80
88
187
166
145
255
255
232
136
64
24
2
55
54
0
28
22
13
30
92
13
85
182
15
76
133
40
82
136
225
220
202
217
189
155
145
130
62
145
127
72
91
68
26
42
34
36
57
57
45
67
69
53
93
117
96
255
255
254
207
182
170
94
86
113
89
73
85
18
5
11
27
27
29
46
50
71
38
37
51
76
57
61
102
94
116
26
40
66
7
4
18
1
4
6
5
11
18
15
7
12
9
8
4
16
8
11
21
12
23
17
15
30
19
16
26
156
179
184
255
255
255
178
140
124
11
5
4
8
5
4
8
7
3
2
13
14
11
20
31
14
22
38
10
16
31
5
11
15
11
7
2
17
12
12
19
13
13
17
16
17
4
8
8
5
4
10
7
3
16
9
2
14
10
4
7
7
6
9
13
12
18
17
16
19
23
23
23
18
18
18
5
5
5
2
6
6
5
9
7
0
0
2
0
0
0
2
2
2
7
7
7
10
10
10
14
14
14
15
17
16
11
12
11
8
8
8
7
7
7
3
3
3
4
4
6
2
5
5
7
11
1
15
19
7
19
23
12
25
26
16
31
26
17
30
22
14
27
19
11
24
17
7
255
255
255
255
255
255
8
8
10
4
4
2
3
3
3
0
0
2
3
3
5
7
7
15
9
9
15
15
15
16
18
18
23
18
18
23
14
14
21
13
13
14
11
14
12
9
11
9
5
4
7
5
6
11
9
13
7
8
12
4
4
7
8
4
3
7
8
7
12
9
8
14
5
5
7
2
2
2
2
1
4
8
5
14
10
7
18
11
7
19
16
12
25
28
24
36
37
33
45
34
30
43
25
21
32
20
17
26
22
22
24
15
15
16
5
7
8
1
1
1
14
13
16
8
7
12
15
17
15
10
13
7
21
22
19
8
8
8
14
14
14
12
12
12
10
10
10
12
12
12
10
10
10
12
12
12
12
12
12
12
12
12
9
9
9
9
9
9
11
11
11
12
12
12
15
15
15
18
18
18
24
25
25
13
15
15
14
15
15
17
17
17
17
18
18
17
19
19
22
23
23
26
26
26
23
23
23
20
20
20
22
22
22
24
25
25
22
24
22
17
18
14
15
15
15
15
15
15
17
17
17
12
12
12
10
10
10
4
4
5
5
5
8
5
5
7
17
17
17
15
15
15
14
14
14
17
17
17
18
18
18
13
13
13
11
11
11
8
8
8
10
10
10
9
9
9
11
11
17
20
20
23
26
26
26
21
21
21
21
23
21
24
28
24
18
20
23
10
10
15
12
12
15
21
21
23
28
29
35
64
63
65
255
255
255
176
187
181
134
137
128
95
91
75
100
92
101
5
23
54
72
51
49
77
53
23
68
49
26
155
149
137
253
251
234
134
138
128
83
81
79
86
81
89
97
99
103
110
121
121
119
126
128
141
131
123
211
213
206
76
97
94
155
158
155
71
63
64
159
163
165
77
59
59
240
232
235
233
232
230
142
141
133
122
126
119
110
113
103
103
104
92
90
89
81
74
72
67
60
59
55
56
56
49
49
49
43
21
21
19
10
10
10
8
8
8
12
12
12
9
9
9
4
4
4
2
2
2
5
5
5
15
15
15
30
30
30
13
13
13
3
3
3
10
10
10
59
26
16
255
238
123
255
255
226
64
92
185
57
85
150
27
12
14
50
40
52
24
18
30
24
21
27
21
29
48
7
9
14
7
5
12
11
9
10
8
7
24
77
27
10
77
29
18
31
57
82
167
118
65
255
213
113
177
147
148
239
187
151
255
255
255
125
121
116
111
103
97
255
255
255
255
249
222
92
66
66
29
22
46
47
27
45
53
30
63
21
18
19
13
13
16
24
33
41
25
41
43
86
79
85
58
58
63
77
69
79
54
52
69
17
9
9
2
2
4
13
17
4
211
209
180
190
197
163
255
255
255
255
251
233
5
2
17
4
11
20
5
7
10
4
5
12
7
5
18
4
2
2
1
1
1
3
7
6
2
3
5
2
0
9
4
2
9
11
10
7
53
67
87
137
155
206
189
207
255
156
165
199
79
75
103
84
55
52
111
91
117
46
33
36
30
29
41
42
35
45
21
19
24
8
5
10
3
15
28
195
201
203
255
255
255
199
216
233
255
255
255
35
55
71
134
144
184
75
60
72
71
69
86
53
52
70
43
49
63
55
53
61
60
58
69
59
61
74
56
60
74
54
57
75
50
54
74
44
46
67
34
33
56
46
48
74
57
57
85
83
82
100
143
137
195
87
85
127
29
28
37
35
38
47
40
42
56
34
33
53
22
23
40
3
12
38
5
26
78
7
56
132
2
43
92
5
34
68
58
17
45
255
234
224
211
179
158
255
255
242
174
133
141
23
3
56
36
27
34
49
48
60
255
255
241
255
238
193
137
185
197
232
255
255
195
201
186
149
188
204
255
255
255
182
159
151
69
50
49
20
11
20
5
11
10
5
13
7
5
11
7
12
18
15
70
60
73
246
213
255
250
224
255
124
126
169
94
104
143
63
66
69
64
56
61
20
22
38
94
89
76
39
30
33
82
82
86
162
143
126
255
255
228
154
78
38
3
54
58
3
19
17
8
23
77
19
58
141
21
44
33
9
34
32
255
241
170
255
209
150
111
83
37
79
65
33
39
31
39
55
31
38
63
28
30
63
42
39
88
109
95
255
255
255
214
193
190
70
58
74
20
5
8
21
29
27
12
12
15
48
44
73
49
47
57
64
49
50
103
91
103
38
47
71
3
10
31
2
3
10
3
8
8
14
10
11
5
8
10
11
7
8
18
16
13
19
20
11
7
30
41
199
230
232
255
255
255
141
101
85
33
37
39
37
37
39
29
33
29
19
21
19
18
19
18
25
28
18
30
32
23
23
22
14
20
11
5
18
14
11
17
7
8
25
17
11
31
21
18
23
13
12
11
7
4
14
7
3
10
7
9
5
8
4
18
22
9
24
25
22
17
17
17
2
2
2
9
9
9
6
5
4
3
6
8
5
4
8
7
3
5
5
5
12
6
11
16
7
14
13
4
11
7
5
8
6
4
6
5
4
4
4
10
8
9
12
7
10
13
9
11
16
15
15
18
18
18
17
17
17
14
14
14
12
12
11
14
14
7
22
17
8
24
19
10
17
17
9
255
255
255
255
255
255
14
14
14
10
10
10
12
12
12
16
16
16
18
18
19
19
19
24
17
17
16
13
13
13
8
8
14
8
8
7
12
12
15
12
12
12
7
8
7
5
8
5
7
7
10
5
9
7
3
4
3
6
8
2
5
7
8
7
7
7
11
10
17
15
15
17
19
20
18
18
21
12
15
19
7
11
15
3
7
11
3
11
14
5
15
16
13
16
16
16
18
19
17
17
20
13
10
14
4
6
10
2
11
15
3
17
19
15
13
14
15
14
14
14
20
20
20
10
10
10
10
10
10
8
8
8
14
14
14
8
8
8
13
13
13
14
14
14
16
17
17
12
15
15
8
11
11
11
12
12
10
11
11
9
9
9
4
4
4
2
2
2
3
2
2
5
6
6
14
10
10
19
16
16
13
12
12
7
7
7
8
8
8
3
3
3
3
2
2
4
3
3
7
8
8
7
7
7
6
6
6
5
5
5
4
4
4
5
6
6
11
13
13
18
19
19
21
21
21
16
16
16
12
12
12
12
12
12
14
14
14
19
19
19
19
19
19
17
17
17
12
12
12
12
12
12
15
15
15
21
21
21
27
27
27
30
30
30
32
32
32
33
33
33
29
29
29
26
26
26
20
20
19
11
11
13
6
6
2
8
8
4
13
18
8
23
27
31
33
37
46
38
38
46
45
45
47
45
45
43
48
48
41
80
80
75
212
210
204
140
153
147
107
121
127
72
84
85
122
127
138
52
52
53
93
92
96
59
63
68
74
81
90
140
144
134
151
149
140
109
112
107
99
104
99
86
88
87
80
76
78
75
64
69
71
63
66
69
67
54
144
131
123
188
186
203
147
158
165
97
112
117
177
189
196
177
206
223
184
190
202
151
137
140
79
69
61
61
53
40
48
45
31
43
41
31
41
40
36
33
32
31
30
29
26
31
31
25
33
33
25
31
31
22
25
25
22
20
20
20
22
22
22
26
26
26
27
27
25
23
23
19
20
20
18
26
26
26
42
42
42
43
43
43
37
37
37
36
36
36
86
55
32
255
244
129
201
228
223
42
99
195
71
86
131
45
33
37
37
31
42
5
9
17
32
32
36
23
29
44
22
22
19
12
8
6
7
7
5
1
14
27
74
22
12
81
40
14
10
44
73
137
96
46
255
174
81
32
37
85
14
81
100
212
224
212
79
75
75
78
75
61
250
255
245
201
196
183
58
43
54
27
26
43
49
25
43
49
33
59
8
13
8
24
19
29
34
38
45
22
35
42
95
87
95
47
47
49
77
71
84
52
49
70
11
4
10
2
2
8
17
21
12
174
173
144
202
208
172
255
255
255
248
236
210
41
40
36
35
41
50
15
15
20
11
9
23
2
5
3
8
11
18
3
9
15
2
8
11
4
8
7
7
9
8
5
7
10
30
29
35
119
125
153
205
195
217
184
161
157
198
195
216
109
117
144
114
78
60
87
71
97
52
24
7
39
32
44
41
29
39
18
18
20
2
4
2
9
11
26
212
223
223
255
255
255
210
233
244
255
255
255
60
85
108
136
139
174
10
22
27
32
46
50
69
64
90
73
69
85
3
7
14
13
8
21
3
4
9
11
12
6
16
21
10
21
29
17
25
31
22
28
30
27
59
60
79
87
88
122
51
49
66
101
99
128
148
146
202
64
62
93
45
44
74
45
44
61
43
36
52
40
26
36
14
21
36
6
29
61
7
46
96
2
47
112
4
11
11
26
24
67
163
127
108
193
156
129
192
116
82
42
38
95
56
21
80
34
10
10
32
38
50
237
254
225
255
255
255
81
69
53
75
74
56
48
43
29
142
152
148
255
255
255
255
255
255
179
162
151
32
21
31
2
12
8
4
8
5
6
13
11
10
11
10
18
11
12
182
169
223
227
189
227
32
36
46
85
105
131
125
130
145
91
90
93
47
52
69
84
83
59
71
60
64
74
75
80
141
135
124
255
255
227
158
74
43
1
53
72
1
10
22
9
18
71
40
46
151
32
38
43
39
7
45
246
218
149
255
255
182
95
60
30
39
39
27
28
30
25
35
40
42
49
54
54
54
46
46
121
151
136
255
255
241
171
154
156
57
52
72
14
23
38
19
18
19
9
11
7
44
41
67
56
51
54
54
46
43
99
83
77
46
46
71
5
21
48
3
12
26
3
7
17
12
10
17
26
41
65
94
110
131
168
181
193
205
216
227
240
255
255
255
255
255
255
225
210
74
41
27
14
11
19
13
7
12
17
22
23
18
19
22
25
22
31
27
25
34
19
17
27
8
12
14
1
4
5
4
15
15
3
18
20
4
12
17
14
4
8
27
9
3
34
14
4
29
14
2
16
15
12
4
8
5
19
20
20
10
10
10
8
8
8
14
14
14
8
8
8
10
7
18
7
4
19
14
11
24
12
8
20
15
14
19
17
17
18
23
23
23
28
28
28
30
30
30
29
29
29
26
24
25
22
14
18
18
9
14
16
13
14
17
15
15
18
17
18
20
20
20
16
16
16
11
11
11
14
14
14
16
16
16
13
13
13
9
9
9
255
255
255
255
255
255
17
17
17
12
12
12
8
8
8
4
4
4
5
5
8
9
9
18
10
10
15
11
11
13
12
12
16
10
10
17
10
10
17
17
17
21
26
25
25
27
28
27
21
22
26
14
17
21
10
8
21
14
13
23
11
10
19
9
8
11
11
8
17
10
8
17
12
10
17
10
7
17
10
6
18
15
12
23
20
16
28
24
20
31
20
16
28
21
17
29
30
26
38
33
29
41
24
20
32
21
17
29
24
20
32
17
14
23
8
7
11
7
7
7
13
13
13
16
16
16
11
11
11
5
5
5
10
10
10
10
10
10
14
14
14
21
21
21
19
19
19
14
14
14
13
13
13
19
18
18
19
18
18
20
20
20
15
15
15
11
11
11
11
12
12
8
12
12
5
5
5
2
1
1
2
2
2
8
8
8
10
10
10
5
5
5
7
7
7
11
11
11
11
14
12
10
14
12
20
22
21
24
26
25
19
23
21
15
17
16
11
11
11
10
10
10
17
17
17
13
13
13
8
8
8
8
8
8
13
13
13
19
19
19
24
24
24
27
27
27
29
29
29
26
26
26
20
20
20
17
17
17
13
13
13
12
12
12
11
11
11
11
11
11
14
14
14
18
18
18
27
27
25
33
33
27
29
29
21
27
27
19
25
26
27
25
22
38
21
21
24
22
22
18
19
19
12
8
8
6
17
17
13
56
57
56
123
116
123
158
156
166
121
126
139
122
137
149
188
214
232
214
235
255
171
187
204
138
155
168
145
162
166
134
141
141
81
80
87
39
37
45
20
26
22
11
13
28
18
15
28
34
32
38
63
60
67
101
97
97
144
133
130
181
161
156
196
175
168
209
200
190
248
241
230
255
255
251
254
236
227
186
179
170
114
119
110
76
81
76
65
68
65
61
62
60
53
52
52
40
37
37
26
25
25
18
18
18
21
21
19
18
18
10
31
31
27
28
28
28
18
18
18
14
14
14
14
14
13
18
18
12
23
23
18
23
23
21
28
28
28
31
31
31
26
26
26
24
24
24
84
41
30
255
236
127
173
214
235
30
108
201
70
79
110
55
48
55
28
27
37
3
5
11
40
41
44
10
23
37
24
26
13
21
17
15
5
4
8
12
18
30
76
25
11
86
46
12
4
47
82
108
79
47
255
206
123
204
205
177
245
251
238
187
182
172
86
81
82
84
83
72
255
255
255
197
197
192
51
34
52
26
27
41
46
24
41
42
35
56
8
9
5
21
18
31
44
44
51
15
22
33
99
92
98
35
34
40
71
69
80
49
44
76
7
3
2
7
5
11
18
22
22
145
145
117
175
180
148
247
226
223
186
174
144
59
55
58
76
84
101
33
32
32
31
35
43
59
74
88
81
95
111
78
91
105
53
68
78
47
63
70
53
69
77
37
53
62
28
28
29
117
115
136
174
176
220
173
186
237
147
167
189
53
83
113
68
43
29
24
45
73
55
32
19
40
27
41
36
28
36
17
15
14
7
7
5
14
4
18
214
222
224
255
255
243
252
255
255
255
255
255
100
116
144
121
119
138
17
37
45
26
39
35
81
67
92
64
52
67
11
15
20
16
15
20
14
14
14
2
4
4
4
2
8
3
3
5
5
5
4
6
0
2
50
53
69
87
88
119
75
70
97
2
4
10
118
118
148
82
79
96
19
17
38
7
7
21
25
25
34
46
25
22
18
11
28
3
31
72
7
32
80
4
36
92
3
8
17
2
34
67
42
11
10
65
42
48
46
18
27
43
17
66
65
31
106
30
2
16
16
35
43
212
225
203
255
255
255
112
101
78
30
36
44
34
31
36
27
15
22
124
120
104
255
255
255
255
255
255
58
35
40
4
12
1
3
4
4
9
14
9
6
6
12
21
13
15
197
192
242
230
189
224
21
42
45
26
41
52
81
87
103
106
104
100
114
120
128
50
54
41
92
82
80
50
54
54
121
127
132
255
255
220
161
64
28
5
56
78
3
15
29
7
19
73
60
43
161
18
36
41
66
9
63
174
175
129
255
255
210
178
128
99
68
70
85
71
69
75
62
59
57
49
40
35
28
22
21
196
219
195
248
238
190
117
106
117
85
84
112
29
26
43
17
6
17
22
16
17
44
46
67
60
49
51
49
45
37
98
76
52
48
39
55
4
21
50
4
21
41
4
16
37
7
18
47
72
111
149
227
248
253
255
255
255
255
255
255
255
255
255
255
223
200
131
92
80
28
25
20
18
28
33
21
29
37
15
21
30
12
12
22
16
13
22
21
21
21
28
28
20
29
26
20
22
17
15
18
15
14
18
22
20
18
25
25
15
19
24
5
10
11
15
2
3
19
8
2
19
17
11
18
18
18
4
4
5
20
20
25
13
13
21
5
5
1
14
14
12
9
8
17
7
4
14
2
6
8
5
8
5
8
10
10
11
12
14
12
11
14
14
14
14
13
13
15
11
11
17
9
9
15
10
8
10
12
10
11
11
14
12
12
17
14
14
17
15
8
8
8
4
4
4
10
10
10
18
18
18
14
14
14
17
17
17
17
17
17
255
255
255
255
247
255
17
17
17
18
18
18
15
15
15
12
12
12
11
11
11
11
11
14
9
9
13
10
10
12
9
9
12
8
8
14
8
8
15
9
9
12
12
5
8
6
10
7
12
9
14
3
6
16
1
5
12
5
7
12
10
10
13
8
8
8
11
10
14
11
8
18
9
6
15
7
7
10
7
7
7
15
15
15
16
16
16
20
21
20
15
18
17
5
13
9
14
17
15
16
19
17
20
20
20
16
16
16
15
15
15
17
17
17
12
12
12
8
8
8
8
8
8
5
5
5
4
4
4
4
4
4
8
8
8
15
15
15
9
9
9
3
3
3
2
1
1
4
1
1
4
3
3
10
11
11
12
13
13
8
8
8
6
6
6
2
2
2
3
4
4
4
3
3
5
7
7
12
12
12
11
11
11
6
5
5
10
8
8
18
17
17
19
19
19
16
16
16
11
15
13
16
22
19
19
27
23
21
26
23
10
16
13
9
13
10
8
8
8
1
1
1
3
3
3
11
11
11
14
14
14
13
13
13
13
13
13
6
6
6
5
5
5
11
11
11
16
16
16
15
15
15
11
11
11
9
9
9
4
4
4
8
8
8
12
12
12
7
7
7
8
8
8
8
8
8
8
8
8
2
2
2
8
8
8
9
9
9
18
20
21
31
34
39
35
37
47
34
34
45
38
38
46
40
40
46
43
43
45
70
71
70
107
103
106
149
134
136
178
160
158
192
180
179
201
198
193
201
205
199
195
199
193
182
179
163
165
158
138
144
141
134
116
120
120
87
97
91
65
75
71
55
61
64
52
54
59
52
49
58
52
46
60
52
50
60
55
60
58
63
64
46
73
64
52
82
66
57
92
71
56
97
74
54
83
67
49
60
52
36
51
47
31
49
47
30
41
41
29
25
24
19
8
5
5
7
8
8
15
15
17
24
24
30
34
34
42
28
28
31
18
18
13
15
15
10
9
9
3
8
8
2
13
13
9
14
14
16
9
9
12
8
8
7
9
9
9
9
9
9
7
7
5
11
11
13
88
37
25
255
238
141
172
220
255
21
111
198
54
59
82
59
57
65
33
30
41
10
11
14
35
37
36
17
18
37
26
27
20
25
17
21
5
2
11
16
15
26
75
25
9
88
45
1
8
53
95
89
77
61
255
247
154
255
238
166
76
59
53
68
55
54
57
61
63
74
83
75
255
255
255
205
206
196
51
33
52
24
23
33
41
23
36
35
34
44
4
8
12
15
14
22
47
46
54
5
7
20
99
94
96
26
23
39
68
68
74
46
39
81
8
8
15
7
7
12
18
22
26
124
125
99
163
166
140
217
197
197
148
136
108
32
24
22
81
93
112
31
29
37
49
64
80
90
111
132
100
118
130
110
125
139
90
105
116
58
76
80
45
64
69
55
74
83
6
14
13
66
52
54
122
94
90
150
112
108
91
62
59
18
17
40
31
39
65
12
24
62
40
10
8
32
24
40
28
26
31
16
13
7
6
5
5
15
5
17
191
192
204
239
206
170
232
233
255
255
234
220
120
130
165
96
95
101
34
44
48
30
28
24
84
71
93
49
38
50
21
23
22
14
16
13
20
22
22
6
9
12
5
4
7
10
7
11
9
11
7
17
12
10
41
43
55
86
88
120
60
58
79
37
35
33
66
69
86
83
81
84
16
17
7
3
10
11
16
23
32
45
28
28
31
5
35
8
27
80
3
15
61
0
29
69
2
16
24
4
24
43
5
22
28
4
27
37
4
20
31
50
13
50
56
32
117
26
3
34
25
31
48
177
180
175
255
255
255
135
133
92
26
34
24
15
10
8
8
10
2
25
48
34
255
255
255
255
255
255
104
81
95
62
52
52
44
34
33
44
34
34
32
22
21
31
21
16
176
175
221
245
216
255
37
21
24
56
68
79
51
56
67
20
17
8
108
111
110
85
94
104
89
82
83
42
47
49
101
113
133
255
252
212
164
54
27
3
62
91
0
20
30
1
17
83
58
48
169
43
31
42
63
10
67
87
125
117
255
255
251
255
191
125
21
22
39
31
27
36
25
20
24
22
17
13
26
41
45
231
247
212
183
171
121
96
91
99
134
131
149
44
37
44
25
20
33
32
20
27
47
50
68
61
50
52
48
44
38
104
74
39
48
31
36
2
15
38
1
14
34
8
13
36
4
22
50
98
134
164
255
255
245
244
196
157
123
114
94
97
89
67
68
52
45
40
27
32
28
23
34
24
16
23
17
14
19
13
13
15
13
12
16
13
10
19
10
7
19
7
5
15
2
0
4
7
8
12
6
13
17
5
11
8
7
7
7
11
12
18
11
10
9
15
8
10
11
13
11
2
7
4
16
17
15
12
11
18
8
7
10
14
14
14
17
17
19
17
17
17
14
13
7
10
7
9
7
3
15
8
5
12
10
7
7
6
3
2
7
13
10
12
20
16
17
23
22
25
27
32
29
27
34
26
19
26
24
15
20
26
19
22
28
24
25
32
31
32
38
38
38
36
36
36
36
36
36
41
41
41
39
39
39
33
33
33
18
18
18
255
255
255
251
243
255
6
6
6
11
11
11
9
9
9
2
2
2
6
6
6
11
11
11
7
7
9
8
8
12
13
13
15
16
16
16
11
11
11
2
2
2
8
4
5
9
12
10
14
11
11
8
6
7
6
4
5
7
5
8
8
8
8
5
5
3
1
1
3
5
4
7
5
3
9
4
5
2
4
4
4
14
14
14
19
17
18
22
14
18
18
10
14
11
3
7
22
13
17
25
18
21
17
10
13
16
8
12
21
13
17
19
12
15
14
7
10
10
2
6
8
4
5
6
5
5
4
4
4
4
4
4
4
4
4
14
14
14
24
24
24
28
28
28
26
28
29
23
29
32
23
31
35
27
33
38
30
32
38
27
27
29
21
21
21
16
16
16
14
15
15
19
24
22
22
32
29
19
28
24
13
21
17
8
15
12
11
12
11
14
14
14
10
10
10
5
5
5
10
12
10
18
22
20
21
8
13
21
13
15
10
12
9
8
11
8
10
10
10
5
5
5
4
4
4
4
4
4
6
6
6
2
2
2
4
4
4
11
11
11
12
12
12
15
15
15
8
8
8
7
7
7
8
8
8
9
9
9
16
16
16
13
13
13
7
7
7
9
9
9
7
7
7
11
11
11
20
20
20
26
26
26
25
25
25
27
27
27
28
28
31
29
29
37
29
29
33
28
28
29
31
31
31
34
34
34
34
34
34
35
38
34
35
41
37
40
45
40
58
56
45
64
55
43
64
52
36
57
48
31
48
44
32
45
43
34
51
49
38
61
58
44
63
61
40
61
61
44
59
57
49
50
48
39
40
40
31
37
37
33
28
30
24
20
21
18
29
36
24
37
43
26
39
44
36
41
38
38
33
31
27
21
25
20
11
14
11
7
5
5
14
11
11
16
15
15
8
8
7
7
7
10
18
15
24
31
24
35
43
38
50
36
33
42
25
25
29
17
17
21
10
10
14
16
16
8
33
33
25
44
44
36
51
51
48
46
46
49
32
32
38
35
35
37
35
35
35
24
24
24
19
19
18
25
25
26
102
54
19
255
238
159
180
225
255
13
107
183
26
31
47
66
58
69
40
31
46
20
11
16
28
27
24
15
15
39
25
26
21
27
11
18
1
2
17
17
8
17
70
17
12
86
45
4
14
44
94
72
80
74
255
255
162
255
255
169
15
8
20
18
16
24
13
27
22
121
126
125
255
255
255
172
173
160
40
28
45
24
22
29
34
20
27
33
30
31
4
8
8
12
9
11
43
46
53
17
12
9
98
94
94
14
11
29
67
67
71
39
32
71
11
8
18
7
5
10
18
22
24
108
109
87
147
151
126
188
171
172
129
117
99
16
8
10
72
87
93
15
14
22
56
74
87
97
112
140
53
54
63
58
59
73
74
76
93
12
10
7
24
34
31
58
71
84
13
4
11
28
24
33
23
30
40
61
69
79
136
132
138
169
189
213
178
223
255
149
182
210
89
90
102
28
28
35
24
25
31
17
11
6
11
4
7
8
4
21
163
158
180
175
152
118
212
209
241
191
170
149
125
129
166
73
73
70
36
49
56
18
19
27
78
72
91
39
37
48
34
36
31
10
7
5
26
26
28
8
10
13
11
2
11
17
8
17
9
10
14
22
16
17
34
33
46
78
81
108
60
64
84
23
19
12
48
54
71
67
62
77
29
22
25
3
2
8
10
22
27
40
29
38
38
4
37
17
22
78
2
11
56
3
31
67
6
26
36
2
15
31
6
15
18
2
13
25
2
4
11
54
3
50
47
25
111
12
7
40
34
27
52
135
138
145
255
255
255
179
173
133
14
15
25
7
18
20
10
18
20
21
47
37
255
255
241
255
246
233
107
98
106
90
80
85
74
60
67
68
55
63
58
45
54
55
42
48
86
88
115
243
234
255
182
162
204
57
56
66
25
32
29
26
33
32
21
15
18
56
63
75
77
75
80
56
67
69
74
88
111
255
251
225
174
63
47
1
72
127
1
21
35
5
19
89
42
61
183
67
26
53
43
1
75
19
71
98
255
255
255
255
247
158
49
29
36
24
22
24
17
18
10
1
1
17
49
64
65
228
241
200
140
125
89
48
52
66
118
117
131
37
32
28
38
34
42
29
22
34
52
47
62
59
53
55
51
43
43
108
73
31
49
24
21
5
13
27
2
17
21
10
17
32
2
24
45
74
118
156
255
255
250
255
223
150
34
21
24
1
6
14
12
6
8
16
8
12
15
7
8
8
5
20
8
6
20
7
2
12
1
7
15
13
17
25
13
13
21
10
6
10
13
8
13
17
10
6
13
8
14
12
10
11
9
9
9
3
7
12
9
4
10
18
10
18
27
23
24
28
28
23
23
24
20
11
11
10
7
7
7
15
15
13
17
17
15
12
12
10
8
8
10
4
2
2
1
1
1
3
3
3
4
4
7
3
3
1
12
13
10
2
1
8
7
8
15
12
11
22
15
15
23
17
17
22
10
15
12
5
11
8
5
8
7
4
4
4
8
8
8
6
6
6
17
17
17
30
30
30
36
36
36
31
31
31
22
22
22
255
255
255
252
244
255
3
3
3
8
8
8
5
5
5
12
12
12
15
15
15
17
17
17
12
12
11
9
9
9
6
6
7
4
4
4
5
5
5
6
6
6
13
13
15
11
20
19
7
8
15
8
11
9
6
8
7
2
10
5
4
12
6
4
8
5
4
8
4
7
13
10
7
13
10
8
11
10
4
4
4
9
8
11
19
16
25
19
17
28
5
7
16
5
3
8
4
5
7
4
1
4
8
10
9
12
16
14
8
12
10
5
5
4
3
4
2
3
6
5
3
8
7
2
4
3
8
8
8
16
16
16
21
21
21
19
19
19
13
13
13
6
6
6
7
8
9
13
13
14
14
14
14
11
12
11
13
14
15
19
19
20
20
20
20
16
16
16
14
14
14
15
18
16
11
14
15
8
8
11
6
6
8
4
8
7
7
5
9
3
4
8
11
11
13
11
11
13
4
10
7
11
21
16
4
5
2
5
13
9
5
9
4
11
9
10
16
16
18
16
16
21
7
7
15
4
4
10
8
8
10
16
16
16
19
19
19
20
20
22
26
26
32
27
27
33
12
12
20
9
9
10
18
18
15
20
20
18
14
14
14
12
12
12
13
13
13
17
17
17
18
18
18
17
17
17
18
18
18
16
16
16
12
12
12
14
14
14
5
5
3
9
9
8
13
13
11
13
13
15
15
15
15
6
6
6
8
7
7
15
12
10
8
8
4
3
7
6
14
18
13
25
23
15
32
27
23
36
29
30
41
35
40
48
46
53
51
53
56
48
52
45
41
44
35
41
39
36
40
36
36
33
28
32
17
13
7
11
8
5
14
17
14
5
5
7
17
27
19
19
21
33
17
17
27
6
6
6
8
5
12
14
13
20
27
25
27
36
35
35
38
38
38
37
37
37
41
41
39
47
47
41
50
50
43
50
53
44
40
49
41
48
50
54
55
59
65
33
37
44
17
21
24
15
18
18
13
15
15
11
15
12
14
20
17
19
20
19
13
14
20
12
13
18
9
9
10
14
14
17
1
4
5
13
17
22
118
71
20
255
235
165
177
224
255
38
96
166
3
7
15
68
49
65
36
38
47
14
12
14
24
16
15
8
19
34
23
24
15
30
11
16
4
2
12
15
5
17
63
10
17
82
46
8
19
25
76
51
75
79
255
255
173
255
255
174
30
24
1
13
10
11
32
33
22
164
171
173
255
255
255
127
129
114
31
23
36
24
24
28
29
17
19
34
28
26
0
6
4
6
6
6
38
43
51
34
25
17
95
88
94
5
6
7
68
66
73
27
24
50
12
7
11
13
13
20
18
21
23
93
93
74
118
120
99
161
148
149
99
88
79
7
11
19
65
77
76
5
9
7
62
73
81
95
109
134
43
50
62
55
54
69
81
82
103
15
24
20
28
41
40
45
56
72
11
2
0
19
28
35
5
18
23
81
78
82
225
201
202
232
222
228
212
210
202
225
222
226
189
186
199
42
39
46
25
26
34
17
10
7
11
4
6
6
5
23
127
121
149
104
95
68
180
173
203
116
98
77
123
122
152
60
53
47
36
44
54
7
10
13
75
68
85
36
38
43
41
42
39
6
1
4
29
29
29
7
10
8
13
9
8
12
12
15
3
7
15
23
19
17
31
31
42
65
67
84
69
75
96
26
22
34
52
56
82
60
57
81
33
30
31
8
8
13
7
16
15
34
27
36
43
13
26
26
14
72
3
8
54
6
30
66
2
39
55
6
7
22
5
4
28
3
1
20
4
2
7
58
4
59
47
28
113
4
12
37
35
29
52
97
103
111
255
255
255
223
220
177
7
4
13
4
4
10
4
8
4
4
30
27
241
255
227
240
221
195
84
72
78
61
56
60
43
36
38
38
31
36
36
26
35
51
42
55
13
10
16
121
117
152
253
239
255
211
202
240
71
70
78
24
31
29
11
22
25
16
30
18
45
32
19
65
82
75
36
54
79
255
255
255
203
111
110
2
96
205
2
78
182
25
51
131
48
58
165
58
23
55
22
15
90
64
32
86
255
255
231
255
255
172
87
60
45
44
40
38
36
31
28
24
23
23
55
74
70
210
223
179
146
131
109
98
103
132
107
105
118
28
25
28
42
35
37
22
21
35
51
42
56
57
55
63
54
43
49
108
71
29
51
19
10
1
5
27
3
16
26
6
21
37
4
17
36
30
88
142
255
255
235
255
249
157
68
42
9
13
19
4
25
24
8
29
22
11
24
19
17
15
18
19
10
19
16
7
19
17
10
19
19
10
13
22
1
12
18
5
11
11
12
14
9
5
7
4
2
1
7
2
2
1
8
6
7
12
5
11
8
4
11
6
5
8
5
6
9
10
13
7
6
9
0
4
4
5
5
2
11
15
13
21
14
12
20
7
5
13
2
3
8
8
4
3
9
3
4
5
4
7
5
10
13
5
13
11
14
20
12
3
5
3
10
10
3
5
9
6
11
11
17
11
11
14
8
8
8
9
9
9
9
9
9
7
7
7
7
7
7
5
5
5
11
11
11
11
11
11
11
11
11
13
13
13
11
11
11
255
255
255
247
239
251
24
24
24
21
21
21
14
14
14
4
4
4
7
7
7
18
18
18
15
15
16
14
14
18
15
15
17
17
17
17
12
12
12
10
10
10
10
8
15
12
19
20
26
32
35
29
31
33
25
25
25
27
29
28
29
35
30
26
34
26
19
27
21
7
15
11
5
11
8
3
9
6
11
11
11
12
10
15
16
16
19
15
21
18
19
27
23
17
25
21
7
13
12
16
14
19
21
18
19
26
22
24
28
28
28
21
21
21
3
5
8
4
10
9
10
17
11
11
13
14
12
12
12
6
6
6
5
5
5
15
15
15
14
14
14
6
6
6
8
10
11
11
9
10
12
4
2
11
7
4
9
7
4
7
7
5
9
9
9
13
13
13
15
15
15
9
7
8
2
8
8
4
8
5
8
4
11
10
6
3
12
11
12
11
11
12
14
14
17
20
20
22
14
13
13
16
17
16
18
1
8
20
10
12
13
4
8
14
11
13
19
19
22
28
28
34
32
32
38
32
32
35
34
34
33
35
35
35
40
40
40
44
44
44
37
37
38
22
22
22
13
13
13
17
17
17
12
12
16
2
2
4
4
4
4
8
8
8
12
12
12
7
7
7
14
14
14
25
25
25
27
27
27
24
24
24
21
21
21
17
17
17
10
10
10
10
10
13
12
12
15
2
2
4
16
16
16
26
26
26
17
18
18
8
10
10
4
7
8
3
2
4
8
9
10
15
19
21
19
21
26
19
18
24
20
19
21
18
16
16
4
2
4
16
14
8
27
24
16
30
27
24
29
23
28
20
14
22
8
7
11
8
6
14
13
11
17
3
5
3
17
21
10
12
10
14
5
3
13
6
6
12
2
4
5
14
12
15
10
6
9
1
0
4
11
11
11
10
10
10
11
11
11
21
21
27
34
32
41
51
46
57
67
65
74
67
64
75
39
39
46
17
17
22
14
14
16
25
25
25
43
43
43
55
55
54
61
61
59
57
57
61
46
46
54
48
50
56
45
49
51
27
29
36
19
19
22
18
23
18
140
97
20
255
250
183
172
220
255
40
76
141
13
7
7
63
41
59
38
46
51
10
10
11
15
6
2
10
20
26
19
18
11
32
13
13
6
2
4
15
7
25
50
6
29
83
46
12
27
7
50
31
66
80
255
249
178
255
255
171
56
53
43
44
39
46
48
51
50
191
204
202
255
255
255
100
99
84
33
23
30
19
19
25
27
15
13
29
26
25
7
8
5
12
8
8
35
32
45
38
32
24
86
74
89
12
13
10
67
60
74
18
20
35
9
4
10
22
17
28
19
20
26
71
73
54
90
89
74
129
123
123
62
52
48
25
25
32
62
68
70
16
17
15
57
64
75
87
99
123
41
49
57
73
70
88
86
91
103
18
26
19
28
31
35
33
42
56
10
4
6
17
27
31
4
17
26
75
73
75
255
245
238
180
162
172
23
46
73
181
186
189
221
212
216
62
50
66
25
25
32
12
11
4
5
4
3
5
7
19
94
92
123
50
42
43
136
129
165
54
37
26
117
114
134
53
38
33
32
35
39
13
14
11
75
69
86
40
39
40
45
45
45
5
5
12
29
28
30
10
12
14
8
14
10
11
17
21
5
11
15
26
22
29
27
30
40
56
56
71
68
67
86
49
48
74
52
50
73
74
74
100
25
28
29
8
8
7
0
5
7
24
21
19
46
21
12
34
8
66
5
3
55
1
25
57
6
50
66
2
4
8
1
4
16
3
3
12
1
4
12
60
7
55
46
32
120
1
15
33
32
33
53
68
71
80
255
255
255
255
255
214
44
36
37
53
49
57
60
58
60
54
62
65
236
255
232
238
239
201
95
79
85
42
34
39
14
7
10
38
34
40
20
6
11
37
27
33
39
34
39
21
17
13
113
110
145
255
255
255
225
219
251
34
33
39
18
21
15
25
36
29
49
41
44
58
68
54
62
89
127
255
255
255
194
139
161
7
70
155
5
84
173
57
67
132
66
22
97
24
35
67
12
25
95
65
18
98
218
229
191
255
255
181
112
71
24
17
16
12
28
25
29
39
36
40
56
72
64
192
207
163
170
164
152
145
137
172
76
71
75
29
30
38
29
24
29
22
20
33
41
39
52
62
58
72
50
45
53
109
69
28
52
16
12
4
3
28
4
13
33
1
20
44
4
7
20
2
63
126
234
240
226
255
255
173
104
68
25
6
16
7
6
4
8
14
7
10
21
6
11
11
4
13
11
4
8
11
8
6
3
1
5
13
9
13
10
5
18
13
12
5
10
14
4
10
12
13
13
7
10
13
7
10
3
3
2
4
4
4
2
2
2
3
3
3
7
8
7
8
10
8
12
14
10
13
13
13
9
9
9
9
9
9
10
10
10
6
6
6
5
3
9
4
6
0
7
7
7
8
8
8
8
8
8
7
7
7
18
20
16
23
26
17
20
23
14
14
15
11
8
8
8
3
3
3
4
4
4
5
5
5
4
4
4
3
3
3
2
2
2
4
4
4
4
4
4
11
11
11
12
12
12
12
12
12
9
9
9
255
255
255
241
233
247
11
11
7
14
14
11
14
14
12
15
15
15
22
22
22
19
19
19
8
8
8
4
4
4
3
3
3
4
4
4
5
5
5
9
9
9
11
11
17
9
8
19
11
12
3
10
11
14
15
15
15
13
13
13
12
12
12
18
18
18
8
8
8
12
12
12
8
15
11
6
5
5
10
8
9
13
16
18
15
18
25
18
16
27
13
9
21
10
7
17
18
18
25
19
20
23
2
10
6
7
1
3
11
11
11
20
20
20
17
19
21
15
14
23
16
14
23
13
12
16
13
13
13
8
8
8
8
8
8
15
15
15
25
25
25
30
30
30
25
28
27
13
19
16
5
12
8
4
12
8
5
13
9
5
10
7
2
8
4
5
13
9
12
18
15
19
21
20
19
19
17
16
16
12
18
18
17
19
19
19
18
18
18
19
19
13
18
18
14
18
18
18
12
12
12
4
4
4
12
12
12
10
10
10
5
5
5
11
11
11
10
10
16
2
2
10
5
5
5
12
12
10
11
11
8
2
2
2
2
2
2
4
4
6
12
12
17
20
20
28
27
27
33
16
16
23
2
2
7
10
10
8
13
13
13
12
12
12
15
15
15
9
9
9
10
10
10
21
21
21
12
12
12
13
13
13
4
4
4
2
2
2
5
5
5
1
1
1
6
6
6
10
10
10
2
2
2
7
7
7
16
16
16
17
17
17
12
12
12
11
11
11
12
12
12
10
10
10
10
8
9
23
18
21
32
26
29
31
29
30
28
27
27
25
25
25
25
25
25
23
23
23
18
18
18
10
10
7
2
2
8
12
12
21
9
9
12
14
14
5
22
22
17
20
20
23
19
19
21
12
12
14
4
4
4
10
10
11
10
10
14
19
19
15
24
24
16
35
35
27
46
46
39
38
38
31
13
16
8
4
3
8
10
6
15
18
13
17
12
8
8
15
13
13
7
4
4
5
5
5
5
6
3
4
4
10
4
7
4
2
2
7
4
4
4
4
5
5
12
12
15
8
11
9
7
5
11
10
12
17
169
119
37
255
255
224
157
211
255
25
54
104
18
13
9
62
46
60
44
48
58
12
13
14
5
2
7
5
15
17
13
11
3
29
9
10
11
5
4
17
6
28
41
5
29
87
53
34
36
18
48
16
62
86
255
236
173
255
255
166
47
49
11
15
13
5
45
45
37
216
227
223
255
255
255
68
65
54
38
26
30
12
12
20
24
12
8
23
23
23
3
11
7
10
10
10
24
21
35
36
31
26
70
58
76
17
16
16
60
50
68
16
20
30
7
3
15
19
14
28
17
16
24
49
51
35
55
52
43
94
90
89
34
21
21
37
32
41
52
59
60
21
21
21
46
54
63
78
90
112
34
42
49
77
78
96
76
85
91
10
10
16
19
21
28
26
34
46
8
3
2
13
19
23
11
19
29
41
41
44
241
226
214
226
207
204
115
115
112
204
195
186
178
163
162
57
43
63
24
24
28
8
12
4
5
4
3
5
9
18
70
72
94
25
29
46
103
101
136
20
5
7
110
106
122
47
28
21
24
24
24
19
19
19
78
74
90
43
39
39
53
53
53
13
12
13
30
30
31
11
7
20
4
4
4
17
12
27
10
11
11
32
28
40
22
27
35
48
48
64
50
46
58
87
86
111
28
28
33
109
108
137
39
43
51
3
3
1
2
2
1
20
16
16
38
17
8
34
4
67
11
5
57
6
23
44
4
51
70
5
4
26
3
10
10
5
4
24
3
3
14
60
7
49
45
29
118
4
12
31
28
32
52
47
48
57
255
255
255
255
255
255
64
54
43
9
15
16
7
7
7
12
28
30
225
247
222
249
255
223
118
97
105
33
23
25
14
2
2
43
41
47
10
4
5
20
13
15
23
19
22
52
46
48
58
45
42
166
154
188
255
255
255
185
178
214
25
23
38
22
31
23
48
54
73
56
74
108
197
209
255
255
228
255
106
74
84
25
13
39
14
24
52
88
77
97
67
18
28
50
64
91
12
21
78
44
24
118
142
173
167
255
255
196
165
111
56
34
36
34
43
48
40
62
60
53
62
70
62
177
195
153
190
189
181
155
140
174
52
46
43
24
18
32
21
11
18
24
20
31
34
37
49
64
62
75
43
43
51
109
67
23
53
13
25
1
8
21
3
13
31
2
18
48
4
2
19
4
44
105
183
203
204
255
255
186
160
112
60
15
15
20
11
11
21
15
11
12
12
2
8
8
2
4
10
4
10
15
4
5
15
7
3
18
10
6
16
8
6
15
11
8
1
5
9
19
17
21
13
13
18
10
12
19
11
13
18
1
9
12
4
3
6
5
5
4
5
6
5
2
5
12
10
10
18
8
10
16
4
8
12
1
5
15
8
7
22
5
1
21
4
7
10
14
15
6
14
14
11
8
8
7
3
3
3
7
7
7
10
10
10
18
18
18
18
18
18
13
13
13
12
12
12
13
13
13
18
18
18
22
22
22
20
20
20
17
17
17
15
15
15
12
12
12
13
13
13
8
8
8
5
5
5
5
5
5
4
4
4
255
255
255
248
241
255
31
31
39
29
29
33
18
18
17
7
7
7
14
14
14
22
22
22
28
28
28
29
29
29
27
27
27
27
27
27
29
29
29
23
23
23
6
6
4
12
12
21
15
15
20
10
10
12
2
2
2
3
3
3
3
3
3
9
9
9
15
15
15
18
18
18
20
25
22
17
23
20
17
25
21
24
31
27
26
34
30
27
35
31
32
38
35
32
34
33
21
21
23
13
13
18
4
7
12
7
3
11
8
8
12
10
10
16
15
17
22
25
25
27
32
33
30
34
36
30
30
31
28
20
20
20
15
15
15
17
17
17
15
15
15
10
11
8
6
8
2
5
5
2
7
7
7
9
9
9
9
9
9
12
12
12
5
5
5
3
3
3
8
6
7
6
2
6
10
10
16
9
9
17
4
3
11
4
5
4
5
5
5
1
3
3
5
7
3
11
11
11
14
14
14
12
12
12
7
7
7
11
11
11
7
7
7
9
9
9
15
15
18
21
21
27
21
21
27
17
17
19
12
12
12
12
12
12
19
19
19
29
29
29
32
32
32
25
25
25
17
17
17
14
14
14
20
20
20
26
26
26
25
25
25
22
22
22
13
13
13
7
7
7
14
14
14
24
24
24
28
28
28
37
37
37
39
39
39
35
35
35
21
21
21
16
16
16
22
22
22
24
24
24
17
17
17
16
16
16
27
27
27
31
31
31
22
22
22
18
18
18
18
18
18
15
15
15
11
11
11
8
8
8
14
14
14
19
20
20
26
27
27
36
34
34
39
36
36
37
36
36
39
39
39
34
34
34
20
20
22
14
14
20
12
12
22
16
16
14
11
11
15
8
8
13
8
8
6
8
8
0
6
6
7
8
8
11
2
2
7
14
14
11
17
17
17
13
13
13
5
5
5
28
28
28
26
27
27
24
24
24
21
20
19
18
18
13
12
13
10
11
11
11
4
4
4
4
4
4
14
14
14
22
22
21
25
25
21
24
24
22
22
23
20
27
31
22
28
33
24
18
22
18
13
17
14
19
22
19
194
134
61
255
255
255
129
194
249
14
35
66
16
13
8
64
56
61
50
46
60
13
18
13
5
4
8
5
14
13
8
2
9
23
8
10
10
7
7
15
5
22
34
6
19
91
57
33
47
8
44
8
59
94
255
231
174
255
255
179
65
68
39
40
40
46
47
45
49
241
250
250
237
255
238
35
35
23
42
29
33
13
13
21
19
9
4
24
23
23
5
10
7
8
8
8
18
19
29
39
33
26
60
51
65
21
17
18
62
50
68
20
22
26
12
7
7
12
10
21
8
8
13
36
35
24
22
23
23
69
60
56
19
4
4
40
38
51
38
48
45
20
20
21
34
42
45
72
83
103
28
36
45
77
76
94
70
76
85
8
2
14
11
16
22
25
31
41
5
4
2
6
8
12
11
17
22
16
22
26
161
151
143
230
217
214
161
159
157
177
164
158
87
77
76
42
33
49
23
23
28
8
12
6
7
5
5
1
9
17
50
51
65
32
39
56
85
83
108
10
9
19
101
97
113
43
24
17
15
15
15
20
20
20
78
74
90
42
38
38
59
58
61
17
16
21
33
34
32
21
17
34
2
2
10
21
18
32
5
6
5
39
35
48
20
25
30
50
48
67
13
15
24
97
100
123
59
60
68
118
117
151
78
81
96
3
0
7
3
1
8
26
22
28
25
13
9
29
12
78
28
7
59
1
18
30
2
46
75
3
15
41
4
13
25
4
11
29
3
5
12
60
5
48
48
24
110
1
11
30
24
28
46
31
35
44
243
251
233
255
255
255
106
90
77
75
68
63
77
73
69
61
58
59
200
219
196
254
255
230
126
109
115
17
12
10
14
5
7
53
46
53
9
5
9
8
5
6
33
28
34
46
42
42
112
87
91
19
16
22
201
181
218
255
255
255
154
146
172
16
26
50
82
110
135
189
188
235
224
195
240
114
79
106
25
25
28
64
51
56
74
56
54
111
86
98
62
29
28
84
87
117
20
8
34
27
30
120
78
128
157
255
255
213
221
152
80
22
30
30
31
32
29
37
45
35
43
64
53
176
200
158
212
207
200
144
126
154
36
27
23
13
13
23
12
5
14
21
20
26
34
35
47
64
65
72
36
38
45
107
66
23
55
5
35
0
5
11
5
10
24
3
17
41
5
11
30
4
33
80
115
155
169
255
255
180
219
146
79
70
58
58
59
56
68
49
47
49
43
38
35
33
25
18
19
14
8
20
12
5
24
12
6
23
15
10
18
14
13
15
7
10
16
11
9
31
28
21
44
44
35
40
42
39
25
31
28
13
20
16
21
26
21
37
37
28
43
40
29
42
34
27
35
26
22
25
17
13
19
11
7
18
12
7
15
13
6
12
12
4
14
14
8
15
15
10
12
12
9
9
9
4
7
7
5
8
8
8
6
6
6
4
4
7
9
9
13
7
7
9
8
8
8
5
5
5
13
13
13
12
12
12
8
8
8
10
10
10
15
15
15
15
15
15
16
16
16
21
21
21
27
27
27
22
22
22
11
11
11
255
255
255
255
253
255
19
19
17
13
13
10
6
6
7
4
4
4
7
7
7
7
7
7
5
5
5
2
2
2
12
12
12
14
14
14
14
14
14
13
15
14
14
20
17
11
18
17
12
18
18
11
14
13
10
10
10
4
4
4
7
7
7
6
6
6
7
7
7
9
9
9
13
16
14
11
15
13
7
9
8
9
9
9
12
15
13
8
14
11
4
11
7
4
12
8
5
13
12
6
11
16
5
11
15
13
8
18
15
10
18
11
4
15
11
7
17
10
12
18
11
17
20
20
22
23
20
20
20
14
14
14
5
5
10
1
1
5
5
5
5
8
8
10
11
13
12
6
12
11
2
6
2
4
7
4
3
9
5
7
11
8
6
10
7
7
13
9
9
15
12
17
16
20
8
8
8
22
22
17
27
27
22
26
26
18
20
21
18
24
24
24
27
27
27
24
24
24
20
20
20
16
16
16
12
12
12
5
5
5
7
7
7
2
2
2
6
6
6
4
4
4
6
6
6
6
6
6
4
4
4
8
8
8
15
15
15
11
11
11
2
2
2
5
5
5
8
8
8
4
4
4
8
8
8
5
5
5
4
4
4
7
7
7
3
3
3
10
10
10
19
19
19
23
23
23
18
18
18
17
17
17
2
2
2
19
19
19
14
14
14
11
11
11
13
13
13
10
10
10
6
6
6
14
14
14
11
11
11
11
11
11
12
12
12
13
13
13
19
19
19
12
12
12
8
8
8
11
11
11
19
19
19
14
15
15
17
18
16
21
20
16
18
18
15
16
16
16
18
18
18
11
11
11
10
10
10
10
10
10
10
10
18
5
5
13
12
12
2
23
23
15
28
28
27
24
24
24
15
15
13
13
13
6
9
9
16
5
5
8
7
7
7
7
7
7
21
21
21
21
21
21
8
10
10
8
9
9
12
6
12
10
7
7
1
3
3
4
4
4
4
4
4
5
5
5
8
8
8
11
11
11
8
8
9
12
12
8
15
13
17
17
14
16
12
8
14
7
5
10
9
8
14
23
18
17
199
140
75
255
255
255
109
177
226
5
20
32
15
15
7
62
59
59
54
42
57
17
24
16
19
15
18
16
18
16
8
7
17
16
9
2
7
5
13
12
7
15
27
7
10
92
58
28
57
15
36
4
58
98
255
231
180
255
255
187
85
81
41
17
13
13
33
37
35
255
255
255
233
249
235
15
15
7
45
30
34
19
19
27
15
9
2
22
22
22
8
7
7
5
5
5
19
20
28
43
36
30
57
48
60
24
16
19
71
55
74
18
23
25
16
6
10
10
4
13
13
18
23
31
35
31
30
29
34
51
39
35
9
8
9
40
45
58
31
40
37
21
21
21
26
36
36
70
80
100
31
39
51
80
78
96
67
73
87
8
2
7
10
14
19
23
29
34
6
0
3
2
2
4
5
5
7
9
3
2
72
60
55
172
156
157
168
160
162
104
93
91
20
14
14
37
34
42
22
22
27
8
13
11
8
8
8
9
7
11
36
34
44
32
39
52
66
62
81
2
18
32
95
91
107
41
21
13
11
11
11
19
19
19
72
68
84
43
39
39
59
56
66
26
26
31
29
29
31
31
30
41
13
12
22
20
19
29
7
7
8
42
38
53
18
20
23
59
55
73
3
2
6
69
72
99
107
110
130
92
92
128
100
104
126
7
6
17
4
4
4
30
27
39
17
10
7
24
19
84
40
1
65
3
12
28
3
43
78
2
28
56
4
17
40
1
24
42
1
14
14
60
13
53
51
20
102
0
10
27
23
26
40
21
23
35
203
220
209
255
255
255
98
81
65
19
20
22
23
20
17
25
15
11
177
197
175
253
255
231
120
111
114
2
2
2
1
7
13
64
52
60
14
10
11
8
7
7
53
48
55
37
37
38
129
100
102
46
25
31
45
45
64
220
201
242
255
241
255
130
123
137
207
207
225
241
193
239
103
76
108
21
22
9
55
44
54
66
45
62
85
56
60
91
62
68
35
18
14
100
94
125
36
32
25
18
33
109
33
91
147
255
255
237
255
216
134
28
25
28
39
41
34
42
47
38
68
94
77
205
236
192
229
213
211
125
102
127
14
10
5
9
10
13
13
10
16
23
21
22
34
34
46
68
67
74
27
34
39
107
66
33
58
1
41
1
5
8
5
7
17
5
14
28
1
17
26
7
24
53
53
105
133
255
243
176
255
168
77
42
17
6
30
25
35
39
37
39
35
33
33
37
32
33
30
30
30
31
31
31
25
25
25
17
17
17
12
15
14
5
5
4
11
16
7
14
19
21
23
23
31
30
34
41
35
47
52
35
47
52
41
44
49
38
38
44
32
32
40
33
33
41
42
42
50
43
43
51
29
29
36
10
6
11
8
8
0
7
7
3
10
10
6
10
10
9
7
7
11
4
4
7
6
6
6
7
7
7
7
7
7
8
8
10
13
13
13
11
11
11
7
7
7
6
6
6
15
15
15
10
10
10
6
6
6
4
4
4
2
2
2
4
4
4
5
5
5
7
7
7
2
2
2
7
7
7
5
5
5
255
255
255
255
255
255
0
0
8
2
2
10
2
2
2
10
10
10
17
17
17
22
22
22
25
25
25
29
29
29
32
32
32
33
33
33
40
40
40
36
38
37
19
25
22
11
18
15
14
22
18
13
17
15
21
21
21
24
24
24
21
21
21
18
18
18
15
15
15
14
14
14
11
11
11
5
5
5
2
2
2
2
2
2
5
5
5
12
12
12
8
11
10
1
5
3
4
2
5
6
4
12
11
5
14
5
11
15
12
16
20
2
10
14
1
7
7
6
4
2
12
5
3
11
11
7
15
17
10
7
7
1
12
12
20
17
17
26
11
11
19
7
6
11
5
7
4
8
8
10
6
6
6
10
10
10
5
5
5
8
8
8
14
14
14
13
13
13
6
6
6
14
14
17
18
18
22
21
21
18
5
5
7
12
12
9
2
4
6
11
12
9
10
11
8
11
11
11
4
4
4
7
7
7
12
12
12
14
14
14
11
11
11
10
10
10
12
12
12
21
21
21
15
15
15
10
10
10
5
5
5
10
10
10
15
15
15
8
8
8
13
13
13
15
15
15
12
12
12
13
13
13
13
13
13
10
10
10
12
12
12
14
14
14
9
9
9
13
13
13
13
13
13
17
17
17
14
14
15
14
14
8
28
28
27
27
27
27
11
11
11
12
12
12
11
11
11
16
16
16
18
18
18
17
17
17
23
23
23
21
21
21
12
12
12
24
24
24
23
23
23
4
4
4
7
7
7
8
8
8
17
17
17
15
17
17
14
16
16
11
12
18
9
9
15
7
7
13
9
9
15
15
15
16
7
7
7
1
1
1
8
8
10
10
10
16
10
10
16
10
10
16
9
9
11
9
9
11
12
11
15
11
10
18
15
16
19
7
7
11
15
15
15
4
4
4
11
11
11
1
1
1
3
4
4
5
7
7
10
12
15
17
16
23
14
13
22
14
14
22
16
16
22
13
13
15
9
9
9
11
11
11
5
5
12
23
23
18
23
21
31
26
26
26
23
21
27
19
21
23
23
21
28
19
7
14
200
153
96
255
255
255
98
154
197
4
8
10
14
15
4
58
57
57
51
36
53
27
27
22
20
9
16
14
20
14
8
5
15
8
6
14
5
7
12
11
9
18
26
9
12
92
57
27
61
26
21
3
57
96
255
231
187
255
255
191
101
93
51
22
19
19
48
50
49
255
255
255
219
234
220
2
5
5
49
36
39
21
22
30
15
11
3
17
17
17
7
7
7
5
5
5
19
19
27
46
42
35
53
46
56
30
21
24
73
57
76
12
19
22
9
8
10
1
3
8
33
37
44
29
34
28
29
29
29
34
21
17
10
14
15
42
50
62
28
36
35
20
20
20
24
36
37
74
83
106
31
36
51
82
79
98
61
66
83
5
5
7
14
16
20
20
28
29
7
1
6
2
2
3
3
3
4
14
12
9
11
3
7
50
38
33
61
51
49
41
41
47
14
15
18
34
34
38
24
24
27
11
15
15
9
9
10
15
4
4
20
20
23
22
32
40
50
46
61
6
26
42
93
89
105
34
15
7
15
14
12
21
20
20
65
61
79
44
41
42
58
54
69
37
37
41
20
20
21
30
30
34
18
18
21
17
17
21
8
8
8
42
38
54
14
17
19
61
57
73
10
9
12
38
38
63
106
106
136
67
68
97
92
96
121
2
3
10
10
10
14
31
28
43
15
14
18
15
20
82
42
4
77
5
9
39
1
39
78
2
37
66
4
18
46
6
30
53
4
0
7
59
7
59
52
15
96
0
6
22
25
26
36
16
16
32
175
196
193
255
255
255
120
100
82
18
17
24
8
4
8
14
13
5
172
193
174
251
255
233
115
104
108
5
5
9
4
10
16
72
60
68
22
11
12
27
23
29
73
67
75
27
38
42
130
113
113
56
36
31
7
7
32
82
93
129
232
194
198
204
156
149
246
195
211
137
95
127
18
9
40
50
34
20
69
55
71
37
28
52
17
13
14
31
31
40
2
4
12
94
89
112
60
61
68
20
31
91
32
65
134
255
255
236
255
255
180
92
71
55
52
57
52
52
65
59
101
137
110
236
255
223
214
187
195
97
74
93
5
7
2
7
8
5
19
16
21
22
19
19
31
33
48
77
68
82
18
27
35
111
67
48
65
4
41
3
4
22
2
1
12
5
8
20
4
19
23
8
18
33
12
63
104
232
220
177
255
224
126
76
43
40
35
37
44
29
23
31
16
10
15
20
14
17
1
0
11
5
5
2
8
8
8
8
8
8
21
21
21
19
14
14
24
22
14
26
26
15
29
29
21
25
26
25
13
14
14
2
4
4
23
19
17
8
8
8
14
17
13
17
15
5
21
21
16
15
8
5
32
30
30
17
14
18
3
7
14
4
7
14
13
14
18
14
14
21
9
8
21
7
4
20
17
13
27
30
26
38
35
31
43
36
32
46
34
31
45
30
29
34
30
30
30
31
31
31
27
27
27
19
19
19
14
14
14
12
12
12
15
15
15
17
17
17
15
15
15
6
6
6
7
7
7
10
10
10
5
5
5
255
255
255
255
255
255
5
5
10
2
2
4
6
6
6
8
8
8
8
8
8
4
4
4
8
8
8
15
15
15
18
18
18
17
17
17
16
16
16
15
15
15
11
16
13
7
14
10
13
21
17
15
20
17
18
18
18
7
7
7
4
4
4
2
2
2
5
5
5
5
5
5
4
4
4
1
1
1
4
4
4
6
6
6
12
12
12
12
14
13
11
17
14
8
17
13
12
17
16
15
17
22
18
15
24
11
13
19
11
11
17
7
7
15
11
13
19
10
11
14
11
8
8
8
10
12
10
10
7
5
5
13
8
8
12
16
16
19
18
18
25
10
10
12
0
0
0
10
10
10
4
4
4
9
9
9
4
4
4
9
9
9
15
15
15
7
7
7
7
7
7
11
11
11
9
9
11
8
8
12
22
22
20
17
17
19
10
10
17
16
16
18
21
21
21
17
17
17
13
13
13
8
8
8
10
10
10
9
9
9
1
1
1
12
12
12
15
15
17
11
11
12
5
5
5
7
7
5
12
12
12
10
10
10
8
8
8
6
6
6
2
2
2
13
13
13
7
7
7
10
10
10
16
16
16
11
11
11
12
12
12
8
8
8
2
2
2
7
7
7
14
14
14
12
12
5
21
21
15
9
9
14
7
7
15
12
12
20
15
15
23
7
7
13
6
6
8
4
4
4
10
10
8
6
6
6
7
7
7
11
11
11
15
15
15
13
13
13
18
18
18
22
22
22
16
16
16
10
10
10
9
9
9
21
22
22
30
32
32
34
35
37
34
34
40
29
30
37
21
25
31
22
24
30
19
19
25
15
15
17
11
11
11
2
2
2
13
13
13
16
16
18
18
18
22
16
16
18
9
9
11
2
0
6
15
17
12
19
19
19
15
15
15
6
6
6
7
7
7
15
15
15
19
19
19
26
26
26
28
28
30
27
27
33
31
31
39
30
30
38
18
18
26
9
9
15
1
1
1
7
7
8
6
6
10
27
27
25
13
10
27
9
11
7
1
3
8
10
12
8
33
31
27
42
31
28
222
190
140
255
255
255
84
124
159
5
2
4
16
14
4
58
56
59
39
29
46
20
21
19
6
3
8
8
16
11
7
3
7
3
2
21
8
12
24
5
4
3
28
12
2
91
53
24
62
36
5
4
54
96
255
227
189
255
255
193
121
111
68
15
12
12
70
72
73
255
255
255
201
210
196
10
4
5
54
45
50
17
18
28
17
12
8
14
14
14
2
2
8
7
7
9
15
14
24
49
46
38
45
39
51
35
26
28
69
56
74
7
13
18
14
7
10
11
10
20
40
47
56
0
4
8
19
10
8
13
6
7
17
24
27
51
61
72
24
32
36
15
17
16
27
36
39
83
88
117
24
27
45
80
76
96
55
56
74
4
10
16
14
18
23
19
25
25
9
3
8
3
2
6
3
1
7
16
15
9
4
12
14
2
7
5
15
14
19
49
49
57
24
24
25
32
32
38
27
27
29
13
15
18
5
5
8
16
7
3
4
4
5
16
27
35
40
36
49
11
31
47
87
83
99
26
13
12
18
17
12
25
25
28
60
56
78
45
44
47
59
55
71
45
45
49
14
14
14
29
29
32
16
16
20
14
14
18
9
9
9
42
38
54
11
17
17
60
58
73
17
17
19
18
16
33
93
91
120
34
36
57
81
85
110
7
7
4
14
13
17
30
29
41
20
18
22
7
20
65
34
8
84
14
7
60
2
35
80
3
41
76
2
14
41
1
24
52
4
10
8
57
6
67
52
15
95
0
4
20
25
25
31
12
14
31
155
173
180
255
255
255
147
127
105
20
17
24
15
12
17
10
20
20
177
197
181
249
255
234
111
94
100
13
15
18
7
12
18
80
68
76
24
14
8
54
50
58
88
83
94
42
44
52
128
120
132
67
49
39
6
5
36
15
52
98
111
98
118
144
79
53
127
86
101
26
30
63
26
5
48
57
37
23
91
77
100
21
28
45
20
10
15
31
34
34
15
16
23
74
73
87
82
85
100
27
16
62
33
45
121
240
241
218
255
255
194
100
57
19
7
7
5
18
19
14
114
144
115
235
244
219
174
144
158
78
60
69
12
15
7
10
9
10
17
13
21
20
16
20
28
32
51
88
71
90
5
19
32
116
72
59
70
8
41
6
5
31
2
5
9
4
6
15
5
20
23
4
13
22
5
34
80
166
174
161
255
255
172
155
98
35
15
21
32
24
20
30
28
17
29
22
18
19
12
12
13
7
8
5
2
5
4
11
7
12
24
21
22
27
27
29
25
25
29
11
11
13
5
5
5
10
11
14
9
11
13
2
9
2
22
22
18
7
7
7
12
16
14
4
4
4
5
9
7
6
7
6
18
15
15
36
42
42
50
58
58
47
55
55
43
45
50
38
37
47
33
32
37
30
30
31
37
37
37
43
43
43
36
36
36
21
21
21
15
13
19
5
3
7
7
7
7
7
7
7
10
10
10
9
9
9
12
12
12
12
12
12
13
13
13
13
13
13
19
19
19
22
22
22
23
23
23
19
19
19
17
17
17
255
255
255
255
249
255
20
20
20
23
23
23
26
26
26
30
30
30
35
35
35
42
42
42
49
52
51
49
57
54
49
58
55
58
61
60
62
62
62
54
56
55
43
49
46
36
44
40
30
36
33
26
29
28
23
23
23
22
22
22
8
8
8
7
7
7
11
11
11
13
13
13
11
11
11
4
4
4
10
10
10
11
11
11
11
13
12
13
19
16
12
21
17
7
13
10
7
5
8
7
5
9
14
12
15
14
13
13
4
4
4
4
4
4
4
4
6
1
7
12
7
3
5
6
10
13
10
10
10
13
13
20
29
29
37
43
43
52
35
35
43
23
23
25
16
15
16
15
14
14
6
2
2
12
12
12
7
1
3
8
5
5
8
14
11
13
20
16
7
13
10
6
8
7
6
6
4
10
10
18
9
9
15
2
2
4
3
3
11
5
5
7
8
8
8
8
8
8
1
1
1
8
8
8
3
3
3
2
2
2
5
5
5
9
9
9
10
10
16
15
15
21
6
6
14
8
8
17
5
5
7
4
4
4
6
6
6
4
4
4
6
6
5
5
5
13
7
7
13
12
12
11
15
15
18
15
15
16
20
20
20
20
20
20
17
17
17
16
16
16
14
14
14
11
11
7
19
19
15
29
29
31
38
38
44
39
39
47
40
40
48
38
38
46
31
31
39
25
25
31
18
18
20
12
12
12
10
10
10
7
7
7
9
9
11
18
18
25
35
35
43
40
40
48
29
31
38
22
27
32
27
32
37
30
32
39
28
28
34
26
26
28
28
30
29
33
36
34
23
31
29
19
23
26
17
19
27
10
10
18
13
13
15
8
8
8
12
12
12
10
10
12
5
5
10
1
1
7
2
3
6
7
6
13
18
15
31
29
28
39
22
22
30
14
14
20
5
5
13
2
2
6
6
6
2
9
9
10
1
1
10
9
9
5
3
3
5
17
17
20
32
32
40
35
35
46
21
21
24
6
6
12
4
4
15
19
19
25
28
27
37
31
28
41
31
28
43
29
29
39
19
20
26
43
31
13
246
227
184
255
255
255
68
93
122
6
7
7
20
12
6
59
53
64
30
27
43
19
17
17
5
2
4
5
8
5
12
9
4
9
7
21
9
14
24
2
2
11
27
10
9
90
49
18
63
45
10
9
53
101
247
227
193
255
255
178
130
117
77
19
22
26
86
92
95
255
255
255
191
193
178
16
16
16
51
44
54
7
9
21
19
12
9
14
14
11
2
2
7
8
8
14
12
9
23
49
45
37
39
30
47
35
25
27
61
49
68
9
13
21
11
5
12
22
19
30
32
35
50
17
14
24
22
6
11
12
31
33
24
28
39
64
77
91
21
29
41
5
14
11
30
40
43
91
92
124
15
19
40
76
72
92
50
52
69
14
22
27
10
17
24
13
19
19
5
1
4
3
4
4
4
4
3
15
11
4
6
14
13
2
0
1
7
7
8
47
47
55
34
34
36
33
33
41
29
29
31
16
14
24
3
1
5
10
7
7
8
7
11
17
28
37
32
29
38
12
32
48
77
73
89
21
8
8
7
5
4
32
30
35
57
53
77
49
49
53
58
54
72
50
50
56
5
5
12
31
31
39
15
15
22
13
13
17
13
13
13
42
38
54
8
16
14
59
59
73
19
21
19
7
10
14
95
93
117
16
17
25
82
85
110
16
16
17
15
14
21
22
26
31
30
24
31
3
20
36
24
8
74
26
10
73
2
37
80
3
41
81
5
12
36
5
16
44
2
1
1
57
5
70
52
16
97
2
4
20
24
24
28
10
14
30
128
144
156
255
255
255
177
158
134
15
13
17
2
2
2
14
32
29
194
216
199
248
255
235
97
80
87
19
23
25
8
14
20
85
73
81
17
6
10
89
85
93
81
71
84
56
53
60
127
115
140
78
56
43
8
3
26
4
48
103
18
59
115
34
8
42
24
33
77
12
36
77
25
17
73
58
39
18
116
100
124
33
32
38
56
45
50
17
25
26
24
23
27
55
54
65
93
89
112
37
10
33
29
22
104
189
205
207
255
255
234
149
98
55
24
29
37
14
18
24
143
166
140
234
235
221
141
118
130
73
57
60
16
18
14
10
5
13
16
11
20
23
17
21
22
33
48
96
74
96
5
14
27
117
76
61
68
7
47
9
15
40
1
6
11
4
4
10
6
18
21
4
7
10
7
24
67
95
117
129
255
255
189
244
164
89
11
11
11
1
9
7
5
2
11
5
4
5
21
21
24
34
34
34
33
35
35
30
34
34
39
41
41
43
43
43
36
36
36
32
31
33
31
31
31
28
30
37
13
19
31
1
7
21
16
16
6
12
12
12
13
13
13
10
4
7
8
2
5
7
7
7
2
8
8
9
15
15
5
5
5
7
7
7
12
5
10
9
4
9
1
0
11
4
3
17
17
15
29
23
20
37
29
25
45
38
35
54
32
29
43
20
19
24
19
19
19
20
20
20
22
22
22
26
26
26
25
25
25
20
20
20
18
18
18
17
17
17
13
13
13
5
5
5
9
9
9
25
25
25
33
33
33
255
255
255
247
239
251
22
22
22
24
24
24
19
19
19
18
18
18
23
23
23
27
27
27
24
26
25
21
18
19
21
22
20
24
23
17
24
24
17
22
22
20
19
19
19
16
16
16
14
14
14
3
3
3
10
10
8
20
22
18
3
4
8
20
17
22
35
33
36
42
42
42
35
33
34
30
25
27
31
23
27
30
22
26
25
18
21
21
16
18
21
19
20
19
19
19
15
13
15
13
12
12
11
13
14
10
10
15
14
14
21
18
20
25
20
23
21
20
22
17
20
22
15
14
22
21
8
14
11
6
14
8
18
24
15
21
25
22
5
13
8
8
14
11
10
18
14
12
18
15
1
9
5
10
15
12
8
11
10
2
2
2
7
7
7
12
12
12
7
10
10
7
6
4
9
10
7
13
13
15
17
20
18
17
23
12
16
24
16
14
22
16
16
24
18
19
26
19
19
25
20
28
30
29
35
35
35
35
35
35
36
38
37
39
45
42
36
46
46
33
44
48
19
29
29
17
22
28
7
13
18
0
6
11
0
2
9
7
7
9
7
9
5
12
12
11
10
10
12
15
15
19
17
16
24
17
15
16
10
10
10
5
5
5
5
5
5
7
7
7
8
8
8
12
12
9
17
17
11
17
17
9
18
18
10
24
24
17
23
23
17
21
21
18
10
10
10
7
7
9
9
9
8
13
13
13
17
17
17
14
14
14
15
15
16
25
25
28
31
31
31
33
33
33
38
36
37
25
21
22
10
10
9
4
2
1
6
6
2
2
2
2
4
7
5
10
4
7
15
12
14
10
8
9
14
16
18
24
24
30
27
27
35
28
28
30
29
29
32
17
17
17
13
13
8
8
8
1
6
6
7
11
11
14
18
18
21
16
16
10
11
11
9
10
10
15
8
8
11
10
10
6
14
14
6
22
22
15
22
21
15
31
28
19
32
29
23
39
38
38
5
5
3
19
19
31
29
29
38
33
31
38
33
29
34
31
29
31
31
31
33
35
35
41
37
37
43
38
38
42
40
41
48
41
39
47
245
238
206
255
255
255
60
69
92
6
4
15
21
7
5
58
51
64
24
29
41
17
15
14
10
1
6
2
5
4
11
2
2
7
6
19
7
13
22
5
3
2
24
8
4
92
48
12
67
54
22
51
78
116
255
255
228
255
255
149
88
76
45
33
34
34
89
98
103
255
255
255
178
181
164
10
8
7
43
32
45
7
6
14
22
15
10
14
8
7
9
11
7
8
14
21
15
12
29
47
42
37
38
28
46
31
25
26
55
45
64
9
12
26
6
1
12
22
20
30
21
19
33
21
18
26
28
17
19
33
52
53
21
21
27
74
90
106
19
25
39
6
13
7
32
44
48
94
93
125
8
8
30
71
67
82
41
43
56
29
36
45
17
24
36
11
20
24
5
7
11
5
5
11
11
11
10
13
9
4
5
13
12
1
4
3
7
4
13
47
45
56
43
42
48
34
34
40
32
31
36
17
12
26
9
8
14
8
5
12
20
17
29
22
29
40
25
24
27
15
33
48
71
69
84
21
10
1
2
5
3
32
28
34
54
51
70
54
53
60
54
51
68
54
53
64
4
4
4
31
31
38
20
20
27
13
13
17
14
14
15
44
40
56
5
13
11
59
59
73
15
19
18
16
13
16
94
93
116
10
7
10
84
86
111
27
29
33
15
12
20
15
18
23
36
30
38
11
20
23
20
3
58
40
12
69
2
42
93
2
46
86
3
4
26
5
15
31
3
5
9
58
7
73
49
19
98
2
7
18
26
24
30
9
15
30
103
118
126
255
255
255
196
185
157
10
8
18
10
9
14
20
40
32
211
236
220
248
247
232
72
62
63
25
24
26
17
20
28
87
75
84
9
22
29
100
95
104
53
38
50
56
59
63
123
103
133
84
60
49
18
12
13
2
41
100
1
67
146
5
10
21
2
24
63
11
39
85
32
38
103
59
29
24
127
111
134
40
29
38
73
61
67
15
8
8
25
17
25
38
37
50
93
81
112
43
14
12
25
13
95
128
157
176
255
255
255
215
159
101
9
0
14
15
30
20
174
196
173
232
232
222
119
100
111
68
52
55
15
16
14
4
3
8
16
15
18
22
18
22
23
33
44
95
73
97
6
10
16
114
76
63
66
8
47
8
21
49
1
5
10
3
6
7
5
13
22
4
0
0
5
22
65
35
71
92
255
255
176
255
214
134
49
23
18
12
8
21
13
3
15
11
2
5
19
19
25
10
8
21
14
10
22
13
8
21
16
14
23
18
18
26
12
14
19
4
4
7
7
5
6
5
6
13
13
11
3
4
8
16
10
7
4
4
4
2
9
9
5
3
3
1
5
5
8
7
7
11
8
10
18
20
26
34
30
38
46
28
36
42
26
30
37
28
28
40
32
31
42
36
36
44
42
42
50
48
48
56
45
45
53
31
31
37
10
10
12
5
5
13
4
4
4
6
6
6
3
3
3
2
2
2
3
3
3
10
10
8
7
7
6
7
7
8
14
14
14
17
17
17
18
18
18
19
19
19
20
20
20
255
255
255
242
234
246
7
7
7
13
13
13
19
19
19
18
18
18
15
15
15
21
21
21
33
36
35
36
44
41
36
45
42
44
47
48
45
45
49
39
39
41
31
31
31
22
22
22
12
12
12
10
10
10
3
3
4
12
14
11
22
16
19
22
23
19
12
17
11
6
6
8
11
15
13
10
14
10
9
9
9
12
12
12
7
8
7
1
5
2
2
10
6
5
12
8
11
15
15
19
22
24
27
29
30
31
37
34
31
38
34
23
31
27
21
25
24
15
17
14
8
10
5
16
19
19
9
12
10
5
12
8
13
20
17
31
38
35
34
42
38
35
43
39
36
42
39
27
29
28
14
14
14
10
13
11
15
17
16
9
1
5
1
7
3
12
16
14
7
11
13
10
8
9
15
16
20
24
30
26
29
38
29
27
35
23
26
34
24
23
31
25
14
22
20
11
18
14
20
25
23
29
30
29
29
29
29
28
28
28
27
29
28
28
34
31
25
30
27
5
11
14
1
9
10
18
29
27
29
36
38
20
29
28
18
24
27
27
29
33
25
26
23
7
12
0
4
5
7
5
11
1
5
9
12
1
1
7
8
8
8
18
18
18
18
18
18
23
23
23
17
17
17
5
5
8
1
1
5
4
4
11
10
10
17
13
13
20
15
15
19
22
22
17
17
17
22
12
12
16
7
7
7
5
5
5
10
10
10
11
11
11
7
7
7
15
15
17
17
17
22
17
17
25
20
21
26
21
15
19
5
1
6
0
6
9
4
4
10
2
2
8
2
4
7
5
7
12
4
8
12
10
4
4
22
20
13
34
34
27
42
42
38
45
45
43
31
31
33
34
34
28
17
17
15
5
5
5
6
6
10
6
6
8
10
10
18
2
2
8
1
1
1
8
8
8
12
12
12
7
7
7
7
7
7
2
2
2
10
10
13
23
19
12
12
9
7
36
33
29
24
24
28
19
19
19
5
5
11
18
18
22
19
19
17
17
15
15
9
9
11
10
10
12
3
3
5
7
7
7
15
15
17
28
28
36
235
239
216
255
255
255
57
56
69
8
11
17
19
10
8
58
54
61
25
29
35
16
15
11
5
1
5
13
15
12
13
15
12
10
8
10
4
12
28
8
5
7
20
8
4
95
46
11
69
60
28
94
103
117
255
255
255
255
207
125
22
19
12
32
30
38
91
102
110
255
255
255
167
167
151
21
11
10
41
33
42
14
12
3
24
20
19
8
8
16
14
16
16
3
11
13
13
14
31
43
38
34
33
28
41
32
29
30
50
45
60
8
7
23
5
3
11
17
20
26
11
7
12
14
14
16
29
18
24
45
70
72
25
29
25
91
108
127
19
21
29
4
10
2
33
43
52
93
91
121
9
11
18
65
61
70
21
22
26
28
34
40
25
30
49
17
25
38
5
10
11
2
0
13
17
17
19
17
18
16
11
20
20
1
5
13
13
11
18
42
39
50
50
48
55
31
31
32
34
31
40
13
9
22
17
14
27
5
5
10
30
26
42
27
27
43
22
21
22
23
37
52
70
72
85
20
7
3
2
8
4
28
26
31
49
48
57
56
54
64
52
51
60
58
56
68
10
10
8
26
26
28
26
26
29
8
8
11
15
15
18
47
43
59
5
12
10
60
62
75
9
12
14
28
26
27
84
82
108
36
32
38
76
79
99
37
42
48
11
8
10
12
9
17
35
33
40
11
16
19
13
8
43
47
21
40
7
32
95
0
58
102
1
9
9
6
22
29
2
9
26
59
12
78
44
23
92
4
11
21
28
27
36
11
21
32
89
100
105
255
255
255
206
203
171
15
15
17
16
16
15
29
45
37
217
243
229
243
240
223
52
46
41
28
24
24
27
24
34
89
77
89
15
23
28
96
92
108
55
41
52
45
49
52
117
95
125
85
63
58
25
19
1
1
25
76
2
70
160
1
35
55
2
8
31
7
24
72
40
42
122
66
8
40
118
108
128
58
49
54
60
57
70
29
18
18
18
17
21
26
28
41
89
80
108
48
28
10
24
23
99
61
103
140
255
255
242
255
213
139
48
35
34
29
51
42
197
222
200
220
216
205
98
79
90
61
45
51
14
14
14
3
5
10
16
17
23
22
17
25
25
29
40
91
75
103
16
7
8
107
76
69
66
15
40
7
27
59
3
2
4
3
5
5
5
11
27
2
8
7
5
20
67
2
43
73
227
215
147
255
240
150
94
48
28
18
12
29
18
13
20
10
7
11
11
11
14
19
19
25
15
16
24
7
11
19
5
7
15
3
2
12
6
4
12
4
5
8
2
2
6
10
9
17
7
10
24
5
1
16
5
2
8
3
6
7
3
7
4
8
12
4
8
8
8
10
10
2
8
8
2
10
10
4
12
12
4
9
9
3
3
3
4
5
5
1
4
4
4
0
0
8
4
4
11
8
8
15
13
13
21
17
17
25
19
19
27
19
19
23
15
15
15
11
11
11
7
7
7
7
7
7
10
10
10
11
11
8
7
7
4
3
3
7
13
13
18
16
16
23
14
14
22
18
18
26
20
20
27
255
255
255
249
241
253
31
31
31
23
23
23
18
18
18
17
17
17
17
17
17
17
17
17
20
20
20
19
19
19
16
16
15
11
11
7
6
6
4
4
4
4
2
2
2
13
13
13
4
4
4
8
8
8
4
4
7
7
4
11
13
9
18
24
20
27
33
32
36
35
35
43
34
33
39
32
27
30
29
22
25
26
18
22
14
6
10
8
6
6
2
6
2
4
12
8
12
18
15
15
18
17
13
13
12
13
13
10
5
10
3
8
5
11
8
5
10
4
4
4
13
13
13
18
18
18
4
4
4
2
2
2
5
5
5
11
11
11
24
24
24
16
16
16
4
4
4
2
2
2
8
8
8
12
17
14
15
24
20
14
22
18
13
20
17
15
22
19
20
27
26
21
27
29
17
24
24
12
18
15
13
16
14
5
8
7
10
10
10
12
12
12
17
18
21
9
4
10
14
8
14
5
5
4
5
3
3
6
2
4
5
3
5
5
9
3
11
18
9
8
6
8
16
17
7
21
24
15
29
33
26
43
45
38
49
55
51
47
52
52
46
46
54
39
41
41
25
33
27
19
27
17
21
30
20
27
37
31
25
33
29
24
31
29
35
39
41
30
34
34
11
12
12
11
11
11
4
4
4
7
7
7
5
5
5
4
4
4
7
7
13
19
19
14
21
21
24
26
26
23
24
24
24
12
12
12
4
4
4
7
7
7
14
14
14
4
4
4
15
15
15
28
28
28
26
23
24
8
4
5
6
5
6
10
8
9
13
13
11
13
13
7
10
10
2
11
11
8
6
6
2
6
6
10
13
13
18
9
9
17
8
8
14
8
8
7
21
21
13
34
34
27
23
23
22
21
21
20
20
20
18
23
23
23
25
25
29
21
21
22
14
14
14
8
8
8
14
14
14
24
24
24
33
33
33
40
40
40
40
41
38
43
44
34
41
45
34
40
42
35
36
38
37
44
44
44
38
36
37
29
27
28
22
24
23
27
28
27
32
32
32
30
30
30
28
28
28
27
27
27
23
23
23
43
43
43
245
251
228
246
247
231
49
44
50
7
8
15
21
17
11
56
53
60
26
26
32
15
17
10
3
4
1
27
28
23
19
19
21
28
22
15
5
7
25
10
7
10
20
10
6
95
43
11
67
57
23
93
91
89
255
255
255
255
210
146
12
20
16
11
12
17
80
82
89
242
249
239
174
189
185
146
191
194
134
174
179
48
72
80
34
25
20
38
32
31
2
5
4
18
13
21
12
7
23
45
39
33
23
23
34
38
36
34
43
41
53
5
2
14
10
9
12
14
21
26
9
7
15
4
5
4
25
17
26
56
80
85
23
18
20
113
126
147
15
15
18
4
1
7
35
45
55
92
94
119
18
15
10
62
58
68
18
15
25
28
34
39
29
39
58
17
29
38
7
2
5
7
8
14
20
22
24
20
20
16
18
26
26
3
7
19
16
15
18
31
27
39
55
54
57
23
23
22
35
32
41
14
11
22
25
22
36
13
12
17
42
38
54
33
29
48
18
18
20
33
43
59
69
73
87
15
0
0
1
9
5
24
25
29
44
44
48
56
55
62
50
50
54
61
60
67
9
9
9
19
19
19
27
27
27
3
3
3
15
15
19
48
44
60
3
11
7
59
63
75
5
5
7
35
35
35
72
69
94
50
48
56
64
68
84
43
48
57
4
5
3
10
4
9
36
32
38
13
8
10
5
19
41
44
22
31
21
8
67
2
57
110
1
29
22
7
32
56
4
16
56
58
12
69
40
18
72
10
8
15
27
25
35
21
28
33
76
83
96
255
255
255
224
220
189
14
8
8
5
5
12
24
43
36
219
246
229
236
235
220
44
37
34
24
22
21
34
25
34
89
76
89
10
8
10
88
83
103
65
47
63
33
39
45
110
88
116
91
66
68
32
24
8
1
10
50
2
64
146
4
53
98
4
11
20
1
14
52
37
46
134
66
7
66
108
100
113
79
71
81
49
49
60
42
35
36
14
15
22
18
22
33
84
80
101
57
42
34
25
31
91
14
66
109
255
255
232
255
248
171
60
28
10
47
81
61
212
237
207
197
185
175
81
61
75
58
42
49
17
17
20
10
11
20
16
16
24
22
14
20
16
20
28
85
75
102
20
16
16
97
77
73
68
25
30
10
31
68
5
6
5
0
7
8
2
13
31
5
14
15
2
20
61
4
30
73
168
171
125
255
255
155
145
85
37
14
15
25
7
4
17
12
10
13
5
5
5
7
7
7
4
4
4
4
4
4
8
8
8
15
15
15
18
19
17
17
21
13
16
18
9
21
21
13
13
13
5
16
16
7
19
19
11
15
15
9
7
7
4
6
10
4
8
8
7
0
0
2
5
5
5
2
2
2
2
2
2
4
4
2
2
2
6
3
3
8
1
1
9
1
1
7
4
4
4
10
10
8
8
8
8
3
3
7
9
7
12
10
7
11
11
9
10
12
12
12
9
9
9
5
5
5
4
4
4
7
7
4
10
10
6
1
1
3
13
13
16
28
28
33
28
28
36
25
25
33
26
26
32
255
255
255
253
245
255
17
17
17
18
18
18
19
19
19
17
17
17
12
12
12
13
13
13
21
21
21
23
23
23
26
26
26
28
28
30
27
27
31
25
25
27
22
22
22
20
20
20
11
11
11
15
15
15
7
7
7
13
11
12
12
8
10
9
3
6
7
5
6
4
4
9
7
7
8
11
11
10
9
9
9
13
13
13
24
24
24
20
20
20
14
14
14
17
17
17
13
11
12
8
5
7
10
10
10
5
5
5
20
20
20
24
24
24
21
21
21
17
19
18
7
9
8
14
11
12
10
10
10
7
7
7
5
5
5
12
12
12
8
8
8
19
19
19
15
17
16
8
10
8
7
3
7
8
8
14
11
17
22
18
26
30
28
36
38
33
41
39
34
42
38
30
38
34
19
25
22
12
15
14
12
12
12
2
2
2
7
7
7
4
4
4
21
24
22
20
17
18
7
5
8
1
4
7
2
8
13
4
8
12
3
5
7
1
7
8
7
5
10
13
7
9
4
13
9
13
21
25
12
14
19
9
9
15
10
10
16
3
11
13
17
19
24
31
26
32
35
33
36
36
38
37
35
41
40
31
39
41
31
37
41
29
31
38
33
35
40
31
35
38
15
23
19
14
14
14
7
7
7
6
6
6
6
6
6
7
7
7
5
5
13
10
10
12
2
2
10
13
13
10
4
4
4
10
10
10
7
7
7
7
7
7
10
10
6
15
15
15
13
13
13
7
7
7
9
8
8
15
12
13
19
17
18
22
22
22
26
26
26
27
27
27
23
23
23
17
17
17
15
15
15
20
20
20
29
29
29
34
34
34
31
31
31
29
29
29
20
20
19
16
16
10
23
23
15
32
32
27
32
32
30
26
26
26
25
25
29
27
27
28
36
36
36
36
36
36
33
33
33
31
31
31
36
36
36
46
46
46
55
56
53
57
58
50
42
49
39
30
39
33
28
34
31
32
33
33
30
29
29
29
29
29
24
25
24
25
29
27
34
36
35
39
39
39
43
43
43
46
46
46
43
43
43
67
67
67
255
255
242
226
222
206
36
29
35
14
6
12
27
21
14
59
53
64
22
22
30
16
18
11
10
8
10
36
33
29
6
3
3
39
33
29
16
18
30
19
19
27
21
12
1
89
40
9
68
45
18
55
56
53
255
255
221
255
230
169
64
64
55
44
48
48
43
36
37
156
153
148
210
208
201
250
235
234
255
255
255
241
255
255
129
157
166
10
31
41
49
44
37
48
47
47
15
21
31
51
39
36
17
18
29
43
39
36
40
35
47
8
4
16
17
16
8
9
20
10
2
3
10
19
15
24
20
12
20
49
70
75
14
20
25
118
129
149
8
7
7
8
6
8
40
53
60
89
98
119
32
31
29
65
61
74
12
14
17
22
31
34
25
38
50
10
22
25
11
11
12
5
9
11
17
17
21
21
15
15
21
29
29
5
9
21
14
14
14
24
20
32
59
59
60
14
14
12
37
36
41
17
16
24
34
33
44
14
13
21
59
55
73
39
35
51
12
12
18
42
48
62
69
71
90
11
4
4
3
7
4
21
24
28
40
40
44
56
56
60
46
46
50
61
61
65
10
10
12
13
13
13
28
28
30
4
4
4
13
13
17
48
44
60
4
9
6
57
59
72
5
8
5
39
37
38
59
58
80
60
56
67
52
54
71
46
50
62
1
3
1
8
4
6
34
27
34
6
2
1
18
26
45
36
7
41
31
15
42
4
43
101
3
31
45
6
26
59
6
10
58
55
8
59
33
21
63
15
8
10
26
24
31
30
27
30
60
71
85
255
255
255
255
247
218
31
26
22
19
19
19
28
45
38
228
255
238
239
239
227
43
34
31
19
19
19
40
30
38
89
74
84
7
11
14
103
96
114
70
51
67
39
47
55
101
82
103
96
71
78
41
28
16
7
5
30
1
57
127
4
64
135
3
20
43
3
14
39
33
50
142
57
15
95
102
87
92
101
93
110
38
36
48
54
52
56
10
8
18
7
14
23
76
73
85
67
49
47
24
20
66
23
36
79
255
255
234
255
255
229
88
43
19
91
123
109
219
238
208
165
150
146
72
51
71
56
40
46
20
20
26
8
11
20
11
11
14
18
10
14
14
20
27
82
74
102
30
24
26
90
79
78
74
35
20
14
35
74
6
11
14
0
1
11
4
16
33
2
17
31
4
18
35
5
28
77
110
125
115
255
255
160
210
135
68
4
9
12
8
8
17
7
7
7
4
4
4
6
6
6
3
3
3
5
5
5
11
11
11
18
18
18
17
17
17
6
6
8
4
4
7
14
14
14
24
18
15
35
30
26
40
38
37
48
45
44
50
44
42
47
44
41
48
48
42
47
47
40
37
37
35
28
28
28
22
22
22
20
20
20
25
25
28
27
27
27
26
26
26
26
26
26
21
21
21
10
10
10
7
7
7
4
4
4
12
8
10
10
12
11
5
10
7
18
18
18
26
26
26
31
31
31
31
31
31
29
29
29
31
29
34
29
27
39
33
31
44
21
21
29
14
14
22
13
13
20
18
18
26
255
255
255
241
233
245
27
27
27
27
27
27
19
19
19
17
17
17
17
17
17
13
13
13
13
13
13
18
18
18
15
15
15
5
5
5
2
2
2
3
3
3
6
6
6
4
4
4
1
1
1
15
15
15
15
15
15
20
20
20
23
23
23
20
20
20
10
10
13
2
2
7
2
2
8
9
9
10
11
11
11
7
7
7
9
9
9
8
8
8
12
12
12
19
19
19
19
22
20
15
19
17
14
19
17
17
17
17
22
22
22
11
11
11
11
11
11
11
8
9
6
6
6
10
4
7
6
6
6
5
5
5
5
5
5
11
11
11
12
12
12
10
10
10
15
10
12
18
10
14
8
6
8
10
10
11
19
19
19
25
25
25
24
24
24
23
23
24
19
19
19
14
14
14
11
11
11
6
6
6
4
4
4
2
4
3
7
5
6
12
11
11
9
7
8
15
20
19
10
2
10
2
6
8
5
5
3
10
10
7
4
7
4
7
4
6
7
7
11
2
2
8
6
3
7
22
17
18
19
13
16
4
5
10
18
14
23
12
10
17
1
5
3
13
15
14
19
19
19
19
19
19
8
8
6
5
7
2
18
19
19
8
8
11
5
8
2
15
9
19
15
23
26
16
23
27
19
25
30
25
27
33
18
18
26
8
10
17
4
2
2
2
4
3
10
10
14
12
12
18
5
5
13
12
12
19
13
13
20
9
9
17
5
5
11
7
10
14
13
15
14
13
13
13
9
10
9
3
11
8
8
15
11
11
13
12
11
11
11
7
7
7
6
6
6
6
6
6
13
13
13
17
17
17
13
13
13
13
13
13
13
13
13
8
8
8
2
2
2
10
10
5
19
19
13
22
22
20
24
24
24
28
28
28
30
30
33
26
26
29
32
32
32
36
36
36
30
30
30
22
22
22
19
19
19
25
25
25
28
28
25
42
34
33
47
41
36
41
39
34
29
28
26
21
20
21
14
15
15
15
18
17
17
19
17
15
21
18
17
21
18
19
21
20
19
19
19
21
21
21
30
30
30
56
56
56
218
214
195
202
199
185
139
140
133
107
111
104
50
53
51
58
50
59
22
22
27
19
18
10
26
19
22
33
24
24
27
20
26
50
43
47
17
22
34
26
28
39
18
11
17
77
36
8
70
40
8
18
30
29
255
224
179
255
233
178
117
113
100
97
99
107
80
87
102
40
48
59
17
10
19
44
3
12
117
74
70
215
189
190
255
255
255
203
220
229
78
89
96
94
70
83
82
67
89
61
54
68
31
34
47
52
48
51
48
38
50
14
14
29
3
10
16
8
4
2
9
9
5
33
28
36
19
14
21
29
47
53
26
24
31
105
115
133
10
7
4
7
6
5
51
63
70
87
97
117
43
43
43
71
66
78
5
10
7
21
27
32
25
32
44
2
17
14
7
8
10
4
6
6
12
12
15
19
12
12
16
24
24
6
10
21
12
12
12
21
17
29
59
59
62
6
6
2
38
38
41
20
20
24
36
36
46
15
15
18
67
63
85
46
42
57
7
7
15
47
51
63
71
69
92
4
8
8
4
7
5
22
26
30
37
37
41
57
57
61
45
45
49
60
60
66
9
9
16
9
9
12
28
28
34
8
8
10
12
12
16
48
44
60
5
7
6
57
55
70
6
8
5
39
35
37
46
48
66
69
67
80
40
40
56
55
59
73
2
4
6
5
1
3
27
21
30
15
9
7
14
27
42
32
3
46
37
16
41
0
34
81
2
22
70
2
8
41
11
14
27
56
17
79
23
32
80
16
11
22
30
27
38
36
28
43
48
66
80
254
255
255
255
255
231
41
33
28
24
23
23
27
37
31
227
252
241
244
245
232
47
37
28
22
18
18
41
35
43
90
73
84
16
20
24
118
109
128
61
41
58
47
55
63
90
76
90
95
77
85
45
33
21
12
5
14
3
48
103
2
73
162
3
37
66
4
12
25
31
51
138
50
26
115
89
67
63
119
112
134
14
14
23
67
64
73
7
7
0
6
10
17
65
63
72
69
50
55
25
11
46
37
7
51
209
235
219
255
255
255
126
78
54
130
149
146
224
241
213
135
126
120
63
45
66
50
36
43
23
23
31
9
13
21
9
7
8
15
6
10
15
23
29
82
73
106
38
28
31
89
80
87
82
43
10
15
36
78
4
12
25
2
5
14
6
16
25
2
20
37
6
13
4
4
29
69
55
89
106
255
243
159
255
179
96
24
11
8
15
13
16
15
15
17
12
12
12
18
18
18
26
26
26
25
25
25
21
21
21
17
17
17
16
16
16
9
9
13
3
3
3
3
4
5
18
15
17
24
27
25
16
18
17
9
9
11
7
7
7
10
10
8
19
19
13
28
28
20
29
29
25
26
26
26
27
27
27
18
18
18
4
4
8
2
2
8
1
1
7
8
8
4
17
17
10
23
23
15
27
27
19
27
27
19
22
23
12
16
15
3
11
16
16
14
19
20
5
5
7
8
8
2
15
15
7
19
19
11
16
15
16
9
9
7
21
20
26
23
23
29
22
22
30
22
22
30
21
21
28
255
255
255
230
222
234
8
8
8
11
11
11
10
10
10
5
5
5
2
2
2
6
6
6
4
4
4
6
6
6
10
10
10
5
5
5
4
4
4
3
3
3
10
10
10
9
9
9
4
4
4
4
4
4
10
10
10
13
13
13
9
9
9
11
11
11
16
16
18
11
11
17
13
13
19
6
12
11
8
10
8
5
5
4
2
10
6
5
12
8
4
4
0
4
4
2
4
10
7
10
10
9
12
16
14
10
10
10
17
17
17
11
11
11
13
13
13
18
17
17
5
9
7
10
4
7
7
7
7
4
4
4
10
10
10
11
11
11
11
11
11
18
18
18
17
16
16
4
4
0
4
10
9
2
11
12
9
11
18
17
17
24
20
20
26
20
20
22
17
17
17
24
24
24
23
23
23
19
21
20
14
20
17
12
17
14
8
16
12
22
30
26
30
36
33
18
21
17
10
4
2
7
4
2
6
6
6
3
3
3
10
9
9
4
4
2
6
4
5
3
1
9
6
5
4
14
16
15
8
7
3
14
11
11
13
15
20
22
22
27
23
20
25
27
23
29
35
33
36
37
37
37
34
38
35
25
31
29
9
15
12
7
9
8
10
8
11
16
13
20
16
16
23
7
13
18
15
20
25
26
34
37
29
31
38
26
25
33
22
22
31
24
23
31
29
29
37
29
29
37
34
34
42
39
39
47
32
32
39
26
26
30
44
46
45
50
54
56
41
43
50
37
37
43
42
42
44
43
45
44
41
44
42
45
47
46
53
53
53
47
47
47
29
29
29
22
22
22
27
27
27
29
29
29
29
29
29
32
32
32
29
29
29
26
26
26
26
26
26
23
23
23
15
15
15
9
9
9
9
9
9
7
7
7
4
4
8
12
12
17
9
9
9
4
4
4
11
11
11
8
8
8
4
4
4
19
19
19
17
19
12
15
9
8
24
14
10
23
12
8
15
9
8
7
5
6
2
2
2
8
8
8
23
23
21
28
31
25
33
36
33
37
42
39
38
40
39
32
32
32
29
29
29
32
32
32
125
122
108
179
175
159
196
192
176
181
177
166
123
126
119
15
13
23
52
52
65
29
29
46
34
25
45
26
17
35
43
29
45
39
34
43
8
11
34
22
25
48
20
18
39
60
31
38
60
29
26
31
32
18
194
158
122
219
177
141
96
89
71
68
73
68
69
72
75
71
73
72
68
68
67
65
60
70
50
52
67
40
36
50
97
89
91
251
247
255
177
182
190
41
31
34
72
60
58
68
64
66
55
55
63
74
72
80
88
78
91
69
58
76
49
44
56
47
52
54
29
32
31
50
49
52
23
26
28
10
11
17
21
18
13
88
94
114
17
13
10
7
7
2
67
71
81
88
97
116
57
57
59
77
73
84
9
15
12
22
25
31
27
26
41
9
9
7
10
3
3
1
5
5
8
8
9
10
7
8
9
16
17
2
8
16
12
12
12
17
15
26
59
59
63
2
2
4
42
42
46
23
23
27
33
33
43
24
24
29
62
58
80
53
49
65
7
7
15
49
53
65
72
68
92
0
12
12
8
8
8
26
30
34
34
34
38
61
59
64
45
45
49
62
60
71
10
9
20
7
6
13
28
27
39
13
13
19
13
13
17
47
43
59
4
4
4
57
53
69
2
2
1
37
35
37
35
38
49
80
80
97
30
29
41
69
71
90
6
6
10
1
4
3
16
18
27
17
17
17
15
25
36
24
3
42
47
13
40
28
31
55
31
8
96
22
42
157
19
58
156
53
33
103
12
31
74
16
8
17
28
26
33
37
31
53
49
57
85
244
255
241
255
255
223
50
42
29
7
13
5
19
29
27
223
244
237
244
247
232
46
38
28
24
18
18
45
40
47
87
68
85
18
22
25
119
108
131
64
44
64
44
52
59
79
67
79
96
81
87
55
41
25
14
6
9
5
36
76
1
77
167
2
52
90
2
4
14
26
51
131
50
35
124
75
44
30
125
121
145
24
18
16
75
68
85
30
24
25
14
12
18
54
54
62
57
49
55
19
8
28
42
16
34
183
212
209
255
255
255
134
83
63
161
176
173
225
242
212
108
99
92
56
40
60
44
34
42
19
19
25
15
18
27
15
10
15
13
5
9
19
23
31
81
72
108
43
33
36
89
79
94
88
48
6
14
33
81
1
13
33
1
9
17
4
13
13
3
21
38
4
4
12
4
25
56
18
65
92
255
227
161
255
217
124
48
21
1
5
14
7
4
2
1
2
2
2
14
14
14
18
18
18
26
26
26
26
26
26
19
19
19
16
16
16
10
10
9
7
7
4
5
7
4
15
13
14
17
16
16
16
14
15
21
21
20
22
22
18
22
22
19
21
21
19
17
17
18
15
15
16
6
6
8
7
7
7
16
16
16
9
9
7
7
7
12
9
9
17
13
13
20
10
10
18
7
7
13
9
9
11
6
6
2
10
11
7
9
13
10
1
8
17
12
16
26
7
7
20
3
3
19
7
7
21
6
6
18
1
2
18
2
0
22
2
1
18
7
7
10
7
7
9
4
4
13
5
5
19
255
255
255
234
226
238
22
22
22
22
22
22
20
20
20
22
22
22
22
22
22
20
20
20
22
22
22
24
24
24
21
21
21
13
13
11
11
11
7
17
17
16
19
19
19
18
18
18
19
19
19
21
21
21
25
25
25
29
31
30
26
32
29
19
24
21
20
20
23
12
12
18
13
12
17
11
8
15
5
5
5
5
5
5
1
1
1
3
3
3
7
7
7
8
8
8
13
11
12
8
8
8
13
12
13
17
17
17
15
15
15
12
12
12
12
12
12
17
15
16
23
19
21
24
21
22
19
19
19
15
15
15
12
12
12
9
9
9
9
9
9
14
14
14
12
15
13
8
11
8
7
9
8
10
16
13
15
23
19
22
30
26
31
39
35
34
40
37
34
36
35
31
31
31
21
21
21
15
13
14
5
4
4
13
12
5
26
27
19
35
35
30
33
32
32
23
19
30
6
6
14
8
3
1
15
8
11
15
8
12
6
10
8
14
14
14
12
7
8
7
5
3
10
7
13
21
18
19
14
20
17
12
13
11
11
10
10
8
10
9
23
25
24
30
36
33
27
35
29
24
32
22
18
26
13
18
15
18
12
12
14
6
6
6
10
8
9
5
2
1
8
2
5
8
6
7
15
12
13
5
10
7
12
15
14
14
12
13
17
13
18
9
7
12
7
7
9
7
7
7
8
8
8
4
4
4
22
22
23
20
21
8
22
29
20
19
21
18
12
21
23
16
18
25
25
24
29
23
15
21
8
9
7
4
4
0
2
4
3
26
26
26
25
25
25
20
20
20
4
4
4
10
10
10
5
5
5
8
8
8
15
15
15
25
25
25
29
29
29
24
24
24
15
15
15
7
7
7
4
4
4
4
4
4
8
8
6
7
7
13
7
7
7
4
4
4
5
5
5
7
7
7
3
3
3
20
20
20
19
19
12
3
3
5
3
5
6
12
10
11
10
10
7
2
2
2
4
4
4
18
18
18
18
20
15
20
18
12
18
18
19
17
17
17
15
21
18
23
25
24
27
27
27
29
29
29
44
46
43
42
41
40
26
24
26
84
88
84
165
173
169
76
81
84
89
89
97
92
89
102
100
92
111
108
95
118
100
88
109
82
75
93
68
61
80
56
54
77
14
18
41
39
20
16
86
63
42
133
110
67
171
133
85
138
103
79
64
51
55
46
44
43
42
45
42
44
51
47
44
55
56
58
63
71
75
69
82
80
70
88
132
129
142
255
255
255
170
170
172
5
9
8
11
12
12
19
15
18
18
10
14
35
28
31
67
60
66
86
79
94
49
41
62
37
40
49
105
117
112
149
153
150
112
117
115
61
45
35
14
18
12
74
77
100
18
20
17
1
9
5
72
75
89
87
96
114
69
69
75
78
78
89
8
12
14
20
21
27
26
25
40
3
12
10
8
7
8
10
8
8
5
5
4
1
5
8
5
13
15
6
2
10
12
12
9
10
12
21
61
61
65
7
7
10
48
47
54
25
24
31
28
27
37
25
24
33
57
53
71
52
48
64
6
6
12
53
57
69
71
69
90
6
17
17
10
12
11
29
32
36
30
30
34
67
61
68
41
41
45
67
61
76
14
11
28
2
2
6
27
24
41
18
18
26
16
16
20
46
42
58
2
2
2
55
51
67
6
6
10
37
37
40
25
26
34
89
87
111
17
18
26
73
73
97
14
11
17
1
7
8
14
19
25
22
20
26
20
21
29
12
14
43
50
26
34
74
54
20
74
45
62
66
47
69
43
32
77
47
31
55
8
22
37
9
15
13
23
28
24
25
37
44
48
54
86
235
243
234
255
248
219
62
48
44
14
15
17
35
41
45
233
249
243
237
241
225
30
28
22
25
17
17
58
48
56
81
63
82
19
24
24
112
102
123
70
51
69
34
42
47
70
59
68
93
80
84
67
48
31
21
15
8
4
24
54
1
70
152
2
61
113
1
12
7
18
50
122
54
38
131
67
28
5
120
116
140
60
49
47
77
66
91
53
42
47
9
13
13
50
50
53
55
51
54
5
32
37
72
84
83
211
222
215
255
255
255
113
69
55
197
221
207
224
237
209
78
63
66
52
37
55
41
33
41
11
9
15
18
21
29
29
22
34
18
11
17
21
19
30
78
72
102
42
36
38
86
76
94
88
50
8
15
27
83
0
15
38
2
10
15
2
4
9
4
20
33
2
7
18
5
15
36
3
44
77
203
199
159
255
246
148
112
71
29
13
16
11
13
13
12
18
18
18
17
17
17
17
17
17
4
4
4
11
11
11
6
6
6
5
5
5
10
10
10
9
9
9
5
5
5
8
8
8
15
15
15
17
17
19
13
14
21
10
12
19
15
16
22
24
24
25
23
23
25
15
15
21
11
11
20
3
3
9
14
14
8
21
21
18
20
20
15
16
16
8
13
13
9
11
11
9
8
8
8
10
10
10
2
2
2
7
4
8
3
2
6
9
12
12
15
17
14
7
7
4
1
1
5
4
4
6
11
11
11
4
4
2
5
5
7
5
5
11
11
11
5
17
17
7
16
16
7
12
12
2
255
255
255
243
235
247
13
13
13
17
17
17
16
16
16
13
13
13
12
12
12
13
13
13
15
15
15
20
20
20
19
19
17
13
13
13
8
8
2
8
8
14
10
10
10
4
4
4
10
10
10
8
8
8
7
7
5
7
10
2
5
11
0
5
10
3
15
10
16
7
7
14
8
8
14
13
15
20
5
10
7
6
11
8
5
13
9
5
13
9
1
7
3
5
4
3
15
14
14
3
3
2
5
5
5
3
1
8
15
9
20
17
11
20
5
3
7
3
3
3
7
7
7
14
14
14
16
16
16
10
10
10
8
8
8
10
10
10
14
14
14
10
10
10
11
12
13
22
21
27
24
24
30
25
23
26
30
24
27
30
23
26
30
22
28
40
34
43
38
35
42
31
31
33
31
31
33
31
32
39
22
27
35
17
24
33
18
26
32
22
29
34
26
35
34
20
28
24
15
16
13
17
13
9
17
9
11
7
3
1
13
9
11
14
17
15
22
28
25
22
26
26
22
29
33
18
24
23
14
15
15
11
8
10
15
7
11
18
10
14
17
15
16
23
19
20
28
19
25
27
15
27
32
24
34
35
35
38
17
24
20
4
10
7
4
5
4
4
4
4
11
10
10
20
13
16
18
9
13
15
9
12
20
19
20
20
20
20
15
15
15
14
14
14
5
5
5
11
11
11
4
4
4
7
7
7
6
6
12
5
7
8
17
23
26
13
8
7
15
23
19
14
11
10
13
17
8
13
10
14
7
7
9
5
7
4
5
5
4
30
30
30
16
16
16
28
28
28
12
12
12
17
17
17
15
15
15
9
9
9
7
7
7
10
10
10
3
3
3
5
5
5
12
12
12
14
14
14
13
13
13
23
23
23
36
36
36
33
33
33
23
23
23
20
20
20
17
17
17
20
20
20
24
24
24
24
24
24
7
14
6
6
6
7
15
14
19
17
19
24
29
29
29
24
24
24
20
22
21
10
15
12
12
10
6
5
11
15
10
20
26
18
18
24
20
13
16
19
12
15
15
13
14
17
17
17
31
35
33
42
42
42
47
44
45
84
84
81
171
175
169
107
111
111
42
33
35
63
55
59
77
69
73
89
81
87
85
79
86
72
66
72
66
58
65
81
76
87
61
61
74
27
35
60
30
43
69
55
51
63
80
64
60
65
66
69
70
71
76
79
73
71
88
76
81
103
93
106
130
124
138
155
153
158
157
159
158
145
149
147
186
189
188
227
227
227
87
84
85
2
3
5
2
2
6
0
1
4
4
5
4
1
1
1
11
10
11
50
50
53
69
68
80
92
92
110
147
154
157
135
134
125
172
173
165
118
105
85
17
27
31
63
66
89
22
26
24
2
14
16
68
77
95
83
96
116
65
66
75
80
81
97
9
5
16
17
20
25
23
26
38
3
8
10
10
4
10
10
8
8
4
4
6
3
8
9
4
10
16
11
5
6
8
11
2
4
8
16
60
60
64
14
14
18
50
47
60
27
24
37
21
18
31
15
12
24
52
48
64
44
40
55
4
4
6
59
63
75
68
70
85
12
21
21
8
14
11
28
31
34
27
28
32
70
64
73
36
37
41
72
64
82
16
12
32
2
2
2
24
20
40
20
20
28
21
21
25
48
44
60
7
7
7
55
51
67
12
12
16
40
39
46
16
15
24
93
88
122
8
8
12
67
64
91
19
14
20
8
5
6
12
15
17
20
18
31
13
9
13
23
37
58
32
45
43
67
48
32
58
55
72
79
81
99
48
42
65
31
22
31
32
22
32
22
17
23
33
29
31
30
44
50
54
59
86
223
231
224
243
238
213
72
59
63
53
51
60
70
74
83
233
249
245
218
219
205
11
11
5
19
11
11
69
60
67
73
60
76
18
25
23
106
100
117
71
55
66
27
32
40
62
53
56
86
78
77
75
48
40
27
14
4
3
10
37
2
60
132
1
65
134
2
22
34
12
42
107
54
42
144
62
19
19
102
102
125
88
72
69
66
60
87
68
59
63
3
11
8
40
30
34
68
74
79
147
173
179
251
255
255
255
255
255
237
208
193
50
17
14
222
251
236
215
219
200
52
33
41
50
38
49
39
31
39
1
2
4
6
10
12
27
20
31
23
17
25
17
15
21
72
69
90
40
35
39
87
75
92
85
48
11
11
23
84
3
16
41
2
10
12
3
4
8
0
18
23
2
15
19
4
10
16
3
25
60
134
148
140
255
253
158
176
119
61
24
22
10
9
10
6
4
4
7
2
2
10
12
12
18
11
11
18
4
4
5
14
14
8
10
10
5
5
5
8
3
3
11
7
7
13
9
3
13
10
7
16
12
12
20
14
15
24
15
17
24
14
15
21
14
14
16
13
13
13
10
10
13
12
12
18
14
14
22
12
12
20
8
8
15
4
4
8
11
11
3
18
18
14
23
23
19
27
27
25
29
29
29
27
27
27
21
22
26
19
21
27
29
30
39
36
36
46
36
35
52
39
37
59
41
40
59
35
35
51
28
28
42
28
28
40
31
31
45
31
31
48
32
32
48
40
40
56
49
49
65
255
250
255
238
230
240
34
34
42
32
32
39
27
27
29
27
27
27
25
23
26
25
19
28
27
21
32
22
20
29
19
19
27
20
20
28
18
18
22
20
20
27
24
24
32
23
23
31
19
19
25
21
21
23
28
28
28
33
35
34
29
35
32
21
26
24
21
20
23
24
24
26
29
29
32
23
23
25
19
19
19
23
23
23
22
20
21
16
11
13
13
7
10
8
5
5
10
4
7
18
16
23
28
28
34
38
37
40
38
38
38
38
37
39
33
33
34
32
32
32
33
33
33
32
32
32
33
33
33
39
39
39
38
38
38
34
32
33
35
29
32
32
24
28
25
21
24
21
21
23
19
21
22
23
23
29
20
20
27
21
21
27
24
24
30
31
34
34
37
35
37
38
38
39
31
31
31
19
19
21
12
12
14
16
18
16
24
30
24
28
36
26
22
28
23
14
17
15
15
13
14
8
12
8
4
8
2
4
10
2
16
22
11
33
36
27
39
36
30
33
27
26
27
24
31
10
16
20
18
19
17
24
24
24
12
15
13
5
5
5
11
12
15
2
16
13
5
16
4
5
7
4
16
20
14
6
7
4
13
7
10
12
5
9
10
8
11
5
6
10
9
12
15
8
14
19
12
18
23
14
14
20
2
2
6
12
12
11
8
8
7
7
7
4
10
10
12
9
15
20
0
8
10
5
10
12
8
8
3
10
9
17
5
12
19
5
4
5
16
22
24
1
8
8
6
8
9
4
5
5
11
8
15
6
10
10
10
9
13
27
27
34
37
39
43
30
36
36
19
26
26
15
21
21
5
8
7
7
7
5
9
8
6
12
12
12
3
7
4
7
13
10
12
14
13
17
17
18
21
21
27
23
23
31
26
29
32
31
37
32
30
38
32
27
35
31
28
36
30
32
40
30
30
38
26
18
26
16
11
18
12
18
21
19
24
21
26
14
17
21
17
22
19
9
15
12
6
4
5
6
6
6
14
8
2
2
5
9
2
12
17
7
15
15
11
17
14
22
24
23
32
31
31
40
40
40
46
49
48
56
59
58
65
65
65
84
82
78
148
149
145
140
149
158
86
103
122
53
74
92
35
54
67
19
35
49
10
21
37
10
14
27
4
7
15
44
36
39
68
59
58
74
63
70
72
65
77
73
62
70
78
65
58
61
54
41
58
56
44
60
64
51
64
68
62
80
82
84
115
111
115
137
129
129
146
140
140
149
147
142
155
152
147
123
122
120
28
25
29
8
10
18
3
4
10
2
1
3
4
5
4
6
6
6
5
5
5
14
14
14
48
48
52
115
116
124
222
226
231
182
185
189
175
177
176
136
125
104
24
31
38
53
59
76
25
31
31
4
16
15
66
80
98
79
98
116
60
60
70
84
85
100
9
15
18
12
22
24
19
21
30
3
3
4
11
6
12
10
5
6
3
3
3
1
6
8
2
9
13
12
8
2
8
6
3
2
4
14
57
56
67
21
22
26
50
47
62
30
27
40
17
14
26
5
5
12
46
42
57
37
33
46
5
5
5
63
65
78
68
70
83
16
21
22
8
14
11
24
28
30
26
28
32
69
66
78
32
34
38
74
67
89
17
14
31
2
1
4
20
16
31
21
22
33
25
26
32
48
46
61
4
5
4
53
51
65
17
17
22
40
38
47
4
4
7
94
88
125
8
8
10
62
59
86
24
22
28
15
19
22
7
12
15
10
12
27
4
5
5
29
50
65
47
55
60
49
29
46
35
32
45
68
66
78
22
29
23
5
12
16
45
29
42
19
15
16
26
16
15
43
39
52
59
65
86
220
227
223
235
229
206
47
41
34
38
42
48
67
75
79
220
234
227
185
184
171
5
5
12
4
3
5
73
67
76
62
51
67
15
22
22
106
100
121
71
56
67
27
29
42
54
45
48
77
72
67
80
54
56
32
16
5
1
6
27
2
51
110
4
71
153
4
31
62
7
26
80
50
49
164
63
10
51
81
83
106
99
85
86
48
49
78
80
80
85
13
20
29
32
51
38
128
138
122
197
198
191
206
195
182
145
103
93
70
36
33
49
78
82
234
253
240
186
181
165
35
18
20
47
40
45
33
26
34
6
7
4
8
10
10
20
16
20
18
12
21
8
7
4
65
62
81
44
35
42
88
74
89
85
46
21
8
21
82
3
17
56
3
15
18
4
5
4
2
15
13
4
22
20
5
9
5
5
16
48
72
95
114
255
239
164
230
159
92
34
13
8
14
13
17
14
15
23
13
15
23
13
15
22
17
17
24
19
19
27
18
19
27
7
9
15
5
4
2
4
4
4
1
5
3
5
5
5
6
7
6
5
5
4
4
5
7
4
4
8
1
2
4
3
3
3
3
3
3
6
6
6
5
5
7
6
6
10
1
5
10
5
14
15
10
22
24
15
26
30
23
29
33
25
27
30
28
28
29
33
33
33
39
39
39
47
47
51
48
48
60
43
43
55
30
30
40
26
26
34
25
25
31
22
22
24
16
16
16
10
10
14
8
8
14
5
5
14
3
3
7
8
8
10
9
9
7
4
4
8
242
234
244
226
218
226
10
10
10
17
17
19
16
16
17
20
20
20
18
20
18
13
13
13
16
16
16
22
21
22
19
19
17
12
12
7
7
7
1
9
9
7
16
16
16
22
22
22
20
20
20
25
25
24
25
25
24
21
23
16
21
27
16
27
32
25
29
31
29
26
26
26
21
21
21
21
21
21
22
22
22
15
15
15
11
14
12
10
12
11
16
16
16
21
21
21
17
16
16
12
14
15
15
15
12
17
17
12
5
11
2
17
18
18
9
10
10
7
7
7
4
4
4
7
7
7
4
4
4
7
7
7
12
12
12
17
17
17
15
15
15
7
13
10
4
8
8
9
7
14
10
3
11
4
4
3
18
18
14
17
17
12
17
17
11
14
20
15
6
0
8
11
11
13
10
10
10
14
14
18
18
17
28
20
18
32
19
18
29
15
15
23
8
8
14
4
4
6
10
7
8
11
5
8
6
2
4
2
8
4
12
17
13
10
13
13
6
4
5
5
17
10
31
35
30
31
36
38
22
25
25
13
13
13
18
18
18
8
16
18
13
7
12
8
12
17
5
17
10
4
4
8
15
15
21
16
17
22
17
18
16
9
19
13
13
21
18
20
24
21
30
30
30
35
33
34
27
23
25
25
20
22
17
11
14
17
16
17
10
10
8
4
4
6
9
9
5
11
1
4
20
17
22
15
10
12
13
13
16
14
14
18
14
12
14
13
5
11
6
8
18
8
14
3
10
18
12
9
15
14
14
14
20
13
14
17
14
13
19
13
13
17
19
19
25
23
35
31
23
36
31
24
36
34
15
22
15
7
7
7
4
10
4
10
15
12
12
11
12
11
9
10
13
13
13
22
22
23
31
31
35
30
30
36
25
26
28
26
26
24
32
32
30
30
30
28
22
22
19
17
17
9
28
28
21
41
41
35
44
39
39
35
23
28
20
13
18
11
17
20
15
23
19
24
32
28
22
26
24
7
13
10
20
17
14
4
5
15
2
3
11
3
9
5
4
12
8
1
7
4
4
5
4
19
19
19
38
38
38
60
56
57
81
75
78
109
100
99
154
147
142
193
189
189
206
202
216
193
194
212
181
185
201
166
171
186
150
154
171
140
142
163
131
131
151
120
122
139
114
119
135
113
116
132
110
109
119
103
97
102
78
76
78
44
46
55
25
27
34
17
18
21
18
11
19
33
29
38
59
57
61
61
58
60
41
46
45
25
30
32
59
59
65
104
104
111
111
110
118
91
91
99
66
69
77
43
55
60
34
49
54
26
38
44
15
22
29
6
10
20
8
11
26
42
43
52
143
143
140
182
181
179
138
138
127
107
94
78
23
29
37
43
51
60
27
37
42
11
13
14
69
85
103
74
92
103
61
63
73
76
81
84
10
17
25
11
20
27
14
13
18
5
3
5
4
5
9
14
4
6
7
1
4
6
5
16
4
11
10
14
8
8
10
2
11
4
2
8
56
53
74
29
30
33
49
46
58
34
31
41
7
7
8
28
25
36
41
37
51
25
22
34
7
7
7
65
63
80
72
70
85
19
21
24
13
15
14
24
26
29
25
26
30
69
66
81
28
29
33
74
69
93
20
20
31
0
5
9
16
14
20
22
25
41
26
29
39
45
47
60
3
1
1
48
50
60
20
20
24
36
35
39
7
5
7
91
88
116
24
23
31
65
65
89
43
41
52
28
24
27
20
16
18
14
10
16
15
8
8
29
41
50
61
64
74
54
42
63
12
14
21
68
67
84
28
34
41
21
20
32
17
11
13
63
61
67
96
99
105
112
126
134
126
146
145
213
218
213
203
188
176
34
28
14
16
20
17
60
67
65
212
223
212
145
151
136
12
10
18
28
19
26
71
66
80
55
44
58
16
18
24
110
100
129
75
57
74
25
30
44
47
36
44
70
60
63
82
63
76
43
24
5
7
6
25
4
36
84
2
76
162
6
38
93
4
8
38
46
47
168
67
19
100
72
63
78
99
91
96
49
59
86
112
119
135
65
68
84
93
109
117
122
130
144
133
148
160
180
202
202
185
198
197
152
156
158
135
139
138
213
222
208
132
122
108
20
8
7
42
40
45
26
22
28
4
8
3
7
9
9
20
19
23
14
12
21
2
2
4
57
51
70
51
39
44
78
66
80
87
50
48
17
21
74
25
21
80
25
20
66
14
38
86
5
37
90
8
28
82
14
25
76
22
29
88
49
76
128
247
227
199
250
185
134
48
30
27
12
15
23
13
13
13
12
12
12
13
14
14
14
14
14
8
8
8
2
2
2
8
8
14
11
11
19
19
19
27
32
29
38
41
35
45
33
31
40
19
19
27
18
19
27
28
30
38
32
33
41
28
28
36
26
26
34
25
25
33
23
23
31
22
22
31
23
28
34
27
35
38
31
34
35
26
26
28
20
17
24
15
12
19
13
13
15
8
8
8
7
7
7
4
4
8
1
1
5
12
12
12
23
23
25
30
29
38
39
37
51
43
42
53
37
37
45
31
28
35
29
20
27
22
13
21
12
9
12
12
12
12
16
16
16
18
18
20
247
239
247
227
219
229
6
7
17
4
4
4
13
11
10
11
7
9
12
12
10
7
13
4
2
8
3
7
7
4
7
7
4
5
5
3
6
6
2
4
4
5
2
2
6
14
14
6
27
27
21
21
21
19
7
7
7
2
2
2
1
1
1
7
7
7
8
8
8
10
10
10
7
7
7
1
1
1
10
10
10
9
9
9
3
5
4
8
15
12
4
11
7
8
11
8
13
11
10
10
8
15
17
17
21
17
17
17
11
11
11
25
25
25
23
23
23
22
22
22
22
22
22
24
24
24
22
22
22
25
25
25
27
27
27
22
20
21
25
17
21
12
10
11
5
8
5
7
10
8
16
9
8
24
18
17
23
17
17
8
5
8
16
21
10
20
28
17
12
14
13
16
16
16
18
18
18
19
19
16
21
21
15
22
22
16
22
22
20
21
21
21
18
18
18
10
10
10
2
2
2
10
10
10
11
11
13
9
9
15
6
6
2
27
27
19
36
36
28
37
39
32
43
41
39
21
21
27
7
7
8
16
16
16
12
12
12
13
18
21
14
18
14
8
21
19
8
18
14
5
8
7
8
8
8
4
4
4
10
7
4
7
4
4
10
8
11
7
7
13
7
12
17
9
20
23
21
32
34
12
17
21
7
5
4
7
10
6
2
2
8
13
13
12
5
6
3
20
11
12
19
17
6
31
25
27
21
21
24
9
12
6
14
12
7
22
17
20
21
13
26
13
5
17
7
1
14
11
7
17
18
10
18
23
17
26
16
16
14
8
12
2
8
7
11
7
18
15
5
10
9
17
29
24
23
27
27
11
16
13
13
18
13
8
4
6
11
13
11
11
14
12
4
5
4
8
8
11
15
15
24
7
8
11
23
25
26
28
34
33
26
34
36
36
44
49
43
51
55
36
44
42
34
40
37
21
29
29
26
32
33
36
39
41
37
37
40
29
32
38
23
23
25
15
21
18
25
33
29
20
20
20
25
25
25
11
11
11
11
11
11
11
11
11
10
10
10
12
12
12
18
18
18
19
19
19
7
9
8
15
20
17
34
31
32
65
52
51
88
74
67
118
104
89
161
140
123
183
157
149
196
170
171
211
191
192
214
202
199
212
203
204
214
203
214
217
204
218
214
199
208
197
180
181
161
145
141
129
116
111
110
103
96
94
92
83
77
80
71
64
69
64
57
60
60
63
63
65
84
85
86
105
108
111
120
121
120
126
126
119
128
128
120
138
138
131
154
153
150
164
161
161
163
157
161
158
151
160
154
147
161
146
142
159
138
136
155
130
132
149
125
132
145
112
125
132
99
105
107
91
86
91
67
60
52
72
56
47
25
30
43
36
46
53
31
41
54
14
11
13
73
87
106
68
79
90
62
66
74
63
70
69
12
18
26
15
23
35
7
9
13
10
9
13
15
9
8
15
11
7
11
13
7
12
14
23
6
12
5
19
6
13
4
2
12
8
2
7
55
51
71
34
32
33
51
44
57
36
30
42
24
20
32
37
34
44
30
27
39
14
12
25
5
5
7
67
63
85
69
65
81
25
25
29
17
14
16
27
29
32
20
20
24
71
68
83
23
21
26
76
72
98
21
27
34
3
10
14
12
15
14
23
27
42
27
31
46
47
51
63
6
5
8
45
49
55
22
21
28
36
34
37
17
8
18
86
88
110
43
40
54
62
68
85
58
57
70
13
18
17
11
14
17
5
8
18
10
7
17
23
28
29
56
55
67
61
55
72
21
22
41
88
88
113
60
58
77
52
46
69
44
45
68
41
49
60
51
53
58
82
78
79
99
97
92
145
136
137
129
112
112
64
63
62
54
54
48
73
82
75
200
215
202
118
123
110
4
12
13
45
30
41
66
63
77
48
40
52
12
16
24
112
100
130
78
58
78
20
28
38
43
29
36
63
50
58
76
66
88
51
32
14
20
10
23
1
25
67
3
80
165
4
53
120
1
16
12
39
39
139
68
36
136
71
41
32
96
93
99
58
67
93
143
139
160
67
53
57
103
103
101
153
152
146
174
171
164
176
171
164
166
158
150
142
131
125
115
108
99
156
159
144
80
67
62
27
15
19
43
41
48
24
22
25
9
10
8
8
9
7
24
22
34
18
17
27
14
12
18
56
47
65
60
42
48
64
58
71
85
59
71
25
18
42
50
28
67
55
20
61
37
41
101
4
53
117
9
51
107
14
38
92
21
33
93
54
75
124
220
221
229
230
193
174
52
50
52
42
42
50
40
41
49
39
41
49
39
43
50
36
45
50
36
48
52
37
47
52
37
41
48
36
37
40
34
34
34
32
32
32
27
27
27
28
28
28
17
17
17
11
11
11
15
15
18
13
12
22
16
12
24
16
14
23
11
11
19
8
8
14
8
8
11
5
12
9
6
12
8
8
17
19
5
17
21
8
17
21
16
17
19
21
21
21
30
30
28
34
34
30
34
34
36
35
35
47
33
33
47
24
24
32
14
14
16
3
3
3
10
10
10
15
15
15
13
15
14
4
13
13
20
20
29
28
30
39
30
32
40
22
22
30
13
13
21
249
241
247
223
215
227
25
25
27
23
23
23
15
16
15
8
8
8
11
10
10
16
16
16
10
10
10
8
8
8
12
12
12
11
11
11
10
10
10
7
7
7
2
2
2
14
14
14
8
8
8
8
8
8
7
7
7
3
3
3
1
1
1
7
7
7
5
5
5
5
5
5
11
11
11
10
10
10
1
1
1
14
14
14
20
20
20
18
18
18
12
12
12
11
11
11
15
15
15
8
8
8
14
14
14
24
24
24
27
27
27
28
28
28
12
12
12
7
7
7
8
8
8
4
4
4
5
5
5
6
6
8
8
8
14
16
16
24
25
20
29
16
15
23
11
13
20
12
15
22
8
11
17
15
18
13
6
2
4
4
10
7
15
19
10
20
22
21
5
5
3
7
7
12
14
14
17
24
24
24
34
34
34
42
42
42
46
46
46
40
40
42
28
31
34
24
29
30
20
24
22
13
13
15
2
0
9
3
8
4
13
18
13
12
18
10
10
15
10
15
18
16
13
11
12
18
18
17
26
26
24
17
17
17
10
10
10
8
8
13
9
5
10
12
12
20
17
17
25
23
23
25
38
38
38
37
37
37
32
32
30
26
26
26
32
32
32
39
41
40
38
44
41
33
39
36
20
22
21
4
6
5
4
12
8
4
2
1
12
12
12
2
2
6
16
14
17
4
5
8
24
18
26
23
20
30
17
18
24
10
11
18
9
7
7
7
5
9
14
8
19
11
10
14
0
8
8
10
12
10
2
10
6
7
13
10
10
9
8
7
4
5
14
17
15
20
28
25
20
31
32
8
18
8
23
19
27
7
2
9
12
8
10
7
8
7
5
3
4
8
8
8
12
12
12
23
23
23
39
39
42
47
47
46
53
53
56
52
52
53
52
52
58
58
58
65
49
49
51
43
43
43
51
51
51
60
60
62
57
57
61
41
41
43
25
29
29
20
23
25
36
36
36
38
38
38
17
20
18
10
10
10
15
15
15
4
4
4
2
2
2
10
10
10
23
23
23
24
24
24
16
16
16
14
14
14
20
18
19
20
16
17
7
4
0
28
32
27
53
52
44
50
50
33
65
62
41
85
76
60
90
76
68
98
82
72
110
96
84
121
111
95
129
123
104
132
128
108
129
123
105
123
113
101
110
102
94
91
89
80
83
83
73
82
84
73
81
84
74
74
78
69
67
73
65
69
71
69
74
75
74
75
78
76
76
78
75
86
86
80
94
94
86
93
93
85
99
99
91
115
116
110
134
130
128
151
134
136
161
137
143
173
152
159
188
175
179
193
187
186
189
185
179
179
175
167
161
160
150
130
133
125
122
121
112
83
70
60
34
36
51
35
48
51
33
41
55
14
8
15
71
83
103
60
68
83
66
70
76
53
58
63
19
21
31
22
29
41
8
4
5
11
11
14
1
1
1
5
17
11
12
18
16
7
26
32
15
14
15
9
4
10
11
2
10
1
5
7
56
49
64
32
28
30
58
45
61
39
31
43
22
21
24
24
24
24
11
11
14
5
5
11
0
0
5
68
64
86
61
57
73
28
28
32
13
10
11
30
34
36
13
13
17
72
70
84
14
12
17
78
76
101
23
31
38
8
8
15
8
14
8
23
27
39
29
33
49
51
53
66
9
7
13
43
45
50
29
27
37
37
31
40
24
16
26
77
81
103
61
57
76
41
46
56
69
68
82
51
51
65
40
41
52
32
34
41
27
26
34
8
9
11
46
48
52
62
60
67
7
11
21
90
87
105
54
47
53
13
25
21
34
35
37
38
32
38
66
63
68
90
93
97
108
110
110
137
131
134
128
124
125
91
86
86
68
64
59
77
86
78
180
194
186
101
98
92
12
10
11
46
36
46
61
60
70
43
35
47
12
16
24
110
98
124
79
59
79
17
25
31
42
26
32
57
45
53
65
62
85
53
40
31
29
18
10
9
14
58
2
78
166
0
71
143
1
13
19
27
30
98
67
44
150
78
22
19
95
99
105
34
46
64
150
153
175
102
116
128
89
106
114
99
101
107
90
89
92
85
85
85
82
80
79
61
59
57
23
30
22
91
100
92
79
80
82
69
72
72
67
72
75
50
56
62
38
45
48
25
32
33
29
36
43
48
53
64
54
58
63
62
58
67
58
39
49
53
54
64
82
63
83
20
18
15
47
48
60
53
56
44
101
113
105
119
136
133
111
119
127
87
95
103
68
83
87
69
85
97
175
182
182
200
178
168
52
43
33
29
27
29
33
33
41
37
37
45
32
35
42
18
27
32
11
21
25
4
18
22
13
16
20
8
11
12
4
4
4
7
7
7
12
12
12
18
18
18
15
15
15
8
8
8
7
7
10
8
8
8
6
6
6
5
7
5
7
7
7
8
8
8
8
8
8
12
15
16
20
26
29
28
31
32
28
28
30
17
17
25
11
11
17
4
4
4
8
8
6
17
17
11
18
18
9
19
19
13
21
21
13
15
15
12
11
11
11
18
18
18
25
25
25
23
23
23
23
16
18
15
4
5
20
17
25
24
19
25
16
16
24
21
21
28
20
20
26
251
243
249
206
198
209
42
43
51
26
26
33
16
18
23
14
17
18
7
7
7
7
7
9
15
15
19
16
16
18
20
20
20
35
35
35
39
39
39
28
28
28
7
7
7
14
14
14
24
24
24
21
21
21
10
10
10
6
6
6
7
7
7
8
8
8
12
12
12
11
11
11
9
9
9
4
4
4
7
7
7
9
9
9
19
19
19
28
28
28
16
16
16
5
5
5
11
11
11
9
9
9
4
4
4
10
10
10
6
6
6
7
7
7
11
11
11
13
13
13
15
14
15
17
13
21
13
11
20
8
8
16
17
17
26
34
31
39
34
28
39
25
23
32
25
24
32
28
24
32
31
23
29
38
31
32
37
29
35
28
20
31
19
12
22
18
14
24
8
4
13
5
3
13
5
5
13
5
5
10
4
4
2
8
8
10
3
3
3
12
12
7
7
5
5
7
6
14
12
15
18
7
11
4
10
18
8
12
21
14
7
13
9
11
6
8
11
7
8
13
12
12
26
26
26
35
35
35
19
19
25
11
11
17
5
5
11
10
10
15
22
18
24
30
28
31
32
32
39
27
27
32
28
28
28
21
21
20
25
25
22
22
22
22
21
21
21
20
18
19
24
18
21
24
14
18
17
13
13
4
12
8
4
10
7
2
4
3
14
14
14
21
21
20
25
26
25
23
29
19
35
39
41
38
40
44
35
35
33
34
34
25
28
30
14
23
23
16
20
20
19
18
18
15
9
9
15
5
5
3
18
18
21
24
24
22
17
20
14
12
16
8
17
23
14
4
4
12
22
22
31
17
15
28
32
24
39
25
16
30
12
7
17
7
7
12
8
13
13
6
8
6
8
2
5
13
15
12
11
9
12
14
12
7
13
11
18
15
18
11
9
16
15
23
31
27
29
37
35
28
36
38
17
25
29
10
18
20
12
18
19
16
17
23
14
22
25
4
4
7
17
17
15
18
16
17
24
24
24
29
29
29
31
31
31
12
12
12
8
8
8
14
14
14
13
13
13
3
3
3
8
8
8
13
13
13
10
10
10
8
10
9
20
22
24
25
36
36
41
49
50
32
41
31
36
45
32
47
56
42
50
56
48
51
49
45
53
46
45
57
52
46
58
59
43
54
58
38
55
56
44
61
56
58
71
63
67
66
57
56
39
33
28
34
32
25
44
44
37
50
53
46
51
57
49
53
55
52
56
56
54
60
59
55
58
58
57
48
48
48
40
40
40
46
44
43
54
48
45
61
53
48
65
62
55
62
66
56
65
72
58
76
81
63
87
89
70
92
90
73
95
88
73
102
89
76
99
86
75
78
71
62
161
157
146
111
99
88
37
43
52
41
50
51
36
41
50
13
0
8
69
77
98
58
62
80
69
73
75
41
45
53
20
20
33
35
43
55
11
9
10
19
19
21
13
13
15
11
27
24
18
15
16
5
26
34
18
16
24
5
2
8
8
4
1
9
9
10
59
52
64
25
25
30
61
48
61
40
33
46
30
29
32
57
57
57
50
50
53
14
14
19
2
1
7
69
64
82
56
52
68
30
30
34
5
3
4
33
35
38
13
12
16
70
68
80
5
8
10
75
78
92
31
32
44
9
6
21
7
10
7
23
27
41
33
37
51
53
51
66
10
8
14
43
42
48
35
33
43
34
28
37
33
25
37
68
67
88
66
63
82
9
14
18
38
33
37
41
35
38
34
33
35
32
34
36
38
38
41
20
20
22
31
36
36
71
73
77
54
52
48
128
130
141
182
185
202
183
194
205
182
192
203
177
188
199
160
173
183
127
143
151
105
114
116
93
82
82
60
55
56
49
45
46
43
40
38
71
84
80
158
168
165
75
70
69
9
4
1
47
40
46
57
57
65
38
30
42
12
16
24
105
93
115
84
64
84
15
23
25
42
28
35
50
38
46
57
54
75
55
44
43
37
26
11
13
3
45
1
63
152
2
81
157
1
35
56
12
20
57
58
44
143
84
8
53
96
98
104
59
62
61
150
153
169
233
226
236
239
227
226
224
214
209
197
193
186
158
154
146
110
107
100
69
68
61
57
58
50
98
102
92
129
131
125
144
149
144
163
170
164
172
178
174
166
172
169
159
164
162
165
169
171
160
164
170
134
134
140
84
80
78
22
22
17
48
50
60
73
57
83
16
4
22
49
47
68
39
47
52
104
118
117
205
213
228
254
255
255
252
248
255
236
239
255
218
228
231
195
196
185
157
133
128
42
32
28
9
5
12
5
5
12
5
5
10
8
5
10
15
9
10
12
9
10
4
3
2
12
4
4
12
8
9
13
13
13
15
15
15
15
15
15
8
8
8
7
7
7
5
5
5
1
1
4
4
4
3
1
8
3
3
10
5
1
10
7
10
12
11
11
11
11
11
11
14
7
7
12
8
8
14
7
7
17
20
20
33
20
20
28
14
14
16
15
15
11
12
12
2
8
8
4
7
7
11
7
7
15
5
5
9
4
4
4
17
17
17
28
28
28
27
27
27
23
25
27
15
21
26
14
21
34
25
30
45
30
32
48
24
24
40
17
14
31
255
251
255
189
181
187
15
15
14
21
21
21
4
4
10
10
12
18
9
9
14
8
2
13
7
4
10
4
4
8
11
11
13
15
15
17
6
6
11
28
28
31
16
16
20
5
5
5
11
11
8
13
13
11
12
12
12
9
9
9
16
16
16
25
25
25
17
17
17
6
6
6
6
6
6
11
11
11
24
24
24
31
31
31
36
36
36
31
31
31
18
18
18
13
13
13
12
12
12
10
10
10
5
5
5
7
7
7
7
7
7
7
7
7
8
8
14
12
12
19
21
19
28
26
20
31
21
13
24
23
22
29
38
38
41
36
32
34
29
24
26
27
25
26
21
19
22
11
5
12
11
6
14
20
13
14
27
21
19
27
20
24
24
16
24
18
11
17
11
4
7
11
3
9
8
4
11
1
7
7
6
14
6
13
21
12
15
23
11
18
25
15
9
20
11
5
19
7
18
28
19
15
21
12
7
13
8
4
7
5
3
3
3
2
2
2
7
7
7
13
15
14
25
31
28
7
15
13
15
15
17
3
7
10
9
12
19
14
16
21
17
19
27
17
18
24
21
21
29
13
13
19
32
32
23
35
35
29
24
24
21
17
17
17
22
22
22
26
28
27
19
27
23
11
21
16
21
24
22
5
11
8
7
9
8
8
8
8
17
17
17
19
19
19
7
7
7
3
3
11
8
8
11
21
22
35
31
33
39
24
26
22
9
11
3
11
12
15
14
14
14
3
3
3
23
23
27
9
9
12
27
27
31
4
4
7
11
11
10
10
6
14
17
16
24
27
26
34
22
24
32
14
13
29
20
20
29
30
18
38
4
4
14
11
12
15
11
19
21
21
28
27
14
22
18
16
25
20
19
25
26
18
21
20
17
17
19
22
31
28
22
30
34
29
37
41
27
35
39
17
25
29
14
22
26
13
21
25
6
13
13
3
3
8
9
12
7
13
13
11
16
16
16
5
7
5
8
10
8
11
11
11
25
25
25
8
8
8
8
8
8
15
15
15
33
33
33
41
41
41
29
29
29
20
20
20
20
19
19
17
13
15
13
13
17
21
21
21
13
13
25
11
10
24
19
17
26
1
8
17
9
22
12
17
33
25
23
35
32
23
29
32
25
27
34
30
30
38
29
30
39
24
27
29
24
24
22
37
32
34
22
14
17
7
15
14
7
6
11
15
17
18
8
13
10
2
6
2
9
3
6
12
4
8
12
12
12
14
14
14
8
8
8
13
13
13
14
14
14
31
30
29
52
52
47
55
60
53
51
59
49
46
54
42
40
46
35
40
41
32
39
39
31
35
37
28
32
34
27
31
29
22
182
181
170
124
115
101
36
47
52
44
45
49
41
45
49
9
4
8
66
73
92
55
58
76
65
69
71
29
34
40
11
11
25
44
52
64
7
14
18
16
16
16
11
12
14
14
25
28
33
32
34
18
13
29
31
20
32
15
5
19
13
3
17
5
12
17
61
56
66
18
15
23
59
54
58
35
31
40
61
63
59
68
67
70
102
100
100
45
47
47
28
38
40
66
62
74
45
41
56
28
30
33
2
2
2
33
33
37
14
14
18
68
67
74
4
6
0
71
78
81
37
36
49
10
7
25
2
2
2
21
24
40
38
42
54
54
52
67
12
8
17
43
41
47
36
32
45
31
28
34
34
27
39
60
54
75
57
53
67
23
34
38
17
23
37
16
11
30
8
9
23
9
14
22
32
32
40
36
36
50
33
31
50
87
90
101
128
123
138
89
93
84
146
141
126
167
154
141
155
137
124
142
122
108
150
128
114
163
136
122
155
128
116
114
96
94
65
57
59
35
27
31
20
7
10
73
84
83
141
145
144
53
44
46
16
7
8
52
49
51
56
56
64
34
26
38
12
16
24
100
88
108
91
71
91
12
20
20
44
31
43
45
33
41
51
48
64
53
42
48
41
28
19
19
10
25
5
45
123
5
70
146
2
39
76
3
20
45
45
32
113
81
3
60
91
78
79
129
130
113
110
111
96
144
130
127
158
137
133
138
125
122
128
123
112
118
114
100
94
90
80
72
68
58
55
55
40
50
57
36
62
61
43
80
63
52
98
78
65
112
91
78
121
98
92
126
102
98
107
84
78
80
70
72
90
97
109
90
93
105
100
91
111
97
80
109
78
60
89
38
32
43
50
49
68
84
91
107
166
194
194
145
144
153
94
61
47
135
110
90
159
129
111
161
127
111
130
99
86
79
52
49
21
12
17
10
11
4
8
8
5
4
4
11
11
12
17
13
10
10
7
1
1
14
4
9
14
8
12
10
7
9
11
11
11
13
13
13
5
5
5
4
4
4
5
5
5
4
4
4
5
5
3
1
4
5
8
4
7
6
5
6
7
2
1
9
4
5
5
5
5
13
12
15
8
14
18
11
14
21
17
17
26
21
21
29
8
8
6
17
14
18
25
16
24
27
15
21
23
14
20
11
7
10
8
8
5
9
9
5
5
5
2
5
5
5
11
11
11
13
13
13
11
11
13
3
3
5
5
5
5
9
9
9
15
15
15
19
22
21
16
25
22
255
248
255
197
189
193
29
29
26
19
19
19
7
7
5
4
10
8
8
6
13
8
4
10
17
15
17
16
16
17
22
22
22
35
35
35
41
41
41
30
30
30
22
22
22
13
13
13
4
4
7
8
8
7
11
11
11
5
5
5
8
8
8
8
8
8
8
8
8
2
2
2
6
6
6
10
10
10
10
10
10
19
19
19
20
20
20
11
11
11
8
8
8
5
5
5
7
7
7
8
8
8
7
7
7
8
8
11
6
6
11
10
10
18
27
27
36
26
26
34
21
20
26
21
19
22
29
24
26
29
30
29
20
17
18
8
2
4
10
7
8
8
8
8
8
8
9
2
2
2
12
14
12
10
16
13
8
16
10
14
22
14
17
23
18
10
13
13
5
1
5
0
4
2
8
8
8
7
7
9
2
2
7
7
7
13
5
5
5
13
13
13
7
4
5
9
4
6
18
17
17
6
8
7
4
6
5
12
12
12
17
17
17
22
22
22
26
28
25
24
30
21
21
30
22
12
19
13
18
25
21
24
29
26
30
32
33
27
27
31
27
25
38
23
19
34
37
36
44
39
39
43
31
31
24
33
33
27
33
33
31
35
35
35
35
35
35
33
33
33
37
36
37
37
37
37
29
28
29
19
19
19
16
16
16
11
11
11
5
5
4
2
4
9
6
12
9
10
18
15
13
21
21
11
17
17
9
12
25
26
29
55
19
20
33
10
14
34
9
10
10
10
10
13
16
16
22
10
10
4
19
19
26
15
15
16
13
13
14
11
11
16
17
17
22
18
18
24
7
8
11
12
10
27
7
8
5
34
25
40
7
4
12
17
15
14
8
11
7
14
11
18
15
18
18
16
22
23
16
23
21
17
24
21
9
8
10
26
28
29
18
10
22
15
7
19
19
11
21
22
14
20
23
15
19
25
17
25
22
19
20
22
20
22
26
26
26
21
19
20
17
17
17
16
21
18
6
14
10
17
17
17
21
21
21
21
21
21
17
17
17
12
12
12
30
30
30
37
37
37
31
31
31
18
18
18
28
26
27
31
27
29
21
19
18
10
10
8
4
4
8
16
15
27
14
10
24
5
5
9
8
8
11
11
14
10
9
17
5
13
19
14
19
21
22
21
21
25
16
18
15
7
13
5
8
11
20
26
24
27
25
23
24
4
7
3
5
5
5
15
19
17
5
7
5
10
12
16
14
18
22
17
14
18
12
12
12
21
21
21
40
40
40
44
46
45
30
36
33
20
25
22
21
28
25
33
35
34
30
32
31
19
23
21
15
16
15
18
14
16
18
10
14
20
14
17
21
15
17
25
25
19
193
191
183
144
136
118
39
50
58
29
28
32
43
45
50
23
19
26
58
67
82
41
45
55
57
63
64
22
29
29
17
19
29
40
49
61
11
17
21
8
8
8
13
12
9
16
19
24
51
41
51
15
21
35
41
27
43
18
12
24
10
13
10
14
19
14
58
54
61
11
5
12
55
54
54
28
26
31
93
97
86
66
67
64
124
122
122
138
133
133
140
138
138
111
110
112
45
46
46
31
35
37
3
3
4
30
30
34
11
11
15
67
67
71
11
10
11
70
76
77
41
43
56
8
6
25
2
3
3
21
19
38
44
46
59
51
53
66
12
8
19
41
38
47
35
29
45
29
26
35
30
26
37
51
43
67
41
35
43
51
50
61
75
72
92
81
79
102
77
76
99
74
70
94
70
66
88
56
53
71
39
34
48
66
66
72
171
168
181
148
145
155
51
62
63
21
33
32
6
14
17
14
22
29
37
43
56
41
49
61
24
31
45
11
5
14
21
17
7
23
21
9
21
21
5
83
95
88
138
140
137
46
35
38
25
13
16
58
56
57
54
54
62
30
22
34
12
16
24
99
87
107
95
75
95
9
17
17
47
33
49
43
32
38
45
43
53
47
37
50
43
31
25
29
24
6
2
32
99
0
61
132
5
32
63
2
28
47
34
17
70
74
1
56
89
53
45
150
151
138
145
146
119
43
34
15
26
25
29
21
23
25
18
18
16
23
23
17
35
35
29
37
37
33
26
24
20
24
24
25
29
36
43
43
47
63
62
66
83
74
78
93
79
83
99
87
91
107
117
120
137
186
187
204
178
172
188
123
116
132
95
87
104
67
61
76
39
37
37
21
21
9
24
20
20
41
34
52
160
165
177
223
227
230
172
178
189
144
143
163
114
122
133
85
99
96
58
72
58
48
48
38
43
32
31
32
27
26
20
23
22
17
21
19
10
14
10
15
13
12
17
15
14
22
12
15
21
13
15
17
14
15
16
17
17
19
25
23
21
33
29
25
37
33
30
39
36
34
37
36
27
30
30
17
24
22
13
22
20
16
16
16
12
8
7
5
2
3
5
6
5
6
7
2
2
15
5
8
19
13
18
28
24
17
29
20
11
21
14
10
10
13
8
7
11
8
8
7
15
9
19
10
4
14
4
4
4
7
7
7
10
10
10
17
17
17
18
18
18
20
20
20
28
28
30
36
36
42
36
36
44
29
29
37
22
22
30
20
20
28
24
22
30
252
237
254
206
200
205
2
10
12
10
2
4
17
9
13
15
12
13
4
9
7
14
12
12
19
13
22
12
6
16
10
10
18
15
15
23
15
15
23
16
16
24
16
16
23
8
8
15
7
7
10
10
10
8
1
1
1
6
6
6
5
5
5
4
4
4
10
10
10
9
9
9
3
3
3
8
8
8
10
10
10
2
2
2
14
16
15
2
7
4
1
7
3
3
5
1
5
1
2
8
6
7
18
18
20
30
30
38
25
25
33
17
17
23
17
17
20
4
4
4
10
4
7
13
11
11
15
12
13
6
6
4
4
6
4
4
5
2
4
5
4
4
7
5
5
1
3
18
21
17
15
22
16
14
21
17
15
23
19
17
25
21
16
24
20
19
27
22
21
23
21
17
24
16
18
26
20
21
29
25
20
28
24
19
27
23
18
24
21
16
23
18
22
30
22
27
35
29
38
46
42
48
56
52
46
54
50
38
46
42
33
39
36
31
32
31
26
28
25
20
24
17
10
12
7
10
10
2
23
23
15
25
27
20
14
18
14
13
13
13
25
19
36
9
13
4
55
54
61
28
27
38
10
10
15
9
9
9
6
6
6
7
7
7
4
4
4
1
1
1
4
1
2
10
6
8
10
8
9
7
7
7
5
3
4
5
9
7
14
20
27
17
23
31
10
17
20
7
13
14
6
11
22
11
17
27
22
23
55
36
36
67
25
22
50
12
16
40
21
22
21
16
18
19
8
8
14
3
3
7
8
8
17
1
1
5
6
6
6
7
7
11
11
11
17
18
14
13
17
11
11
12
11
26
4
3
18
31
24
45
11
12
28
23
16
19
8
15
4
6
8
10
5
4
2
0
2
7
5
13
7
21
27
22
12
13
20
28
27
28
17
9
15
18
10
14
19
11
15
17
10
13
8
0
4
9
3
12
21
15
18
30
27
32
27
27
27
30
27
28
22
22
22
23
31
27
11
19
15
11
11
11
8
8
8
12
12
12
14
14
14
4
4
4
31
31
31
9
9
9
31
31
31
15
15
15
19
20
19
18
22
20
15
14
14
12
12
12
13
13
14
17
17
23
16
18
21
6
16
17
14
24
19
9
18
22
5
5
3
5
1
5
8
6
11
3
5
10
11
11
17
13
15
14
15
13
14
10
10
14
21
24
29
23
21
28
19
15
19
27
26
26
37
37
39
44
46
53
44
48
53
48
49
52
49
49
49
49
49
49
46
46
46
49
49
49
58
58
58
31
31
31
15
13
14
5
2
3
15
7
11
15
13
14
11
15
13
11
14
12
8
10
9
4
9
7
2
4
3
14
14
14
195
192
182
173
163
143
44
49
59
16
12
8
30
31
36
13
27
29
44
52
68
22
22
27
51
56
60
18
26
25
25
32
42
34
43
54
8
11
14
0
2
5
14
19
29
30
70
83
37
66
73
27
47
64
41
36
57
24
23
35
28
17
37
23
21
40
54
55
70
13
20
34
32
32
30
57
55
45
97
97
84
52
49
42
46
38
35
69
59
60
74
62
66
59
53
51
51
56
44
36
38
41
7
7
7
24
24
28
9
9
13
63
63
67
14
16
16
69
71
76
46
49
61
4
5
20
1
7
8
22
17
35
49
50
66
47
49
64
8
10
16
38
33
45
36
32
45
25
21
33
31
30
37
42
37
62
22
19
21
57
49
81
67
60
83
71
71
82
66
67
75
60
60
68
45
46
52
26
26
28
11
10
7
29
37
36
132
132
140
134
121
131
63
58
46
41
45
34
18
22
17
5
8
9
17
11
14
50
46
49
75
74
81
66
64
84
41
38
59
20
19
34
9
2
23
86
103
82
137
144
135
46
37
37
35
20
25
65
58
63
49
49
56
26
18
30
12
16
24
104
92
112
97
77
97
11
18
18
51
36
49
41
32
34
37
39
48
41
31
50
41
26
25
39
34
10
9
20
79
5
60
131
4
24
50
1
7
16
23
12
29
67
7
52
96
36
10
137
137
133
157
155
130
67
60
42
18
12
10
15
13
9
19
19
15
22
22
16
22
22
22
20
20
18
33
33
37
51
52
57
59
60
70
80
74
83
98
89
91
111
100
102
127
116
120
140
125
131
144
127
135
137
124
132
77
65
67
12
10
13
6
6
10
4
4
10
2
2
10
4
1
8
19
15
10
34
31
25
73
59
81
121
123
142
170
164
170
186
168
162
171
158
147
151
139
132
123
114
109
93
90
87
79
69
70
64
55
56
47
43
44
39
39
40
34
37
40
31
34
34
24
28
27
26
29
25
27
30
25
25
25
24
26
26
25
27
36
33
29
41
37
24
36
32
22
31
28
27
30
29
35
37
38
49
55
59
61
64
69
53
55
56
44
45
44
41
44
43
28
36
32
15
24
15
17
23
17
21
28
26
19
28
25
6
15
12
8
17
14
17
14
17
25
16
25
20
8
20
2
2
5
16
7
16
14
4
13
10
12
7
18
18
17
18
18
18
18
20
22
21
30
35
28
40
42
29
41
39
25
37
33
21
30
27
19
22
21
19
16
17
21
14
16
240
229
242
203
201
206
24
16
21
29
22
27
26
18
22
18
15
16
25
22
24
25
18
21
17
11
17
10
7
14
6
6
11
5
5
10
4
2
9
11
5
16
18
11
22
22
14
26
15
9
20
3
5
4
6
6
4
2
5
1
3
3
6
8
3
15
17
12
26
18
15
27
14
8
19
9
7
13
1
9
3
5
13
3
8
14
10
6
4
10
10
5
15
14
12
21
23
22
30
35
29
40
44
36
49
41
34
45
34
27
32
19
11
15
10
8
8
11
11
11
22
17
20
19
17
17
16
15
15
17
14
15
15
17
16
13
19
16
8
15
11
8
15
5
7
13
5
8
12
12
20
22
21
17
21
19
15
17
16
16
18
17
16
20
18
17
18
18
6
4
9
7
7
4
10
4
6
15
10
12
13
5
7
12
4
2
25
17
15
44
36
38
62
54
58
68
60
62
63
55
53
48
44
40
27
30
25
10
12
11
19
18
18
27
27
27
31
31
29
32
33
28
29
35
26
25
33
27
24
32
28
33
40
38
42
45
49
41
39
46
44
39
54
50
48
55
41
38
52
7
5
17
10
10
10
15
15
15
20
20
20
23
23
23
23
24
24
14
18
16
10
12
11
12
14
13
10
13
12
6
8
7
6
4
3
22
32
28
36
42
46
34
39
32
27
29
30
23
23
23
17
16
16
18
17
14
29
25
42
21
18
31
26
19
50
11
8
31
15
7
11
1
3
6
12
16
25
15
18
28
18
18
34
13
13
17
11
10
8
15
12
8
24
20
18
28
23
24
26
22
21
27
26
31
26
25
42
17
10
27
19
26
47
24
13
16
5
12
6
8
8
9
14
18
9
19
27
21
18
25
21
18
21
17
15
15
21
30
30
29
16
15
17
14
10
12
19
13
16
32
31
32
32
32
34
27
27
31
23
23
27
23
23
31
18
19
24
5
10
7
13
11
12
30
35
34
16
16
21
18
18
16
12
14
9
10
12
8
15
13
16
7
7
5
33
33
29
44
44
38
31
31
30
11
11
11
8
8
8
23
20
21
19
19
19
16
20
18
19
21
20
23
23
23
20
22
21
14
19
23
15
19
19
15
22
26
1
9
4
1
9
5
7
14
13
7
13
13
11
11
9
4
5
2
12
8
14
21
15
20
30
22
26
39
32
37
33
31
32
28
28
28
29
27
28
24
17
18
17
11
15
21
17
21
27
22
22
25
19
17
17
14
15
8
8
8
22
22
22
40
40
40
22
24
23
6
2
4
4
6
4
16
10
13
14
16
15
10
16
13
10
16
12
7
7
5
8
2
5
16
15
12
187
180
167
177
165
149
25
40
46
5
10
5
15
18
20
12
18
18
32
28
45
7
7
11
45
48
56
18
24
26
30
37
47
26
34
40
11
17
19
27
38
43
34
49
54
72
100
87
52
41
17
49
103
112
49
48
61
44
40
36
47
48
50
54
52
55
78
73
81
71
67
79
38
32
44
43
39
42
44
49
43
57
67
64
77
89
91
96
103
106
113
116
117
96
100
102
45
52
54
29
27
31
8
8
1
18
16
22
7
7
10
60
58
64
20
19
22
67
66
77
49
49
62
5
6
18
3
12
19
16
9
23
49
52
73
50
50
68
8
13
13
33
28
37
41
39
49
20
18
24
36
35
42
33
34
52
24
27
24
57
58
84
53
55
68
31
44
55
44
59
72
60
74
88
74
89
102
85
101
113
100
116
128
117
130
141
142
141
148
123
110
120
57
52
48
31
28
28
18
18
18
8
11
12
22
26
26
25
27
29
14
13
12
27
30
28
53
54
61
70
70
76
78
73
84
127
129
116
120
121
110
38
27
25
41
32
37
65
58
67
45
40
50
20
16
24
11
13
22
107
97
118
101
82
99
14
20
22
53
38
45
36
30
30
34
40
48
41
34
53
32
21
25
39
35
16
24
6
57
3
62
136
1
39
78
0
17
31
14
7
34
58
11
49
96
29
8
130
118
115
153
153
127
70
76
55
40
27
27
34
28
28
25
25
23
25
25
22
34
34
34
38
38
42
34
34
39
46
44
56
44
44
42
47
48
41
52
52
55
54
54
59
59
59
65
61
59
63
77
75
78
108
107
110
127
124
125
118
116
119
95
96
104
86
89
103
85
89
101
82
86
92
82
82
88
82
74
80
67
58
63
31
38
43
14
32
34
47
38
51
56
50
61
55
55
57
61
56
54
58
61
58
50
56
51
48
55
51
58
58
58
60
55
55
50
49
51
43
46
48
34
40
38
29
33
25
23
30
21
22
30
24
27
33
25
34
29
21
30
20
12
25
17
10
24
20
13
24
23
15
31
33
27
55
56
55
66
57
60
64
60
61
50
48
49
41
40
40
38
30
38
24
15
25
25
13
25
25
13
21
20
8
12
13
11
10
12
9
8
19
15
16
19
19
21
18
19
25
16
21
24
10
22
20
16
17
15
12
11
10
7
8
9
4
8
4
3
10
11
15
21
23
16
22
15
5
7
2
5
5
3
4
8
5
9
9
9
10
10
10
7
7
7
231
223
235
191
191
194
33
33
39
19
19
21
21
21
21
29
28
29
19
11
15
20
18
19
25
25
27
27
27
33
26
26
34
24
24
31
21
18
27
22
15
26
25
17
29
29
21
33
27
19
30
15
13
21
14
14
16
11
12
12
15
7
20
21
14
29
26
22
37
27
24
37
22
21
28
20
13
24
26
18
30
31
23
35
29
24
34
25
23
32
21
24
30
11
17
22
15
14
20
19
14
23
25
20
28
17
9
15
24
18
21
24
17
21
21
15
18
16
18
17
11
4
7
8
6
6
12
7
10
16
8
12
22
18
20
36
31
33
36
28
34
30
20
30
29
20
30
31
30
32
29
35
32
24
31
27
27
29
28
29
31
30
26
32
29
31
34
32
34
34
32
30
33
27
24
32
26
19
27
23
17
25
24
21
29
31
26
34
36
36
44
41
49
57
49
49
57
53
45
53
56
50
53
55
56
54
54
47
51
49
40
45
42
38
40
39
37
37
35
31
33
26
21
27
16
18
25
14
21
29
17
31
38
34
31
37
39
37
37
44
47
42
53
34
31
45
9
7
22
4
5
5
8
8
5
13
13
13
11
11
11
8
8
8
12
11
11
14
17
16
14
16
15
15
17
16
17
21
19
11
17
14
11
3
1
38
46
42
28
19
26
12
15
19
6
1
5
14
7
8
18
15
8
23
19
8
20
17
19
6
5
32
14
7
29
17
14
17
17
10
13
7
7
5
9
10
41
15
21
19
34
34
64
8
8
10
2
6
9
14
9
7
12
5
10
5
5
10
6
5
12
17
14
24
37
31
58
12
9
15
21
25
50
15
5
7
19
14
17
11
12
9
15
13
14
7
9
6
2
0
1
10
10
7
16
16
12
18
18
15
6
7
7
13
11
11
10
10
9
16
22
19
1
1
7
8
8
14
20
20
24
28
28
34
30
32
39
29
36
42
22
30
28
22
27
25
4
6
11
5
5
10
2
4
5
3
1
5
14
8
17
13
13
10
5
5
13
1
1
8
6
6
4
20
14
17
13
9
11
25
19
22
22
22
22
25
21
23
21
19
20
15
15
15
15
17
16
24
27
28
24
21
25
12
10
12
8
5
4
8
7
7
5
5
5
6
5
5
16
10
11
23
15
17
25
17
17
23
15
13
17
9
5
19
11
11
23
20
20
21
21
21
15
13
12
14
8
5
21
14
13
26
22
22
27
22
24
24
18
16
14
8
8
3
4
2
2
2
2
15
15
15
26
28
27
9
14
11
10
10
9
7
4
5
11
11
11
1
1
1
8
6
7
18
12
15
20
13
14
24
21
16
152
142
128
192
182
170
153
154
144
90
93
83
32
35
29
15
4
2
21
21
36
5
12
18
46
47
55
21
25
25
30
38
44
18
24
29
19
24
28
16
22
29
27
34
33
109
102
68
77
37
31
125
129
111
29
48
52
6
12
24
7
6
2
18
9
7
38
28
26
51
46
46
58
51
53
73
65
69
91
85
85
85
83
80
73
72
73
70
66
72
68
65
72
61
59
66
43
43
53
35
34
44
25
25
34
26
25
35
15
19
22
55
49
60
28
22
32
65
62
78
51
48
64
7
5
18
5
11
26
10
8
18
45
47
76
51
53
68
10
11
10
27
25
28
42
39
52
16
18
12
39
36
49
22
27
35
44
48
54
50
54
64
111
113
126
131
132
149
139
136
156
143
139
159
141
137
157
143
139
159
152
147
166
149
138
150
109
93
92
63
56
56
38
29
36
20
13
14
12
12
7
21
23
22
26
32
29
12
17
15
12
9
15
15
13
22
15
16
13
26
28
25
67
67
68
130
133
116
76
73
64
23
15
15
40
43
47
62
55
66
48
33
47
13
17
17
9
7
18
102
96
119
105
88
99
17
18
25
48
37
39
27
25
25
40
41
49
46
39
51
20
17
26
36
32
21
35
10
32
5
59
132
2
57
121
1
11
28
14
19
85
47
25
70
84
39
39
129
106
105
154
150
128
62
83
55
10
8
5
9
3
3
1
1
1
7
7
13
9
9
15
2
2
10
12
12
17
25
24
32
40
38
44
62
62
64
85
85
83
105
105
99
123
123
116
139
137
131
154
148
145
167
159
162
180
173
174
190
187
184
188
188
185
184
184
184
186
186
186
183
185
186
169
172
179
149
151
166
129
138
153
126
138
150
133
132
137
118
111
102
89
86
74
65
65
56
46
44
42
37
35
41
33
25
28
15
11
11
4
13
10
21
21
18
25
18
14
28
25
23
30
30
30
25
26
21
18
22
14
18
24
17
15
21
14
18
13
10
20
10
4
20
12
7
19
16
9
18
17
9
11
18
17
26
29
34
11
18
15
21
26
24
10
9
10
23
19
20
42
32
38
51
39
49
43
31
41
28
16
22
19
7
11
17
13
14
10
8
8
12
12
12
7
7
7
17
13
14
14
17
17
20
19
26
16
17
25
1
8
10
11
3
7
11
7
13
9
4
7
17
12
18
7
21
20
10
15
15
10
11
10
9
9
7
4
5
4
6
6
6
8
8
8
225
217
229
195
195
195
186
186
186
179
179
179
185
185
185
205
205
205
225
223
224
233
227
230
235
227
231
235
227
231
232
224
228
232
224
228
231
225
228
226
224
225
225
225
225
225
225
225
229
227
228
235
229
234
234
226
236
234
228
237
233
231
234
228
227
225
225
221
218
225
220
220
232
230
231
241
241
241
243
243
243
241
241
241
242
242
242
244
244
244
243
241
242
241
235
238
235
229
232
227
225
226
222
222
222
222
222
222
228
228
228
233
233
233
233
231
232
229
223
226
225
219
222
222
220
221
221
219
220
226
220
223
229
221
225
229
221
225
233
225
231
235
227
237
235
229
238
240
238
241
244
244
244
242
240
241
241
235
238
241
235
238
241
239
240
245
243
244
242
238
240
232
230
231
229
229
229
231
231
231
233
233
235
230
230
236
221
221
227
209
209
211
197
197
197
192
192
194
197
197
203
213
211
218
237
231
236
255
252
255
255
255
255
255
255
255
255
255
255
255
255
255
255
255
255
255
255
255
255
255
255
255
255
255
255
255
255
255
255
255
255
255
255
255
255
255
255
255
255
255
255
255
255
255
255
255
255
255
255
255
255
255
255
255
255
255
255
255
255
255
255
255
255
255
255
255
255
255
255
255
255
255
255
255
255
255
255
255
255
251
255
255
248
252
255
255
255
255
255
255
255
255
255
255
255
255
255
255
255
255
255
255
255
255
255
255
255
255
255
255
255
255
255
255
255
255
255
255
255
245
255
255
255
255
255
255
255
255
255
255
255
255
255
255
255
255
255
255
255
255
255
255
255
255
255
255
255
255
255
254
255
255
255
255
255
255
255
255
255
255
255
255
255
255
255
255
255
255
255
255
255
255
255
255
255
255
255
255
255
255
255
255
255
255
255
255
255
255
255
255
255
255
255
255
255
255
255
255
255
255
255
255
255
255
255
255
255
255
255
255
255
255
255
255
255
255
255
255
255
255
255
255
255
255
255
255
255
255
255
255
255
255
255
255
255
255
255
255
255
255
255
255
255
255
255
255
255
255
255
255
255
255
255
255
255
255
255
255
255
255
255
255
255
255
255
255
255
255
255
255
255
255
255
255
255
255
255
255
255
255
255
255
255
255
255
255
255
255
255
255
255
255
255
255
255
255
255
255
255
255
255
255
255
255
255
255
255
255
255
255
255
255
255
255
255
255
255
255
255
255
255
255
255
255
255
255
255
255
255
255
255
255
255
255
255
255
255
255
255
255
255
255
255
255
255
255
255
255
253
253
253
255
255
255
251
251
251
248
248
248
246
246
246
239
239
239
234
234
234
231
232
234
195
199
203
121
129
138
84
98
111
102
120
131
65
90
103
64
83
99
71
85
108
76
91
117
74
89
113
50
67
87
40
55
75
26
36
55
30
40
58
36
50
72
49
68
84
117
116
104
95
103
100
112
105
89
33
41
43
8
18
28
5
4
5
2
2
10
7
9
14
21
21
27
39
36
45
54
48
59
62
54
66
67
56
66
62
50
56
48
38
43
32
29
34
37
33
43
62
54
66
71
63
75
61
57
69
64
56
75
67
59
79
63
55
74
35
30
44
60
57
73
75
71
95
79
75
101
81
78
111
82
82
115
76
78
109
54
56
71
25
25
33
33
33
40
55
52
69
53
51
69
49
45
67
36
38
51
70
74
93
64
67
79
36
43
55
32
45
57
46
61
73
60
76
88
74
90
102
86
102
114
103
119
131
121
134
145
141
147
155
164
165
169
185
182
191
193
187
198
196
188
198
195
187
193
197
189
193
206
198
204
216
208
216
215
207
213
198
190
194
187
180
181
186
180
178
166
162
157
116
107
125
111
101
125
105
96
118
87
74
95
59
47
63
31
31
39
30
25
39
92
86
113
134
117
146
132
116
147
121
106
133
101
89
117
88
76
103
66
56
79
41
35
54
38
32
44
32
18
46
5
48
126
2
73
184
2
69
178
12
69
178
36
58
124
75
71
112
140
124
159
213
193
216
233
225
240
234
235
248
235
233
245
242
234
246
241
233
243
234
226
232
230
222
226
229
221
225
223
215
219
214
206
212
208
200
210
203
195
207
197
189
201
190
182
192
181
173
179
169
161
165
154
146
150
139
133
136
121
118
121
99
100
107
87
90
104
85
89
105
82
86
100
82
83
94
85
80
89
86
79
89
91
85
101
103
96
114
119
111
125
138
130
144
155
147
166
167
158
181
180
168
195
194
179
206
199
184
208
197
186
207
201
193
213
212
201
220
222
205
222
229
209
227
233
216
237
236
222
242
240
223
242
240
223
244
238
226
249
239
229
253
240
228
251
238
224
246
235
224
245
232
221
240
220
206
222
207
196
209
212
204
216
225
217
229
237
229
241
250
242
254
255
247
255
253
245
255
251
243
255
250
242
254
252
244
255
254
246
255
251
243
255
249
241
253
254
243
255
255
241
255
255
238
254
255
240
255
255
245
255
255
248
255
255
245
255
255
241
255
248
237
250
240
229
242
239
222
237
238
221
236
233
222
235
229
221
233
227
219
231
227
219
231
239
230
243
