P3
# TP2-INF110, by AGS
400 263 255
255
255
255
255
255
255
255
255
255
255
255
255
255
255
255
255
255
255
255
255
255
255
255
255
255
255
255
255
255
255
255
255
255
255
255
255
255
255
255
255
255
255
255
255
255
255
255
255
255
255
255
255
255
255
255
255
255
255
255
255
255
255
255
255
255
255
255
255
255
255
255
255
255
255
255
255
255
255
255
255
255
255
255
255
255
255
255
255
255
255
255
255
255
255
255
255
255
255
255
255
255
255
255
255
255
255
255
255
255
255
255
255
255
255
255
255
255
255
255
255
255
255
255
255
255
255
255
255
255
255
255
255
255
255
255
255
255
255
255
255
255
255
255
255
255
255
255
255
255
255
255
255
255
255
255
255
255
255
255
255
255
255
255
255
255
255
255
255
255
255
255
255
255
255
255
255
255
255
255
255
255
255
255
255
255
255
255
255
255
255
255
255
255
255
255
255
255
255
255
255
255
255
255
255
255
255
255
255
255
255
255
255
255
255
255
255
255
255
255
255
255
255
255
255
255
255
255
255
255
255
255
255
255
255
255
255
255
255
255
255
255
255
255
255
255
255
255
255
255
255
255
255
255
255
255
255
255
255
255
255
255
255
255
255
255
255
255
255
255
255
255
255
255
255
255
255
255
255
255
255
255
255
255
255
255
255
255
255
255
255
255
255
255
255
255
255
255
255
255
255
255
255
255
255
255
255
255
255
255
255
255
255
255
255
255
255
255
255
255
255
255
255
255
255
255
255
255
255
255
255
255
255
255
255
255
255
255
255
255
255
255
255
255
255
255
255
255
255
255
255
255
255
255
255
255
255
255
255
255
255
255
255
255
255
255
255
255
255
255
255
255
255
255
255
255
255
255
255
255
255
255
255
255
255
255
255
255
255
255
255
255
255
255
255
255
255
255
255
255
255
255
255
255
255
255
255
255
255
255
255
255
255
255
255
255
255
255
255
255
255
255
255
255
255
255
255
255
255
255
255
255
255
255
255
255
255
255
255
255
255
255
255
255
255
255
255
255
255
255
255
255
255
255
255
255
255
255
255
255
255
255
255
255
255
255
255
255
255
255
255
255
255
255
255
255
255
255
255
255
255
255
255
255
255
255
255
255
255
255
255
255
255
255
255
255
255
255
255
255
255
255
255
255
255
255
255
255
255
255
255
255
255
255
255
255
255
255
255
255
255
255
255
255
255
255
255
255
255
255
255
255
255
255
255
255
255
255
255
255
255
255
255
255
255
255
255
255
255
255
255
255
255
255
255
255
255
255
255
255
255
255
255
255
255
255
255
255
255
255
255
255
255
255
255
255
255
255
255
255
255
255
255
255
255
255
255
255
255
255
255
255
255
255
255
255
255
255
255
255
255
255
255
255
255
255
255
255
255
255
255
255
255
255
255
255
255
255
255
255
255
255
255
255
255
255
255
255
255
255
255
255
255
255
255
255
255
255
255
255
255
255
255
255
255
255
255
255
255
255
255
255
255
255
255
255
255
255
255
255
255
255
255
255
255
255
255
255
255
255
255
255
255
255
255
255
255
255
255
255
255
255
255
255
255
255
255
255
255
255
255
255
255
255
255
255
255
255
255
255
255
255
255
255
255
255
255
255
255
255
255
255
255
255
255
255
255
255
255
255
255
255
255
255
255
255
255
255
255
255
255
255
255
255
255
255
255
255
255
255
255
255
255
255
255
255
255
255
255
255
255
255
255
255
255
255
255
255
255
255
255
255
255
255
255
255
255
255
255
255
255
255
255
255
255
255
255
255
255
255
255
255
255
255
255
255
255
255
255
255
255
255
255
255
255
255
255
255
255
255
255
255
255
255
255
255
255
255
255
255
255
255
255
255
255
255
255
255
255
255
255
255
255
255
255
255
255
255
255
255
255
255
255
255
255
255
255
255
255
255
255
255
255
255
255
255
255
255
255
255
255
255
255
255
255
255
255
255
255
255
255
255
255
255
255
255
255
255
255
255
255
255
255
255
255
255
255
255
255
255
255
255
255
255
255
255
255
255
255
255
255
255
255
255
255
255
255
255
255
255
255
255
255
255
255
255
255
255
255
255
255
255
255
255
255
255
255
255
255
255
255
255
255
255
255
255
255
255
255
255
255
255
255
255
255
255
255
255
255
255
255
255
255
255
255
255
255
255
255
255
255
255
255
255
255
255
255
255
255
255
255
255
255
255
255
255
255
255
255
255
255
255
255
255
255
255
255
255
255
255
255
255
255
255
255
255
255
255
255
255
255
255
255
255
255
255
255
255
255
255
255
255
255
255
255
255
255
255
255
255
255
255
255
255
255
255
255
255
255
255
255
255
255
255
255
255
255
255
255
255
255
255
255
255
255
255
255
255
255
255
255
255
255
255
255
255
255
255
255
255
255
255
255
255
255
255
255
255
255
255
255
255
255
255
255
255
255
255
255
255
255
255
255
255
255
255
255
255
255
255
255
255
255
255
255
255
255
255
255
255
255
255
255
255
255
255
255
255
255
255
255
255
255
255
255
255
255
255
255
255
255
255
255
255
255
255
255
255
255
255
255
255
255
255
255
255
255
255
255
255
255
255
255
255
255
255
255
255
255
255
255
255
255
255
255
255
255
255
255
255
255
255
255
255
255
255
255
255
255
255
255
255
255
255
255
255
255
255
255
255
255
255
255
255
255
255
255
255
255
255
255
255
255
255
255
255
255
255
255
255
255
255
255
255
255
255
255
255
255
255
255
255
255
255
50
84
127
36
65
101
24
47
77
12
29
56
0
13
35
10
2
15
16
10
2
20
16
4
21
17
7
18
14
5
16
13
2
15
14
3
14
13
4
15
13
5
15
14
4
14
14
4
14
14
5
13
13
5
12
13
3
14
14
3
16
13
3
15
13
3
13
11
4
13
9
7
15
8
8
15
8
7
14
8
7
14
8
7
14
8
5
15
8
4
15
8
5
13
7
4
10
7
4
7
7
4
5
8
4
8
8
5
8
8
6
8
8
5
8
8
5
9
8
5
10
7
4
8
5
2
7
7
4
7
7
4
5
7
2
5
5
3
6
4
4
6
5
4
7
7
3
8
7
5
7
7
7
7
7
5
7
5
3
7
5
1
8
5
4
8
5
4
8
5
1
9
4
3
7
5
4
7
6
4
7
5
4
6
5
2
7
5
1
7
4
1
8
4
4
10
5
4
10
5
3
8
6
4
5
7
4
5
7
2
6
8
4
5
8
4
5
8
2
8
11
3
10
8
4
10
7
0
12
5
4
13
5
4
10
8
2
10
8
2
11
8
1
10
8
2
10
10
1
10
10
1
10
10
4
10
11
4
10
8
4
13
8
5
14
8
6
14
9
7
14
10
7
13
10
5
12
11
5
12
11
6
13
9
7
13
8
7
12
8
5
13
7
4
15
7
5
14
7
7
15
9
8
15
10
8
14
10
8
15
11
7
14
12
5
13
12
4
12
12
4
14
12
2
13
13
3
14
10
5
15
12
9
16
12
10
18
13
8
19
16
8
20
16
8
20
16
8
20
16
9
20
16
10
20
16
9
20
16
8
20
17
8
17
16
7
16
17
5
17
17
5
18
18
10
21
20
11
23
21
11
24
21
12
23
21
11
23
18
10
24
16
10
22
14
10
20
15
11
21
18
11
21
19
10
19
19
11
19
17
11
20
16
10
20
16
8
19
15
8
20
15
8
21
18
8
22
22
8
23
25
9
24
26
10
23
25
9
22
23
10
22
21
9
21
20
7
21
20
8
23
21
10
24
23
9
23
23
7
21
21
5
20
19
3
19
17
1
18
17
0
18
18
3
17
17
2
16
16
3
16
16
3
16
16
3
15
15
4
13
13
4
12
12
5
12
12
7
12
13
8
13
15
9
16
16
11
19
17
12
20
20
13
20
22
14
23
24
14
27
27
18
27
27
19
25
25
17
24
25
17
27
27
21
31
30
24
36
35
28
40
40
32
44
44
37
45
45
40
41
42
38
36
39
36
33
37
35
33
36
34
35
36
35
36
36
35
34
36
33
31
36
31
32
36
30
35
37
32
36
38
34
36
37
33
36
37
33
36
38
34
34
35
32
30
30
29
28
28
27
28
29
25
28
30
23
26
29
22
25
29
22
23
31
20
24
35
20
25
36
21
27
36
22
27
35
21
26
34
20
28
34
20
31
33
21
32
32
22
32
32
21
30
31
19
26
29
17
24
28
16
24
27
15
25
26
15
26
27
17
25
28
17
24
28
17
24
28
18
24
27
16
22
25
13
18
24
11
16
23
9
17
21
9
18
20
11
18
20
12
19
20
12
20
20
12
20
20
13
20
20
14
19
20
14
17
19
15
16
17
16
16
17
15
17
18
13
19
17
13
20
16
14
19
17
14
18
20
15
19
22
16
20
22
16
21
24
18
22
25
22
21
26
24
20
25
24
20
25
25
21
27
27
23
27
28
24
25
28
24
24
28
23
24
28
22
25
29
23
27
30
23
27
28
20
25
26
18
24
27
18
25
29
17
24
28
16
24
28
16
24
29
16
22
27
16
22
25
16
22
24
16
23
24
16
23
24
15
21
24
13
19
22
12
17
19
12
16
19
11
16
20
9
14
16
8
10
13
8
8
12
8
8
12
8
8
12
8
9
12
7
11
11
6
12
10
7
11
10
7
9
10
5
7
8
4
5
7
4
4
5
4
5
5
4
6
7
7
5
7
5
6
10
1
4
7
0
1
2
3
1
4
4
2
4
3
1
0
3
2
2
2
2
3
0
0
2
0
0
0
0
0
0
0
1
1
1
3
4
3
4
3
4
4
0
4
4
2
5
2
4
5
4
6
3
4
5
0
4
5
1
4
7
5
4
5
7
8
7
7
8
7
7
7
4
5
7
3
7
5
5
8
8
8
10
11
10
8
9
10
7
7
10
9
10
11
10
13
10
11
12
8
12
12
8
13
13
9
14
15
11
13
15
13
12
13
14
12
12
14
12
12
16
12
13
17
13
16
16
15
18
17
16
18
17
17
19
19
19
20
21
19
19
22
17
17
22
16
16
21
16
15
16
15
13
14
13
13
16
11
15
17
9
14
14
9
11
13
11
12
13
8
12
8
6
9
6
6
9
7
8
12
11
13
14
15
17
14
15
20
18
15
21
21
15
18
20
12
18
18
11
17
17
12
15
13
11
12
9
9
8
7
6
4
4
2
3
1
0
1
3
1
3
4
2
2
1
1
4
0
3
5
3
7
10
10
8
12
14
11
14
14
15
14
16
17
16
17
17
16
18
16
15
17
12
13
15
8
12
13
5
11
12
4
10
12
5
11
14
8
13
19
13
18
21
18
22
21
20
19
22
17
17
20
15
18
17
13
18
18
11
17
21
13
20
22
13
21
21
11
20
22
11
18
24
10
18
25
7
20
24
8
21
22
10
20
23
12
20
22
14
20
20
15
255
255
255
255
255
255
20
18
10
20
17
11
18
16
9
14
15
7
16
13
7
17
14
7
15
13
5
16
14
5
16
15
7
15
15
5
14
14
4
15
14
5
17
15
6
18
18
5
18
17
5
19
15
8
20
14
10
21
15
10
22
15
10
20
13
9
17
12
8
13
10
8
11
7
8
10
7
9
11
8
8
12
8
7
15
9
7
16
10
8
16
9
8
15
8
8
14
8
8
14
8
8
12
7
7
9
6
6
10
7
7
11
8
7
10
10
5
10
10
6
9
9
5
8
8
4
8
9
1
8
11
3
7
12
4
7
9
2
6
7
4
7
7
4
7
7
4
9
8
5
10
8
5
9
7
7
8
7
5
7
5
4
7
4
4
7
7
4
8
7
4
10
7
1
10
7
0
10
5
4
8
5
5
7
7
2
7
7
3
7
7
3
8
7
3
10
5
4
10
5
4
10
7
1
8
7
0
8
7
4
8
8
4
8
8
3
9
8
5
11
8
5
12
8
4
13
9
3
12
7
3
13
7
0
15
8
4
13
8
4
12
10
1
12
10
2
12
11
1
10
12
2
10
13
3
10
13
4
12
11
5
16
10
5
18
10
5
18
10
5
16
10
5
15
11
7
14
11
5
14
10
4
14
10
5
15
9
5
17
8
7
17
8
7
16
8
7
16
9
8
15
10
7
13
10
5
13
11
4
15
12
5
15
12
5
14
12
7
15
12
8
15
12
7
15
13
5
15
14
4
16
13
5
17
13
8
16
15
9
16
14
7
17
15
5
18
17
8
19
17
11
20
18
11
19
17
10
17
16
10
16
16
9
15
16
8
13
15
8
13
14
8
15
16
9
15
16
10
16
16
11
20
16
10
23
16
8
21
16
7
20
14
5
20
13
8
17
13
10
13
13
8
11
13
8
13
14
7
12
12
5
13
12
5
15
13
7
15
14
7
14
13
7
14
12
7
13
13
7
13
15
7
15
13
8
18
15
10
18
16
8
18
16
6
18
16
8
19
16
11
20
17
12
20
18
12
20
18
11
20
19
9
20
20
8
20
20
8
20
20
8
20
20
9
19
19
10
17
17
10
17
16
11
19
16
11
19
17
10
18
19
11
19
19
13
20
17
14
20
16
13
20
16
11
19
17
10
18
19
12
22
22
16
27
28
20
27
31
24
25
29
22
25
29
20
27
28
21
29
30
23
32
34
27
35
36
31
37
36
33
38
39
32
40
42
31
39
41
29
37
40
26
37
40
28
39
41
31
39
42
33
37
41
34
35
39
31
33
37
27
32
37
26
33
38
26
34
37
27
34
37
27
34
39
25
32
39
23
30
36
20
30
34
19
30
36
22
31
38
23
30
36
20
26
32
18
24
30
19
25
31
21
25
30
21
22
27
18
18
22
13
19
20
13
21
21
16
23
23
19
23
24
19
20
24
17
18
24
16
19
23
16
20
22
16
21
24
16
23
26
16
24
26
16
23
26
15
20
24
14
18
21
15
18
20
16
17
21
16
17
22
16
19
21
15
20
20
13
20
20
12
20
19
12
19
17
12
17
16
12
16
16
12
17
17
13
19
19
15
20
21
16
20
23
17
19
23
18
17
21
18
16
20
19
17
21
19
19
23
18
19
23
19
17
21
19
17
21
17
19
24
17
21
26
20
22
26
23
22
27
25
24
29
29
24
28
35
23
28
35
22
28
34
22
29
36
22
31
39
23
31
39
23
29
37
21
29
36
20
30
35
20
29
34
21
29
35
23
30
36
23
29
34
21
27
30
19
25
29
17
24
28
16
24
28
16
23
26
15
22
21
13
22
17
12
21
17
12
20
18
12
19
17
12
17
16
12
16
16
11
15
15
10
14
13
11
15
14
12
16
15
11
16
16
9
15
15
7
14
13
6
14
12
7
12
12
7
9
13
5
8
13
4
7
10
4
5
7
3
3
5
1
1
4
0
1
5
0
3
6
1
4
4
5
6
6
8
5
10
7
7
10
5
5
8
5
4
7
6
4
7
5
4
5
4
3
5
4
2
7
4
3
5
4
4
4
4
4
4
4
4
4
4
3
5
3
1
5
1
1
4
1
4
4
4
4
4
7
5
5
7
7
7
5
7
7
4
5
8
5
5
8
7
8
10
8
10
11
8
10
7
10
12
4
9
12
4
8
12
5
10
14
7
10
14
8
8
12
10
10
12
11
11
13
11
12
14
10
13
14
11
15
15
12
15
16
12
14
16
12
14
17
11
14
17
10
15
18
12
15
18
15
14
18
14
15
19
16
17
22
19
19
24
20
20
23
20
20
21
19
20
19
19
20
18
21
20
19
23
20
20
24
20
20
24
20
20
24
20
20
24
20
21
23
19
22
20
17
21
18
16
20
18
16
20
18
16
21
19
17
24
22
20
25
24
25
26
27
29
28
29
27
29
26
25
27
23
24
26
22
23
26
22
21
24
20
19
21
16
16
18
13
12
13
12
9
10
11
9
11
9
11
12
7
12
12
6
12
12
8
14
14
11
16
18
11
17
17
14
17
17
19
20
19
21
22
20
21
20
19
20
16
16
17
12
12
13
9
9
12
8
8
11
8
8
10
8
10
11
9
13
14
14
16
17
17
19
18
15
19
18
16
18
14
18
18
11
17
18
11
20
23
11
23
25
13
24
25
17
24
25
18
22
25
15
23
25
13
25
24
12
24
25
12
22
24
12
20
21
14
255
255
255
255
255
255
16
16
8
14
14
6
14
14
7
14
14
8
17
15
8
17
17
8
17
15
8
17
14
8
13
13
8
12
12
8
12
12
7
15
13
7
19
16
7
20
16
8
20
14
10
19
14
12
18
12
11
19
10
10
19
10
11
16
8
11
12
5
9
9
4
8
9
5
8
10
7
8
11
7
7
10
7
7
10
7
5
8
7
4
8
5
5
8
5
8
8
7
10
8
8
8
9
8
6
11
8
7
13
9
7
12
10
5
9
10
5
7
7
4
6
6
3
7
7
1
5
7
1
5
7
4
6
8
4
5
8
4
5
7
5
7
5
4
7
7
4
7
8
4
7
7
4
7
5
4
8
5
2
8
4
4
8
5
4
8
8
3
8
5
1
11
5
1
12
5
3
12
5
5
11
7
7
9
5
4
8
5
3
8
7
4
8
7
4
10
7
3
8
8
1
7
10
0
7
10
1
8
10
4
12
12
4
14
11
4
13
9
6
13
10
4
15
10
2
17
10
3
16
8
4
15
8
4
13
9
4
12
12
4
12
13
3
12
13
4
12
12
5
13
12
6
15
13
7
17
13
7
18
12
7
19
11
7
17
11
7
15
10
7
14
10
7
14
10
7
14
9
6
15
8
6
16
8
5
18
9
7
18
11
7
16
11
5
13
10
4
12
11
5
12
12
6
12
12
5
12
12
3
13
13
3
14
13
4
14
11
3
15
11
3
16
12
4
15
13
5
14
12
7
15
13
8
17
15
10
16
13
8
16
12
7
16
13
7
14
14
5
13
14
5
15
15
7
16
16
7
16
16
7
16
16
7
16
16
8
16
17
8
17
18
8
18
17
9
17
13
10
17
14
8
19
13
8
18
11
7
14
11
5
12
10
5
12
11
7
11
10
7
10
10
5
10
11
5
11
11
7
9
8
7
11
8
7
12
9
7
11
10
7
10
10
5
12
12
4
13
15
4
13
14
7
14
11
8
15
11
8
16
13
8
16
15
8
17
17
8
20
19
10
23
20
14
24
20
15
23
20
14
21
20
15
21
21
17
23
23
19
24
24
20
24
25
20
24
26
20
24
25
19
24
24
17
24
24
17
24
25
19
25
27
20
27
29
20
28
31
21
29
31
22
31
30
21
33
30
21
34
30
22
34
31
24
33
35
25
33
36
25
34
36
25
33
36
27
33
37
29
35
39
31
36
40
32
37
40
31
38
40
30
35
40
27
33
38
25
31
35
23
28
32
21
27
31
21
31
35
24
36
40
27
38
42
28
36
40
27
32
36
24
29
33
22
29
32
23
30
31
23
28
29
20
25
27
16
22
24
13
17
20
11
14
17
9
15
17
9
17
20
10
18
22
9
18
22
9
19
23
12
20
24
15
20
23
16
18
19
14
14
13
10
12
9
7
13
9
8
15
12
8
16
15
10
16
15
10
16
14
11
16
15
12
16
16
12
16
17
13
17
20
16
19
22
19
20
21
19
19
20
17
17
19
15
16
18
13
16
19
13
16
19
14
16
18
14
16
19
15
17
20
16
19
20
16
20
20
16
19
21
15
18
22
13
18
21
13
17
21
16
16
23
20
16
24
22
16
24
22
16
24
21
16
24
19
16
24
19
17
23
21
18
22
23
17
23
23
17
25
23
20
26
26
22
26
29
22
27
32
23
28
36
24
30
39
22
30
38
23
30
37
23
31
38
22
31
38
22
30
36
21
31
36
20
32
36
20
32
36
20
33
36
20
34
37
20
34
39
20
34
40
20
32
39
19
28
35
17
25
30
16
24
27
15
23
24
13
21
21
12
20
20
12
20
20
12
19
20
12
17
19
12
16
17
12
15
15
11
14
14
9
15
15
8
16
15
9
16
16
11
18
19
12
22
20
12
23
20
12
21
21
11
18
21
8
14
17
7
10
13
4
5
11
1
3
8
1
1
4
3
1
2
4
2
3
3
1
4
1
0
4
0
4
6
1
4
4
4
5
4
7
7
7
8
8
10
8
11
11
8
11
13
8
9
15
8
8
15
8
9
13
8
11
12
9
12
12
11
12
12
11
12
11
9
12
10
8
11
11
8
9
12
8
9
13
9
11
14
11
12
14
12
12
14
12
13
14
12
12
15
12
12
16
12
13
17
13
15
19
14
16
18
13
16
16
12
15
12
12
14
10
13
16
11
15
17
12
16
16
11
16
16
12
16
16
13
16
16
15
15
16
15
13
16
13
13
15
12
14
14
11
13
15
10
12
16
8
12
17
9
13
19
12
15
20
15
16
21
17
17
22
18
18
21
17
17
20
15
16
21
14
17
22
16
19
22
17
19
23
19
18
24
20
19
23
19
20
22
18
20
24
19
20
26
20
21
25
21
22
24
22
21
24
21
20
24
20
20
24
20
20
24
23
20
25
26
20
27
29
22
29
34
24
29
37
24
27
33
24
26
29
25
28
28
26
29
27
25
26
23
24
24
19
23
24
17
22
24
16
23
25
16
23
26
16
21
25
15
20
23
13
21
22
14
23
25
15
25
27
17
24
26
19
25
26
21
26
26
22
25
26
23
24
25
22
21
24
20
20
21
19
20
19
17
19
16
13
17
14
12
15
15
13
15
17
16
18
20
19
20
21
25
19
23
25
21
25
21
21
25
17
22
26
15
24
26
15
25
27
16
27
29
17
27
29
18
26
29
18
27
27
18
29
27
16
29
28
14
27
29
14
255
255
255
255
255
255
12
8
5
10
8
4
11
10
4
14
12
5
14
13
7
11
11
5
9
10
5
7
10
5
5
7
4
5
5
3
7
7
4
10
8
5
13
8
5
10
5
5
8
4
9
7
4
8
5
3
5
5
1
4
4
3
4
4
3
5
4
3
5
5
2
4
8
4
4
10
5
5
10
4
5
8
5
5
5
4
3
4
1
1
4
0
4
4
2
5
3
3
3
2
2
1
4
4
3
7
5
4
8
7
2
5
7
4
3
4
4
2
2
1
4
4
1
5
5
3
4
5
4
5
5
4
7
5
4
8
5
5
8
7
5
7
7
4
7
7
3
7
7
2
7
5
4
7
6
3
7
5
3
7
5
4
7
7
1
7
7
0
8
4
1
11
5
4
10
5
4
8
4
5
8
5
5
9
4
1
10
5
1
9
7
4
8
7
3
10
8
0
10
10
1
11
11
3
12
12
5
14
12
7
16
12
5
17
10
5
18
11
5
17
13
4
17
12
3
17
12
4
15
11
5
13
10
7
13
12
7
14
13
5
14
13
5
14
12
6
14
10
5
16
12
5
18
12
7
18
11
7
17
11
7
16
11
7
14
10
8
12
8
8
12
7
8
13
5
8
14
5
8
14
8
7
14
10
5
13
11
7
8
11
5
6
10
3
8
11
2
10
11
4
10
10
4
12
10
4
14
10
4
13
11
3
13
10
3
14
11
4
12
13
3
10
14
3
10
13
4
10
12
7
13
13
7
14
12
7
12
10
7
11
10
7
10
10
5
10
9
3
11
10
4
13
11
5
13
12
6
16
15
5
19
16
4
20
15
4
19
15
5
17
14
4
16
12
4
16
10
3
16
11
2
15
8
6
12
8
5
10
10
4
7
9
5
7
9
7
8
7
7
7
8
5
7
9
5
10
8
7
8
5
5
7
5
5
7
8
5
8
10
5
12
12
6
14
15
5
15
13
5
14
12
9
14
11
8
13
12
5
18
16
5
21
20
7
23
23
9
25
25
12
27
28
15
28
31
15
28
32
14
28
32
16
29
32
19
32
33
20
35
35
21
35
35
24
33
33
27
32
32
27
32
32
25
32
32
24
33
32
24
34
32
23
34
33
22
35
36
25
37
39
30
38
40
32
38
40
32
38
40
31
36
39
28
34
37
27
33
35
27
35
35
29
36
36
31
36
38
30
36
40
29
35
38
26
33
36
24
32
36
25
30
34
24
25
29
23
22
25
22
23
24
22
23
24
20
21
23
17
21
22
16
22
21
15
20
18
13
18
17
12
19
19
13
20
21
16
19
21
16
16
16
11
12
11
8
9
10
7
7
9
6
7
8
7
7
8
7
8
9
6
9
11
7
11
12
8
13
13
11
15
13
12
16
15
12
16
15
12
15
13
12
13
12
11
11
12
8
9
13
7
8
12
8
9
12
11
11
12
12
12
13
12
12
15
12
12
15
12
12
13
11
12
12
10
12
12
11
12
12
12
12
13
11
12
14
10
13
14
12
14
15
14
13
16
13
12
16
12
12
16
13
12
17
15
12
19
16
13
20
17
15
19
19
15
17
20
14
16
22
15
15
23
15
13
23
14
13
22
15
15
21
15
16
18
13
15
17
12
14
18
12
15
18
12
16
19
12
16
21
14
18
25
15
21
28
17
25
31
20
26
32
19
26
32
18
25
30
19
28
31
19
31
34
17
28
33
15
24
27
13
22
24
14
24
24
18
26
24
19
26
25
18
28
29
18
30
31
17
29
31
15
27
29
13
24
26
12
21
21
11
20
17
9
19
15
8
16
12
8
12
9
8
10
9
8
11
10
8
12
10
8
12
10
8
13
9
8
11
9
9
14
12
11
16
16
11
16
18
9
15
16
8
13
13
8
12
12
9
12
12
10
13
13
10
14
14
8
10
8
5
7
5
4
5
5
4
4
4
5
5
4
6
6
4
5
5
4
4
3
7
1
4
8
0
3
3
0
4
4
2
5
6
6
8
11
8
10
15
9
10
16
11
11
17
12
13
18
12
14
17
12
14
16
13
15
16
15
16
16
15
16
16
13
17
17
13
18
19
15
17
20
15
16
20
13
15
20
12
13
19
13
13
17
14
15
16
13
16
16
12
16
16
13
16
17
13
15
17
10
13
17
9
10
15
10
8
14
10
9
12
12
12
11
14
14
11
14
15
10
15
16
10
16
16
10
15
16
11
12
14
11
9
11
9
9
10
8
11
10
8
12
11
10
12
12
10
12
13
9
13
15
9
15
17
11
16
17
11
15
14
9
13
13
8
12
15
8
12
16
9
13
17
12
15
19
14
16
21
14
16
23
15
17
24
16
19
24
16
19
23
16
17
20
17
17
18
19
16
19
18
16
19
15
16
18
15
16
18
16
16
18
17
16
19
19
17
20
20
17
21
22
17
22
25
19
24
29
20
26
29
21
25
27
22
25
28
22
26
29
22
25
28
22
25
27
23
27
25
24
28
24
24
28
25
24
27
26
24
25
25
24
25
25
25
28
26
27
31
25
28
32
24
27
32
25
26
32
24
28
32
25
31
32
26
32
33
26
32
34
26
31
33
27
30
33
28
30
34
27
30
32
26
30
30
27
30
32
29
32
36
33
34
40
38
34
41
39
34
40
37
34
41
35
33
40
32
36
40
30
39
41
29
40
43
30
39
44
29
37
43
24
36
41
22
36
40
21
36
39
19
255
255
255
255
255
255
7
7
5
8
9
4
8
11
2
10
11
4
7
8
4
5
4
1
7
6
2
2
4
1
0
1
3
4
3
4
5
4
1
7
5
4
9
5
3
8
4
4
7
4
8
4
3
4
4
3
3
5
2
3
4
4
5
2
2
4
3
1
1
5
2
2
8
4
4
5
3
4
5
2
3
5
4
4
3
2
2
3
0
2
4
0
4
2
1
3
0
4
3
2
3
2
4
4
3
5
5
1
5
4
3
4
4
4
4
3
1
4
5
1
5
7
4
7
7
4
7
7
4
8
7
4
8
7
4
9
5
6
10
5
4
9
7
1
8
8
1
8
8
4
7
5
4
7
5
2
7
6
4
7
7
3
6
7
0
7
5
1
9
5
4
11
7
5
8
7
4
5
6
4
5
5
3
7
5
1
7
7
4
7
8
4
11
11
1
13
13
1
13
12
4
13
12
5
14
10
7
16
8
7
16
8
6
13
9
5
13
12
5
15
13
5
15
12
5
13
12
6
12
12
5
13
13
4
16
15
5
17
13
6
18
12
7
18
10
7
18
10
7
18
11
7
16
10
7
13
8
5
13
7
5
15
7
7
13
7
8
12
7
7
11
6
7
9
5
5
8
5
3
8
9
2
8
10
2
7
8
5
5
8
4
5
8
0
10
8
2
12
8
3
12
7
2
12
7
1
9
7
0
8
7
1
10
7
4
10
9
5
10
10
5
10
10
4
10
9
4
10
8
5
11
10
4
9
8
4
7
8
6
6
8
4
7
8
1
9
8
1
11
8
4
9
10
5
9
10
3
12
12
2
13
12
1
12
11
2
12
10
4
12
8
3
12
8
2
12
8
1
12
8
3
11
7
7
11
9
8
11
12
7
10
12
7
12
10
9
12
10
8
10
13
7
10
12
7
10
8
5
9
7
4
10
10
4
13
16
4
17
17
5
20
17
7
20
17
9
18
17
12
18
18
13
18
17
10
19
18
10
20
20
10
25
24
14
30
28
22
32
31
26
32
32
26
31
33
27
31
35
28
34
36
28
36
37
28
36
39
28
37
40
28
39
40
28
39
39
28
37
37
28
36
36
28
35
36
28
34
35
28
34
34
28
34
34
29
36
34
31
38
37
30
38
41
31
38
41
32
37
40
32
34
38
29
30
33
24
29
29
23
27
25
22
26
26
21
27
29
22
28
31
23
28
31
23
27
29
21
25
27
20
23
24
17
20
20
15
17
17
13
16
16
11
15
15
9
11
11
7
6
6
5
5
7
4
7
7
4
2
2
2
4
3
0
7
5
4
7
6
4
5
7
6
4
4
3
5
4
4
7
5
6
7
7
11
5
5
10
4
4
7
5
5
8
7
7
10
10
10
11
11
11
11
11
12
10
12
15
11
12
16
14
12
16
16
11
15
15
9
12
13
8
9
12
8
9
12
7
10
11
5
9
9
4
7
7
3
4
4
2
2
2
2
3
2
1
2
0
3
4
4
4
5
4
5
7
5
5
7
9
7
7
8
7
7
8
5
6
8
5
7
9
7
9
12
9
12
15
11
14
16
11
12
16
9
10
16
8
10
16
8
9
13
8
8
11
8
7
9
8
5
9
8
4
9
8
5
7
7
7
8
6
8
10
7
8
12
8
10
14
11
15
17
12
18
22
14
21
27
14
23
27
12
22
24
12
20
22
12
22
22
12
23
22
11
21
21
9
18
16
8
14
11
8
13
11
8
15
12
9
16
13
12
18
17
12
18
16
12
17
14
11
16
13
8
16
13
5
12
11
4
9
8
4
8
5
4
8
4
3
6
4
1
2
2
0
3
4
0
3
0
0
5
4
1
8
5
4
8
5
7
11
8
8
12
10
8
12
9
8
10
8
8
6
7
7
5
5
5
6
4
5
10
7
9
14
13
11
13
11
11
12
11
12
13
12
11
15
13
9
16
14
8
17
14
9
18
14
10
15
16
9
12
16
8
11
14
9
13
15
11
16
17
12
17
18
11
13
16
10
11
14
11
14
16
12
17
19
13
18
20
15
18
21
15
19
23
13
20
24
13
19
24
15
17
24
15
16
24
13
16
23
12
15
20
12
13
17
12
12
15
12
12
15
11
12
14
9
12
12
7
11
10
6
9
10
8
9
11
8
10
8
4
8
7
5
7
8
7
4
5
5
5
5
5
8
8
7
11
7
9
12
8
10
12
8
9
12
7
10
13
7
9
9
7
10
9
8
10
11
8
11
13
9
13
15
11
15
15
11
16
14
9
16
15
8
15
15
7
12
13
5
9
12
4
9
12
5
12
13
8
15
16
12
17
19
15
20
21
18
23
24
22
23
27
23
21
27
21
21
25
20
22
24
20
20
23
19
16
21
17
14
19
16
15
17
16
16
17
16
16
19
16
16
20
16
17
20
16
20
22
16
19
23
15
19
25
19
21
26
22
21
25
22
21
26
25
23
30
31
24
32
33
25
32
34
26
32
34
24
31
35
22
30
35
23
30
33
24
30
33
24
31
35
25
33
36
28
35
36
30
36
36
29
36
37
29
36
38
31
36
38
33
36
39
34
36
39
34
36
37
35
37
37
37
40
39
39
43
40
41
45
40
43
47
41
44
49
43
45
51
44
47
51
45
47
50
46
45
47
47
45
47
45
48
47
45
49
48
46
47
48
42
47
49
41
47
51
42
45
52
38
41
50
34
40
48
34
40
47
32
255
255
255
255
255
255
4
8
6
6
7
3
4
7
2
4
5
3
3
1
2
3
1
1
5
5
2
2
4
0
0
1
1
4
4
4
7
3
4
5
3
3
4
4
1
7
4
4
7
4
7
4
1
4
3
0
3
4
0
0
4
2
2
6
5
7
7
4
4
7
4
4
7
4
4
4
2
1
4
1
1
3
3
4
0
3
3
2
0
2
4
0
4
2
1
2
0
4
0
2
3
4
5
5
5
7
8
3
7
7
4
5
7
4
7
7
3
7
7
4
7
7
5
9
8
4
8
8
5
7
7
7
7
5
7
7
4
7
7
5
5
7
5
4
7
7
4
5
5
4
5
4
2
8
5
4
7
5
4
7
7
1
7
7
1
8
6
4
11
5
4
9
5
4
7
5
4
6
5
3
5
6
1
5
7
3
5
8
4
10
11
1
14
14
1
12
12
4
11
9
5
13
8
7
12
8
7
14
8
5
13
10
5
8
10
6
7
11
7
10
13
7
12
12
7
13
13
7
15
15
7
16
15
5
16
12
4
15
10
5
14
10
8
14
10
8
15
10
8
15
8
8
13
7
7
12
6
5
13
5
5
12
5
7
9
6
7
7
5
5
5
4
4
4
5
1
5
8
0
5
9
0
5
5
0
5
4
4
8
4
4
10
4
0
11
5
1
10
5
2
7
6
3
4
5
2
2
5
1
4
5
4
7
5
4
5
4
4
5
5
4
8
5
2
8
4
4
8
7
5
8
8
5
7
7
4
7
8
5
8
8
4
10
7
0
11
7
3
11
8
4
8
10
2
10
10
4
11
10
3
5
5
0
4
4
3
5
5
5
8
7
5
10
8
5
12
12
8
15
13
12
15
15
13
14
17
11
14
17
8
13
14
8
13
12
9
13
14
7
15
17
8
17
16
8
18
16
7
18
17
5
19
21
5
23
22
8
24
20
11
22
20
10
22
23
12
24
25
16
27
26
15
26
26
14
23
24
15
22
23
18
24
25
25
27
28
29
27
29
27
26
26
25
27
25
25
29
28
28
32
32
31
35
35
32
35
35
32
33
34
31
33
36
29
34
38
27
33
37
25
31
34
24
29
31
24
28
31
24
29
33
26
30
34
28
29
33
26
28
34
24
28
34
25
28
32
26
28
29
25
26
27
23
21
24
19
18
20
15
15
16
12
13
15
11
14
17
12
15
16
12
16
18
14
15
17
12
12
14
8
9
10
5
8
8
4
7
6
2
5
2
2
3
0
4
4
3
4
4
5
4
5
7
4
7
7
6
4
4
5
5
7
7
5
7
8
4
4
3
3
4
4
1
2
3
3
2
3
4
3
7
3
4
8
1
1
5
1
0
7
3
1
8
5
4
7
7
8
8
8
11
10
5
10
7
4
8
7
4
8
8
4
9
9
4
10
11
4
8
10
4
5
6
3
3
3
3
3
3
3
3
3
3
5
4
5
7
5
8
7
7
8
5
6
6
4
5
2
1
2
4
4
1
5
5
5
4
4
8
3
4
5
1
3
5
3
5
8
5
8
12
7
10
13
9
11
13
10
11
14
9
12
13
7
10
10
4
6
7
1
4
5
0
4
3
0
4
3
0
4
1
1
4
4
2
4
4
2
5
8
5
7
9
7
8
11
8
14
13
12
19
18
15
21
25
13
22
24
10
20
19
8
18
15
7
16
12
5
15
12
5
12
11
6
10
5
5
8
7
4
5
1
3
4
3
1
4
3
2
4
4
6
6
8
4
4
8
0
1
2
4
4
4
6
8
5
2
3
5
0
3
4
0
4
4
0
3
2
0
3
3
0
1
2
0
4
4
0
5
4
1
7
3
2
4
2
1
4
3
0
5
4
1
7
4
4
8
5
7
9
7
8
11
8
8
12
9
7
12
10
6
14
10
8
17
14
10
18
15
11
18
17
12
20
19
13
23
21
14
23
23
14
22
24
14
21
22
13
21
21
13
19
20
15
21
23
17
23
25
18
24
26
16
23
25
13
21
23
12
20
22
13
22
23
14
26
24
13
28
25
12
28
27
11
28
28
9
27
27
9
24
25
11
20
23
11
18
21
9
17
19
9
14
18
11
13
17
12
14
17
11
13
17
10
12
16
11
12
17
11
11
16
9
10
14
10
13
15
13
14
16
11
13
16
9
15
15
8
12
12
8
10
10
9
11
12
11
12
14
11
12
14
9
12
14
8
10
12
10
13
10
11
14
11
12
14
13
12
15
14
12
16
13
12
16
13
12
16
14
13
16
14
14
16
15
13
16
16
12
16
16
12
15
16
13
14
16
15
17
16
17
22
16
19
24
18
20
24
22
21
25
25
22
27
27
21
28
28
21
28
28
22
28
27
21
27
24
20
25
22
19
24
23
17
23
23
16
22
22
16
22
22
16
21
21
17
21
20
19
24
21
20
26
20
20
25
20
21
25
22
23
28
26
25
31
29
27
32
31
28
33
31
27
34
30
25
32
31
23
29
31
21
27
29
20
26
28
20
28
29
20
31
31
20
32
33
21
32
34
23
32
33
24
31
33
24
30
35
24
32
36
24
35
36
25
36
36
27
36
35
29
36
34
31
36
35
34
38
38
38
43
42
41
48
46
43
50
48
44
47
44
44
43
39
44
41
37
43
41
37
43
41
36
44
40
36
43
40
37
41
39
36
39
38
35
38
38
38
39
39
39
38
39
34
36
39
32
36
39
33
255
255
255
255
255
255
5
5
5
5
3
1
4
5
1
2
5
3
3
4
4
3
4
3
4
4
2
4
5
1
4
4
3
7
5
5
8
4
7
5
3
3
4
3
2
5
3
4
6
4
6
5
4
5
5
3
5
7
4
5
7
4
6
8
7
8
7
5
5
3
3
3
4
2
2
4
4
3
3
4
4
1
3
4
0
3
3
3
0
3
4
1
4
2
4
1
3
5
1
5
4
4
9
8
6
11
13
5
8
8
6
7
8
7
7
8
7
9
8
7
10
8
5
11
10
5
10
8
8
10
8
8
9
8
8
8
8
7
8
7
5
8
7
5
8
7
6
8
6
5
10
7
4
11
7
4
9
7
2
8
7
3
8
5
4
8
5
4
11
7
1
8
8
4
5
7
4
5
7
1
7
8
2
10
10
3
13
11
4
14
11
1
11
10
4
7
5
5
11
4
5
14
7
7
12
10
7
11
10
6
8
10
5
8
10
4
13
14
7
17
16
8
17
14
8
17
15
8
16
13
8
15
11
8
12
9
7
10
8
7
8
8
9
8
7
8
11
7
8
10
6
7
10
5
5
10
5
5
10
6
8
8
5
8
7
4
7
5
4
4
4
4
1
4
4
0
5
7
0
5
5
0
5
2
0
7
4
4
8
4
4
8
4
0
8
5
0
5
5
3
2
4
4
3
4
1
5
5
3
7
5
5
7
4
4
5
4
4
5
6
4
8
4
4
7
4
5
7
7
5
8
7
4
8
7
2
10
8
4
11
7
3
12
7
1
13
8
4
13
10
3
10
11
0
11
11
4
10
8
4
4
3
0
7
1
5
9
5
7
11
10
5
14
13
8
16
16
13
18
18
15
18
18
12
17
18
10
16
15
8
12
10
7
10
10
7
12
14
7
17
17
8
21
17
7
23
19
8
23
20
10
22
22
10
21
21
12
17
18
11
17
20
10
20
22
14
24
21
17
24
21
17
23
22
19
21
21
21
20
20
23
18
19
25
17
19
20
16
18
15
16
17
12
16
17
10
17
19
13
21
22
14
22
23
15
21
21
15
19
20
13
17
19
13
16
18
15
16
19
15
16
20
14
17
20
15
19
22
15
22
24
15
22
24
14
20
23
14
18
21
14
18
17
13
17
16
11
15
15
9
14
14
9
14
14
10
12
13
9
10
12
8
10
11
8
10
11
8
5
7
5
3
3
2
0
1
1
3
6
3
5
8
5
7
9
7
8
11
8
9
12
9
11
13
11
12
14
11
10
15
10
10
14
10
8
12
8
7
9
7
7
8
5
8
8
8
6
7
5
2
2
2
0
0
4
0
1
4
0
2
4
0
1
4
0
0
2
0
0
2
2
3
3
4
4
1
5
7
6
7
9
7
5
5
4
3
4
4
1
1
2
0
2
3
0
2
2
0
2
3
0
2
4
3
3
4
4
4
4
3
3
3
2
5
3
3
4
4
5
5
5
5
6
6
4
5
5
4
5
4
5
7
5
7
8
9
5
7
11
5
7
10
7
8
10
8
12
11
8
13
13
10
12
13
10
12
13
9
10
16
8
12
19
8
14
18
8
12
14
8
9
12
7
8
12
5
9
12
4
11
12
4
12
13
5
12
15
7
12
17
10
13
17
10
16
17
12
21
20
15
24
26
15
24
27
10
23
19
7
17
13
5
13
9
3
11
7
1
8
7
2
6
6
0
1
4
3
7
7
3
7
2
4
8
4
4
11
6
5
12
6
8
12
8
8
12
13
8
9
10
7
7
6
5
7
5
1
4
7
0
3
5
0
4
4
0
3
4
0
0
0
0
3
4
0
2
0
1
4
3
2
5
4
2
3
2
4
7
4
5
5
5
7
6
8
8
10
12
8
13
15
8
15
16
9
16
15
11
16
12
11
17
10
10
17
12
8
17
12
8
17
12
9
19
13
11
20
15
12
19
16
11
17
15
9
16
15
10
17
17
9
18
18
11
19
21
11
17
21
9
16
19
8
16
18
9
18
20
10
21
22
9
21
20
8
21
17
8
21
17
9
22
18
11
21
17
11
19
16
9
18
16
7
18
16
7
17
15
7
16
13
7
13
14
5
10
13
5
11
16
7
14
19
9
16
20
11
16
21
13
16
24
15
16
25
16
18
27
18
22
29
21
24
31
21
25
33
20
26
31
20
24
29
19
21
27
17
19
25
16
18
24
16
18
23
15
17
22
14
17
20
14
19
20
14
19
19
14
17
17
13
16
17
12
16
18
12
17
18
12
18
19
12
16
19
13
14
18
15
15
19
16
17
20
15
19
20
13
19
20
12
17
20
12
17
20
13
18
20
14
19
22
14
19
25
15
20
29
15
20
29
13
20
27
12
20
27
13
20
29
15
20
28
16
20
24
15
19
20
12
18
18
10
18
18
10
17
18
10
16
20
12
16
20
13
16
20
11
17
21
12
19
23
14
20
23
14
20
22
15
21
23
16
23
24
17
24
24
18
22
23
16
18
21
13
16
20
13
16
20
15
16
20
15
16
20
13
17
20
13
19
21
15
20
22
16
20
22
17
21
24
18
23
27
18
25
29
19
27
32
20
28
34
20
28
33
21
28
33
23
28
35
24
29
36
25
30
35
26
30
34
25
31
30
27
32
26
28
31
23
28
32
21
27
31
21
26
29
21
27
29
22
28
27
20
28
25
20
28
24
24
26
23
21
26
23
18
27
25
19
255
255
255
255
255
255
6
4
4
5
4
1
5
6
1
5
5
3
5
3
4
3
4
3
5
4
2
7
6
3
7
7
3
8
5
5
8
4
5
7
5
3
7
6
6
8
5
8
10
5
10
10
7
8
8
5
7
11
7
7
10
7
7
8
7
5
8
5
4
6
4
3
4
4
3
4
5
2
3
5
3
5
7
5
7
8
7
8
9
7
8
10
5
9
9
4
11
8
5
11
9
7
11
12
7
11
14
7
10
10
5
10
10
7
10
10
7
11
11
7
12
11
7
12
10
7
11
10
8
12
11
7
14
12
7
13
11
7
11
10
5
10
10
4
11
9
4
12
8
4
12
8
3
10
8
2
9
8
4
10
8
4
10
8
3
10
10
1
11
12
1
10
12
4
11
13
3
12
14
2
15
15
1
18
14
2
17
12
4
13
8
4
11
7
5
10
5
5
14
5
5
12
9
7
8
11
7
8
8
4
10
8
3
13
12
2
17
17
7
18
14
8
15
11
7
12
8
5
9
5
4
7
4
4
6
4
5
7
5
7
7
5
8
7
3
5
8
4
4
7
4
3
7
4
3
5
5
5
5
4
8
5
3
7
4
2
4
5
4
1
7
4
0
7
4
0
5
5
0
5
4
0
7
4
0
8
4
4
7
4
4
5
4
0
4
4
0
1
4
4
3
2
4
5
4
0
7
5
4
7
7
7
8
7
4
10
8
4
10
8
5
10
5
5
7
5
5
8
7
5
10
8
3
8
9
2
10
10
4
11
8
2
11
10
4
13
12
4
12
12
1
10
11
1
10
9
4
8
7
3
8
4
1
11
5
7
12
9
7
14
12
5
15
14
11
14
14
12
14
14
10
12
12
8
11
8
7
8
5
5
5
4
4
7
10
5
13
12
7
15
13
7
16
14
7
15
13
8
14
13
9
14
15
10
11
14
10
8
12
7
11
11
7
14
10
10
13
8
10
8
10
10
8
8
11
8
9
10
8
10
10
7
7
10
8
10
8
7
7
5
7
8
6
5
7
5
8
10
8
11
8
8
5
4
4
4
5
3
3
5
3
1
1
4
1
1
4
3
2
3
4
5
1
5
7
7
8
11
7
10
11
7
10
10
7
11
9
5
11
5
4
9
4
2
6
2
0
2
1
3
1
0
3
3
0
1
3
0
1
4
3
4
4
4
4
2
5
5
4
7
8
8
12
11
12
17
13
15
21
15
17
22
17
19
23
19
20
23
19
20
21
17
19
20
16
16
19
15
13
16
13
11
13
12
9
11
11
7
8
7
5
4
2
5
4
5
4
6
8
3
3
4
0
0
4
0
1
6
0
2
5
0
2
3
1
3
3
3
4
3
2
4
2
2
3
1
5
4
5
7
8
5
7
8
5
5
7
5
3
3
4
1
2
4
2
2
1
1
1
3
0
3
4
3
5
5
4
7
7
5
9
9
7
12
11
9
15
13
11
16
15
12
15
15
11
12
12
9
9
9
8
8
10
8
10
12
7
10
11
10
10
11
10
11
12
10
13
14
12
13
18
14
13
21
14
15
24
14
17
24
15
20
25
17
24
28
19
26
30
19
24
28
16
20
25
12
17
24
10
16
24
11
16
25
12
17
26
12
18
25
12
17
24
11
18
23
13
21
25
14
19
23
11
16
17
5
14
12
3
7
8
1
2
4
0
0
2
0
1
3
1
5
3
3
9
7
5
11
5
5
10
2
7
8
4
8
9
7
7
11
7
7
12
6
7
11
8
5
8
10
3
4
6
0
2
4
2
4
4
1
4
4
0
1
3
1
3
4
4
5
4
7
7
6
7
8
8
5
10
8
5
11
7
8
13
7
10
14
11
11
12
12
11
12
13
9
12
14
8
12
13
7
11
11
4
7
9
3
5
8
4
6
4
5
4
3
4
5
4
4
5
2
5
8
3
7
8
5
5
8
5
4
7
4
4
9
5
5
11
8
6
9
10
5
7
9
3
5
7
1
5
5
1
7
4
3
8
5
3
7
6
0
4
4
2
6
1
3
6
4
5
5
4
4
2
0
4
3
1
3
5
4
2
8
5
3
10
7
3
11
8
4
7
8
3
4
5
0
4
4
1
4
5
4
6
9
7
11
15
9
16
20
11
19
24
14
22
28
18
27
31
21
30
33
23
29
36
24
28
36
24
28
36
23
27
34
20
24
30
18
21
27
17
20
25
16
20
25
15
20
24
16
20
23
15
20
20
13
19
18
13
17
19
15
15
19
15
13
18
12
12
17
10
12
14
10
12
12
9
13
13
9
15
15
10
15
16
9
12
16
7
9
16
5
8
15
7
8
13
7
11
15
6
11
15
7
10
15
7
9
16
6
9
17
7
11
20
8
12
22
9
13
22
10
14
21
9
12
19
10
10
15
8
10
12
5
10
10
5
7
10
4
7
10
4
7
9
3
5
8
2
4
8
1
5
8
3
7
9
4
8
11
5
9
12
7
12
13
9
16
15
12
17
16
11
15
15
10
13
14
11
11
13
12
9
11
11
8
10
8
8
11
7
9
12
10
11
14
12
12
19
13
13
22
15
15
22
16
17
24
16
19
26
15
19
24
12
16
20
9
13
17
8
11
15
8
9
13
8
12
21
11
15
22
14
18
21
14
18
18
15
17
14
16
17
15
17
17
15
17
17
14
16
14
11
16
14
12
17
16
17
15
14
17
15
14
15
17
15
15
255
255
255
255
255
255
6
2
4
7
4
2
7
10
3
7
9
4
4
8
3
5
8
2
8
8
4
7
8
5
7
8
5
7
4
7
5
2
5
7
4
5
8
5
8
8
8
8
11
10
10
14
10
8
15
10
8
15
10
7
10
8
5
7
5
4
8
5
5
7
5
4
7
7
4
7
8
4
8
10
5
12
15
10
16
19
12
19
21
11
19
22
9
16
20
8
13
16
7
12
14
7
12
16
7
11
14
5
10
10
4
7
7
4
7
7
3
8
8
3
10
9
4
10
10
7
10
10
5
11
8
3
11
8
2
11
8
1
9
8
3
9
8
3
12
8
1
12
8
0
12
8
0
12
9
3
12
10
4
12
10
2
15
12
3
18
16
4
20
17
5
22
16
7
23
16
5
23
16
3
20
15
4
18
13
5
15
11
5
13
9
5
13
8
5
14
8
5
14
8
5
10
11
7
7
11
5
10
8
2
13
8
3
13
12
4
11
11
7
10
5
8
4
1
3
1
1
1
2
1
1
0
0
0
3
1
4
5
4
5
5
3
4
5
1
4
5
4
0
6
3
0
4
2
2
1
4
4
4
2
5
4
0
4
0
3
1
2
4
0
3
1
0
3
3
0
3
4
0
5
4
0
8
4
0
7
2
4
5
4
4
4
3
0
2
4
0
3
4
4
5
3
4
7
5
0
7
7
4
10
9
8
11
8
5
11
8
4
10
10
5
8
10
5
7
9
4
9
10
3
10
11
1
8
11
2
11
11
3
14
10
3
14
10
4
13
11
1
9
10
0
8
8
3
10
7
4
10
7
2
11
7
4
11
8
7
12
11
6
12
11
6
10
12
10
8
10
9
8
8
7
5
5
3
3
3
1
1
1
2
1
3
4
8
11
5
12
10
5
12
9
5
14
13
6
6
6
5
4
4
4
6
9
5
4
8
4
4
5
4
8
6
6
9
5
9
9
7
8
7
10
11
1
5
11
3
5
11
4
7
13
5
8
15
8
12
17
7
12
15
4
6
9
1
4
5
6
10
8
10
10
8
7
5
7
5
4
7
4
5
7
4
7
7
4
7
8
3
5
7
1
4
6
3
5
10
5
8
7
8
10
5
8
8
7
4
4
5
5
5
7
7
7
8
8
8
8
8
8
9
8
8
10
9
9
10
11
11
11
13
13
13
15
15
15
17
18
17
19
22
19
19
24
19
18
25
18
20
24
20
22
24
22
21
23
20
20
21
17
19
20
15
17
18
13
14
13
12
9
8
10
5
4
5
4
1
1
2
3
3
4
7
5
5
7
8
4
5
9
3
4
7
1
4
4
3
6
4
4
6
5
4
7
7
4
8
7
4
8
5
4
7
4
3
5
4
4
4
5
4
5
5
4
7
5
7
8
8
5
7
9
5
8
8
7
11
9
8
12
12
8
12
15
9
13
16
11
14
16
11
13
15
9
12
13
8
12
12
8
12
12
9
12
12
10
12
12
9
11
12
8
9
13
10
10
13
10
11
10
11
12
11
8
13
12
10
14
18
16
16
24
16
19
25
14
22
25
16
25
24
19
29
25
20
30
28
19
29
30
16
27
27
14
22
23
13
16
22
9
13
21
8
12
20
8
11
19
8
10
16
8
10
12
8
11
11
8
13
14
7
11
10
4
7
5
3
10
7
4
9
5
5
11
7
6
12
7
5
12
5
4
12
4
5
11
5
7
8
4
5
5
4
4
1
4
4
0
2
4
1
4
5
5
4
7
10
2
5
11
5
4
9
7
4
8
7
1
6
5
2
2
2
0
2
2
3
4
4
7
7
6
6
4
4
5
4
6
5
5
5
6
6
4
5
5
4
4
5
8
4
7
5
7
13
11
8
17
16
8
17
18
9
17
17
12
21
17
13
24
17
14
23
15
12
21
15
9
19
13
8
17
12
9
17
12
10
16
12
9
16
12
7
16
11
7
14
9
6
10
7
5
7
6
4
6
7
4
6
8
4
7
8
4
6
7
4
7
6
5
12
8
7
15
11
7
16
11
7
17
10
8
16
10
8
12
8
7
9
5
5
8
3
3
7
2
1
10
4
0
10
7
3
5
8
4
2
4
1
2
3
1
1
2
4
2
5
4
7
7
5
10
10
8
16
14
12
22
17
14
25
20
14
28
23
15
29
24
16
26
22
15
22
18
14
19
20
15
18
21
12
16
17
11
12
15
10
10
12
8
11
11
10
12
11
9
12
11
8
12
12
8
12
12
8
11
12
8
8
12
7
5
8
5
5
7
4
7
7
4
8
8
4
7
8
3
5
8
1
4
7
0
3
4
2
1
2
6
5
4
4
7
8
2
7
10
2
1
3
2
2
1
1
3
5
4
4
7
4
4
5
3
4
8
2
5
12
4
7
17
7
8
17
8
8
13
5
7
11
4
5
8
4
5
7
4
5
5
4
4
4
3
4
3
2
4
2
3
4
3
4
4
4
2
1
5
2
1
6
2
5
7
4
10
10
7
13
12
8
12
12
8
12
12
9
12
12
10
11
12
10
8
8
6
6
7
7
7
7
8
8
8
10
9
9
14
11
11
15
12
11
12
11
10
8
8
9
4
5
5
1
4
3
0
2
3
1
4
11
2
8
17
4
8
13
7
8
15
7
8
13
7
8
7
8
10
10
10
10
11
10
11
12
10
12
13
14
12
12
12
12
12
10
9
13
10
9
15
9
12
17
255
255
255
255
255
255
13
13
7
14
15
5
13
17
5
8
11
5
7
9
5
9
10
7
10
9
8
10
8
8
13
10
10
13
8
12
12
9
12
12
10
11
10
10
10
10
12
8
15
12
10
18
13
8
15
13
7
11
9
5
6
7
4
3
0
1
5
4
4
4
5
3
7
9
5
12
12
9
14
16
10
16
20
12
17
20
10
17
19
8
16
18
8
14
17
8
10
15
7
8
14
5
8
13
4
8
8
2
7
5
4
4
4
4
4
4
2
6
5
3
7
5
5
7
5
4
8
5
1
11
7
1
8
7
2
9
8
3
11
8
2
11
8
0
11
9
0
11
11
0
12
12
1
12
12
4
12
11
4
15
12
4
21
16
5
24
16
7
24
13
7
24
12
7
20
11
7
17
9
8
15
8
7
13
8
7
12
8
6
11
8
5
9
7
5
8
7
5
8
7
4
7
8
5
7
8
4
8
5
3
8
5
4
5
8
3
4
6
4
7
5
7
4
4
4
3
3
3
3
3
3
1
0
0
4
3
5
6
4
4
4
1
2
4
3
4
4
4
3
5
1
1
4
1
1
0
4
4
4
4
5
4
1
5
0
3
2
1
4
3
4
1
3
3
4
1
1
4
0
7
4
1
7
5
2
4
4
3
4
5
4
2
4
0
4
5
1
5
5
4
7
5
3
8
7
0
11
7
4
14
10
9
13
10
7
12
10
5
10
10
5
11
9
4
12
10
1
13
10
1
11
11
2
12
11
3
14
11
2
15
10
4
14
10
5
12
10
3
9
5
4
8
4
4
10
7
4
8
8
4
10
8
7
10
10
8
9
10
7
7
8
5
5
9
7
8
9
7
7
7
7
4
4
5
3
3
7
1
1
7
2
3
8
10
11
8
10
11
6
9
8
3
12
10
5
10
10
7
10
10
8
9
11
9
7
11
7
5
11
7
8
10
8
8
5
8
7
5
7
8
9
10
5
11
14
5
13
17
7
14
18
9
13
18
12
14
20
12
17
21
12
16
18
8
12
15
7
13
14
8
14
13
7
12
13
5
9
10
4
7
7
5
7
6
6
7
7
5
8
7
4
5
6
2
5
9
4
7
10
8
11
9
12
14
12
15
15
14
17
16
14
19
18
16
18
20
17
15
18
14
14
16
12
14
17
12
15
19
12
18
21
13
22
23
15
24
25
16
23
26
15
20
24
14
16
20
14
13
17
13
11
15
10
9
12
6
8
8
4
7
4
2
4
3
4
6
5
8
5
5
11
5
8
12
7
11
12
8
11
12
8
11
13
7
10
12
6
10
10
5
9
7
5
10
5
7
10
4
8
10
5
8
10
7
7
9
8
5
8
7
5
8
6
8
9
7
10
11
7
9
11
7
7
8
7
8
8
8
7
8
8
8
9
8
10
10
12
14
12
15
15
14
15
13
12
13
11
9
11
9
8
9
9
8
9
11
8
11
12
8
12
12
9
13
12
11
15
12
12
16
11
11
14
11
10
12
10
11
12
10
11
14
8
13
15
11
15
18
15
20
21
12
21
19
10
22
17
13
25
18
13
26
20
14
23
19
12
21
16
11
20
14
10
17
13
9
12
12
7
7
9
2
4
6
2
3
2
4
2
1
4
4
2
4
6
5
5
10
11
5
11
10
7
7
4
8
11
7
8
14
11
8
14
11
8
15
10
8
16
11
8
15
11
7
11
8
5
5
5
3
2
3
1
3
2
0
5
3
1
6
5
3
6
7
5
7
7
7
10
6
8
11
6
8
12
5
8
12
4
7
10
3
5
6
1
5
5
2
8
8
5
8
8
4
12
12
10
11
15
13
9
16
12
9
17
11
14
23
17
23
34
27
30
42
35
31
44
38
29
44
37
27
43
35
23
38
31
17
30
25
13
25
20
12
24
17
12
23
16
12
22
17
14
25
20
17
30
24
17
31
26
15
28
24
12
24
21
9
20
19
8
17
17
8
15
16
7
12
15
5
10
12
4
11
9
5
12
9
7
13
13
5
11
12
5
13
12
7
15
13
8
17
15
8
19
15
7
20
14
5
20
15
3
18
15
1
12
12
0
7
8
1
3
8
4
3
5
4
2
5
2
1
3
4
4
7
1
5
7
3
4
5
5
8
4
5
7
1
4
7
2
4
7
1
5
11
9
7
15
13
8
12
8
5
8
6
6
9
10
8
11
13
11
12
18
8
10
17
4
9
15
1
5
11
4
3
5
4
4
4
2
2
3
0
3
3
1
6
5
4
3
6
4
0
5
3
1
0
6
2
4
7
1
4
4
0
1
3
0
1
0
2
4
2
0
3
6
5
4
4
5
5
2
7
10
2
4
5
2
3
2
5
7
6
5
5
3
4
4
3
4
4
4
5
5
4
6
7
8
7
10
13
8
11
10
8
8
8
6
5
8
7
5
7
7
5
7
7
7
7
8
8
5
8
8
4
7
8
3
7
8
3
9
8
5
9
8
5
8
8
5
8
9
8
9
12
11
11
14
12
12
14
12
12
15
13
12
16
15
14
16
14
11
12
10
9
9
6
8
7
2
8
5
2
7
4
2
6
4
2
7
4
6
7
6
7
4
4
4
3
1
4
1
4
10
3
10
18
4
11
19
4
9
15
5
8
17
3
8
12
2
5
7
5
7
8
6
10
10
9
12
14
12
15
13
14
13
13
9
10
10
8
7
8
13
10
16
11
15
21
255
255
255
255
255
255
20
21
9
19
20
9
20
18
12
20
15
13
20
15
15
19
15
15
18
14
14
21
15
15
26
18
15
27
20
15
27
22
15
24
22
15
21
22
14
22
21
15
23
20
15
20
20
13
13
17
10
8
12
6
5
10
5
4
4
4
5
5
5
8
8
7
10
12
9
14
12
10
17
17
10
16
17
10
13
12
7
12
11
7
11
10
8
13
10
7
12
9
5
7
6
3
2
1
1
4
2
2
5
3
4
4
3
4
4
2
3
5
2
2
7
5
4
7
7
4
7
6
1
8
7
0
5
5
2
5
4
4
8
5
2
10
8
0
10
10
1
8
10
3
7
9
4
5
7
4
5
6
4
14
9
4
19
12
4
14
8
4
8
4
3
7
3
3
4
3
3
5
2
3
7
4
4
7
4
5
6
5
5
7
6
6
7
5
5
5
5
4
4
4
1
4
5
4
4
7
4
5
4
3
7
4
4
4
5
1
2
5
1
5
5
5
4
3
5
3
3
4
3
4
4
3
0
1
4
4
2
5
4
5
5
0
4
4
4
4
4
4
4
4
0
2
3
0
0
0
1
2
4
4
4
4
3
5
0
2
3
0
4
4
4
2
4
4
4
4
3
4
1
8
4
2
6
7
1
4
5
2
4
5
4
4
4
3
5
5
4
5
5
4
5
5
1
10
7
1
12
7
5
8
9
9
6
8
7
7
5
4
8
5
3
9
7
2
10
7
1
10
8
0
10
11
2
11
9
4
11
8
2
10
8
4
8
7
6
4
4
1
1
1
2
4
2
2
5
5
4
4
5
5
7
8
7
6
7
7
5
2
3
4
5
4
4
8
7
7
8
7
7
8
8
6
7
5
5
5
4
4
4
5
2
4
8
8
10
11
12
14
12
13
14
8
15
15
6
15
16
7
14
16
9
12
14
13
8
10
11
7
11
8
8
12
9
8
10
11
8
9
10
12
12
10
14
14
11
13
13
12
11
11
11
9
10
10
8
10
10
9
10
13
11
11
14
11
11
12
8
10
13
7
13
12
5
13
8
4
8
5
1
4
3
3
4
2
3
5
4
5
10
6
7
8
5
8
7
5
9
11
7
12
16
11
15
19
12
16
20
13
16
20
15
16
20
16
16
20
15
16
19
11
15
17
7
13
15
6
11
13
5
9
12
4
8
11
3
7
8
1
5
5
0
4
3
2
3
2
3
2
3
4
3
5
8
5
8
10
7
12
10
9
13
14
13
15
18
14
17
20
10
17
20
9
15
16
10
13
13
9
11
11
7
10
10
7
11
7
7
11
7
9
12
7
10
12
8
9
10
8
8
10
7
8
9
5
8
7
4
8
5
4
8
5
4
8
7
5
8
8
6
8
8
7
8
8
8
10
10
10
10
11
12
10
11
15
11
11
17
10
12
15
9
11
12
8
10
9
8
9
8
9
11
9
11
12
12
12
12
14
12
12
14
12
12
15
12
12
16
12
12
15
11
12
13
10
11
12
8
11
13
8
11
15
10
12
17
12
15
18
14
18
21
8
16
18
8
17
14
9
17
13
7
11
10
4
6
5
7
11
7
10
16
10
8
14
8
7
12
7
7
7
4
4
1
3
2
0
4
3
1
4
5
4
4
4
6
4
3
7
7
2
12
12
2
4
4
3
2
2
4
5
5
3
7
5
2
7
5
3
8
7
4
8
9
3
8
9
1
7
7
0
8
7
1
11
8
3
12
9
4
12
11
4
11
12
4
8
12
4
7
10
2
4
7
4
2
3
1
3
0
0
3
1
3
3
2
5
7
4
5
8
4
3
4
2
7
8
9
3
5
5
4
4
4
2
5
5
7
14
10
13
22
18
14
22
20
18
24
20
20
27
22
19
27
26
17
25
28
15
22
26
13
18
22
12
16
19
12
16
17
11
17
16
9
19
16
9
20
17
10
19
18
9
16
16
6
12
13
2
9
11
1
9
9
2
9
8
3
8
7
3
5
7
2
5
5
4
8
7
3
8
9
1
5
5
0
5
6
3
8
11
5
12
16
7
16
20
8
18
23
8
17
24
7
16
23
5
15
20
4
12
16
3
8
12
0
7
10
4
7
10
0
8
11
4
9
15
3
11
18
4
13
19
5
17
21
7
20
21
7
20
21
6
20
22
7
18
19
7
15
17
7
14
14
5
11
11
7
10
14
11
12
21
11
14
22
7
10
17
3
7
15
2
8
14
4
5
12
4
7
15
1
7
17
0
7
18
0
5
14
2
2
6
6
3
5
8
5
2
9
8
5
11
10
3
12
9
4
12
7
4
12
6
4
11
7
2
10
8
4
10
10
7
12
11
10
15
11
8
17
14
11
18
17
12
16
16
9
13
14
9
13
16
11
15
19
13
16
19
14
16
18
17
15
18
13
15
15
8
12
12
7
10
10
5
11
8
4
12
8
4
12
8
5
13
10
8
15
13
10
17
14
9
18
15
8
18
16
8
19
17
9
20
19
11
20
20
12
19
20
12
17
20
12
16
19
12
17
18
13
20
20
17
21
20
18
17
19
16
12
16
12
8
12
7
5
9
3
5
8
1
8
8
5
13
10
8
14
11
10
13
11
11
12
11
14
12
12
19
12
11
14
8
9
9
7
8
12
4
7
8
4
4
5
7
6
7
7
9
9
8
12
14
13
16
12
15
16
14
12
12
11
12
10
5
16
12
14
18
17
24
255
255
255
255
255
255
24
20
14
25
19
16
27
19
20
31
23
22
35
27
22
36
29
21
36
32
19
37
34
18
37
33
19
34
32
19
31
31
18
31
30
19
32
30
19
31
30
18
29
30
18
24
28
17
19
23
14
17
22
11
10
16
7
8
10
7
7
9
7
8
8
7
10
13
8
15
17
8
18
18
8
15
13
6
13
7
4
11
7
4
9
7
4
8
7
4
10
6
3
6
2
0
1
4
0
4
4
1
6
5
4
4
5
5
3
4
5
5
3
4
6
5
2
7
8
4
7
7
3
7
7
0
5
5
1
4
3
4
6
4
4
4
6
1
4
7
2
4
4
3
2
2
1
2
5
1
4
5
4
12
8
4
14
9
5
8
5
5
6
4
4
7
4
4
5
5
5
3
4
4
4
5
4
2
5
5
2
3
4
2
0
2
1
0
1
2
4
2
1
2
1
4
3
3
5
5
4
4
5
2
4
5
4
4
5
4
4
5
1
4
4
2
6
2
4
4
4
4
2
4
4
5
1
2
5
4
0
5
3
3
7
0
2
5
4
3
5
4
6
4
0
2
1
0
0
1
1
3
4
4
4
3
3
2
1
3
2
3
4
1
4
2
1
4
4
4
4
4
3
7
5
2
7
7
3
4
6
2
4
4
3
5
1
3
5
4
2
5
5
1
7
4
1
11
6
4
8
6
7
3
6
6
5
7
4
8
7
5
7
6
6
5
8
5
4
5
4
5
5
1
8
7
2
8
5
4
5
6
2
5
7
3
7
4
5
4
2
5
6
3
7
7
5
8
9
8
9
10
10
10
13
14
12
13
15
13
13
16
14
14
16
14
13
17
16
13
17
18
14
18
17
12
17
13
10
13
6
10
11
4
9
9
5
9
10
7
13
15
11
13
17
13
15
16
11
17
16
9
18
18
8
18
18
10
12
11
12
10
10
11
11
11
10
10
10
10
10
10
8
9
8
7
8
5
5
7
4
3
5
5
4
6
7
8
5
7
8
4
5
8
5
5
8
7
7
7
6
4
6
6
5
6
3
7
5
4
7
4
3
5
2
4
8
4
5
11
7
10
14
9
12
16
11
12
14
10
13
15
9
14
17
11
12
18
11
9
15
8
7
10
5
5
6
3
4
2
3
2
5
7
3
4
5
2
5
7
3
8
8
6
11
8
10
12
9
12
13
11
12
16
12
12
18
13
12
17
15
12
17
17
12
19
18
13
20
18
15
19
18
16
17
19
16
18
16
13
18
12
12
16
10
11
12
8
9
9
8
8
8
7
8
8
7
7
9
7
7
5
7
7
5
5
7
7
4
5
5
4
4
4
3
4
4
1
4
4
1
4
4
3
5
5
4
6
7
5
7
7
8
8
8
12
12
12
14
15
16
16
13
17
18
12
16
18
10
13
14
5
8
9
5
6
10
7
8
8
9
11
9
11
12
12
11
12
14
9
12
13
8
12
13
9
12
15
11
13
16
12
14
15
12
14
14
11
14
14
10
13
13
10
14
15
13
15
17
14
16
18
11
17
18
7
14
14
7
11
10
5
7
5
1
4
2
5
6
3
5
7
4
8
12
7
8
14
10
6
12
8
5
7
5
4
4
3
5
3
2
6
7
4
7
9
5
5
8
5
4
8
5
7
14
12
10
12
8
11
12
7
8
10
7
5
8
5
4
8
4
4
8
4
3
7
4
1
4
2
0
2
2
0
5
4
2
4
3
2
4
4
0
4
4
1
6
4
5
8
5
8
8
7
8
9
7
7
7
2
6
6
3
6
6
1
7
7
3
9
11
6
8
11
4
9
12
4
13
15
10
14
14
8
12
12
6
8
8
5
10
16
12
13
18
16
13
13
14
5
7
12
3
7
15
5
8
17
8
10
19
11
13
20
11
13
20
9
12
20
8
11
18
7
9
13
4
7
8
2
5
5
4
5
5
4
8
7
4
6
4
3
3
4
1
0
5
5
5
4
7
9
5
5
5
5
3
4
4
6
8
8
3
5
8
3
3
5
3
3
5
0
6
10
1
8
11
3
7
12
4
5
11
3
4
9
4
5
8
4
6
8
1
5
8
2
4
7
2
4
5
3
3
4
2
1
4
0
4
6
3
7
10
6
9
14
9
13
18
10
19
21
11
24
22
13
26
23
14
25
23
13
22
19
10
18
14
6
12
10
7
7
10
10
9
16
8
13
16
11
14
14
14
16
15
13
14
15
12
10
10
10
10
12
7
5
5
5
4
5
5
6
7
8
11
6
12
15
7
14
16
10
14
17
11
15
19
11
17
20
12
19
20
14
20
20
17
20
20
17
20
22
17
22
27
22
22
27
23
21
24
20
20
24
19
21
25
17
23
27
19
23
28
20
22
28
21
23
29
24
24
31
27
25
32
32
25
31
29
23
29
26
20
25
21
18
22
15
19
20
12
20
19
12
20
17
12
19
15
12
18
15
13
18
18
15
19
21
17
22
23
20
25
25
24
27
27
27
28
28
27
28
29
25
27
30
24
25
28
23
24
26
21
25
28
22
27
31
25
27
31
25
24
29
22
20
25
21
18
24
19
18
23
17
19
22
17
22
23
19
24
25
20
24
26
21
24
27
24
24
31
30
24
32
31
24
29
30
24
27
28
21
27
27
20
27
25
21
25
25
22
25
27
22
26
28
22
28
24
24
30
23
25
32
23
27
31
21
28
29
22
31
31
28
255
255
255
255
255
255
32
25
20
34
27
24
34
29
24
34
33
22
36
36
20
40
39
21
42
40
22
40
39
22
36
36
24
30
33
23
28
31
21
29
29
20
31
29
19
31
30
16
29
29
13
26
26
12
24
23
13
24
25
15
17
21
12
11
11
8
10
11
5
8
11
4
11
15
7
19
19
8
17
14
6
9
5
1
6
3
1
2
0
2
2
4
4
7
8
4
11
10
4
7
7
2
1
5
2
3
4
2
5
5
2
5
5
4
4
4
4
6
3
4
7
6
4
6
7
4
5
5
4
5
7
3
7
7
2
5
5
3
7
5
5
7
7
4
5
9
4
5
8
5
4
8
4
4
8
4
5
10
5
8
11
4
11
11
5
11
10
7
8
8
5
7
5
4
7
5
5
5
4
4
5
5
5
4
7
7
2
5
5
3
5
6
4
3
5
3
4
4
0
3
4
4
2
2
6
4
4
4
3
3
3
4
2
5
7
4
7
6
2
5
4
3
5
2
4
4
4
4
5
5
4
8
4
1
7
4
0
7
1
1
7
1
3
5
4
4
4
3
5
2
0
3
3
0
0
4
3
4
4
4
4
1
1
0
3
4
0
5
4
0
6
3
1
5
4
4
5
4
3
5
6
3
7
5
4
4
5
1
3
4
1
6
3
4
5
4
3
5
6
0
7
4
2
8
5
3
5
7
5
3
7
5
4
8
2
6
7
3
8
9
4
8
12
4
5
8
4
7
7
4
8
8
2
7
8
4
5
8
4
5
8
5
8
8
7
7
8
4
5
8
4
5
8
6
7
8
8
9
9
8
12
13
11
16
18
12
19
19
15
21
18
15
22
20
14
21
20
14
19
20
17
18
21
17
15
18
13
12
15
11
11
13
10
11
11
10
11
10
10
8
10
8
6
8
7
8
8
5
13
13
3
16
17
3
13
12
7
8
8
10
7
8
8
4
5
7
4
4
5
7
7
5
8
7
4
8
5
5
10
7
7
11
10
13
11
11
15
11
8
12
11
7
12
10
5
10
8
4
8
5
4
7
1
4
2
2
5
3
5
9
6
5
10
7
8
9
7
7
6
6
7
9
8
5
7
8
1
3
2
0
2
1
5
4
4
4
7
5
5
7
8
7
9
11
8
12
12
10
13
13
12
13
11
13
15
11
14
16
12
13
17
13
13
19
15
15
20
16
16
20
16
16
20
17
16
20
18
15
20
18
13
19
18
12
16
17
12
14
15
12
14
13
13
14
10
12
12
7
12
9
5
11
8
4
10
8
5
10
8
7
9
8
7
7
8
5
5
5
3
4
4
1
1
3
0
0
0
0
1
1
1
3
3
3
5
6
5
7
10
7
8
11
8
9
10
10
12
12
14
13
14
16
13
16
16
12
16
14
10
13
14
12
10
12
11
7
8
10
5
6
10
5
8
9
7
11
8
7
12
8
6
12
9
8
12
11
11
13
12
12
14
12
12
13
12
12
12
12
12
14
12
13
17
12
16
17
12
18
16
12
17
17
13
14
15
10
14
14
4
13
13
4
8
10
4
6
7
0
4
1
4
4
3
4
4
3
3
5
2
5
9
6
7
11
8
5
11
7
7
10
7
8
9
5
10
13
9
13
18
14
13
20
15
12
20
13
12
20
12
13
21
15
13
19
11
15
16
8
16
17
9
15
19
11
13
20
12
12
20
12
12
20
13
12
18
13
12
16
11
12
19
11
12
21
11
11
18
10
10
14
9
11
17
12
12
17
13
8
13
11
4
5
4
1
4
4
0
7
6
0
5
5
3
6
6
7
13
11
7
16
15
7
14
14
4
11
10
1
10
10
2
13
12
8
20
20
12
22
24
11
15
17
11
12
14
7
9
11
4
1
6
4
2
4
4
4
5
4
2
2
5
4
3
7
3
3
9
5
4
10
7
5
9
8
2
8
8
1
8
10
4
10
11
4
7
5
4
6
2
4
7
4
4
8
9
6
5
11
6
3
4
2
2
7
4
6
10
7
2
4
7
2
1
7
3
4
7
0
4
7
0
3
3
1
3
2
3
2
2
5
0
1
7
1
4
5
4
5
4
5
4
3
4
4
1
5
4
1
6
4
2
5
5
4
3
5
4
0
2
7
1
4
8
4
5
8
7
7
9
10
9
10
14
11
9
16
12
8
14
10
8
9
5
8
5
4
7
3
5
4
3
8
7
8
16
12
16
24
15
22
29
16
22
28
16
18
26
14
17
26
9
12
17
9
12
14
11
14
16
13
19
20
12
20
19
13
19
21
14
16
22
13
14
20
13
15
17
15
17
17
16
19
20
17
21
25
19
26
31
21
29
32
20
30
32
20
35
32
19
38
30
18
36
29
20
36
30
22
38
29
22
37
28
22
36
27
22
36
28
23
37
36
25
38
40
28
37
39
28
34
37
25
32
33
24
32
29
24
32
28
24
32
28
23
29
26
21
25
24
20
26
27
21
30
32
24
35
37
27
38
41
28
37
40
28
37
38
29
39
39
31
39
39
31
37
36
29
36
33
28
37
31
28
38
30
29
37
32
31
37
33
32
36
32
31
36
32
29
35
31
28
34
28
28
35
25
28
35
25
28
34
27
27
35
31
26
36
37
27
37
42
28
39
44
29
41
44
30
41
45
29
41
47
29
42
47
31
41
45
32
40
47
31
39
43
29
40
37
28
40
35
29
37
31
29
36
25
30
35
25
255
255
255
255
255
255
39
35
22
40
37
23
38
38
20
36
38
16
34
36
14
33
33
15
32
31
17
32
29
18
30
27
17
26
24
13
23
21
11
21
19
9
21
18
9
23
18
10
22
17
9
17
15
7
18
19
8
22
24
11
19
22
9
14
16
6
18
19
7
18
18
7
13
13
5
16
13
6
12
11
5
4
7
5
2
4
3
5
8
3
8
12
4
13
12
4
11
10
5
6
5
4
3
4
3
2
4
1
4
4
2
7
4
4
4
5
4
5
4
1
8
6
4
6
5
4
4
4
3
4
4
4
6
4
3
5
4
1
6
4
3
5
4
3
4
5
4
4
5
4
2
3
2
4
2
2
6
5
4
7
8
3
5
7
1
5
7
4
7
7
3
7
4
1
5
4
4
4
3
4
4
4
5
4
5
5
3
3
3
0
4
4
4
4
4
4
4
3
0
4
4
5
4
2
6
4
4
4
2
4
7
4
3
8
7
4
7
6
2
5
4
4
5
3
3
5
4
3
7
5
4
5
4
1
3
2
0
4
0
0
5
2
4
4
4
4
1
2
4
3
0
4
4
0
0
3
3
3
1
4
4
0
3
3
4
4
2
6
4
2
3
5
3
2
4
4
4
3
2
4
5
3
4
5
4
4
5
3
2
4
1
5
4
3
8
5
4
8
7
3
8
7
3
7
8
5
7
8
7
7
7
8
5
9
5
5
8
3
7
8
4
9
12
4
8
13
3
8
10
4
10
8
2
8
10
2
7
12
6
8
12
8
8
12
8
7
12
7
6
11
5
6
9
4
6
8
4
6
8
5
6
8
7
7
8
6
8
7
5
9
7
5
12
8
4
13
8
5
11
9
10
11
14
12
11
12
11
7
8
8
3
8
7
5
7
5
8
6
8
7
6
7
4
5
5
8
7
7
14
13
4
14
15
2
13
11
5
10
9
8
7
9
8
7
7
7
9
7
6
9
8
7
8
5
5
7
3
4
5
5
3
7
10
11
9
11
14
5
5
6
4
3
5
4
1
4
3
4
3
2
4
4
1
2
0
4
5
3
3
3
1
0
3
4
7
8
10
7
10
12
8
11
13
11
13
13
12
14
11
15
18
15
15
20
18
13
20
16
12
17
13
12
15
13
12
13
14
13
13
13
13
13
13
13
13
12
16
15
13
18
17
15
17
19
15
16
20
13
16
19
13
16
18
15
16
19
16
16
19
15
15
17
13
13
15
11
12
13
9
11
11
7
10
10
5
7
8
4
5
8
4
4
8
4
4
8
4
5
8
4
7
8
3
8
8
2
7
8
3
5
7
4
5
6
5
7
7
7
9
8
8
11
9
9
13
12
12
15
15
13
15
15
15
13
13
15
13
14
15
13
16
14
13
14
14
12
12
15
11
9
14
10
10
13
9
11
10
10
12
10
9
11
10
8
9
11
8
8
12
8
9
12
8
12
12
9
12
13
11
12
14
11
12
13
9
11
12
8
11
13
9
13
14
11
15
14
12
15
17
12
15
19
9
12
14
3
9
9
0
7
9
4
5
5
4
5
7
2
4
2
2
3
2
5
3
1
4
5
2
4
7
6
5
7
5
7
12
8
9
15
12
12
18
15
15
24
17
16
25
16
16
24
15
15
24
13
14
23
12
13
20
12
10
13
7
9
12
5
13
17
9
18
21
14
20
24
16
20
26
16
20
26
16
20
27
17
21
29
20
22
30
22
20
29
19
17
27
16
16
24
12
15
23
12
12
17
10
9
12
7
8
9
5
7
9
7
4
3
0
1
3
4
1
8
9
4
13
14
7
18
17
8
20
19
8
21
20
9
24
20
12
24
20
13
20
21
8
12
14
4
5
2
10
8
8
14
12
11
16
15
11
16
15
13
16
14
15
16
14
13
15
14
11
14
15
10
16
16
12
18
17
13
17
18
12
16
17
12
15
15
11
12
13
9
9
9
7
8
8
6
7
8
7
4
8
7
1
6
4
0
1
3
1
7
4
5
8
4
5
5
6
2
4
3
4
5
1
7
7
4
8
8
7
8
8
7
9
8
6
10
8
7
9
9
8
7
10
8
5
10
8
5
11
9
7
13
11
8
14
11
7
14
10
8
12
9
7
9
7
6
8
7
6
8
8
5
9
8
4
10
9
5
9
10
6
9
9
5
11
8
5
13
9
7
14
11
8
12
12
8
9
10
9
10
13
12
15
18
11
16
19
8
14
15
10
15
16
11
15
22
7
10
18
7
9
15
8
11
19
8
11
18
5
7
13
4
7
12
5
7
12
3
5
10
2
5
12
3
7
14
4
8
15
5
11
19
9
19
22
11
20
22
11
20
23
11
26
24
12
30
27
13
29
27
12
29
27
14
32
30
17
35
31
16
35
29
14
32
27
14
31
27
15
34
30
18
37
33
22
38
36
23
38
41
23
36
42
21
33
38
20
32
36
20
33
36
21
34
37
23
34
39
23
35
41
21
38
42
20
39
41
20
40
39
20
40
38
20
39
39
20
37
40
20
37
40
21
38
38
23
37
37
24
36
35
24
37
37
25
40
41
28
43
42
30
42
42
29
38
40
27
35
36
24
33
32
21
31
29
20
28
27
20
26
27
21
27
28
22
30
32
22
31
35
20
31
36
19
29
36
18
28
36
18
29
35
18
32
36
21
34
42
24
36
47
25
34
44
25
32
38
24
32
33
22
30
26
21
27
21
255
255
255
255
255
255
40
35
14
40
35
14
39
32
12
36
29
11
32
24
10
28
21
10
26
19
10
25
17
10
21
15
5
17
11
1
12
7
0
9
7
0
10
8
3
8
5
2
5
3
1
7
4
2
11
13
6
18
21
8
19
21
7
14
16
3
12
13
4
9
8
3
6
3
0
7
5
4
11
9
4
10
10
5
7
8
6
8
11
5
9
11
4
9
10
4
5
8
4
4
4
2
4
1
3
3
3
3
4
4
1
8
5
3
4
5
4
4
4
1
8
7
3
6
4
4
4
4
3
4
4
2
7
4
2
6
4
2
5
4
2
4
4
1
4
3
3
4
4
4
2
1
1
4
0
0
6
4
3
8
8
4
4
4
1
5
4
4
8
8
4
7
4
0
5
4
1
4
4
4
3
3
6
4
4
4
4
1
2
1
1
1
4
4
3
4
5
6
3
5
4
7
7
1
8
4
4
7
2
4
8
4
4
7
6
4
5
6
2
4
4
4
4
4
2
4
4
1
5
3
4
4
4
4
2
3
4
4
0
3
6
1
4
4
4
4
0
4
5
3
1
5
4
0
3
1
1
2
0
2
3
0
3
4
3
3
4
5
4
3
5
6
4
3
4
4
4
2
4
4
4
2
1
5
3
4
5
4
3
4
4
1
2
2
5
4
3
8
5
4
8
4
4
5
4
4
5
6
5
8
4
7
5
5
7
4
7
5
4
5
5
5
7
5
7
8
5
7
7
4
8
5
2
6
5
2
2
5
2
2
4
0
3
4
3
3
4
4
3
4
3
1
4
1
0
1
1
2
2
4
3
3
4
3
3
3
5
5
4
7
5
4
8
5
2
11
5
5
9
4
7
10
10
7
13
13
8
10
9
7
7
8
7
8
8
7
9
7
7
8
7
7
8
7
6
13
10
8
16
15
4
13
13
3
9
9
6
8
9
7
7
10
7
6
5
5
8
5
8
7
8
10
5
5
5
4
4
5
5
5
6
8
10
11
12
14
16
10
13
15
9
9
11
10
7
9
8
7
7
5
5
5
4
3
3
2
1
1
3
8
7
4
9
10
7
12
12
12
16
15
15
18
15
16
18
15
14
16
14
15
17
13
16
19
12
17
20
14
18
20
17
17
20
17
16
20
16
17
20
16
15
20
15
13
20
14
13
20
15
15
20
16
15
18
15
12
14
13
9
12
11
8
12
9
8
12
9
9
12
10
11
12
9
11
11
7
9
8
5
7
6
4
4
7
4
2
7
5
3
7
7
4
8
9
5
9
10
7
11
10
8
11
11
9
10
12
11
11
12
12
12
12
12
12
13
13
12
15
14
12
16
13
12
16
11
13
17
9
12
17
9
13
17
10
14
17
10
13
15
11
11
14
11
8
14
9
5
12
7
5
10
5
9
10
5
8
8
3
7
7
4
5
5
3
4
4
4
5
4
4
7
5
3
8
7
3
5
5
2
4
4
1
4
5
3
4
7
5
5
7
7
7
6
7
7
7
7
8
11
8
8
11
7
9
8
5
5
6
4
3
6
4
4
2
4
7
6
4
7
5
7
4
3
8
4
3
8
7
2
9
8
5
10
11
7
9
12
9
8
13
11
9
16
12
14
23
12
15
21
10
15
19
11
13
17
12
12
16
12
11
15
10
9
13
7
8
14
9
8
17
13
9
18
13
11
19
12
12
19
11
12
18
10
13
21
13
15
25
18
15
23
19
14
21
19
13
22
18
14
21
15
13
18
12
13
16
10
14
15
10
12
14
10
8
15
10
7
10
4
3
5
4
0
7
9
0
7
8
0
9
8
0
10
9
1
13
10
4
13
8
5
8
7
4
4
7
4
2
4
8
6
7
12
12
9
15
17
13
16
16
12
16
14
10
15
14
12
13
14
14
12
14
14
12
14
15
12
14
15
9
15
15
9
15
15
10
15
14
8
12
10
5
9
8
4
8
8
3
7
7
1
4
4
1
3
3
4
4
2
7
2
2
8
7
6
9
12
9
12
12
12
12
13
12
12
15
12
12
16
12
13
15
12
14
14
13
13
16
16
12
19
18
12
20
17
12
20
15
12
20
13
13
20
12
15
21
14
16
24
18
17
27
20
19
27
21
20
25
19
20
24
18
19
23
18
17
22
17
17
24
17
19
27
19
20
28
20
20
28
20
20
28
20
21
28
21
22
28
24
20
28
26
17
27
24
17
25
20
15
22
17
13
19
16
12
20
17
14
20
21
12
17
26
11
16
25
9
14
20
7
10
15
5
7
12
3
5
11
3
5
9
0
7
9
0
8
11
3
8
13
3
8
13
4
9
11
7
13
8
7
11
9
7
12
12
5
14
9
4
11
6
6
8
4
4
8
5
3
9
8
7
13
14
9
19
20
11
24
23
12
27
24
12
27
24
10
29
26
13
32
27
18
35
30
19
35
33
16
31
32
13
25
27
11
20
22
9
17
19
9
17
19
10
19
19
8
17
17
7
16
17
8
19
21
10
23
25
9
24
25
8
24
24
8
24
26
8
22
26
8
17
23
9
14
20
11
16
19
13
21
25
15
26
33
17
28
36
18
28
36
15
24
34
11
17
27
7
13
18
7
14
15
9
10
14
11
12
15
12
16
18
14
16
21
13
15
18
11
12
14
8
8
13
6
10
17
7
15
22
11
21
28
15
25
33
17
25
37
17
24
37
18
25
35
18
25
30
18
23
24
255
255
255
255
255
255
25
21
8
25
19
8
24
16
4
22
12
5
17
9
5
12
6
2
9
3
4
7
3
5
7
4
2
8
7
4
7
5
3
1
3
5
4
5
7
6
7
8
7
9
9
4
9
9
5
7
7
12
15
7
13
13
5
5
4
1
2
5
3
7
10
4
5
7
4
5
5
4
8
7
4
10
8
2
10
10
3
10
11
4
9
9
4
5
5
3
1
4
1
1
4
0
4
3
3
4
2
4
4
4
1
7
6
1
5
4
4
4
4
3
7
8
1
7
4
3
4
4
4
4
4
4
7
4
2
5
4
3
5
4
4
4
4
3
4
1
1
4
4
4
1
3
4
4
0
1
7
4
2
8
8
4
5
5
2
7
4
3
8
7
4
5
4
1
6
4
0
5
4
4
4
2
5
4
4
4
4
2
5
4
0
0
4
2
2
4
4
8
5
6
4
7
8
0
7
4
4
5
1
4
5
4
4
6
7
5
4
5
1
1
4
3
4
4
3
4
4
0
4
3
1
4
3
3
3
4
4
4
1
4
4
0
4
4
1
3
1
4
5
1
4
7
4
1
5
3
0
4
0
3
1
0
4
1
1
1
2
4
4
3
6
5
4
4
4
1
5
3
4
4
1
3
1
4
0
4
4
1
4
4
4
3
3
3
4
2
0
7
4
1
8
4
2
4
4
1
2
6
4
8
4
3
6
4
4
4
5
4
5
4
4
5
7
6
7
8
5
8
6
5
8
5
3
6
7
1
5
8
3
6
7
4
5
6
3
4
5
1
4
3
0
4
4
1
5
5
4
6
6
4
7
7
4
8
7
4
11
8
4
12
8
4
13
8
5
17
10
8
15
12
8
14
17
9
15
16
8
12
12
5
11
10
7
12
10
7
12
10
5
10
8
4
11
8
6
13
11
8
11
11
4
8
10
3
7
8
5
8
10
8
11
14
10
12
12
10
14
12
11
14
14
12
10
10
8
11
8
8
11
8
7
10
10
8
14
11
13
15
15
20
13
15
17
11
12
13
11
11
11
8
8
7
3
4
3
2
7
3
5
11
7
7
8
7
8
9
7
12
14
7
16
18
8
15
17
11
14
16
12
15
17
12
16
20
13
16
22
16
17
23
17
19
24
17
19
23
15
16
20
14
14
18
13
13
18
12
10
16
12
8
12
12
8
9
12
7
8
11
5
7
8
4
5
5
4
4
4
3
4
5
2
4
6
2
4
5
1
4
3
0
4
3
2
5
5
7
7
8
8
7
10
8
8
9
9
9
9
10
11
12
10
11
15
11
9
15
12
9
14
12
11
15
11
11
15
9
9
13
7
8
12
5
7
11
3
5
8
1
4
7
3
4
7
4
5
7
5
5
8
8
5
11
5
5
9
1
4
5
0
4
4
2
7
5
3
3
3
2
4
2
3
5
4
0
3
2
0
1
2
1
4
4
2
4
3
0
0
1
3
0
3
4
0
5
4
0
6
4
3
4
5
4
3
2
4
4
3
8
6
6
7
8
1
0
4
3
2
1
4
5
5
6
10
4
5
10
4
4
8
5
3
4
1
2
4
0
4
5
1
7
7
3
8
8
3
8
8
2
8
9
3
8
13
4
12
18
9
10
15
14
8
15
16
9
16
17
11
16
19
12
16
20
12
17
20
12
18
19
10
16
16
6
12
12
4
8
9
3
6
7
2
7
5
3
8
5
4
6
4
2
6
3
7
10
8
5
8
10
4
9
8
4
6
8
4
3
6
2
5
1
7
11
10
8
16
13
7
15
10
4
11
10
3
8
11
4
8
8
5
9
8
7
10
7
8
10
5
7
5
3
3
1
3
2
0
3
3
0
2
4
3
4
4
7
4
4
7
7
4
8
8
5
8
7
7
8
6
8
8
8
8
7
11
7
7
11
4
7
8
1
4
5
2
2
3
0
2
2
2
2
2
0
2
1
0
4
3
0
4
4
0
3
3
3
4
3
5
4
3
4
2
4
4
3
5
4
5
7
5
7
8
7
8
9
7
8
11
5
8
11
5
8
10
7
10
11
8
14
13
8
15
12
8
15
10
8
13
6
8
11
5
7
9
5
5
8
2
5
10
4
8
15
10
11
20
16
13
22
17
15
21
15
15
20
13
13
18
11
12
15
8
11
14
6
10
13
7
11
12
9
11
12
10
9
13
10
9
16
13
12
20
18
14
22
19
12
21
17
9
18
15
11
18
17
11
16
15
11
17
17
9
15
20
10
15
22
9
13
20
8
12
17
7
11
15
5
9
13
3
7
12
2
6
12
2
6
11
3
5
8
2
3
4
1
4
2
5
8
5
7
11
10
8
15
17
8
21
19
9
25
19
12
27
20
12
29
22
13
31
26
14
29
23
10
21
14
3
8
4
4
7
10
8
16
17
8
17
17
8
17
17
8
19
15
8
21
15
9
21
17
5
16
15
4
8
10
2
1
2
4
5
7
4
8
9
1
10
8
3
13
10
5
15
10
4
8
6
4
3
4
2
5
3
3
6
6
3
7
10
0
7
12
0
5
12
1
6
9
3
6
9
4
7
11
5
11
15
7
18
21
11
23
27
12
20
28
8
14
20
8
14
17
8
14
17
8
13
14
8
13
13
11
14
15
11
17
15
13
17
13
13
13
13
13
12
16
14
12
17
14
13
19
14
15
18
14
18
21
14
21
29
15
21
32
17
20
30
17
18
26
255
255
255
255
255
255
7
7
7
9
5
7
8
4
7
8
5
7
8
7
6
7
8
7
6
7
8
6
5
10
7
5
7
8
8
8
8
10
8
7
11
11
9
14
13
10
15
15
11
17
16
12
17
15
12
15
13
14
15
12
11
15
9
8
14
8
8
13
8
5
12
7
5
10
5
6
11
5
7
11
7
7
8
5
8
9
4
8
10
4
7
8
4
2
4
4
0
1
3
3
4
1
4
4
1
4
3
4
5
4
3
5
5
0
6
4
3
5
4
4
7
8
1
7
4
0
3
4
1
4
4
4
6
4
4
4
4
1
6
4
3
4
4
4
4
0
1
4
4
2
1
4
4
5
1
2
8
4
3
8
7
4
8
7
1
10
4
1
8
5
4
5
4
3
5
4
0
6
4
4
4
2
4
4
4
4
5
2
5
5
1
1
4
4
3
4
4
7
6
5
4
5
8
1
7
4
4
7
1
3
5
4
4
5
7
6
3
4
1
0
4
2
4
4
3
4
4
0
4
4
0
4
1
0
4
4
0
4
3
3
2
0
4
4
0
1
2
1
1
0
4
4
4
3
4
4
0
4
0
4
4
0
4
1
0
0
0
4
4
3
6
4
4
4
3
1
6
4
4
5
2
4
4
4
0
4
3
0
4
4
4
5
4
4
7
3
0
8
5
0
8
4
1
5
4
2
4
6
3
7
4
2
6
4
4
5
4
5
8
5
4
8
7
4
5
7
4
8
7
6
9
7
4
7
8
1
7
7
0
4
5
0
5
5
1
6
6
2
4
5
1
1
4
2
3
6
4
4
4
2
5
5
3
8
5
4
7
5
4
6
5
4
9
7
5
14
11
7
13
13
7
13
14
7
11
11
3
8
8
4
5
5
8
5
5
6
5
5
1
5
4
3
8
7
7
8
8
8
5
5
7
8
10
9
11
14
10
12
15
10
11
15
8
8
12
5
11
10
8
14
14
11
12
13
8
9
8
5
7
7
5
7
7
5
8
4
4
9
4
10
5
7
11
5
8
10
8
9
12
7
8
10
7
8
6
8
13
7
10
12
10
13
10
11
14
13
11
16
18
10
17
19
12
16
18
14
15
18
14
13
20
15
12
20
17
11
17
15
10
13
10
11
11
8
11
9
7
8
7
5
7
7
5
7
5
7
7
5
7
5
5
7
4
4
5
5
6
4
7
7
5
7
5
6
5
4
5
4
4
4
4
4
4
4
5
7
4
7
7
4
7
7
7
7
8
8
8
8
5
7
7
5
7
6
7
7
7
7
5
8
7
4
7
7
4
7
5
5
8
4
4
8
4
4
7
3
5
6
1
6
6
1
5
5
3
4
3
4
5
4
5
4
6
7
4
4
7
4
5
7
5
7
4
8
6
3
7
4
4
7
3
3
5
2
0
0
3
2
4
3
1
3
3
1
1
1
3
4
5
4
4
4
4
3
1
4
0
0
4
0
0
3
0
0
1
0
1
3
1
4
6
4
4
3
5
4
1
8
5
5
9
8
6
7
8
5
5
8
5
8
9
4
10
7
2
6
3
2
7
4
2
4
2
2
4
2
3
4
6
3
4
7
0
4
5
3
2
3
4
4
3
4
8
2
8
11
9
6
10
9
1
4
4
3
7
5
7
11
11
7
12
12
8
13
14
8
13
11
7
8
5
5
7
3
1
4
3
2
4
4
3
6
4
4
12
8
8
19
15
11
23
19
12
22
19
9
20
17
8
20
16
8
21
16
10
24
18
15
28
22
17
30
25
12
26
22
9
18
16
8
13
13
8
10
13
8
10
9
8
10
8
8
10
8
7
8
8
5
5
8
4
3
6
4
1
2
4
0
1
5
3
4
7
7
7
5
6
6
4
5
3
5
5
4
6
7
5
5
6
6
5
7
7
7
8
7
7
8
8
5
9
9
5
11
10
6
10
8
5
7
6
4
7
7
4
8
8
4
7
7
3
5
5
4
7
5
5
7
5
7
6
5
7
7
7
4
6
7
1
2
4
0
0
1
1
1
3
3
3
3
4
4
4
3
7
4
2
9
4
3
2
4
3
4
5
5
8
8
7
12
11
9
15
12
10
16
12
9
17
13
7
14
8
4
8
3
1
4
5
1
7
7
5
9
10
7
11
7
8
15
7
12
19
10
14
19
12
13
18
13
11
18
15
11
18
16
13
19
17
13
20
18
12
20
17
13
22
17
15
24
17
16
23
15
13
17
11
10
11
7
5
7
7
4
7
7
4
7
7
4
7
6
4
9
8
4
9
11
4
9
12
4
11
12
4
12
11
5
11
10
6
9
9
5
9
7
5
12
7
7
14
10
9
18
15
10
20
20
11
21
23
13
22
23
13
24
21
13
29
24
16
36
31
18
39
34
17
38
32
13
27
22
6
11
10
3
5
5
2
4
5
0
4
5
4
8
8
8
15
11
4
16
13
3
10
10
4
4
4
2
0
1
2
7
7
5
12
13
8
18
20
11
26
26
11
28
27
9
25
23
8
23
18
6
19
15
2
12
10
0
4
3
0
3
8
0
6
9
0
4
5
0
3
2
1
8
7
3
15
13
8
22
21
13
26
31
15
29
34
16
30
34
15
27
29
13
21
22
12
18
19
14
20
20
15
22
22
17
24
22
17
21
17
15
16
9
13
13
8
12
13
16
12
12
14
14
12
12
14
17
19
14
18
21
14
16
22
13
13
19
255
255
255
255
255
255
21
21
13
27
25
15
31
26
16
32
27
17
30
27
18
25
24
16
21
22
14
20
22
15
19
20
15
17
18
13
14
18
14
14
17
14
15
16
14
17
18
15
19
22
15
20
22
14
20
23
14
18
24
13
14
22
11
12
17
9
8
12
8
6
10
8
7
11
8
8
13
8
8
15
8
8
10
8
8
8
8
7
7
7
4
5
5
3
4
4
0
3
4
4
4
4
4
5
1
4
4
4
7
3
4
5
4
0
7
5
2
7
4
3
5
6
3
5
4
3
3
5
1
4
4
1
6
4
4
4
4
4
5
4
4
5
4
5
4
1
3
4
4
3
5
3
4
8
3
1
8
4
4
8
5
4
8
8
0
8
4
1
7
3
4
5
4
3
5
4
0
5
4
4
4
2
4
4
4
3
5
4
5
5
4
4
4
4
4
4
2
5
7
4
4
7
7
3
7
4
4
7
3
2
5
4
4
4
4
4
1
4
2
1
5
3
4
4
2
4
4
0
4
4
0
4
0
0
4
4
0
3
4
1
3
0
4
4
0
4
1
0
1
1
4
4
4
4
4
3
0
1
0
4
4
0
4
4
1
0
3
4
3
2
6
4
4
4
2
3
5
4
3
7
6
4
5
4
1
4
2
1
5
4
3
8
4
3
10
5
1
10
7
0
8
4
2
7
5
2
6
7
2
5
5
2
6
5
4
7
5
6
7
5
3
5
5
3
3
6
5
8
8
7
10
8
5
6
7
4
5
6
3
2
5
1
2
4
2
0
1
0
1
4
2
3
4
1
4
5
4
4
3
3
4
4
1
7
4
4
4
4
6
3
4
4
8
6
5
11
11
7
9
9
6
4
7
4
3
4
2
5
5
4
4
5
7
5
5
7
4
4
3
4
3
1
7
7
5
5
7
5
4
4
7
5
5
7
7
6
5
9
8
6
10
11
6
4
8
4
5
4
5
8
7
8
7
10
7
4
7
3
6
7
4
7
8
5
7
5
5
8
4
10
8
7
10
9
10
10
11
13
13
11
12
12
11
14
11
11
15
12
13
14
14
14
14
15
14
17
12
13
17
9
11
12
11
8
10
14
7
12
13
5
13
8
5
8
7
4
4
5
4
1
3
3
0
2
3
0
1
2
0
1
4
3
4
2
4
4
1
3
5
2
0
4
0
1
0
1
4
2
4
5
7
6
7
10
5
8
9
5
8
7
7
8
6
8
8
8
8
7
10
8
6
9
7
7
8
4
5
5
1
4
4
4
4
5
4
3
5
3
1
3
4
0
4
2
2
3
0
3
1
0
2
2
0
1
2
0
2
3
0
2
4
2
1
1
2
4
0
1
4
4
5
2
5
7
4
4
4
3
6
3
4
5
4
7
7
2
4
7
0
4
8
0
5
8
2
6
8
2
5
8
0
2
6
2
3
4
2
3
5
1
1
7
2
3
8
1
4
8
0
4
8
0
4
8
0
4
8
1
4
9
5
5
10
7
7
10
8
10
11
9
13
12
9
13
12
7
12
13
8
15
16
11
20
17
8
19
13
6
17
14
7
20
18
10
24
21
11
24
23
13
24
24
15
24
23
15
24
21
13
24
20
13
25
21
15
28
26
17
32
32
15
31
33
14
31
32
16
31
31
16
30
29
17
32
32
20
37
37
23
43
42
24
43
42
23
40
38
21
38
36
21
40
37
23
44
39
25
46
40
28
45
40
30
45
41
29
47
42
28
47
42
28
45
43
28
43
43
27
40
41
24
36
38
21
30
33
20
27
29
19
24
27
17
22
24
16
21
21
15
18
20
13
16
20
11
15
19
9
13
17
9
12
16
11
12
16
11
12
16
10
13
17
12
16
20
15
20
23
17
23
24
18
22
23
17
18
21
16
16
21
16
16
23
15
17
23
13
18
21
12
16
20
12
14
20
12
15
19
12
16
18
12
16
18
12
15
17
11
13
15
9
13
14
9
15
14
11
16
14
12
17
16
12
18
19
11
16
19
8
12
15
5
9
11
4
7
10
4
5
8
2
4
6
3
7
8
6
12
13
11
19
19
15
24
22
16
27
21
16
28
21
16
27
22
15
26
20
14
27
20
15
28
22
16
28
21
17
29
22
20
33
28
22
36
30
21
35
28
20
32
27
20
29
25
20
28
24
20
28
25
20
29
27
20
31
28
20
33
30
22
36
34
26
39
37
28
42
39
27
43
39
24
38
36
20
32
33
16
27
31
14
23
29
14
22
28
14
22
28
15
22
28
15
21
27
13
20
26
12
19
26
12
18
25
11
19
24
9
20
24
8
18
23
8
15
21
9
15
20
10
16
19
10
16
18
10
17
19
9
16
20
9
16
19
11
17
17
8
17
15
8
20
18
12
26
24
13
33
31
15
38
34
13
32
29
9
23
22
7
19
20
6
17
19
7
17
19
7
19
20
3
13
15
1
4
5
3
5
3
4
6
4
3
4
5
7
8
13
12
17
21
15
25
27
17
34
32
18
38
34
19
37
35
20
34
36
17
30
33
13
27
28
11
24
23
9
20
17
8
17
13
8
15
11
7
15
12
4
10
8
2
3
4
4
10
14
7
17
20
10
21
24
13
24
27
13
22
23
13
20
24
15
20
28
15
21
28
14
21
25
13
20
21
8
14
10
7
10
6
7
11
12
7
12
13
10
11
12
13
15
17
16
21
20
17
25
24
17
21
24
255
255
255
255
255
255
26
30
10
28
35
11
32
39
12
34
40
13
33
39
15
33
37
16
35
36
18
35
36
21
33
36
21
32
35
19
30
31
17
25
27
13
22
28
12
23
29
11
24
26
9
25
26
9
25
29
10
21
27
9
16
20
8
12
15
8
9
14
7
9
13
6
10
11
7
9
9
7
8
12
7
5
11
7
4
8
5
2
4
4
3
1
4
3
4
1
1
4
1
4
4
4
4
6
3
4
4
3
7
2
4
7
4
1
7
6
2
5
4
1
3
4
2
4
4
3
5
6
2
5
4
0
5
4
1
4
4
2
4
4
3
6
4
6
4
2
4
4
4
4
7
2
4
7
4
1
7
4
4
8
4
3
8
8
0
7
4
3
6
1
4
4
4
1
4
4
0
4
4
4
4
3
4
4
2
2
4
4
6
4
6
6
2
4
2
4
3
4
7
5
5
7
5
4
5
3
3
5
4
2
4
5
4
2
2
2
0
3
1
3
6
4
4
4
4
4
4
1
4
4
0
4
0
0
4
4
0
2
4
0
4
0
1
3
0
4
1
1
3
4
4
4
4
3
4
1
0
0
0
4
1
1
4
2
5
0
3
7
2
2
5
4
3
4
3
4
4
4
2
7
7
4
7
4
3
5
3
2
8
5
2
9
5
2
8
7
2
7
5
0
6
2
1
5
4
2
5
6
3
6
5
3
5
5
4
7
4
4
6
3
3
4
4
4
5
6
5
8
8
8
9
8
7
5
5
4
4
5
4
4
8
4
2
7
2
1
3
2
2
0
0
5
5
3
7
7
4
8
5
3
7
4
1
7
4
4
5
4
5
5
4
5
8
6
6
8
11
7
8
9
5
5
5
3
4
7
4
5
8
5
5
8
7
6
7
7
4
5
3
5
2
3
7
5
4
5
7
1
3
4
1
0
2
5
1
4
8
8
5
7
11
10
5
5
10
4
5
4
5
8
5
8
7
10
8
7
10
5
12
10
5
14
11
8
12
11
11
13
13
14
14
14
14
13
16
17
11
18
17
11
14
12
9
12
13
7
12
10
7
9
7
8
9
8
7
9
4
5
7
3
8
7
7
8
8
10
5
8
7
4
7
2
4
7
3
4
8
4
7
8
4
8
8
4
7
7
4
5
5
4
5
5
5
7
7
7
8
7
8
7
6
7
5
6
7
4
7
5
4
4
5
0
1
1
4
0
2
4
0
0
3
0
0
1
1
1
0
2
2
0
1
1
1
3
3
3
3
3
4
5
5
5
7
8
7
8
9
9
8
11
10
8
12
9
8
12
8
8
12
9
9
12
11
11
13
12
13
15
11
14
16
10
13
16
11
13
16
12
15
16
13
16
16
13
16
17
14
15
19
13
14
19
13
16
18
15
19
19
16
20
20
16
19
20
15
16
20
12
13
20
10
13
20
12
15
21
15
17
23
16
19
24
16
20
25
16
20
27
16
20
28
16
20
28
16
20
27
16
20
26
17
19
26
19
18
25
20
19
24
19
21
25
18
23
27
19
25
29
21
27
32
24
31
36
27
37
40
30
45
43
33
49
45
32
49
45
29
46
42
29
44
41
31
43
43
32
42
45
32
44
46
32
47
45
32
49
44
33
51
44
35
54
45
38
60
50
44
68
60
50
74
69
52
77
72
52
78
71
51
75
68
47
68
64
42
62
59
39
58
54
36
53
51
33
48
47
31
44
41
28
41
37
26
40
37
28
40
39
31
39
40
32
37
40
31
35
39
28
32
36
24
28
32
22
25
29
22
24
28
21
24
27
20
23
26
20
21
27
19
20
27
17
20
25
16
20
24
16
20
24
16
20
24
15
20
24
13
19
23
12
17
21
13
16
20
15
17
21
16
19
22
15
19
21
13
17
20
12
16
21
12
16
23
12
16
23
12
16
21
12
15
19
12
13
19
12
13
21
12
14
20
12
13
18
12
12
19
12
14
21
13
18
23
15
19
24
16
18
24
15
19
24
14
19
23
14
18
22
13
19
23
12
19
23
13
19
23
15
22
25
16
24
26
16
25
27
16
27
28
16
27
28
16
25
27
15
23
24
13
21
20
12
19
17
13
18
17
15
20
21
17
24
27
19
28
32
21
31
36
22
31
34
20
27
28
16
22
24
13
17
23
11
14
21
10
16
20
11
18
19
13
18
17
14
18
17
14
18
19
15
19
20
16
20
20
16
19
20
15
18
22
13
18
25
12
17
24
11
15
21
9
13
19
8
11
16
8
10
14
8
10
15
8
9
15
7
8
12
5
7
8
3
4
5
3
1
5
2
1
7
1
4
10
3
4
14
3
4
15
4
4
11
2
2
7
3
5
6
3
4
5
2
3
6
4
5
7
5
7
8
5
10
12
8
13
15
8
15
16
8
23
21
11
31
27
9
29
28
8
27
27
8
25
25
7
22
22
4
17
19
1
9
12
0
5
9
1
7
8
4
11
11
10
14
15
12
18
21
10
20
23
10
18
21
15
24
25
19
30
31
20
32
34
21
33
33
23
35
34
24
37
40
23
39
44
21
39
41
20
36
37
20
34
36
21
37
39
21
40
43
16
34
37
8
22
20
3
10
5
4
2
5
6
14
15
10
24
24
12
29
30
12
29
31
13
26
28
14
24
27
14
22
28
12
16
18
8
11
10
5
10
10
5
10
10
5
7
10
8
9
11
12
15
16
17
22
23
20
27
30
255
255
255
255
255
255
31
34
15
26
32
13
26
34
13
30
36
16
33
36
19
34
36
21
34
36
23
35
37
23
35
38
21
34
37
19
34
35
16
32
33
13
28
32
12
25
30
12
24
26
12
24
24
12
22
23
12
19
20
11
17
16
8
13
12
5
9
9
4
7
7
4
5
5
4
4
4
4
7
7
4
4
7
4
0
5
2
3
4
3
4
1
5
2
4
4
4
5
3
5
4
4
5
5
3
5
4
2
5
2
4
7
4
2
8
6
1
4
4
2
3
5
2
5
4
4
5
5
1
6
4
0
5
4
0
5
4
3
5
4
4
5
4
4
4
2
4
4
4
5
7
3
4
7
4
2
7
3
4
8
4
2
8
7
1
7
4
4
5
1
3
4
4
0
4
4
1
4
4
4
4
4
4
4
3
4
4
4
4
3
5
5
3
4
3
5
4
4
5
6
6
6
4
4
4
2
1
2
4
3
4
6
5
3
3
4
0
2
1
4
5
1
5
4
4
4
4
4
3
4
4
4
0
3
4
4
1
3
4
0
5
0
1
4
0
4
4
2
3
4
4
3
1
2
4
0
1
4
1
4
3
4
3
3
7
0
4
7
3
2
6
4
2
5
3
4
5
4
2
5
6
4
7
4
4
7
4
1
7
6
3
7
4
3
7
6
1
7
5
0
4
4
0
4
5
2
5
5
4
5
6
4
6
4
3
7
1
3
7
3
4
4
4
4
5
5
4
8
7
7
8
7
7
5
5
3
2
3
1
3
5
4
3
6
4
4
4
2
5
4
4
7
7
4
8
5
4
7
5
4
6
6
5
7
7
8
7
7
8
8
7
10
9
9
8
5
10
5
4
5
3
4
2
1
2
1
2
4
5
3
6
7
6
5
7
8
4
7
5
5
3
4
7
3
4
7
6
3
5
5
5
1
5
8
5
5
7
10
8
5
10
12
5
7
10
7
7
7
8
10
9
8
11
12
8
14
11
7
17
12
8
14
15
14
12
14
18
12
13
17
11
12
14
10
15
15
8
14
11
5
5
5
4
5
8
8
9
7
12
13
8
16
16
10
17
18
8
18
18
8
18
18
8
18
19
12
17
21
14
16
20
12
16
20
12
16
19
12
16
17
11
15
15
9
13
14
7
13
15
6
15
16
7
15
17
9
14
19
12
15
19
14
15
17
13
12
15
13
10
13
16
10
12
17
9
11
14
8
9
11
8
8
9
8
9
9
8
10
10
8
9
10
8
8
10
8
9
9
9
12
9
11
15
13
12
16
17
13
17
17
16
19
17
19
19
19
19
17
19
17
17
18
16
19
18
16
20
17
16
19
17
16
18
19
16
19
20
17
20
20
20
21
20
22
23
21
21
23
23
21
22
25
23
23
27
24
24
28
24
24
27
24
24
25
23
24
24
21
23
23
21
23
23
23
26
26
24
28
29
24
28
31
25
29
32
27
31
32
28
31
32
27
29
30
25
28
27
24
28
27
23
27
29
21
25
31
20
24
31
20
25
30
21
27
31
23
28
32
24
29
33
25
31
35
28
32
36
30
32
35
29
31
33
27
28
31
25
25
29
23
24
28
21
24
28
21
24
30
23
25
33
24
27
33
25
30
32
27
35
33
30
40
35
34
43
38
37
45
43
39
46
46
38
44
43
33
39
36
28
33
30
24
28
28
21
26
28
19
25
26
16
21
22
13
17
20
11
15
20
8
12
18
7
11
15
8
8
13
8
8
11
8
9
9
8
11
8
8
11
8
8
9
8
8
9
9
9
12
12
11
15
15
12
14
16
12
12
17
12
14
19
12
16
20
12
16
21
12
16
23
12
16
23
11
15
20
10
13
16
8
11
13
6
8
10
2
4
6
2
5
5
1
7
8
3
11
11
4
12
12
4
12
12
5
11
12
7
11
12
8
13
12
8
13
12
8
12
13
8
11
14
8
9
13
8
9
12
9
11
13
11
12
15
12
14
18
12
17
21
12
16
20
11
13
17
10
13
17
12
16
20
14
18
23
12
18
25
10
18
25
11
17
23
12
16
21
10
14
16
5
9
9
1
3
5
0
2
4
0
4
4
1
4
4
2
3
5
0
1
7
3
4
10
4
8
14
5
10
16
5
7
11
1
5
8
0
2
6
0
3
7
2
2
8
0
2
8
2
4
8
1
4
7
3
1
6
4
3
8
4
4
8
4
2
6
6
4
4
5
5
5
4
4
4
5
6
2
7
8
5
9
10
8
12
14
11
15
17
14
17
20
19
19
22
22
20
22
21
21
25
20
24
31
21
26
35
24
25
36
28
23
34
28
21
30
23
20
27
20
20
26
20
20
27
20
19
27
20
17
24
19
15
19
15
12
12
9
7
5
3
2
0
4
3
5
8
7
9
9
5
6
7
4
10
11
3
8
11
1
4
9
1
6
8
1
6
7
2
1
4
1
2
1
0
1
2
3
11
11
8
16
17
14
19
21
11
18
22
5
15
17
7
14
13
8
12
16
6
10
17
6
10
16
6
11
13
8
14
16
11
17
22
12
19
23
13
21
24
15
24
30
17
29
37
20
35
44
23
41
51
25
46
55
24
46
53
18
38
41
11
27
26
5
14
12
4
7
7
7
16
15
9
24
22
12
29
26
16
32
28
17
32
34
18
27
28
17
21
20
11
18
17
8
14
13
5
7
10
4
5
8
6
9
10
4
7
5
2
2
8
255
255
255
255
255
255
42
35
26
37
29
25
33
25
24
33
24
24
35
25
24
36
27
23
36
29
20
36
30
18
34
28
18
29
25
17
26
24
16
26
23
15
24
20
13
20
17
12
17
16
12
14
15
12
11
12
12
10
10
11
10
10
10
11
8
5
9
5
4
6
3
3
1
1
1
4
3
3
6
5
4
4
5
4
2
5
2
4
4
1
4
3
6
4
4
6
5
6
2
5
4
2
4
4
2
4
4
2
4
1
3
5
4
2
8
7
1
5
4
0
4
5
3
6
4
4
4
3
4
5
4
3
7
5
1
4
4
4
4
4
4
4
4
2
4
3
4
5
4
6
5
3
4
8
4
1
8
2
4
8
4
3
9
5
3
7
4
4
5
4
1
5
4
1
4
3
4
3
4
4
4
4
4
4
4
4
4
4
2
2
4
4
4
4
3
7
3
4
4
5
5
5
5
4
4
3
3
0
4
1
4
5
3
4
4
4
1
3
4
4
4
1
5
4
1
4
3
3
3
4
3
4
1
3
3
4
2
4
4
0
6
0
3
3
0
3
2
2
1
1
4
2
0
2
3
0
2
3
3
4
3
5
2
3
5
1
4
6
4
3
4
3
2
4
2
4
5
4
2
5
6
4
7
5
4
7
4
0
7
5
3
7
4
4
7
6
3
5
6
1
2
4
0
4
5
2
5
4
4
5
5
3
5
4
3
7
1
4
5
4
4
2
4
4
5
4
4
8
5
7
7
6
8
6
7
4
4
7
1
4
7
2
5
7
3
5
7
5
5
5
4
7
5
1
5
3
3
1
3
4
3
4
5
4
4
7
4
4
5
6
5
7
5
8
5
2
5
3
1
1
2
4
3
4
3
4
5
4
4
6
6
6
7
4
6
8
2
7
7
4
4
5
5
2
5
8
7
5
7
6
7
3
5
7
7
8
5
8
11
4
7
10
4
4
4
6
5
6
5
11
8
6
11
10
8
11
9
6
10
10
7
8
11
13
5
7
11
3
5
7
8
8
10
10
11
11
10
11
5
15
15
5
19
17
8
20
19
10
20
20
10
21
21
11
23
23
10
23
24
12
21
23
12
20
21
13
20
21
16
20
20
16
20
20
16
18
19
15
15
16
13
15
13
12
16
13
12
16
15
12
16
16
12
16
17
12
15
18
12
14
17
11
14
15
10
13
15
8
13
15
9
15
16
11
15
16
12
14
16
12
14
16
12
13
15
11
12
14
10
11
15
11
10
16
12
11
16
12
13
17
12
15
19
12
16
20
12
16
20
12
16
19
13
15
17
15
13
16
16
11
15
15
9
13
12
8
12
10
8
13
11
8
14
12
8
13
12
9
12
13
11
12
15
12
13
17
13
16
20
15
19
24
16
20
26
16
20
25
16
19
23
16
18
21
16
19
20
17
20
20
18
19
20
18
19
21
19
21
23
20
21
24
20
20
23
19
19
20
17
17
17
16
16
16
16
16
16
16
16
16
16
17
17
16
19
19
15
19
20
14
17
19
13
15
16
10
12
12
8
10
10
8
11
11
8
11
12
7
9
12
5
7
10
4
5
7
4
4
7
4
4
8
4
5
9
4
7
10
4
8
10
4
8
11
6
8
13
9
9
15
9
10
16
7
9
14
4
6
8
0
2
2
5
2
2
6
3
2
6
3
1
7
4
4
7
4
5
4
4
4
1
3
1
0
2
3
0
1
4
0
3
4
3
7
4
5
7
4
7
4
2
8
2
2
8
3
2
8
4
2
7
3
2
5
3
3
5
5
5
3
2
4
1
3
3
3
0
2
3
2
1
1
0
2
2
2
4
2
1
5
1
4
8
4
7
12
7
7
12
4
7
9
4
8
7
3
6
5
2
4
4
2
5
7
1
3
7
2
4
5
1
4
4
0
5
5
2
4
5
2
2
2
0
4
2
0
4
2
0
4
3
1
6
4
3
10
4
4
10
4
4
7
5
5
8
8
7
11
11
8
12
12
8
12
12
9
12
12
10
12
12
9
12
13
8
11
14
7
9
13
4
7
10
1
4
6
3
4
5
4
4
4
4
4
2
5
5
3
7
7
3
8
7
1
8
5
0
8
6
2
8
9
5
8
10
8
8
8
7
8
7
7
7
7
7
6
6
4
7
5
3
8
5
1
7
7
1
6
7
3
8
7
5
10
7
1
10
8
6
11
8
3
13
9
2
14
11
0
13
13
5
13
15
7
16
18
11
20
24
20
24
32
28
28
40
34
31
44
37
32
45
39
32
47
40
32
49
39
32
51
37
31
52
37
29
52
39
28
52
40
28
51
40
28
49
39
27
45
35
23
37
29
18
29
23
15
23
17
13
18
12
11
15
8
8
13
5
5
7
6
4
4
7
3
1
6
6
10
11
6
9
12
2
10
12
4
10
12
3
5
10
3
7
10
3
7
10
4
9
12
5
12
15
7
15
16
7
18
18
11
19
20
13
19
22
8
17
20
8
17
13
13
17
14
12
15
17
9
14
14
8
15
16
9
16
19
11
17
20
12
19
19
13
20
18
15
21
20
16
25
25
17
30
28
19
32
31
21
33
33
25
39
40
32
51
56
39
60
65
37
63
61
33
61
55
29
55
51
26
49
50
19
37
41
8
17
20
2
7
9
10
24
25
14
28
32
18
29
28
17
28
25
14
22
22
11
15
16
8
13
13
13
17
14
17
21
16
17
20
16
255
255
255
255
255
255
36
30
20
38
29
22
35
25
20
29
21
15
25
20
10
25
20
8
26
19
8
25
17
10
25
17
14
25
17
15
21
14
13
16
11
12
15
9
11
13
8
9
10
7
7
7
5
5
7
4
4
5
5
5
5
5
8
7
5
7
5
4
5
4
4
4
5
3
1
4
2
1
3
4
4
4
6
4
6
7
3
4
4
3
4
4
4
4
5
5
4
5
4
4
3
4
2
4
3
4
4
2
4
1
2
4
4
2
7
7
2
7
4
0
4
4
1
5
4
3
5
2
3
4
4
3
7
6
2
4
5
4
4
4
4
5
3
2
4
3
4
6
4
5
5
2
4
8
4
1
8
3
3
7
3
4
9
4
4
6
5
4
5
6
1
4
4
2
1
2
3
1
4
2
4
4
4
4
3
4
4
4
4
3
4
4
4
4
2
8
3
4
4
4
4
4
6
2
4
4
3
0
3
2
4
4
1
4
4
2
2
4
4
4
4
4
3
4
1
4
3
0
5
4
2
4
2
4
2
4
2
4
4
0
5
0
3
4
0
3
3
3
3
0
4
3
0
1
0
1
1
2
4
4
4
6
3
2
4
3
4
5
4
4
5
2
1
4
4
4
5
5
3
7
5
4
8
6
4
7
4
0
7
4
1
7
4
3
7
4
4
4
5
4
3
5
1
4
6
1
4
4
4
5
5
4
5
4
1
5
3
0
4
5
0
5
7
0
9
7
5
11
7
9
8
9
8
7
11
5
5
11
4
5
10
5
7
10
6
7
8
5
7
5
4
5
4
3
3
2
5
0
4
5
3
3
4
4
1
4
4
4
4
5
6
7
5
7
4
4
5
0
3
3
3
4
4
4
4
4
4
5
4
5
6
6
7
4
5
8
2
6
5
3
4
4
4
3
4
8
8
4
7
5
5
5
4
5
8
10
4
8
11
1
7
5
4
6
4
5
7
7
4
12
9
7
15
12
8
17
13
5
17
11
7
14
11
13
15
12
12
20
16
18
23
20
21
25
24
21
27
26
19
26
24
19
22
21
17
19
20
15
17
21
14
17
23
15
18
23
16
18
22
16
18
20
16
17
18
16
13
17
16
12
15
12
12
13
10
11
12
10
9
13
10
9
11
11
10
12
12
9
11
12
8
10
11
9
9
9
11
8
8
11
9
9
10
12
12
12
16
12
15
18
12
16
17
12
16
17
12
16
19
13
15
19
14
13
16
12
12
13
9
13
14
8
15
18
9
16
19
12
16
17
15
16
16
15
15
15
11
12
12
6
9
8
4
8
8
5
9
10
8
11
12
11
12
12
12
11
11
11
8
10
9
5
10
8
1
8
7
2
5
6
0
4
7
3
4
8
3
5
8
4
6
8
4
5
7
3
4
5
2
4
5
3
4
7
5
4
8
7
5
9
7
6
10
5
5
10
4
4
9
4
4
6
3
3
4
2
2
4
4
4
4
3
1
4
1
0
4
1
0
4
2
2
4
1
2
3
2
2
2
2
2
4
2
2
5
2
2
4
0
0
1
0
1
1
0
3
3
0
4
4
1
3
4
3
1
4
4
0
4
4
0
4
3
1
4
1
3
3
0
4
2
0
4
3
2
3
5
0
1
6
1
0
5
4
1
4
7
4
6
9
4
4
11
4
3
9
5
1
8
3
2
6
0
3
1
4
4
3
5
5
3
6
6
1
4
5
0
2
4
0
3
5
1
2
5
3
2
2
4
5
3
4
4
3
4
5
4
6
7
2
10
8
1
12
9
4
13
12
7
17
17
12
23
22
16
27
26
21
28
29
25
27
28
23
23
23
17
17
17
13
12
12
10
9
8
6
8
7
7
5
5
4
4
2
2
3
4
4
2
2
3
6
7
4
7
8
4
5
8
4
4
8
5
6
8
8
12
13
12
16
17
15
18
19
18
17
17
16
15
15
12
11
12
8
6
8
6
2
3
5
2
4
6
5
5
8
6
5
8
5
7
8
5
9
10
7
11
14
8
12
16
9
13
16
12
15
16
14
16
17
13
16
18
11
16
18
10
17
19
11
16
20
11
16
19
9
16
17
7
15
15
6
12
13
7
10
13
7
11
15
5
11
15
5
10
14
7
8
12
7
10
12
6
9
12
5
6
8
4
4
5
4
5
4
5
7
7
7
8
10
10
9
13
11
11
13
10
12
9
7
11
7
8
10
8
10
11
11
8
10
10
5
7
5
9
12
11
14
18
22
18
28
25
19
34
25
18
36
27
18
38
27
17
38
26
16
38
27
15
35
27
13
31
24
11
27
20
9
25
16
9
24
15
11
23
16
12
21
13
11
18
8
8
13
5
5
8
5
1
5
1
4
8
4
9
15
14
11
15
21
13
20
25
16
24
28
21
30
33
26
38
38
28
44
41
28
47
43
28
47
44
27
44
44
26
42
45
27
44
47
29
49
50
33
53
53
38
53
52
40
52
50
38
50
48
37
49
45
38
46
44
36
43
42
33
43
38
33
45
36
35
47
38
36
48
43
37
49
46
39
51
46
41
53
49
42
55
52
42
55
49
42
52
45
41
50
44
42
52
46
46
58
51
50
66
58
55
73
68
61
78
76
63
86
82
64
94
87
64
99
92
62
98
92
55
86
81
37
60
51
15
24
16
4
8
16
9
15
20
11
22
21
13
23
25
15
21
23
14
20
19
13
18
16
10
11
11
14
18
15
255
255
255
255
255
255
17
17
8
19
18
8
19
17
7
16
15
5
13
14
4
11
14
4
9
12
4
8
10
4
9
8
5
10
7
7
10
5
7
8
4
6
7
4
7
7
3
7
5
4
5
5
3
4
7
1
1
5
4
4
5
4
6
6
4
4
3
3
3
4
4
4
6
4
3
4
2
0
3
4
4
4
6
4
7
8
4
5
5
4
5
4
2
5
6
4
4
4
3
4
2
4
4
4
3
4
3
2
4
3
3
4
4
2
5
5
1
8
4
0
4
4
0
4
4
1
7
3
4
5
5
4
5
5
1
3
5
3
4
4
4
7
2
2
4
2
4
5
4
4
7
2
4
8
4
3
8
4
1
6
1
4
6
4
4
6
6
4
6
5
4
4
5
2
1
3
3
0
4
4
4
4
4
4
1
2
4
4
4
4
4
4
4
4
4
8
6
5
4
5
5
4
4
4
4
4
4
0
2
2
3
4
1
4
5
2
2
5
1
4
5
4
4
5
3
5
5
0
6
4
1
4
2
4
2
3
2
4
4
2
4
1
2
4
0
2
4
3
2
0
4
4
0
1
1
3
0
2
4
4
4
5
4
2
4
3
3
4
4
4
7
4
1
4
4
3
4
3
4
6
4
4
5
5
4
5
4
1
7
5
0
5
4
0
5
2
1
4
4
4
4
6
4
5
6
1
5
5
1
7
6
4
5
4
3
7
5
1
8
8
3
10
9
4
11
10
8
11
12
13
8
14
11
8
13
8
8
11
7
8
10
7
8
8
7
7
8
8
5
7
8
3
5
8
2
5
8
3
7
8
3
5
7
3
5
6
4
7
7
4
7
8
3
5
7
2
3
7
3
3
8
4
4
8
4
4
7
6
6
7
5
5
5
4
5
5
3
6
4
2
4
5
4
4
5
7
7
5
5
4
7
5
4
4
8
9
1
8
9
1
5
5
4
4
4
4
5
4
5
8
5
7
13
11
7
17
15
4
21
17
4
21
14
10
20
13
7
20
15
6
21
17
12
23
18
19
22
17
22
18
16
21
15
15
19
12
14
18
10
14
15
11
13
13
11
13
12
10
14
12
10
14
12
14
16
12
13
17
14
10
16
13
8
12
12
9
10
12
10
13
12
9
11
9
7
9
8
5
8
7
4
8
5
5
8
6
8
9
10
11
11
13
13
14
16
15
18
19
16
19
19
16
17
17
17
16
16
17
16
15
14
15
13
12
13
12
12
12
11
13
12
9
14
12
9
13
12
11
11
11
11
8
8
9
5
5
8
4
4
8
3
5
8
7
8
8
11
11
8
11
12
9
9
11
11
8
9
11
10
7
9
9
7
7
5
7
5
0
4
4
2
2
3
2
3
0
3
4
3
4
4
4
5
5
4
6
7
3
5
6
2
4
2
1
2
1
3
3
3
3
4
4
1
5
5
3
7
7
3
9
8
5
11
8
7
11
8
7
9
8
5
8
8
4
8
8
1
8
8
0
9
8
1
11
9
4
10
9
3
6
6
1
4
4
3
4
4
4
4
4
4
5
4
4
7
4
3
7
4
2
5
4
3
4
4
3
4
4
1
4
3
0
4
3
2
3
2
1
0
0
3
0
0
4
1
0
4
2
0
1
2
1
4
4
4
4
4
4
6
4
1
6
4
2
8
3
2
8
5
6
9
7
8
11
8
9
14
8
11
18
8
12
18
8
12
15
7
12
15
5
12
15
4
11
12
3
8
9
1
3
7
0
1
5
0
1
3
3
3
2
4
4
2
5
7
1
9
9
1
14
12
3
17
14
5
16
12
5
16
12
2
15
12
8
13
12
7
12
11
3
13
12
4
14
14
8
13
12
10
12
10
7
10
10
5
7
8
2
7
5
0
8
6
1
9
9
3
11
10
5
12
12
7
13
15
10
17
18
14
18
19
17
18
18
17
16
16
16
12
11
11
13
15
12
12
13
14
2
3
10
2
4
9
7
5
10
4
5
9
5
7
11
8
10
14
11
14
18
13
16
20
14
16
19
13
16
17
13
16
18
16
17
23
19
20
27
21
24
27
22
26
25
20
24
24
17
21
23
15
18
20
12
15
16
9
12
12
8
13
12
9
15
17
12
17
20
15
19
20
17
20
21
17
20
22
15
19
20
15
18
17
17
19
17
19
21
20
20
23
21
22
25
23
24
26
23
22
24
21
20
21
19
20
21
18
19
22
18
14
18
15
13
15
11
12
16
12
13
20
23
15
27
26
14
26
24
11
20
22
7
15
17
2
9
7
3
7
2
2
8
4
4
8
4
3
4
0
3
4
5
0
5
11
0
8
12
0
7
10
2
7
8
6
11
10
6
7
7
3
4
6
7
12
13
17
28
28
21
33
32
24
35
31
28
37
35
32
40
40
36
44
43
39
49
45
41
55
49
43
60
53
44
63
54
45
64
55
47
64
56
48
64
57
48
65
59
49
66
60
49
63
58
45
57
52
41
52
46
39
48
43
36
44
41
33
41
40
32
40
40
33
40
40
34
40
39
33
39
36
32
38
33
32
40
34
32
42
36
32
40
34
31
37
32
30
37
36
32
40
41
35
43
44
36
45
45
38
49
49
43
56
56
49
64
64
54
71
70
56
76
72
59
84
76
68
95
88
68
97
91
52
77
73
31
50
49
19
32
32
13
21
20
8
17
16
12
18
20
16
20
22
16
22
21
13
18
17
9
14
17
255
255
255
255
255
255
5
5
5
5
5
4
5
7
4
5
5
4
5
2
3
2
3
4
4
7
4
5
7
1
2
3
0
5
4
2
8
4
4
7
3
2
5
4
2
4
1
4
4
4
3
5
4
4
7
1
4
6
4
4
7
3
6
7
4
4
4
4
2
5
4
4
7
4
3
5
2
1
5
5
4
4
6
3
5
6
4
7
7
4
7
5
3
5
5
4
4
4
4
5
2
4
4
4
1
2
3
2
4
4
3
4
3
2
4
4
1
7
4
1
5
4
2
4
4
1
7
4
3
7
6
2
4
4
1
2
3
1
5
4
4
7
3
3
4
3
4
5
4
4
7
1
3
7
4
4
8
4
1
7
0
4
4
4
4
5
5
1
5
4
4
4
7
4
3
4
1
0
3
3
4
4
4
4
1
3
4
4
4
4
4
2
4
2
1
8
7
4
4
6
4
4
2
4
4
4
5
0
3
4
2
1
3
4
4
2
2
4
1
2
4
4
4
6
2
6
5
2
6
5
1
4
4
3
2
2
3
3
4
4
4
4
4
4
1
1
4
1
1
1
4
4
1
4
4
4
1
3
4
4
3
4
4
2
4
2
2
4
4
4
7
5
3
4
4
1
4
2
4
6
4
5
4
4
5
7
5
4
8
7
1
4
4
0
5
5
0
5
7
1
5
7
4
8
8
4
8
8
1
7
7
4
7
7
4
9
11
3
11
14
5
10
13
8
10
13
12
11
14
14
10
14
9
10
13
7
10
12
8
10
10
12
10
10
12
10
11
13
9
12
14
8
13
13
9
14
12
11
14
13
14
16
16
17
20
19
18
22
21
18
22
24
17
22
24
16
21
24
15
19
23
13
17
21
11
15
18
8
12
13
5
9
9
4
8
7
4
7
7
4
5
8
4
4
5
4
5
5
4
4
5
5
4
1
7
7
1
7
7
4
5
5
4
4
4
4
5
4
6
7
4
5
8
7
5
10
10
4
14
16
5
16
17
8
15
13
9
11
11
6
7
9
6
7
8
9
8
8
9
8
8
9
8
8
12
10
5
14
8
4
13
5
5
11
5
7
8
7
8
7
5
8
7
10
12
7
12
14
9
11
14
10
10
15
11
10
16
12
10
17
13
9
15
11
8
14
9
8
14
8
8
13
9
8
12
11
8
12
12
9
12
12
11
12
12
12
12
11
12
13
10
12
15
12
12
16
14
12
15
13
12
14
12
12
15
12
12
16
12
11
14
12
9
10
12
7
8
11
5
8
9
4
8
8
5
9
10
7
11
14
8
13
16
8
14
15
8
13
13
8
11
12
8
9
12
8
9
12
10
10
12
11
9
10
9
8
8
5
8
7
1
7
7
2
4
5
4
3
3
6
4
1
8
5
1
6
3
3
4
3
4
4
2
4
2
2
4
4
2
4
4
0
4
3
1
4
1
3
5
2
4
7
2
3
7
2
4
5
2
4
5
0
4
6
0
4
5
2
3
4
4
2
4
2
4
5
3
4
8
4
4
11
4
4
11
4
4
10
4
5
11
4
6
12
4
5
12
4
5
12
5
7
12
6
8
11
5
8
9
4
8
8
4
7
8
3
5
8
0
4
8
0
4
8
0
3
6
0
1
4
2
2
4
3
2
6
3
6
11
5
8
15
7
9
16
8
11
16
8
11
15
7
9
13
5
8
12
4
7
12
5
6
12
7
7
12
8
8
12
8
8
12
8
9
13
7
10
15
5
9
14
1
7
11
0
6
10
3
7
11
4
8
13
4
8
14
4
8
15
7
10
17
12
15
20
15
20
24
16
22
26
15
20
23
12
16
17
8
12
13
4
8
11
2
5
10
3
5
12
4
6
14
4
6
12
4
7
10
5
8
10
7
8
10
7
8
12
5
8
14
4
8
14
5
8
15
10
11
20
11
14
23
8
12
20
10
14
21
12
18
22
17
21
25
12
14
21
2
5
15
2
4
14
7
5
12
3
5
10
3
4
10
4
4
8
4
4
5
3
3
3
3
4
4
2
2
2
1
0
2
2
2
2
2
1
1
2
2
3
4
5
6
7
7
7
8
10
7
9
14
7
10
13
7
8
9
4
7
8
5
5
7
8
7
9
8
7
8
7
7
9
9
5
8
10
7
9
11
8
11
13
8
12
16
11
12
19
11
12
16
12
12
13
11
11
13
10
9
14
8
8
12
7
8
9
5
7
6
12
15
14
17
20
17
11
14
8
6
7
10
10
19
20
14
28
26
14
28
29
13
30
31
7
27
27
1
17
20
2
9
15
3
6
13
2
9
15
3
11
15
0
13
15
0
13
15
0
10
13
4
13
12
8
14
13
5
10
13
5
15
18
14
29
30
24
39
41
25
36
37
21
28
27
21
27
25
22
29
27
23
30
28
24
31
29
26
34
32
30
38
35
32
40
36
32
40
35
31
39
33
28
35
30
23
31
25
17
26
20
13
21
17
11
16
15
8
12
12
5
9
9
4
8
9
4
8
11
3
7
9
4
5
8
4
4
7
3
3
5
1
3
3
1
2
3
3
1
1
5
3
2
6
4
8
5
5
12
7
8
9
5
8
5
4
6
4
3
4
4
3
4
5
3
7
8
4
8
12
7
9
14
10
15
15
19
31
31
39
58
54
49
73
69
46
71
65
36
56
50
22
37
35
13
22
22
9
18
19
14
19
22
16
21
21
16
21
21
13
17
20
255
255
255
255
255
255
5
4
6
4
1
4
4
4
4
4
6
4
6
3
0
2
1
1
4
5
4
7
7
3
4
4
0
7
5
2
8
4
4
7
2
2
7
4
2
5
3
4
5
4
2
7
3
4
7
3
7
5
4
4
7
2
5
7
4
4
4
3
3
5
4
4
5
4
1
4
3
2
4
7
4
2
5
3
4
3
4
7
7
3
8
6
4
5
5
5
4
4
4
4
1
3
2
4
0
4
5
2
5
4
1
5
2
3
5
4
4
5
4
3
6
4
1
5
4
2
5
4
0
7
5
2
5
4
3
4
3
0
7
4
4
7
4
4
5
4
3
7
4
4
7
0
3
7
4
4
8
4
2
7
0
4
4
4
4
4
5
0
4
4
1
4
7
4
3
4
3
1
1
1
4
4
4
3
3
4
4
4
4
4
4
4
4
3
1
8
5
4
5
5
4
4
3
1
4
4
4
2
4
5
2
0
5
4
4
4
1
4
3
3
4
3
4
6
3
5
4
4
5
3
4
4
4
4
3
3
3
2
1
2
4
4
4
4
3
4
4
0
1
2
1
1
3
4
4
5
3
4
5
4
3
5
4
4
5
3
3
5
4
4
7
3
4
5
4
0
5
3
2
8
4
4
7
4
4
8
6
4
8
8
2
5
7
0
8
8
0
10
7
0
10
8
2
10
11
4
7
8
3
7
7
4
9
9
4
11
12
5
9
12
8
5
10
10
5
11
11
8
11
10
8
10
7
8
11
7
8
10
8
8
10
11
10
13
13
11
13
14
12
15
13
12
16
12
12
15
12
12
14
13
13
17
12
17
18
12
19
19
14
21
21
18
22
21
18
19
20
17
14
18
15
11
14
12
8
10
9
4
6
7
1
3
4
1
2
1
4
4
4
4
4
5
3
3
2
5
5
4
7
7
4
10
7
4
10
8
4
10
10
5
8
10
4
7
8
4
6
8
5
7
7
5
8
7
5
7
6
5
7
8
7
8
13
9
9
13
10
5
9
9
3
5
7
0
5
5
1
4
4
4
4
3
4
6
5
6
4
8
7
2
8
2
4
9
4
7
10
5
4
5
3
6
6
5
8
8
10
11
10
12
12
11
12
13
11
12
14
10
12
15
12
12
16
14
13
19
13
14
19
12
12
16
12
8
13
11
5
12
9
4
11
7
4
9
6
4
8
6
4
9
6
4
11
7
4
11
8
5
9
9
7
9
10
8
11
9
7
11
9
5
9
11
4
8
11
4
8
9
4
7
9
2
6
10
3
7
9
5
8
8
6
8
8
5
8
8
4
8
8
5
8
8
6
8
8
5
8
9
7
10
10
8
11
11
9
10
11
10
11
9
7
13
8
5
13
8
7
8
7
5
4
5
1
2
5
4
7
7
7
12
9
7
12
10
6
13
9
7
15
9
9
17
11
11
19
13
12
20
14
13
20
14
14
19
15
12
17
15
9
15
13
8
13
12
8
13
12
8
15
12
10
17
13
14
20
16
15
22
18
14
21
18
15
21
18
16
22
17
16
21
16
17
20
16
18
20
17
16
20
18
13
19
18
12
17
19
12
16
20
12
15
20
11
13
19
9
12
17
8
12
15
8
12
13
8
12
12
8
12
13
9
13
15
11
15
17
12
16
18
12
15
17
12
13
15
11
11
13
9
9
12
7
8
12
5
8
11
4
8
9
4
8
9
3
7
10
2
6
9
3
6
8
3
5
8
4
5
8
5
5
8
4
6
9
1
5
12
1
5
14
3
7
14
4
8
15
5
8
16
7
9
15
9
11
14
10
12
15
9
12
16
7
11
15
4
8
12
1
5
9
2
6
10
7
12
17
12
17
24
14
18
25
12
17
23
10
15
21
11
15
21
13
17
23
15
18
24
16
18
25
16
19
26
17
21
26
19
24
29
22
28
36
22
30
39
21
29
38
19
25
32
15
16
24
7
7
14
2
2
10
2
2
9
3
3
6
7
3
2
13
10
4
19
17
9
22
21
13
21
21
13
19
19
12
17
17
10
17
16
13
19
17
17
21
20
17
24
24
16
27
29
18
29
32
22
27
32
23
23
27
18
16
17
9
9
10
2
5
5
8
7
7
12
7
12
11
7
10
8
8
7
10
4
3
5
1
2
2
1
4
5
4
5
8
6
4
7
2
1
2
2
0
4
2
4
4
6
4
4
3
1
4
4
4
1
11
11
4
19
20
17
18
22
19
13
15
7
11
13
5
9
10
2
11
16
8
13
13
8
8
13
12
7
17
20
5
20
22
6
22
25
10
29
30
10
30
30
6
24
25
4
17
19
4
13
17
5
13
16
8
14
16
7
8
12
1
5
10
8
20
19
21
34
33
26
36
36
23
31
30
16
27
23
14
25
20
13
20
17
9
17
13
8
15
12
8
13
13
8
11
12
7
8
11
4
5
8
1
3
4
1
2
2
3
5
3
6
8
5
10
11
8
12
13
11
13
15
11
15
15
9
16
13
9
16
12
12
16
13
15
17
16
17
19
19
18
20
20
17
21
21
16
23
24
17
24
27
18
24
27
17
24
25
19
24
24
22
24
25
26
24
27
28
24
27
27
24
25
24
23
24
20
21
23
17
20
22
16
19
22
16
17
20
14
13
13
7
11
14
14
21
28
32
33
45
49
39
52
54
34
48
48
25
37
37
19
28
29
15
23
24
17
22
25
17
21
28
14
17
24
255
255
255
255
255
255
7
4
6
4
0
4
4
4
3
5
5
4
7
4
1
5
3
0
7
4
4
10
6
4
7
4
0
8
6
2
8
4
4
7
3
3
7
4
2
5
4
3
5
4
2
5
2
4
6
4
7
5
3
4
5
3
5
7
4
4
5
1
3
4
4
4
4
4
1
4
4
1
3
8
4
3
5
5
5
4
3
5
5
2
7
5
5
7
6
6
4
4
4
1
0
2
3
4
0
5
5
1
5
4
2
5
4
2
5
4
4
5
3
4
7
4
2
8
5
2
7
4
3
7
4
3
7
4
3
5
4
1
7
4
5
7
3
5
5
3
3
7
4
3
7
1
5
7
3
4
8
4
1
7
1
4
5
4
4
4
7
0
4
4
0
4
5
4
1
4
4
3
0
0
5
4
4
4
4
4
4
4
1
4
4
4
4
4
4
7
4
5
7
4
4
4
5
0
4
4
1
3
4
4
3
3
5
3
4
5
1
4
5
4
4
4
4
6
4
4
4
4
4
2
4
4
4
4
4
3
4
4
1
1
5
4
2
5
3
4
5
1
2
4
3
0
5
4
4
7
3
4
5
4
0
7
4
4
7
4
5
7
5
4
8
4
3
7
5
1
8
7
4
11
7
4
10
7
4
10
8
4
9
8
1
7
8
0
8
7
0
10
7
1
8
9
4
7
9
5
7
7
5
9
8
5
11
11
8
9
11
11
5
10
11
1
7
9
4
7
5
8
7
5
7
6
6
6
7
5
4
4
5
4
5
8
7
7
8
4
5
5
0
4
4
0
2
4
4
2
5
4
4
7
4
7
8
8
8
10
8
9
12
8
8
15
7
6
13
5
6
10
4
7
11
5
8
12
7
8
11
8
8
9
8
8
8
8
8
8
8
8
9
8
8
10
7
8
9
5
8
8
5
8
7
8
8
5
9
8
5
8
8
7
7
8
7
7
8
5
6
5
5
5
5
5
7
5
5
7
3
4
3
3
5
3
4
6
4
7
7
7
7
7
4
5
5
0
5
7
2
4
5
8
5
2
10
7
5
11
5
7
10
4
5
5
4
5
4
6
8
3
3
7
0
4
6
1
5
7
4
7
9
8
10
11
11
11
12
12
10
12
12
10
12
12
10
12
11
9
12
9
8
11
8
10
9
5
8
7
3
7
5
1
5
4
0
1
1
0
2
1
1
0
2
3
0
1
4
2
1
4
3
3
3
2
5
1
1
5
2
2
4
2
3
4
0
3
3
2
3
1
4
3
1
2
2
3
0
0
4
0
0
1
0
0
0
0
0
0
0
0
0
0
1
1
3
4
3
4
4
5
4
7
7
5
8
8
7
8
10
8
10
12
11
12
12
12
16
12
12
17
10
12
15
9
14
19
12
17
22
16
17
21
19
15
20
20
15
20
19
18
21
17
19
22
16
16
20
15
13
17
12
11
15
9
8
13
8
8
13
8
5
10
8
6
9
9
10
12
12
14
16
15
18
19
16
20
21
16
19
23
15
17
23
13
16
21
12
15
20
12
13
19
12
12
18
12
12
19
12
12
19
12
11
17
11
11
16
11
14
17
14
16
19
16
16
20
16
16
20
16
16
20
16
16
20
16
15
20
17
13
20
18
11
19
17
9
15
15
8
10
13
8
8
12
8
9
12
8
10
11
8
9
10
8
8
11
8
9
13
8
12
15
8
15
16
8
16
16
8
15
16
7
12
15
5
9
13
5
9
12
5
11
13
7
12
14
8
12
14
8
12
14
8
12
13
8
12
12
8
11
13
7
9
14
5
8
14
4
8
15
4
8
16
4
8
15
4
8
14
4
8
14
5
8
13
8
11
14
8
12
15
8
12
16
7
11
16
6
10
16
7
11
17
8
11
18
8
9
15
7
8
11
7
8
11
6
8
13
7
9
15
8
12
17
9
13
18
6
9
17
4
4
13
4
0
5
10
4
2
13
8
5
15
12
8
18
16
11
23
20
13
29
25
16
31
28
17
32
30
15
31
29
13
29
27
11
28
26
10
28
27
12
27
26
13
24
22
10
21
20
8
21
22
12
20
21
15
15
14
7
7
4
5
6
10
13
8
14
16
10
14
19
9
14
17
5
11
12
5
8
10
8
5
9
4
1
6
0
2
6
2
4
7
2
5
4
7
7
2
11
8
4
12
8
4
11
7
4
11
7
3
12
10
5
16
17
7
20
21
8
17
16
12
14
18
16
10
15
13
8
5
2
11
13
1
13
18
9
12
14
7
6
8
1
1
5
7
4
12
14
7
21
22
8
26
25
8
25
22
8
22
20
7
16
19
5
10
15
5
11
13
7
10
12
2
5
8
1
5
7
13
29
24
26
39
34
24
29
24
18
21
18
10
16
14
6
8
8
5
6
5
7
8
3
8
8
5
9
9
8
11
11
8
12
12
8
12
12
8
12
13
8
12
15
8
13
17
8
15
20
9
17
23
12
19
23
15
20
21
16
19
19
15
17
19
14
16
22
15
16
23
16
17
20
16
19
17
15
19
15
13
17
13
11
15
12
9
13
12
7
12
13
6
13
14
10
14
14
12
15
15
12
15
15
13
15
13
13
12
9
8
8
8
5
5
7
4
4
5
4
3
3
6
0
4
10
4
4
14
8
7
18
12
10
22
17
18
28
25
29
37
31
39
45
32
41
48
32
41
47
30
37
43
26
31
39
22
27
37
18
21
28
255
255
255
255
255
255
7
4
6
5
0
4
4
4
2
6
4
4
7
4
3
7
5
1
7
4
4
8
6
3
7
5
1
7
5
2
7
4
3
5
4
4
6
3
3
4
4
2
4
4
2
5
2
4
5
4
5
6
2
4
4
4
6
5
4
4
7
0
1
4
4
4
4
4
3
4
4
0
2
8
4
4
7
5
6
4
3
4
4
4
5
4
7
7
5
5
4
4
4
2
1
3
4
4
0
6
4
0
5
4
0
7
6
0
7
4
3
5
2
4
8
4
2
10
6
4
7
4
2
7
4
2
7
4
1
7
4
3
8
4
6
7
1
3
5
1
1
7
4
2
7
3
5
7
1
4
7
4
0
6
4
4
4
4
4
2
7
0
4
5
0
3
4
4
1
3
4
4
1
0
6
4
4
5
4
4
6
4
0
5
4
1
5
4
4
5
4
6
7
4
4
4
6
1
4
4
0
3
3
1
2
3
4
2
4
5
5
5
5
7
4
4
7
5
4
7
5
3
7
4
3
7
5
2
7
4
4
7
4
2
5
5
3
5
3
4
7
2
1
7
4
1
8
4
4
10
4
3
8
5
1
8
5
4
7
5
6
8
7
4
10
5
2
8
7
4
11
9
4
12
8
1
10
8
3
8
11
4
10
11
1
10
11
1
10
11
3
10
13
4
7
13
5
5
10
7
8
10
8
11
11
10
9
11
14
5
11
13
2
9
8
3
7
7
4
5
4
7
5
4
6
5
4
5
5
4
4
7
7
5
8
10
8
8
10
7
9
11
7
10
11
5
9
9
5
8
9
7
8
10
6
9
9
8
10
8
12
13
11
16
14
14
18
17
16
16
18
16
13
16
16
11
13
14
8
10
11
5
6
9
4
4
7
4
4
6
5
5
6
7
7
7
5
4
8
3
3
8
2
4
7
7
5
3
8
6
0
5
5
4
3
4
5
4
6
4
2
4
4
5
5
4
14
8
5
11
7
6
7
5
5
7
5
3
8
7
5
9
5
4
5
4
4
5
7
6
12
8
6
20
11
6
22
14
8
20
13
5
14
10
3
8
6
3
3
0
6
2
5
12
4
5
12
4
5
9
4
5
8
6
8
7
10
11
6
12
13
7
12
14
8
12
13
8
11
11
8
10
10
8
12
12
8
12
12
8
11
11
7
9
11
7
8
9
6
7
6
6
5
3
6
4
1
5
3
1
4
1
3
4
0
4
5
0
3
7
1
1
7
2
3
5
1
3
4
2
3
3
3
3
3
2
3
3
1
3
5
0
2
4
0
3
5
0
3
6
0
1
6
0
0
7
3
1
8
4
3
8
4
5
8
5
7
8
6
9
9
9
11
11
10
12
12
12
13
13
15
16
13
18
21
16
21
24
18
22
23
17
20
20
16
17
17
16
16
16
16
16
16
15
14
14
13
10
10
11
7
7
9
5
5
8
7
7
8
8
8
9
8
8
11
12
12
12
13
15
13
15
13
15
15
12
16
13
12
15
12
12
12
10
11
9
7
9
9
7
9
11
8
11
12
8
12
12
9
12
12
11
12
11
12
13
9
12
15
8
12
15
8
12
13
8
12
12
8
12
12
8
11
12
8
8
12
8
5
11
7
4
8
5
3
5
4
2
5
4
0
1
4
0
5
5
0
10
8
0
12
10
0
11
9
1
10
8
3
11
8
4
12
8
4
11
8
5
10
9
7
11
11
8
12
12
8
10
13
9
11
15
10
12
16
10
13
16
11
15
15
12
16
14
12
16
15
13
16
16
14
16
16
13
16
16
12
16
15
13
16
14
15
16
15
16
17
16
17
19
16
19
20
17
18
19
18
13
15
15
8
10
10
5
7
8
5
7
8
3
5
7
0
2
4
4
3
2
7
4
2
6
3
2
2
2
3
3
4
4
4
1
4
2
1
5
5
4
3
8
5
1
12
7
3
15
8
4
16
9
4
17
13
5
20
17
9
22
19
10
20
19
10
17
17
10
13
13
5
13
10
2
15
12
4
16
15
7
16
16
7
15
16
5
13
14
1
10
9
4
6
5
1
7
8
8
4
7
12
3
8
17
8
14
19
9
12
14
5
7
10
5
7
7
5
5
4
7
8
7
9
12
10
13
15
10
16
17
10
20
20
11
24
24
15
27
27
18
28
28
17
28
28
17
28
28
18
28
28
17
28
29
17
28
31
17
27
29
14
25
25
12
19
22
11
14
16
8
11
12
11
7
9
7
6
8
5
7
10
10
7
8
7
2
1
2
3
1
4
2
4
7
4
10
10
1
8
8
1
7
9
3
10
10
4
9
8
3
4
4
3
6
5
4
5
2
3
7
9
10
23
20
21
38
32
24
34
28
17
21
14
15
15
13
11
14
12
12
15
7
15
16
6
15
16
5
12
15
4
9
12
5
8
9
7
8
8
5
8
8
4
8
8
4
8
8
4
8
8
4
7
6
3
5
2
2
3
2
4
1
3
6
2
5
7
3
4
7
3
4
8
5
5
9
7
8
12
8
12
15
8
15
16
9
16
17
11
17
18
12
19
18
12
19
19
12
17
21
11
15
23
10
14
23
9
16
22
11
17
24
13
17
26
14
19
24
13
19
20
12
17
18
12
16
19
11
15
19
8
13
16
5
12
13
4
12
11
5
12
10
10
15
13
17
22
22
23
29
33
28
33
39
30
35
40
28
35
38
26
34
32
20
27
22
255
255
255
255
255
255
5
4
5
6
1
4
5
4
4
5
3
4
8
4
3
7
7
3
5
5
4
7
5
1
7
6
2
4
4
2
4
4
2
5
4
4
5
1
4
4
4
2
4
4
2
6
2
4
5
4
5
5
2
4
4
4
5
5
4
4
7
1
0
3
4
4
4
3
4
5
4
1
4
8
4
4
7
3
5
4
0
4
5
4
4
4
8
6
4
4
4
4
4
5
3
4
5
4
0
5
4
0
6
4
0
7
5
0
7
4
1
7
3
4
9
5
4
8
5
4
5
3
3
5
4
0
5
4
0
7
4
3
7
4
5
5
0
4
5
0
3
7
4
3
7
4
4
7
1
3
7
4
0
5
6
4
4
5
4
4
5
0
4
6
1
2
4
4
5
2
3
7
4
0
5
4
4
7
4
4
7
5
1
7
5
3
7
5
5
7
5
7
7
5
5
5
5
4
4
4
1
4
2
1
3
3
2
5
5
3
9
5
4
8
4
2
7
5
1
7
7
2
8
5
4
8
5
4
8
4
5
8
4
4
9
5
4
12
5
4
13
6
3
12
7
4
11
7
5
11
8
4
12
8
5
12
10
7
12
12
7
13
13
5
13
13
4
12
15
4
14
14
1
14
12
1
11
12
2
10
14
4
11
14
4
11
16
5
12
17
7
12
16
8
10
13
10
8
12
13
10
13
13
9
12
13
5
10
12
1
9
7
3
7
3
5
5
4
6
5
4
7
5
4
8
5
3
8
5
2
8
8
5
8
8
8
8
7
5
5
7
4
4
8
5
4
8
4
4
8
5
5
8
7
4
8
6
3
7
7
1
4
5
1
2
4
4
5
5
7
6
6
7
5
5
5
4
4
3
4
4
1
4
3
0
1
1
0
0
0
2
1
2
5
4
2
6
6
4
4
4
6
5
3
7
5
5
4
5
5
6
5
5
7
2
4
7
4
6
7
8
6
7
17
7
6
18
10
7
10
4
8
9
3
6
12
8
4
14
10
6
13
9
4
13
8
4
16
11
6
21
11
6
21
14
9
16
14
8
13
9
2
13
9
4
13
9
3
11
8
4
5
4
5
5
3
10
10
5
12
12
6
11
11
5
8
10
5
5
11
8
5
12
11
7
12
13
8
13
15
8
14
15
8
14
14
8
14
14
9
13
14
10
12
15
11
12
15
13
12
13
13
12
12
11
12
11
9
11
9
8
9
8
8
8
9
9
8
11
11
8
12
12
8
12
11
8
12
10
8
12
11
8
12
11
8
12
9
8
11
9
8
10
11
8
10
12
8
9
12
8
8
12
7
8
11
6
7
9
7
5
8
8
5
8
9
8
9
11
12
10
12
14
9
12
13
9
13
13
12
16
17
16
20
21
18
21
20
16
18
17
12
15
15
9
13
13
8
11
12
8
8
11
8
7
9
8
7
8
8
5
7
8
5
7
8
7
8
9
8
12
11
12
15
12
15
16
13
13
15
14
11
13
13
9
12
12
8
11
12
8
9
12
8
9
11
7
10
10
6
9
11
6
8
12
5
8
11
4
8
9
4
7
8
4
5
8
3
4
7
1
3
5
0
1
4
1
0
4
3
0
4
4
0
4
5
1
4
4
4
4
3
5
5
3
5
5
3
5
6
4
8
6
4
12
7
4
11
8
4
9
9
4
8
10
4
8
9
3
6
6
1
2
2
0
2
0
0
3
0
1
2
0
1
4
1
2
4
4
4
4
7
4
4
7
4
3
5
2
1
4
3
1
4
4
3
5
4
4
7
4
5
7
5
7
5
8
8
4
10
8
5
9
8
4
9
9
6
11
11
9
12
12
10
12
12
10
11
10
8
8
6
5
5
4
4
4
4
4
3
2
2
4
2
1
3
3
2
1
2
1
1
4
3
3
5
4
5
7
4
5
7
4
3
5
5
5
5
4
4
4
4
3
4
5
4
3
5
2
3
4
4
7
5
6
8
8
3
5
8
4
4
7
8
5
8
8
8
10
7
9
7
4
7
4
1
5
4
0
1
1
0
0
1
0
4
2
3
4
4
3
2
2
5
6
5
2
4
6
4
2
7
10
9
3
13
12
4
15
16
8
18
21
13
22
26
17
24
29
18
25
32
20
29
35
23
34
37
25
35
37
26
33
33
25
30
28
22
26
25
18
24
24
15
24
24
13
24
24
12
23
24
12
21
22
10
18
16
6
15
13
7
15
15
10
14
18
9
10
14
4
5
7
4
1
6
7
4
10
11
4
10
15
5
11
15
5
12
13
4
10
11
1
8
8
0
7
7
0
4
9
0
7
8
4
8
6
3
4
2
4
10
11
9
20
19
18
34
29
25
43
38
24
39
32
15
24
18
8
12
10
12
10
8
8
7
9
3
4
6
1
3
4
3
4
5
5
5
7
4
7
8
4
7
8
4
8
8
4
8
8
5
10
9
7
15
11
10
19
13
14
22
16
16
26
20
17
27
24
19
26
27
20
26
28
20
27
29
21
30
32
23
32
36
24
32
38
24
32
36
24
31
33
24
30
32
24
31
32
24
32
33
25
33
35
27
35
35
27
36
33
25
35
31
25
33
29
27
32
29
28
33
29
28
35
28
28
36
28
27
36
28
24
34
26
21
29
22
20
26
20
20
28
20
21
31
21
24
33
24
28
37
27
33
43
30
40
49
35
47
54
40
52
58
44
55
61
46
54
60
43
51
57
39
255
255
255
255
255
255
8
5
4
8
4
4
8
4
5
8
2
4
11
5
2
9
7
3
5
6
4
7
5
1
5
5
1
1
3
3
4
4
3
7
4
3
4
1
4
4
4
2
5
3
2
5
3
4
6
4
6
4
1
4
4
4
4
7
4
4
5
3
0
2
4
4
4
2
4
5
4
2
4
7
4
2
5
2
4
4
1
5
7
4
4
4
7
6
4
4
5
4
3
7
4
4
8
5
4
7
4
3
7
4
1
8
4
0
8
4
1
10
4
4
10
5
5
7
4
4
5
2
2
5
4
0
5
5
0
7
4
2
8
3
4
8
0
5
8
0
4
8
4
3
7
4
3
5
2
2
6
4
1
5
7
4
5
7
4
5
5
0
5
7
3
7
5
4
8
4
1
7
5
0
7
4
3
11
5
4
10
7
4
9
5
3
10
7
4
9
7
6
7
5
4
7
5
4
7
7
3
10
7
3
11
8
4
11
8
4
11
8
5
8
8
4
8
10
4
8
8
4
10
7
7
10
7
7
12
5
5
13
5
5
17
8
7
18
10
8
16
13
8
14
14
8
15
15
8
17
16
8
17
16
8
17
18
10
19
20
10
19
22
9
17
22
7
17
21
5
18
19
5
16
18
7
15
18
9
16
18
10
17
17
10
15
17
12
15
17
13
13
14
14
10
10
12
7
7
11
7
7
8
5
7
7
2
7
5
3
7
1
5
5
1
8
5
4
8
7
3
12
8
2
14
10
1
13
12
4
13
13
9
14
12
11
14
12
10
14
12
11
12
11
11
10
10
9
12
12
10
14
14
10
13
13
10
10
10
9
6
5
6
4
3
3
3
1
1
0
2
0
2
1
0
2
1
2
2
1
0
2
3
2
1
3
3
3
0
2
4
1
1
7
4
3
7
7
4
5
4
4
4
1
5
2
4
7
5
7
8
8
10
9
5
10
11
5
11
13
11
12
14
13
11
12
10
12
9
6
12
8
4
10
8
6
11
10
4
7
10
6
6
8
9
7
7
13
8
8
14
8
10
10
11
12
4
7
14
1
5
11
3
3
8
8
4
3
15
11
7
12
10
7
8
4
2
4
1
4
3
2
5
5
2
8
5
3
11
4
3
11
5
2
10
7
3
11
8
5
12
8
7
10
8
9
11
8
10
11
10
10
10
8
10
10
7
11
9
6
10
8
7
10
8
8
11
8
8
12
8
8
11
8
8
10
8
8
11
8
8
12
8
8
11
8
8
10
9
7
10
11
5
10
11
6
11
10
9
13
11
9
14
12
8
13
11
8
12
10
8
13
10
8
15
9
8
15
8
8
13
8
9
12
9
11
12
11
11
12
12
10
12
12
11
14
13
14
19
15
17
22
16
16
20
14
12
16
10
9
12
8
7
9
7
5
7
5
4
5
4
4
4
5
4
5
6
4
5
5
5
5
5
4
5
5
2
5
5
6
8
7
8
11
8
10
12
9
7
12
10
5
12
9
4
10
8
4
6
7
4
4
6
4
5
7
5
7
7
4
5
5
3
4
4
2
4
4
0
4
4
0
4
5
2
5
7
2
4
7
0
5
6
0
7
7
2
8
8
2
7
8
1
5
9
4
4
11
6
5
12
6
8
12
7
11
12
7
12
11
5
11
10
4
7
9
3
2
5
1
2
2
0
4
4
0
1
5
3
3
6
4
5
5
4
6
4
4
5
4
4
4
4
4
3
4
3
1
4
2
0
4
2
0
4
4
2
4
3
2
2
4
2
3
4
2
4
4
0
3
3
0
0
1
1
3
2
3
3
0
4
4
2
3
2
2
2
4
2
4
5
1
5
6
3
7
5
4
8
4
4
8
4
7
9
5
7
10
7
8
10
8
10
11
8
11
13
7
12
15
6
11
15
6
8
12
5
7
9
4
8
8
4
8
9
5
9
11
7
10
11
7
10
10
7
10
8
7
9
9
8
9
12
9
12
14
12
12
15
13
11
16
15
10
15
14
10
12
10
8
8
7
7
8
5
4
6
4
4
2
3
4
0
2
2
5
3
3
5
5
3
4
2
4
6
4
3
4
2
4
2
1
5
4
0
7
6
0
9
6
0
11
7
1
12
7
3
12
5
4
11
4
4
9
3
5
6
0
7
1
3
9
3
7
12
4
8
15
3
7
13
2
6
12
3
7
12
4
9
12
5
12
13
5
12
13
3
10
9
5
10
8
5
10
9
3
3
2
2
3
5
2
6
7
3
8
9
4
12
13
9
20
19
11
24
22
8
23
21
5
21
20
4
19
19
4
16
16
5
14
15
8
18
20
13
27
27
19
36
32
27
45
39
35
53
44
38
53
44
32
44
37
25
36
29
21
29
25
20
25
25
21
25
24
18
24
22
16
21
20
16
21
18
16
23
17
15
23
17
13
21
19
12
20
19
12
20
17
13
20
17
15
21
19
17
23
21
19
25
23
20
26
23
20
25
22
19
24
24
18
24
25
19
24
26
20
24
26
20
24
28
19
24
30
17
24
28
17
24
25
19
24
25
20
24
26
20
24
26
20
24
27
21
25
28
23
27
27
24
29
24
24
30
23
23
29
24
24
29
23
25
29
22
26
28
20
27
29
21
28
32
22
29
35
22
33
37
24
39
40
28
43
44
32
45
47
36
47
50
40
49
54
43
51
57
43
53
59
42
54
59
42
53
57
41
52
55
39
51
53
38
51
54
40
255
255
255
255
255
255
11
7
4
10
4
4
10
2
2
10
4
4
9
7
3
7
5
1
4
5
4
5
7
3
3
4
0
1
2
4
4
4
4
7
3
2
4
2
3
4
4
2
7
2
3
4
4
4
5
4
6
5
0
4
4
4
4
7
4
4
4
4
0
3
4
3
4
3
4
3
5
2
4
5
4
3
4
3
4
4
3
6
7
4
5
5
5
7
4
4
7
4
1
8
4
3
10
6
4
7
4
4
8
4
4
11
5
1
11
5
2
9
5
4
7
4
3
6
3
4
7
3
4
7
4
1
7
6
0
9
4
3
11
1
5
11
1
5
10
3
4
9
5
2
8
5
1
7
3
2
7
4
2
7
9
4
5
8
4
7
5
0
8
7
3
8
7
4
7
6
2
7
5
2
10
5
2
12
7
3
10
8
2
8
8
2
8
10
5
9
8
5
10
8
4
12
8
5
15
10
5
15
8
5
14
10
5
14
13
4
12
12
5
10
10
4
12
8
5
14
8
7
13
8
8
14
10
5
16
12
4
18
15
7
19
17
10
18
18
12
19
20
12
21
23
13
23
25
14
24
28
14
24
31
14
25
32
15
27
32
15
28
32
16
28
31
16
28
29
17
27
27
18
24
25
17
21
24
16
19
23
16
17
20
16
15
18
15
12
16
13
9
12
10
7
7
5
5
3
5
4
5
4
4
8
4
5
7
4
8
7
1
12
7
5
13
7
7
11
8
5
11
8
2
10
8
1
7
7
6
5
5
9
5
4
7
5
5
6
4
5
4
4
3
1
4
3
0
5
5
4
4
4
5
3
3
4
5
1
2
5
6
2
5
4
0
3
0
0
3
1
0
3
3
0
2
4
3
4
4
3
4
3
3
4
3
3
4
0
0
4
3
0
5
5
3
6
5
4
3
3
3
2
1
6
4
3
7
5
4
6
8
5
7
10
7
9
10
10
11
15
16
12
18
17
13
16
17
8
13
15
5
13
15
5
16
19
8
18
19
11
18
17
11
17
17
10
14
16
10
16
17
12
17
17
14
18
18
18
17
19
22
16
18
23
14
14
21
14
10
17
14
8
13
5
4
7
12
3
5
14
3
1
11
3
2
4
2
5
1
1
7
1
3
9
3
4
12
4
3
15
5
2
14
5
3
15
5
5
15
7
7
14
7
7
13
5
8
11
4
8
10
2
7
10
3
6
8
5
7
8
7
7
7
5
5
5
4
4
4
3
3
4
4
4
4
4
5
3
8
8
3
8
7
1
7
5
1
1
3
3
2
6
4
0
6
4
0
7
5
0
8
7
1
8
8
3
9
8
4
11
8
4
12
9
4
11
10
5
9
10
7
10
11
8
14
12
8
16
12
8
14
11
6
10
9
2
7
7
0
5
5
4
4
4
4
4
4
1
3
2
4
1
3
3
4
4
4
3
3
6
3
3
3
4
4
4
4
7
7
5
8
7
7
8
5
7
7
1
5
5
0
4
4
0
4
4
0
4
4
0
1
4
2
0
2
4
3
4
4
4
4
3
4
3
3
4
2
4
4
4
3
5
6
2
7
6
3
8
7
4
8
8
4
8
8
5
7
8
6
5
7
5
4
5
3
4
4
3
4
4
2
4
5
0
4
6
2
4
6
3
3
6
2
1
5
1
2
5
3
1
4
2
4
5
1
4
7
4
5
9
4
7
11
0
8
11
0
8
9
1
8
8
2
8
8
1
8
7
2
7
5
2
5
5
4
5
7
3
6
8
3
4
7
4
1
4
4
0
1
4
0
1
4
2
3
5
2
3
6
0
2
5
2
4
5
1
4
7
4
1
8
4
0
7
4
1
5
0
3
3
3
5
2
5
8
3
7
10
5
7
9
7
6
7
4
6
5
1
4
4
0
1
4
2
2
4
3
4
3
4
3
1
5
2
3
4
2
3
4
4
3
4
6
3
5
4
3
5
4
4
5
5
5
7
7
7
5
7
7
3
8
6
4
7
7
5
6
9
9
10
8
9
10
6
3
3
2
1
4
7
3
8
11
7
11
13
7
10
13
7
8
10
5
8
9
8
10
11
11
14
12
12
18
13
12
21
17
13
23
22
16
26
25
19
30
28
20
33
31
20
35
32
22
37
32
25
38
32
24
36
32
21
31
31
18
24
27
14
18
21
12
17
18
12
19
18
12
20
17
13
20
16
14
19
15
12
17
14
11
18
17
10
20
21
8
16
18
8
15
14
8
13
13
8
13
14
9
16
14
10
19
15
9
19
16
9
19
18
12
24
23
16
30
27
20
33
28
25
37
31
31
45
39
37
55
47
42
62
50
45
63
49
44
57
42
37
46
32
29
36
26
25
31
26
24
31
29
24
32
27
22
31
23
18
28
22
15
24
20
14
21
17
14
19
16
13
18
16
12
18
15
13
18
14
15
19
15
16
20
18
15
20
22
14
19
24
14
17
23
13
16
22
12
16
22
12
16
20
12
16
18
11
17
18
9
16
17
7
16
16
6
15
12
7
13
10
8
12
11
8
12
13
8
11
14
8
10
13
8
11
12
8
13
14
8
14
15
9
14
16
12
15
17
14
15
18
13
14
16
10
13
13
7
10
7
7
11
4
10
13
5
14
17
9
18
22
17
22
23
22
25
22
22
26
24
24
25
26
24
24
25
21
23
23
20
20
20
19
17
17
17
12
15
13
9
13
12
9
12
12
12
13
13
255
255
255
255
255
255
9
5
4
5
1
3
5
3
0
7
5
4
5
5
4
3
3
0
3
4
4
4
8
4
1
4
0
3
3
4
5
4
4
5
1
2
4
1
2
5
4
2
7
3
3
3
3
4
4
4
6
7
1
4
4
4
4
5
4
4
4
4
1
4
4
1
4
4
4
3
7
3
4
4
3
4
4
4
5
4
4
7
5
4
7
7
4
7
5
4
7
5
3
10
5
1
10
5
0
7
4
1
9
5
4
11
7
3
11
5
2
8
5
4
5
5
2
5
6
2
8
5
4
10
5
3
12
5
3
13
3
5
12
1
8
12
4
5
9
5
4
9
8
4
10
8
4
9
8
3
8
10
2
10
12
4
10
9
3
13
8
0
12
10
1
10
11
4
11
11
1
12
11
0
13
9
2
11
8
1
8
11
4
9
13
5
13
13
7
15
12
8
16
13
10
17
14
11
16
13
10
12
12
10
10
13
9
12
13
8
15
12
8
17
12
9
21
13
13
24
17
17
27
22
16
29
25
14
29
28
15
29
30
17
27
29
16
26
29
15
29
31
15
34
34
16
35
36
16
33
36
17
32
35
18
31
32
16
29
29
15
28
29
15
27
27
16
24
25
16
21
24
15
19
23
14
17
21
14
14
18
13
9
13
11
5
8
7
3
5
1
2
2
2
3
5
2
4
7
4
4
10
3
7
9
4
8
5
4
8
5
2
8
5
6
5
4
4
4
4
0
5
5
2
8
8
1
11
10
7
12
10
11
12
10
10
10
11
11
7
8
10
5
8
8
5
9
8
8
11
9
10
11
10
8
9
11
3
6
7
4
3
2
7
4
0
6
4
1
6
4
2
6
4
1
4
2
3
4
0
3
4
1
1
4
2
1
4
3
0
4
4
0
4
6
1
5
4
4
1
1
4
4
2
4
4
2
4
4
2
4
4
2
3
5
1
1
5
2
0
8
6
3
9
8
7
8
6
7
8
4
3
12
6
1
15
10
4
16
12
8
20
13
10
22
17
11
24
21
13
27
24
15
27
25
15
25
25
14
24
24
18
24
25
24
23
25
26
17
20
22
7
11
14
4
3
9
5
2
11
6
3
9
9
4
6
5
1
4
3
1
5
0
3
6
0
3
6
2
3
8
5
2
8
4
0
8
3
1
9
3
4
10
4
5
10
5
4
8
4
4
5
3
4
6
3
2
4
3
1
3
4
5
3
5
5
2
7
5
0
9
7
4
11
10
5
10
11
3
12
10
4
8
6
3
10
8
3
4
5
2
1
1
0
0
1
1
0
4
4
0
6
4
0
5
5
0
5
7
0
6
7
0
6
6
0
7
7
3
8
8
4
8
7
4
7
5
2
4
4
2
3
4
4
4
4
4
5
4
3
6
3
4
3
1
4
4
4
5
5
4
7
4
1
5
4
3
4
0
4
3
4
6
6
7
10
8
9
11
8
10
9
7
9
8
5
7
7
4
5
5
4
4
4
4
5
4
4
7
5
3
8
7
2
7
8
4
6
8
5
7
8
7
8
8
8
7
8
7
5
8
5
4
7
4
4
5
3
4
5
1
4
6
0
4
5
0
4
4
2
4
4
2
4
4
2
7
4
3
8
5
3
7
7
3
6
8
2
7
8
4
8
7
4
9
6
5
11
8
7
11
12
8
10
14
7
11
12
7
12
10
7
13
11
8
15
12
8
15
12
7
13
12
5
12
12
4
12
11
4
12
9
4
12
8
5
12
9
7
11
10
5
9
9
3
7
8
0
5
8
3
4
8
4
3
8
4
0
8
4
3
8
4
3
6
5
3
2
7
6
1
9
9
3
11
11
3
12
11
1
11
9
3
9
8
2
9
7
3
11
7
3
12
7
4
12
9
3
13
11
1
15
13
3
15
14
4
14
12
3
15
10
0
17
12
2
19
15
7
19
16
7
17
14
5
15
11
4
13
11
5
12
11
7
12
12
10
14
15
13
15
20
15
17
22
17
18
23
17
16
19
12
8
9
4
2
2
2
3
3
7
4
7
10
5
7
13
2
2
10
7
7
8
4
4
10
3
2
12
0
4
11
5
10
10
10
14
15
15
19
20
19
24
22
20
26
22
20
25
22
20
25
21
20
26
19
18
24
17
13
20
15
9
16
12
7
12
9
7
10
8
3
7
8
1
4
7
0
2
5
1
4
4
4
8
5
7
10
8
9
14
12
10
19
17
14
22
21
15
23
20
14
22
18
17
26
20
22
32
24
24
33
27
26
33
29
31
37
31
35
42
33
37
45
35
39
47
37
40
49
38
40
49
36
37
47
34
35
43
34
31
36
31
23
30
24
16
24
19
13
20
17
11
17
17
9
16
15
8
15
14
7
12
14
6
9
13
7
9
11
8
10
9
7
9
9
6
8
10
7
8
10
8
8
11
8
8
13
7
9
16
5
10
17
5
9
16
5
8
16
4
8
16
5
9
16
7
11
15
7
11
13
5
10
12
3
8
11
1
8
10
3
8
8
4
8
8
3
7
9
3
5
10
3
4
9
3
5
9
4
8
10
5
10
11
5
9
8
5
8
9
8
8
10
5
7
9
4
7
7
3
5
4
3
3
2
4
4
3
4
5
4
4
7
8
7
7
13
8
4
9
5
5
7
4
6
7
1
4
5
3
4
3
4
4
4
4
2
4
4
3
4
1
4
4
1
2
4
4
4
5
6
5
7
255
255
255
255
255
255
5
4
4
2
0
2
4
3
1
5
6
3
4
5
4
2
2
1
4
4
4
4
8
4
1
4
0
5
4
4
7
4
4
5
0
1
5
0
2
5
3
2
5
4
2
3
2
4
4
4
5
7
3
5
5
4
5
5
4
5
5
4
3
4
5
0
4
4
4
4
7
4
4
5
2
4
4
4
7
4
3
10
5
4
10
7
5
8
5
7
9
5
7
14
5
5
12
5
3
10
5
1
11
7
4
11
7
5
11
5
4
8
4
4
7
4
1
7
4
3
8
3
4
8
4
4
11
4
5
13
2
7
13
5
8
11
8
4
8
8
3
8
10
3
8
10
0
8
11
0
8
13
2
12
14
4
16
13
3
16
14
3
14
15
4
14
14
5
14
12
4
14
13
4
13
14
5
13
14
8
13
14
10
15
13
10
17
13
13
15
13
13
13
14
13
12
14
13
11
15
12
12
16
12
14
15
12
16
15
12
21
17
12
28
24
13
32
29
17
35
33
17
38
36
17
39
36
19
37
36
19
36
36
17
35
36
15
32
34
12
30
31
10
29
29
10
28
27
9
27
25
8
24
23
10
19
20
10
14
16
8
11
13
5
9
9
4
8
8
4
8
9
6
8
11
8
8
11
6
8
9
3
8
8
2
8
7
3
9
6
4
11
8
4
12
12
5
13
15
7
15
15
5
15
12
4
12
9
4
8
7
4
5
5
5
1
3
3
1
1
0
3
1
1
3
2
3
2
4
4
4
4
7
6
4
4
5
7
5
7
10
5
8
12
7
8
12
8
8
12
8
8
12
8
10
10
11
7
10
11
4
5
9
2
1
7
2
0
5
1
1
4
0
3
5
2
4
7
3
4
8
4
4
8
3
4
7
2
3
5
2
2
5
2
5
7
3
4
9
2
3
9
2
0
5
4
4
1
7
6
0
8
5
3
8
4
4
10
5
4
8
8
3
5
7
4
5
4
7
7
3
7
8
4
8
7
4
7
7
7
7
9
8
7
14
11
9
19
13
11
20
17
12
20
19
12
17
19
12
15
17
12
13
17
12
12
18
10
8
17
12
4
11
10
2
7
7
7
7
10
10
7
11
7
5
10
5
4
10
4
3
9
0
1
7
0
2
5
3
4
5
6
2
5
4
0
4
2
0
4
1
3
5
4
6
7
7
5
7
4
4
5
3
3
7
3
2
7
3
3
5
5
6
4
7
4
3
5
3
4
5
3
5
4
4
8
4
10
5
5
12
5
7
14
7
8
12
7
3
7
5
0
3
4
0
1
4
0
3
5
0
3
3
0
3
2
0
1
4
0
2
4
0
0
4
0
2
4
3
0
4
4
1
4
7
4
4
8
7
1
9
7
3
10
7
4
9
8
5
8
7
5
8
4
3
8
4
2
7
5
4
2
2
5
0
6
8
1
8
11
4
9
12
7
11
11
7
12
9
5
10
8
5
7
8
7
7
8
8
8
8
8
8
8
8
8
8
7
8
7
5
8
6
4
7
7
2
5
8
3
4
8
4
4
9
4
4
11
4
4
11
5
4
10
7
5
10
8
7
9
8
8
8
8
8
8
8
9
8
9
11
9
11
12
11
13
13
12
15
15
12
15
15
12
13
13
12
12
12
12
12
12
12
11
12
11
9
12
9
9
12
8
9
11
8
6
9
8
5
8
8
6
8
7
5
7
6
4
7
7
4
7
8
4
8
9
1
7
10
1
6
9
3
7
8
5
8
8
7
9
8
8
11
9
7
12
11
5
12
12
4
12
11
3
11
10
1
9
11
1
8
11
2
8
9
3
8
8
2
7
7
0
5
5
1
2
4
3
2
3
4
4
3
4
1
2
4
0
3
7
4
3
8
5
5
8
4
5
8
5
4
8
5
3
9
5
1
12
7
2
15
9
1
17
11
5
17
10
7
17
12
5
19
12
6
18
12
5
15
12
4
16
12
5
20
17
11
24
26
17
24
31
17
24
33
18
23
31
17
19
26
13
14
18
8
12
13
4
13
12
5
13
14
7
11
11
7
7
6
2
8
7
6
7
5
6
10
6
2
12
9
2
13
13
2
14
15
12
12
14
10
10
11
3
8
8
4
4
3
2
5
5
4
5
7
7
4
5
7
7
7
5
5
6
3
7
6
1
7
5
4
3
0
6
1
1
6
1
3
7
4
7
10
9
15
16
15
22
20
20
26
19
24
31
21
28
36
27
31
39
30
32
41
30
33
44
32
35
47
34
37
48
33
39
48
33
40
46
33
39
42
30
36
39
28
32
36
27
27
31
23
21
26
19
16
22
18
12
17
16
8
12
12
4
8
10
1
5
11
0
5
11
1
7
8
4
5
7
4
3
7
1
2
7
2
3
5
3
4
5
2
4
7
1
4
8
3
4
10
4
5
11
3
4
11
1
2
10
0
4
11
0
4
8
3
1
5
4
3
4
1
4
3
2
4
4
4
4
4
2
3
5
0
3
5
0
4
4
0
2
5
3
2
4
4
4
4
1
2
5
1
0
4
4
1
1
3
4
3
0
6
5
3
4
5
4
1
3
5
3
3
8
4
4
8
3
1
8
4
0
7
4
0
5
4
3
5
5
4
7
7
4
5
8
8
5
4
11
8
0
6
6
4
4
4
5
5
3
4
4
2
4
5
4
4
4
5
3
1
5
4
4
4
4
5
1
3
4
4
4
7
5
4
8
255
255
255
255
255
255
4
4
4
4
0
3
4
2
2
3
5
2
5
7
4
4
4
2
4
4
4
4
7
4
4
5
0
7
4
4
7
3
4
5
0
0
5
1
1
4
2
2
4
4
3
5
4
3
5
4
4
5
4
4
6
4
4
7
4
7
5
4
4
4
6
1
5
4
4
5
5
3
7
7
2
8
5
4
9
5
1
10
5
3
10
5
4
10
4
3
11
7
4
14
7
4
12
5
3
10
5
3
10
7
4
11
7
6
11
5
4
10
4
2
11
4
3
12
4
4
13
4
4
12
7
4
12
7
6
12
8
5
11
13
5
10
14
2
8
13
2
7
10
1
7
10
1
8
9
3
12
11
3
15
12
4
15
14
7
13
17
7
12
15
8
11
12
7
10
10
6
10
12
8
12
16
12
14
18
13
15
17
13
13
15
14
10
13
13
7
11
10
8
10
10
12
10
10
14
13
8
17
13
10
19
15
12
22
18
14
26
22
13
28
25
13
28
26
14
27
25
10
26
22
8
24
21
7
24
21
6
24
22
8
21
22
8
19
20
7
15
15
5
12
12
5
8
10
4
7
8
4
5
8
6
4
8
4
4
8
4
4
7
4
4
6
4
5
7
5
7
8
8
9
9
6
12
12
3
16
16
4
19
19
7
21
20
9
23
21
12
25
24
15
27
26
15
27
25
13
25
23
12
22
21
11
18
19
9
15
16
8
13
13
8
12
13
8
12
14
9
12
13
11
12
12
12
12
11
11
10
8
8
5
4
5
0
0
2
3
3
2
5
5
4
7
7
5
7
8
6
7
10
7
7
8
8
7
8
10
5
8
8
3
4
5
0
1
3
3
1
1
4
2
0
4
2
0
4
2
3
5
1
3
4
3
4
1
4
4
2
3
5
2
4
7
2
2
7
4
3
5
12
7
6
18
10
5
20
12
7
18
12
7
14
12
5
9
10
3
3
5
2
1
1
1
3
5
3
4
5
7
4
4
7
4
4
4
6
4
4
4
3
2
7
4
1
8
5
1
9
7
2
13
9
4
14
10
2
12
10
4
9
5
6
8
7
4
10
14
7
12
15
9
14
14
8
12
13
8
8
10
8
5
5
7
2
1
5
3
0
4
1
0
4
1
1
3
5
4
4
5
3
4
3
0
3
2
0
2
1
2
4
4
5
7
6
5
10
4
5
12
4
7
14
5
8
13
4
9
13
5
12
12
7
12
11
7
11
10
9
13
12
11
14
15
13
16
16
15
18
16
14
15
15
9
10
12
4
7
9
2
5
8
3
3
8
3
3
8
1
2
8
0
2
7
0
2
5
0
1
5
0
1
6
1
2
4
4
4
1
7
5
1
9
7
4
10
7
3
9
6
1
9
7
3
10
7
5
9
5
5
7
3
4
4
1
4
0
7
5
3
11
7
4
11
8
4
8
8
4
5
7
3
4
5
1
3
3
3
1
2
4
0
3
4
2
4
4
0
4
5
1
3
7
3
2
8
4
2
7
4
2
5
4
2
4
4
2
4
2
3
4
1
4
4
1
4
3
3
3
1
4
3
0
4
6
2
4
8
6
4
7
8
4
6
8
5
6
8
7
5
7
7
4
5
5
4
4
4
4
4
5
4
5
7
4
6
5
5
5
4
7
4
4
8
4
4
8
4
5
7
4
7
6
5
8
7
7
8
8
8
8
8
7
8
8
5
9
8
5
11
8
7
11
8
7
9
9
5
7
11
3
5
12
1
4
11
1
4
9
3
4
8
5
5
7
7
7
5
5
7
4
4
5
4
4
5
4
4
7
4
4
8
5
5
9
7
4
11
9
4
12
11
4
12
11
4
11
9
3
9
7
1
8
6
1
8
7
5
9
8
8
11
8
5
8
8
2
5
7
3
5
9
4
5
8
7
4
5
6
4
4
5
6
7
7
7
10
6
8
6
5
7
0
7
8
1
7
6
2
7
5
3
12
14
8
15
19
13
12
14
9
8
10
8
5
4
13
4
4
13
5
10
14
4
6
9
4
4
8
7
7
11
8
8
9
6
5
7
5
4
6
4
7
5
3
6
5
4
7
9
7
11
15
10
14
21
7
12
17
4
11
13
5
11
11
7
10
10
8
8
12
1
4
11
5
4
9
5
7
10
8
11
12
9
13
15
13
17
16
18
21
16
19
21
16
17
20
17
18
23
20
22
27
24
24
29
23
24
30
21
25
31
20
27
33
21
28
33
23
27
32
24
25
31
23
22
25
19
18
21
15
16
20
14
15
19
13
13
16
11
11
12
10
9
9
11
7
8
11
5
8
10
3
7
9
1
5
7
0
4
7
0
4
7
0
4
5
0
4
5
3
4
6
4
1
5
1
0
5
0
3
4
1
4
4
4
3
5
3
1
7
0
1
8
4
4
11
4
5
10
0
4
9
0
4
8
0
4
8
0
2
5
1
3
5
4
5
4
3
5
4
1
4
5
4
3
5
3
0
4
0
2
4
0
4
4
0
2
5
1
2
4
4
4
4
3
3
5
0
3
4
4
4
5
4
5
7
0
5
7
1
3
5
3
0
4
5
1
4
7
3
3
7
4
0
6
5
0
7
4
1
7
4
4
4
8
4
8
8
5
7
7
10
4
3
8
7
0
6
5
4
5
4
4
5
4
4
5
3
4
5
1
4
4
4
4
3
4
4
5
4
4
7
3
4
5
3
4
8
4
4
7
255
255
255
255
255
255
7
3
5
7
1
4
5
4
1
4
5
3
7
8
4
5
8
1
4
6
4
5
5
4
5
6
0
7
4
4
8
2
4
7
3
0
7
4
1
8
5
4
10
7
5
10
5
4
8
4
4
7
5
4
7
5
5
7
5
7
4
5
3
5
5
2
8
4
4
8
5
2
10
8
2
11
7
3
11
5
2
11
5
1
11
5
2
8
5
3
9
8
4
13
8
4
10
5
5
7
5
5
8
7
4
11
7
5
11
5
5
11
5
4
12
7
5
15
10
6
18
14
7
20
18
8
22
21
8
18
22
7
15
22
5
15
20
4
16
17
4
14
14
4
11
10
4
13
10
4
16
13
5
17
15
8
15
18
11
14
18
8
14
16
9
13
15
10
12
14
11
12
16
13
13
17
13
14
16
13
13
17
13
12
18
11
11
16
8
10
12
7
12
9
8
13
8
5
13
9
4
11
8
7
11
9
8
15
11
6
17
13
4
14
12
5
12
9
8
9
10
5
10
9
2
7
7
1
7
7
2
7
8
6
4
4
4
4
0
1
3
1
2
4
5
3
4
7
2
3
5
2
1
4
6
0
1
4
2
2
2
2
2
2
1
1
1
4
4
5
4
5
4
5
7
3
10
8
0
11
9
7
12
11
5
12
12
3
12
11
4
12
11
5
12
11
6
11
11
5
9
10
5
8
10
7
8
10
8
8
11
7
8
12
5
8
12
4
8
11
4
8
9
4
7
7
5
5
5
5
2
2
1
2
2
3
3
3
4
1
1
3
3
2
1
4
2
2
4
2
1
7
6
4
4
7
4
3
5
6
4
4
5
4
5
3
4
3
2
4
3
4
4
3
4
5
5
6
7
7
6
7
8
7
6
8
7
8
10
4
10
10
4
10
9
6
11
9
9
14
10
11
17
11
10
13
10
7
9
8
4
8
7
4
6
5
4
2
3
4
2
2
1
0
4
0
0
4
2
0
4
1
0
4
3
3
5
5
5
5
5
3
1
4
1
0
4
0
1
4
2
2
3
3
1
3
7
5
3
11
9
4
11
5
4
12
2
4
15
7
4
15
11
5
13
12
6
11
11
6
8
8
7
5
7
8
2
4
5
3
2
1
7
3
1
9
4
4
13
5
4
12
5
1
11
4
3
9
4
2
7
4
1
4
4
3
2
1
5
3
6
9
4
7
9
5
7
10
7
10
12
8
12
15
8
13
16
9
13
16
10
14
16
10
12
16
11
9
16
12
8
16
11
8
15
9
7
13
8
5
12
8
5
12
7
7
11
5
6
9
3
2
9
0
1
10
1
2
9
2
2
8
1
3
9
3
4
9
4
1
7
3
2
4
3
3
5
3
2
5
2
3
4
3
3
4
1
4
5
3
6
7
5
10
9
7
12
11
7
12
11
5
11
8
4
9
5
4
8
5
2
6
6
2
2
5
4
0
4
4
1
4
5
1
3
7
2
1
8
4
0
8
4
2
8
4
0
8
4
1
8
4
3
7
3
4
5
3
4
4
0
4
4
2
3
4
0
1
4
0
2
4
0
0
5
0
1
7
0
3
8
0
4
8
0
4
8
1
4
8
3
5
8
4
6
8
4
6
8
4
6
7
3
5
5
3
4
4
2
3
4
0
1
2
0
1
3
0
3
4
0
4
3
1
4
1
2
4
1
1
4
2
0
4
3
1
5
1
4
7
3
7
8
5
7
7
7
7
7
7
7
9
5
8
9
4
8
8
3
7
8
1
5
7
1
3
5
4
1
4
4
2
4
5
3
4
6
3
4
4
4
4
2
4
4
4
4
4
4
5
5
4
7
7
4
9
8
4
11
9
4
11
10
3
8
8
1
5
5
1
4
4
6
9
5
9
11
7
8
8
3
11
8
2
11
7
4
11
7
4
10
8
2
10
12
4
15
19
11
14
18
7
10
14
1
9
11
1
10
9
2
8
7
1
8
9
6
10
15
16
13
25
26
21
39
33
29
49
40
31
51
43
30
48
39
32
46
37
35
46
39
34
44
38
29
39
33
25
34
28
25
33
26
28
36
28
32
40
32
36
44
36
38
47
37
36
47
34
33
44
29
31
40
26
28
35
22
24
29
19
19
23
16
15
18
13
16
17
13
20
21
17
24
28
22
27
34
24
28
36
23
27
35
21
25
31
20
23
26
20
20
23
17
17
18
12
13
13
9
12
13
11
12
15
11
13
17
10
9
16
11
8
15
11
8
12
9
8
8
9
7
5
11
5
4
11
4
5
9
1
5
7
0
3
5
0
3
4
0
4
5
0
4
7
0
1
5
0
0
4
0
1
4
0
4
4
0
4
4
0
3
4
3
1
5
4
0
6
1
0
5
0
4
4
0
4
5
4
0
8
4
1
10
0
4
10
4
5
11
4
5
8
0
4
8
0
4
8
0
4
8
0
4
7
0
5
7
3
7
7
4
5
9
1
3
10
4
1
9
4
1
7
0
4
7
0
4
7
0
2
7
0
4
7
4
4
7
4
4
5
1
4
5
4
4
7
3
5
8
0
4
7
0
1
5
0
0
4
0
0
3
1
0
1
4
2
1
3
4
3
4
3
4
8
7
5
4
10
5
7
7
7
8
5
8
4
2
7
5
1
5
5
4
6
4
4
4
5
4
4
4
4
4
0
4
4
3
3
4
4
4
5
5
5
7
4
4
7
1
4
10
4
4
8
255
255
255
255
255
255
7
4
3
7
5
2
7
7
3
7
7
4
5
10
3
4
8
0
5
4
4
7
4
4
7
5
1
9
3
4
11
3
3
8
4
0
8
4
2
11
5
4
10
4
5
9
2
4
8
4
4
8
4
5
7
4
7
7
4
5
7
5
1
9
8
1
11
8
4
12
10
3
13
9
2
13
7
1
10
5
2
10
7
3
9
7
3
8
5
4
11
8
4
11
8
4
8
5
6
8
5
4
9
7
2
12
8
5
14
7
7
14
8
5
14
13
7
16
16
8
17
18
10
19
20
10
18
22
7
16
20
5
13
17
5
16
17
5
18
17
7
20
19
8
18
19
7
15
17
5
15
19
5
17
21
11
17
21
14
16
17
12
13
14
13
13
15
15
14
15
15
14
14
13
15
13
12
16
12
13
15
13
12
13
11
9
12
9
8
12
8
7
12
7
5
8
5
1
7
5
4
5
5
8
7
8
8
12
8
2
12
9
2
9
9
3
9
8
7
8
10
7
10
10
4
9
7
1
10
8
1
12
11
5
12
11
7
11
12
8
9
12
8
8
12
8
8
13
7
7
12
5
5
10
7
3
5
5
2
4
2
3
4
3
4
4
4
4
5
7
4
5
4
7
7
4
9
8
2
8
8
7
8
8
7
9
8
7
11
9
7
12
11
9
8
10
8
4
7
5
2
5
4
2
4
4
1
3
4
0
1
4
0
1
3
0
2
1
0
2
2
0
4
2
0
4
2
0
4
2
3
5
6
4
7
8
4
7
7
3
4
4
4
2
1
4
3
1
4
3
2
6
4
3
4
7
4
5
7
4
7
8
6
8
10
8
10
10
7
8
10
8
6
7
7
3
3
4
4
5
5
2
7
7
5
9
8
10
11
8
11
10
9
12
10
12
11
9
14
8
6
11
6
3
6
6
5
4
8
5
1
7
6
2
5
5
2
4
3
3
1
3
2
0
4
1
0
0
1
0
2
3
0
0
4
2
4
4
4
6
6
2
3
6
1
3
3
3
4
1
4
5
2
5
7
2
5
7
4
5
7
3
5
5
2
7
2
4
7
1
3
7
4
3
3
4
4
1
4
4
4
7
3
4
5
5
5
4
6
8
6
3
10
4
2
12
4
4
13
5
2
9
5
0
8
3
3
7
1
2
4
1
2
1
3
3
0
4
4
0
4
5
1
4
7
3
4
8
4
4
9
5
5
11
5
8
13
6
10
14
5
9
13
4
8
12
4
8
12
3
7
12
4
6
11
4
7
10
5
5
8
5
3
8
3
1
6
6
2
4
4
3
7
3
3
8
4
4
8
3
3
9
3
2
11
3
4
12
4
4
13
4
5
11
5
7
10
7
8
11
8
9
12
9
11
12
11
13
13
12
15
15
11
15
15
9
12
13
8
9
11
8
8
9
7
9
8
5
11
9
4
12
11
4
11
12
4
9
12
3
8
11
1
8
8
0
7
5
0
5
4
1
5
5
3
7
6
4
8
6
4
8
6
4
8
6
4
9
7
4
10
8
4
9
7
4
8
5
3
7
5
1
5
6
2
3
5
2
1
4
6
0
5
8
0
6
8
2
6
8
3
7
7
3
7
6
4
5
8
4
4
11
4
4
12
4
4
12
4
4
11
4
4
10
4
4
10
4
4
10
4
4
11
4
4
12
4
3
12
4
1
12
5
2
11
7
0
9
8
2
8
8
0
8
7
0
7
5
2
5
4
0
4
4
2
2
4
2
4
4
2
4
3
2
3
2
3
0
2
3
2
1
4
1
3
4
2
4
4
2
4
4
0
4
4
1
4
4
3
4
4
4
3
4
3
1
4
1
0
3
0
1
1
3
5
2
5
8
3
8
12
2
14
17
3
21
19
9
22
20
8
21
19
8
18
15
5
15
12
4
15
13
4
13
12
2
9
9
8
4
14
15
15
27
23
23
33
28
26
34
31
27
37
32
32
44
33
40
51
36
46
57
40
48
62
42
48
63
42
48
60
42
47
57
41
45
56
40
43
55
39
41
53
36
40
50
33
39
46
31
37
44
29
35
44
29
34
43
30
34
40
29
32
36
26
27
32
21
22
27
16
18
21
13
14
17
12
11
16
12
10
16
11
12
17
10
14
19
11
14
20
13
15
19
14
16
18
13
15
17
12
13
15
12
13
16
13
14
18
14
11
15
12
6
10
9
5
9
9
8
12
11
9
13
12
7
10
12
4
8
12
4
7
11
4
5
8
3
4
6
0
4
7
2
3
5
2
3
4
0
1
4
0
3
3
0
4
2
0
3
4
0
1
4
0
0
2
0
1
3
0
4
4
0
4
4
0
1
4
0
0
4
1
0
5
4
0
4
4
1
3
3
4
2
1
3
5
3
1
9
4
4
10
1
4
8
3
4
8
4
4
7
3
1
7
1
2
7
0
3
7
0
2
7
0
4
7
1
4
5
4
1
5
4
0
7
4
0
6
4
3
7
4
4
7
3
1
7
1
3
7
0
4
7
3
1
7
4
4
7
3
4
5
3
2
5
2
4
5
2
2
4
2
0
3
2
0
1
2
0
1
1
0
3
3
2
4
4
4
4
5
5
4
7
8
5
4
9
4
6
5
6
7
4
8
5
3
6
5
3
4
5
4
5
5
4
5
6
4
4
4
4
4
1
4
4
1
1
4
4
4
5
6
6
8
4
4
9
1
4
11
4
4
11
255
255
255
255
255
255
5
5
0
5
8
2
4
8
2
4
7
2
4
8
2
7
5
1
8
2
4
7
4
3
8
4
3
11
2
4
11
5
1
8
5
0
8
4
2
9
5
4
5
4
6
4
4
5
5
4
4
4
2
5
4
4
5
7
4
3
9
7
0
11
8
0
11
5
4
11
7
4
11
5
1
10
4
1
7
5
1
7
5
3
8
4
4
9
5
4
11
8
5
10
7
5
9
5
5
11
7
4
12
9
5
15
9
8
15
8
8
14
12
8
13
15
10
10
11
8
7
8
5
9
11
4
6
8
1
0
2
2
4
4
4
10
6
4
6
3
2
2
5
1
6
9
3
7
9
4
10
12
5
10
13
10
8
10
10
7
7
7
4
5
7
5
5
7
7
6
6
5
5
5
5
5
4
7
4
4
5
5
4
3
3
2
4
4
2
5
4
2
5
4
3
4
4
3
5
5
4
4
5
7
5
9
9
12
11
7
13
11
4
11
11
3
11
11
7
10
11
8
8
11
5
8
8
4
8
7
1
9
8
1
11
8
3
11
7
5
9
5
6
7
5
5
5
7
5
4
6
4
4
7
5
4
7
8
4
5
7
1
4
4
4
3
3
4
4
5
1
3
3
4
4
4
8
7
5
11
9
7
11
10
7
9
9
6
9
8
7
11
10
7
11
10
7
7
7
4
4
7
3
1
3
5
0
1
6
0
2
3
1
3
1
3
4
4
4
4
7
4
5
8
4
6
7
4
5
6
4
5
7
4
7
8
4
7
7
4
7
7
5
4
5
7
4
7
7
5
7
4
6
5
1
4
4
0
1
1
1
3
1
4
4
4
5
4
4
4
6
5
5
6
5
6
6
5
3
6
7
2
4
6
6
5
3
8
5
5
5
4
6
2
4
7
1
3
7
1
1
5
3
0
4
4
3
4
4
2
5
3
0
6
0
3
5
3
5
5
4
8
7
4
11
8
4
12
8
4
11
9
4
10
11
5
10
11
7
8
8
5
5
5
5
5
1
7
6
0
7
5
1
5
4
4
4
5
4
3
7
1
1
4
3
1
1
4
4
0
1
7
4
0
4
4
1
0
3
4
4
7
5
7
5
5
7
5
5
7
7
4
3
4
5
4
3
7
5
4
5
3
4
4
4
4
5
4
4
8
4
5
11
1
6
12
0
4
11
1
1
9
2
1
8
1
2
8
0
1
8
4
1
7
2
2
5
1
1
4
4
2
4
4
4
5
4
2
7
5
2
5
7
3
5
6
5
8
7
5
5
9
4
4
11
5
5
10
6
6
8
5
7
8
4
4
6
2
5
4
3
8
4
4
12
1
4
14
3
6
17
4
5
16
4
4
13
5
5
12
7
7
12
8
9
13
7
11
15
5
11
15
4
9
13
4
7
11
4
5
10
4
4
8
4
4
9
4
4
10
5
5
10
7
7
11
8
8
11
7
8
9
5
9
9
4
11
11
5
12
12
7
12
12
7
12
11
6
13
9
7
15
8
8
16
8
8
16
8
7
15
8
5
13
8
4
11
8
4
9
7
3
7
5
1
5
5
4
4
7
4
3
7
1
1
5
0
1
4
0
4
3
0
4
2
2
1
2
5
0
1
5
0
2
7
3
0
8
4
1
9
4
3
10
4
4
9
4
4
8
5
4
8
7
4
8
7
4
8
6
4
8
7
2
8
8
2
9
9
1
11
11
0
13
11
0
14
9
1
12
8
2
10
8
2
11
8
4
11
7
4
9
5
3
8
3
0
8
1
3
8
1
3
8
3
1
7
4
0
6
4
0
7
5
1
9
8
3
11
11
4
12
12
4
12
12
4
12
12
5
12
12
7
12
13
6
14
14
2
15
15
0
17
13
1
17
10
8
7
10
11
8
15
15
14
22
19
18
25
21
23
29
23
29
37
26
37
48
32
44
57
37
45
58
37
44
57
36
44
54
36
44
52
36
43
51
35
41
49
32
38
44
28
31
34
24
23
26
19
21
25
16
22
25
17
20
21
16
17
17
12
15
16
10
13
16
11
12
16
12
12
16
12
12
16
12
11
15
11
8
12
8
5
7
6
3
2
6
2
2
5
2
2
5
3
0
5
0
0
7
1
2
8
3
6
8
4
8
8
4
7
7
4
5
5
4
4
4
4
4
5
4
4
6
4
5
5
4
7
4
4
8
6
4
8
9
4
8
9
4
7
8
3
5
8
1
3
7
0
1
5
0
0
4
1
0
4
3
0
3
4
0
3
4
0
0
4
1
1
4
2
3
4
2
4
4
2
4
4
1
4
4
0
1
3
0
1
1
3
4
0
4
5
0
1
6
0
0
5
0
0
4
0
0
7
1
1
6
3
4
5
4
4
5
4
1
9
2
3
11
4
4
8
4
1
7
4
4
7
4
4
5
4
1
5
4
2
6
4
3
5
3
3
5
1
4
6
0
3
5
1
0
4
4
0
3
5
1
3
6
4
4
5
3
4
4
1
5
4
4
5
1
3
5
1
1
5
4
4
7
5
3
7
4
1
5
4
4
4
4
3
1
4
0
0
4
0
1
4
0
4
4
0
4
4
1
3
5
4
2
7
7
5
7
8
8
5
8
8
7
5
10
5
4
9
4
3
5
4
3
4
4
4
4
6
5
6
5
4
4
5
3
3
4
4
5
1
2
7
3
4
8
5
4
10
5
4
11
4
4
11
4
4
9
255
255
255
255
255
255
5
4
0
4
6
2
2
4
2
3
2
2
4
5
2
7
4
3
7
3
4
7
4
1
8
2
4
8
4
4
8
7
0
5
5
0
5
3
3
5
3
4
2
3
5
4
2
6
4
1
4
2
3
4
5
4
4
9
4
2
9
7
0
10
6
0
11
6
4
11
7
4
8
4
0
5
4
2
5
6
3
8
4
4
11
4
4
11
7
4
9
7
6
8
5
6
8
6
4
8
6
4
10
7
7
11
6
5
9
7
6
7
9
6
5
7
4
5
7
4
7
8
4
11
12
4
12
12
1
11
9
1
10
9
4
14
12
5
15
12
6
14
13
5
10
10
3
4
7
1
7
10
4
11
12
10
13
14
12
13
13
13
9
10
10
8
11
11
8
11
12
9
10
13
12
12
14
15
14
13
15
14
12
13
13
9
12
10
8
13
9
8
14
10
7
12
9
5
11
8
5
10
9
7
10
12
10
12
14
10
14
14
9
14
12
7
14
13
7
12
12
10
8
8
5
5
7
3
5
5
3
4
5
3
5
4
4
7
5
4
7
7
5
7
7
7
7
8
5
4
5
3
1
3
2
2
4
3
4
3
4
3
4
5
4
6
6
4
4
4
3
1
1
4
0
3
3
1
3
1
2
4
2
3
4
2
2
2
1
1
2
5
5
2
6
4
5
5
5
4
5
8
5
3
4
6
0
3
5
1
4
3
4
5
4
4
5
5
5
5
5
7
7
4
8
8
5
8
8
5
8
8
3
8
8
3
8
9
5
9
12
7
10
14
7
9
13
9
8
13
11
9
15
12
11
16
11
12
16
10
12
15
10
11
13
9
9
11
7
8
10
7
8
10
9
5
7
8
2
4
5
4
5
5
7
5
2
7
7
1
6
7
3
4
5
4
4
4
3
4
5
1
4
6
2
4
5
1
5
6
3
7
9
4
9
10
4
10
10
4
9
9
4
8
9
5
8
10
6
8
9
5
8
8
4
7
7
4
5
5
3
4
3
1
4
3
0
3
2
0
1
2
2
2
2
3
1
3
3
0
4
3
0
4
4
2
3
5
4
1
5
5
3
4
4
4
5
3
5
7
4
8
10
7
11
11
8
11
10
8
12
11
8
12
12
8
11
13
8
10
14
8
11
13
8
11
12
7
9
12
4
7
12
1
4
11
0
3
9
2
0
7
1
0
5
4
0
5
5
1
4
7
3
4
7
4
4
9
5
4
9
6
4
8
5
5
8
4
7
8
4
5
10
7
4
11
8
7
13
7
7
14
6
5
12
5
5
9
4
6
7
3
5
5
1
4
4
3
5
7
4
8
3
3
7
0
3
5
0
3
7
0
4
10
0
2
12
0
3
12
0
4
11
0
4
9
0
4
8
0
4
8
0
4
8
0
4
8
0
2
10
0
3
11
1
4
12
3
4
12
4
4
12
4
5
11
4
7
10
5
7
10
7
5
11
8
5
13
8
7
13
8
8
12
8
8
12
8
8
12
8
8
12
7
8
12
5
8
11
4
8
9
4
8
8
4
8
8
5
9
8
5
11
9
4
12
10
5
12
9
7
12
8
8
11
9
8
9
10
8
9
10
7
11
11
6
12
12
8
12
12
12
12
12
12
12
12
13
12
12
13
12
11
11
11
8
9
9
6
7
7
6
6
5
5
5
4
5
4
4
7
4
4
8
4
5
8
4
6
8
4
7
8
4
8
8
4
8
8
4
9
8
4
11
8
5
12
9
7
11
11
7
9
12
4
8
12
1
8
12
1
8
12
3
8
12
4
7
12
4
5
11
3
4
9
2
5
7
2
4
6
0
5
7
2
8
9
6
11
12
8
13
15
9
16
15
13
20
15
15
24
16
18
27
15
25
31
17
34
40
24
38
47
29
35
46
29
35
45
29
37
47
31
38
48
31
36
45
28
30
36
23
22
26
17
16
21
13
13
18
12
11
13
11
9
9
8
7
8
5
5
7
4
4
5
4
4
5
5
4
7
7
4
7
7
3
5
5
1
4
4
2
3
4
2
2
4
1
3
5
3
4
7
4
4
7
3
4
5
1
4
3
1
3
1
4
1
0
3
1
1
0
3
4
4
4
7
4
4
7
4
5
6
4
6
7
4
5
8
3
3
6
1
2
3
0
2
3
0
2
4
0
3
4
0
4
4
1
4
4
3
4
4
4
4
5
3
3
7
1
1
8
0
0
6
0
0
3
0
0
2
0
0
2
0
0
4
0
0
6
0
0
5
1
0
4
3
0
4
4
1
5
4
3
7
4
4
7
4
3
5
4
0
5
4
0
7
4
4
8
1
4
8
0
0
8
0
0
8
0
0
8
0
0
10
0
3
8
0
4
8
1
1
8
4
0
9
4
4
8
4
4
7
4
1
8
4
4
8
4
3
7
2
3
7
3
4
7
4
3
7
4
4
5
4
4
4
1
1
5
0
0
5
1
0
3
3
3
5
4
4
5
4
2
5
2
4
7
4
4
5
4
1
5
1
3
5
1
4
4
4
1
4
4
0
3
5
3
1
6
4
0
6
1
1
6
0
4
6
0
4
6
0
1
5
1
2
4
5
7
5
7
10
7
7
10
6
7
8
7
6
8
5
5
7
4
2
4
4
2
5
4
4
5
5
6
5
5
5
5
4
2
5
4
3
8
3
5
11
1
4
10
4
1
9
4
4
10
4
5
8
4
4
7
255
255
255
255
255
255
4
4
1
2
5
2
4
4
3
5
3
2
6
4
2
5
4
4
6
4
3
7
4
1
7
3
4
7
4
3
7
5
0
4
4
0
4
0
4
4
2
4
4
4
4
4
2
5
2
1
4
4
4
5
7
4
5
8
4
4
7
5
1
8
5
0
12
9
3
10
8
4
7
5
1
6
4
1
7
5
4
9
4
6
9
4
4
8
8
5
5
6
5
4
4
4
7
5
4
8
5
4
10
7
7
11
8
5
11
9
5
12
11
7
12
13
6
11
13
6
8
11
5
8
11
5
7
11
3
8
10
0
8
9
1
10
8
3
11
9
4
13
12
6
15
13
4
12
13
4
10
13
5
12
15
8
15
17
12
18
18
14
18
18
14
18
18
15
19
19
17
19
19
17
16
16
15
13
13
13
13
12
11
9
11
7
7
9
6
6
7
6
7
5
5
10
5
5
10
7
4
8
5
4
8
5
4
8
8
4
8
11
4
12
12
3
15
15
7
14
14
11
11
8
7
8
10
4
8
9
5
8
8
4
8
8
4
8
7
4
7
5
4
5
3
3
4
5
2
1
4
2
1
3
2
4
4
2
4
1
2
4
4
5
4
7
7
4
4
5
4
1
2
4
1
3
4
3
3
5
5
5
6
7
7
6
6
4
7
7
5
7
6
6
5
3
7
4
2
5
5
7
4
4
6
5
0
4
4
2
4
5
4
4
4
3
5
3
5
5
4
7
9
4
8
11
4
9
14
4
11
16
4
12
15
3
12
14
4
12
15
4
12
16
3
11
15
3
9
13
3
8
12
3
9
12
5
10
12
7
8
11
6
6
9
3
6
7
3
5
7
5
4
8
7
2
6
4
7
6
4
13
8
4
13
8
1
10
8
3
8
7
4
7
5
3
7
5
2
8
7
3
8
8
3
8
8
1
9
8
4
10
8
4
9
8
0
8
7
0
8
5
0
7
3
1
6
1
3
7
1
4
8
2
3
6
1
2
2
1
3
0
2
4
1
2
4
3
4
4
4
7
5
4
7
7
1
6
8
0
8
8
0
10
9
1
9
11
4
8
11
5
9
10
7
11
11
8
12
12
9
13
13
12
16
16
13
19
19
14
20
19
12
19
17
10
18
17
10
18
19
9
17
19
7
15
17
5
12
14
4
7
10
5
6
7
7
3
6
9
0
6
11
1
7
12
2
5
11
1
4
9
3
5
8
2
7
7
3
8
6
3
7
7
2
5
8
2
5
7
4
7
8
7
8
7
5
8
5
3
8
4
1
9
0
4
11
3
6
11
4
5
9
5
5
8
8
7
8
7
5
8
1
3
4
0
3
2
0
1
3
0
4
5
0
4
8
0
4
10
0
4
9
0
3
7
0
1
5
0
0
5
0
0
7
0
3
7
0
3
8
1
3
11
3
1
11
4
1
9
3
3
7
1
4
5
0
4
5
1
4
7
3
4
8
4
4
9
3
4
11
1
4
12
1
4
13
3
4
14
4
3
13
4
1
12
3
0
11
1
1
8
3
3
7
4
5
7
5
7
9
7
9
11
5
11
11
4
12
9
5
13
9
7
15
12
8
15
15
8
13
16
8
13
16
8
15
16
9
16
16
12
16
16
15
17
17
16
19
19
17
20
19
18
19
17
17
17
13
16
17
13
15
18
15
13
17
16
13
17
17
15
19
18
16
20
17
16
20
16
16
20
16
17
20
16
18
20
16
17
19
16
17
17
17
19
16
19
20
16
20
20
16
20
20
16
19
19
16
17
17
17
17
17
19
19
18
20
20
18
20
20
19
21
21
21
24
23
23
27
24
24
28
24
23
27
23
21
25
22
20
24
23
21
25
23
24
28
21
27
31
20
29
32
20
31
32
20
30
30
19
23
24
16
15
18
13
11
16
12
9
15
11
7
12
9
4
8
8
1
5
7
0
2
5
0
0
4
0
2
4
0
4
4
0
3
4
0
1
4
0
2
5
1
6
6
3
7
6
3
4
6
1
2
5
2
3
4
3
4
4
2
4
3
1
3
1
0
1
1
0
2
3
0
2
4
0
2
4
0
1
4
2
1
4
3
4
5
2
7
7
2
8
8
3
8
7
4
8
6
3
7
6
1
5
5
0
4
4
0
4
4
0
3
4
1
1
4
3
0
4
3
0
5
2
0
7
2
1
8
1
3
7
0
4
7
0
4
7
0
4
7
1
3
5
3
1
3
4
0
2
4
0
3
4
0
5
4
0
6
4
0
6
4
0
7
3
0
8
1
1
8
0
3
8
0
4
8
0
3
9
0
0
11
1
1
11
4
4
10
4
3
10
3
0
9
1
0
8
0
0
9
0
0
10
0
4
7
0
4
8
0
0
10
1
1
10
3
4
8
4
3
8
4
3
8
4
4
7
5
1
7
4
3
7
4
4
5
3
2
5
2
4
6
4
3
5
3
0
4
0
0
4
0
1
5
0
4
9
1
3
8
4
3
7
4
4
5
2
2
4
4
3
5
3
4
4
0
4
2
1
3
3
3
4
4
4
3
4
4
3
4
4
2
4
4
0
4
4
0
1
4
1
1
7
4
5
4
7
7
3
5
7
7
5
7
7
6
5
6
6
8
6
6
8
5
2
8
4
3
7
3
5
7
4
5
8
7
5
10
4
3
8
4
2
8
4
5
10
0
5
10
3
3
10
4
4
8
5
6
8
4
4
7
255
255
255
255
255
255
4
4
3
3
5
2
4
4
4
4
4
2
5
5
3
6
4
4
7
3
1
7
4
2
6
4
4
8
4
2
8
4
0
5
4
0
5
1
4
5
4
5
4
4
4
2
2
4
4
4
1
5
4
3
7
4
4
8
5
4
8
5
3
10
7
0
12
9
1
7
7
4
4
4
3
5
3
1
7
4
4
8
4
7
7
5
4
5
7
4
3
4
4
2
4
2
5
4
4
7
4
3
9
5
5
11
7
7
10
7
5
10
7
5
10
5
4
10
5
4
11
9
5
10
11
7
7
12
7
5
13
4
5
11
1
5
8
1
6
7
4
8
7
4
12
8
3
13
10
3
10
8
2
11
9
3
12
13
5
13
15
8
12
15
10
12
12
8
11
9
5
8
8
4
7
7
5
7
7
8
7
4
7
4
3
4
3
4
3
3
4
4
4
4
4
5
3
3
6
4
3
7
5
5
8
7
7
10
10
5
11
13
2
14
13
4
14
14
8
12
12
9
11
8
7
8
10
5
7
8
4
4
7
3
3
5
4
4
2
3
1
3
2
2
3
3
3
4
4
0
4
4
2
4
4
4
4
4
2
1
4
4
4
4
4
5
5
4
5
5
4
4
4
0
4
3
0
4
3
4
5
7
7
5
8
7
4
1
5
4
2
3
1
2
0
0
4
3
2
2
5
4
2
7
7
6
7
8
8
6
8
10
7
8
10
8
9
8
8
8
7
5
5
7
2
4
5
4
4
6
4
3
5
4
4
4
4
4
4
4
4
1
5
5
1
7
7
3
5
4
5
3
3
4
3
0
3
0
0
2
1
1
1
4
3
3
4
4
4
4
7
4
7
9
5
12
9
5
16
10
4
14
10
1
7
7
0
2
3
2
3
4
5
4
4
5
3
4
4
0
4
4
1
1
3
3
0
1
5
4
3
5
5
4
3
2
4
2
2
3
4
3
2
6
4
4
5
3
4
4
0
4
4
1
4
4
3
4
3
4
4
0
4
4
0
4
4
0
4
4
2
4
4
4
5
4
2
4
4
1
5
6
2
7
9
1
9
10
1
11
11
3
12
11
4
12
9
5
12
9
7
12
11
9
12
12
10
12
12
10
12
12
11
12
12
10
12
11
8
12
10
7
11
11
5
8
12
4
7
12
7
9
11
8
8
10
4
2
8
4
0
8
5
2
10
5
0
10
3
1
9
2
4
8
4
4
8
1
4
7
3
5
5
4
3
4
4
2
3
3
3
6
4
5
9
4
7
11
5
6
13
6
7
14
5
8
13
4
7
11
4
5
9
4
4
8
4
4
6
3
1
4
7
0
3
8
1
4
7
3
3
5
3
3
4
2
0
4
3
1
3
4
4
2
4
7
3
4
7
4
4
5
4
4
5
4
3
7
4
2
8
4
3
8
4
4
8
3
4
7
3
3
5
2
0
5
0
0
7
0
1
9
0
3
10
0
4
10
0
4
11
0
4
12
0
4
12
0
4
11
1
4
9
4
3
7
3
0
7
0
0
8
0
0
9
0
0
11
1
0
11
4
0
8
3
1
7
0
3
9
0
4
9
0
4
7
0
5
6
0
4
5
1
4
4
2
4
5
1
3
5
0
1
5
0
1
7
1
4
8
3
7
8
5
8
11
5
8
10
4
6
10
5
7
10
7
8
9
8
9
8
8
10
8
8
10
9
8
10
10
8
9
9
8
8
8
8
8
8
8
8
8
8
7
8
8
5
8
8
6
8
9
10
8
11
12
8
12
12
8
12
12
9
11
12
11
10
13
12
11
14
13
12
13
14
12
12
15
12
12
16
11
12
14
8
11
11
5
9
9
4
8
8
4
8
9
4
8
9
5
7
7
7
6
7
6
6
8
2
4
7
2
1
5
2
0
4
0
0
4
0
0
4
0
0
4
0
0
4
0
0
4
0
2
4
0
0
4
0
1
4
0
3
5
0
4
7
0
4
8
0
4
8
0
4
8
0
4
7
0
4
4
1
1
3
2
0
6
3
0
8
2
3
8
0
4
7
0
4
5
0
3
4
0
2
4
0
3
4
1
4
5
2
2
7
0
4
8
1
4
8
1
4
7
1
4
5
0
4
5
1
3
6
3
1
5
4
2
4
4
0
5
4
2
6
4
2
6
4
0
6
4
0
5
4
1
5
4
4
6
4
3
5
4
1
5
4
1
5
4
2
4
4
3
5
4
2
6
4
0
6
4
0
6
4
0
5
4
0
5
4
0
6
4
0
6
4
0
7
4
3
8
4
4
7
4
3
6
4
1
7
4
0
7
3
3
6
2
4
7
3
1
7
4
0
7
4
0
8
3
0
8
2
0
8
3
4
8
4
4
9
3
0
10
1
3
9
0
4
8
1
1
8
3
4
7
4
4
5
5
0
4
4
2
3
4
5
2
4
5
4
3
4
5
3
1
7
4
1
7
1
3
6
0
4
6
0
4
8
0
2
5
2
4
4
4
4
4
2
4
4
4
4
5
4
4
4
0
5
4
0
4
4
0
4
4
0
4
4
0
3
4
0
1
3
0
0
1
1
1
1
4
4
5
7
5
8
4
7
8
2
5
9
6
5
10
8
8
8
6
8
10
5
5
8
6
1
7
5
4
6
2
7
7
4
4
9
7
3
10
4
4
7
5
3
8
4
4
11
0
6
11
2
4
8
4
4
7
6
5
8
4
3
5
255
255
255
255
255
255
4
4
4
4
6
3
4
5
4
5
5
1
7
7
4
5
4
4
8
3
0
8
4
1
7
4
4
12
4
4
9
4
1
7
3
0
5
3
4
5
4
6
4
2
4
7
4
4
10
5
0
10
5
2
11
7
4
10
7
4
8
5
4
10
7
0
11
7
1
7
5
4
5
5
3
7
7
3
5
7
5
7
5
5
7
7
4
4
5
4
1
2
3
2
4
2
4
3
4
3
1
2
5
4
4
8
6
5
5
4
4
5
4
4
5
4
3
7
2
4
11
5
5
11
8
5
10
8
5
8
10
5
7
13
3
6
12
2
5
10
4
5
7
2
7
5
0
8
7
0
5
5
0
1
2
0
4
2
2
7
4
2
4
7
4
4
7
5
7
7
4
9
9
7
11
11
9
11
9
9
10
7
7
10
7
4
12
8
5
15
11
9
18
12
8
20
12
7
19
12
5
18
14
8
17
15
9
18
17
7
17
17
6
12
11
5
9
9
6
9
9
8
8
8
5
9
11
5
10
11
7
8
10
5
7
9
4
5
5
4
1
1
3
2
3
0
3
4
1
1
3
3
2
4
4
3
4
3
3
3
4
4
4
4
4
4
3
4
6
4
3
6
5
0
2
6
0
1
4
5
3
7
5
4
8
5
5
7
7
7
6
8
7
7
8
6
9
8
7
10
9
9
10
11
11
10
12
13
10
12
15
11
13
17
12
15
20
13
17
21
13
14
19
13
12
17
14
10
16
13
6
12
11
2
7
8
0
2
5
0
0
3
0
0
2
4
4
3
4
3
5
0
3
5
1
4
5
2
4
7
2
4
6
4
3
4
2
1
2
8
8
1
18
14
5
21
12
6
15
9
2
6
4
4
3
0
5
4
5
9
6
10
13
9
12
13
10
13
13
9
14
15
8
13
14
8
12
10
8
12
9
8
13
11
5
11
12
3
9
11
4
7
8
4
3
4
6
2
1
5
3
0
4
3
1
5
2
3
7
1
4
5
1
4
4
1
4
5
0
3
7
3
1
7
5
0
5
3
0
4
4
2
4
2
2
4
1
0
4
0
1
4
0
2
4
0
1
5
1
2
7
3
1
7
4
4
5
4
4
4
4
2
4
4
2
6
3
4
5
3
3
5
4
2
7
7
5
7
8
6
7
8
7
6
8
10
3
5
7
4
4
6
5
5
8
7
6
11
7
5
12
6
5
12
7
6
11
4
5
9
4
7
8
4
7
8
1
6
5
0
6
4
1
5
4
2
5
5
2
4
7
4
0
6
5
3
2
6
4
2
5
3
1
5
1
3
7
3
3
8
4
1
8
4
2
8
4
1
7
4
2
5
4
3
4
4
1
4
4
2
4
4
1
4
4
0
4
4
2
4
4
2
4
4
1
4
4
3
4
4
4
3
3
4
1
1
4
2
3
4
3
4
5
3
3
7
4
2
7
3
2
6
1
1
7
0
0
6
1
1
3
2
2
3
2
1
4
3
0
5
4
4
7
4
4
8
1
0
9
0
1
11
0
3
12
0
4
13
0
4
14
3
3
13
4
1
12
3
0
12
1
0
12
0
2
10
0
3
7
0
2
6
0
2
5
2
2
4
3
3
5
3
2
7
4
0
7
4
1
4
4
3
4
5
5
5
5
7
4
4
4
3
3
3
2
2
2
4
2
2
4
1
1
3
0
0
2
0
0
3
0
0
4
0
0
3
0
0
1
1
2
0
3
4
0
3
1
1
2
4
2
3
4
1
4
4
1
3
4
2
1
4
2
1
4
4
2
4
4
1
4
4
2
3
4
0
0
4
1
0
3
4
0
3
4
1
1
1
3
4
0
4
6
0
4
5
0
3
4
1
3
4
3
2
3
4
0
1
4
0
0
3
0
1
1
0
3
0
0
3
0
0
2
0
0
2
0
0
1
0
0
1
0
1
4
0
2
6
0
1
5
0
0
4
0
1
4
0
3
4
0
3
3
0
1
2
1
1
3
3
4
4
4
4
4
4
1
4
3
0
4
1
1
5
0
3
7
0
3
7
1
2
5
2
2
4
1
2
4
3
4
4
4
4
4
4
4
4
4
1
4
4
1
4
4
3
4
4
4
3
4
4
2
4
3
4
4
1
7
4
0
8
4
1
8
3
2
8
1
1
7
1
1
5
2
2
4
2
2
4
3
3
4
4
4
4
4
4
4
4
1
3
3
4
4
1
2
5
0
0
7
0
0
8
0
0
7
0
0
6
0
0
7
0
0
8
1
1
7
3
4
5
4
3
4
4
0
5
4
0
7
4
0
5
4
4
4
4
4
5
4
0
5
4
0
5
4
0
7
4
0
7
4
1
7
4
4
7
4
3
7
4
1
5
4
4
4
3
3
5
1
0
4
0
4
4
1
5
5
4
3
4
4
4
4
1
7
4
3
5
5
4
1
5
2
0
4
4
3
4
4
4
5
1
3
6
0
2
5
0
4
4
2
4
4
4
4
4
2
4
4
3
1
5
4
2
4
3
4
3
1
2
1
0
0
1
0
0
3
0
0
4
0
0
4
0
0
4
3
3
5
4
4
8
5
4
8
4
7
9
2
5
11
6
5
8
7
8
5
6
5
5
4
1
4
5
0
3
8
4
4
5
8
5
4
4
8
5
3
7
5
4
5
6
4
9
4
4
11
1
5
9
2
4
7
4
3
4
6
4
5
4
1
5
255
255
255
255
255
255
4
5
4
5
7
4
7
7
4
8
5
1
7
5
3
7
4
4
9
5
2
8
5
2
8
4
1
13
3
3
10
4
2
7
3
1
8
5
4
8
5
5
9
5
4
13
8
5
13
8
2
11
8
4
8
8
5
5
8
4
7
8
3
10
8
0
10
7
3
5
5
4
5
7
1
5
7
4
4
4
7
7
2
4
4
4
3
2
4
3
3
4
2
2
5
2
4
2
4
3
0
3
4
4
4
7
5
4
4
4
3
5
5
4
7
7
3
8
5
2
10
4
4
11
5
5
11
4
5
8
5
5
7
8
4
5
8
2
4
8
4
4
7
2
7
7
2
8
8
1
7
7
0
5
5
1
8
7
4
9
8
5
7
11
7
7
9
5
8
8
4
8
8
7
7
8
7
7
5
5
8
4
5
8
5
4
9
5
5
14
8
7
14
8
4
13
8
3
15
12
3
17
13
7
16
10
7
13
9
2
7
7
1
3
2
2
5
5
3
7
8
7
7
7
5
8
8
5
9
9
7
8
8
5
8
8
1
7
8
3
4
5
4
2
4
4
1
4
4
2
2
3
3
4
4
2
5
4
3
3
4
3
4
4
4
7
5
5
10
7
4
11
7
3
9
5
2
8
4
5
9
7
10
10
10
10
9
11
7
8
9
6
8
8
5
7
8
4
5
8
4
4
6
4
5
3
6
8
4
9
11
7
9
12
9
9
13
12
14
17
16
16
18
18
17
18
17
17
20
15
15
20
14
12
17
14
9
15
13
8
13
11
8
11
8
7
8
6
4
5
7
1
4
7
0
4
8
0
3
10
3
4
10
4
4
12
3
4
12
11
10
11
17
15
11
6
7
10
4
7
14
5
8
17
7
11
18
7
13
17
5
12
17
8
12
19
10
12
20
9
13
20
9
14
20
10
13
20
10
13
20
12
16
19
11
18
16
8
16
13
7
12
12
3
8
8
2
2
5
4
2
3
4
3
1
5
3
3
7
4
4
8
4
4
8
4
4
8
4
4
7
3
4
6
3
4
6
0
4
6
3
3
6
2
1
4
1
0
1
1
0
0
2
1
1
2
1
4
4
2
4
4
4
4
3
4
3
1
0
2
3
4
2
4
4
4
5
5
5
7
7
7
8
7
8
11
5
7
11
4
7
12
5
7
13
8
7
14
10
5
12
9
4
9
8
4
7
9
4
5
10
4
4
9
5
4
8
5
4
8
5
4
8
5
7
10
3
5
7
0
4
3
1
5
3
4
4
3
7
5
1
7
4
4
5
4
4
4
3
2
4
1
0
4
0
2
4
0
1
3
0
2
1
0
1
0
0
0
3
0
1
4
0
2
4
1
3
5
3
1
8
4
3
10
4
4
8
4
3
5
3
1
4
1
0
4
0
0
4
0
0
4
0
0
4
0
0
5
1
0
7
3
0
8
4
1
8
4
4
8
4
3
8
4
3
8
4
2
8
4
1
7
3
4
5
3
4
4
0
5
3
4
6
1
3
6
0
3
7
0
4
8
0
4
8
0
4
8
1
3
8
2
3
8
1
2
7
2
0
6
2
0
7
0
1
8
0
3
8
0
4
9
0
4
10
2
3
9
4
4
8
2
3
7
1
3
5
4
2
4
6
4
5
5
7
5
4
5
4
1
1
3
1
1
4
4
4
4
4
4
2
4
4
3
4
3
4
4
1
2
4
1
3
4
3
4
4
4
4
4
4
4
4
2
4
4
2
4
4
4
4
4
0
4
4
3
2
4
4
2
4
4
1
3
4
4
3
4
0
5
4
1
5
3
3
4
0
3
4
0
2
4
0
4
1
0
4
0
0
4
0
0
4
0
0
4
1
3
5
4
4
6
4
1
5
3
0
4
1
0
3
0
0
2
0
0
4
0
0
4
0
0
4
0
0
2
0
0
2
0
0
2
0
0
2
0
0
1
0
0
1
1
0
3
3
0
4
4
0
3
4
0
1
4
0
0
4
0
0
4
1
1
3
4
3
1
4
3
0
1
2
1
0
2
3
0
2
4
0
3
4
1
4
4
2
5
4
1
7
4
1
7
3
2
5
1
1
4
2
0
4
2
3
4
3
4
4
4
4
4
3
4
4
1
3
4
0
1
4
0
1
5
0
2
7
0
3
7
0
2
6
0
2
7
0
1
7
0
3
6
0
3
7
0
1
7
0
3
5
0
2
4
0
3
4
0
2
4
0
0
4
0
0
5
0
1
7
0
2
7
0
2
6
0
3
6
0
4
6
0
4
6
0
1
6
0
0
7
0
0
7
0
1
6
1
4
6
3
3
7
4
0
7
4
0
5
4
0
4
2
1
4
2
4
5
1
4
4
0
2
4
1
4
4
3
4
4
4
2
5
3
3
4
0
4
4
0
6
6
1
4
4
4
4
4
4
5
4
2
3
5
4
0
4
3
1
1
1
4
0
4
3
3
4
0
4
1
3
4
0
4
5
1
1
4
4
4
2
4
4
4
2
0
4
2
2
1
3
4
0
2
2
1
0
0
5
0
0
7
0
0
7
0
0
5
0
0
5
4
4
8
4
5
8
4
4
7
4
7
7
1
5
7
5
4
4
7
7
3
6
4
4
4
0
4
2
1
4
5
4
4
7
7
5
4
4
7
4
4
6
7
4
5
5
4
7
4
4
7
3
4
7
1
4
4
4
4
2
6
4
4
4
0
6
255
255
255
255
255
255
5
5
4
7
7
4
7
5
4
5
3
3
4
4
1
7
5
4
8
4
5
5
3
0
5
1
0
10
1
1
10
4
2
7
6
3
8
6
3
7
4
4
7
5
3
8
7
4
5
4
4
2
2
6
1
4
5
3
6
2
7
4
1
9
3
1
9
5
4
5
4
3
4
5
0
4
6
4
5
4
8
7
2
4
1
1
1
2
3
3
2
5
4
2
7
3
4
3
4
5
1
4
4
4
4
4
3
4
3
1
1
5
2
2
6
4
3
5
4
2
5
4
2
6
4
6
10
2
6
7
3
4
4
6
4
6
8
2
4
8
3
4
8
3
8
7
4
7
7
4
7
8
1
7
7
2
7
4
3
5
4
4
4
7
4
5
7
3
5
7
5
7
8
8
7
10
8
8
10
8
12
10
10
11
10
8
11
8
8
15
11
10
16
13
8
14
12
8
13
11
7
11
12
8
10
13
8
14
16
10
15
18
10
13
17
9
12
16
7
13
17
8
12
16
11
12
16
12
14
18
12
16
20
13
17
20
9
17
20
8
17
20
8
15
20
7
12
19
5
10
16
4
10
13
5
9
13
5
9
13
5
11
15
7
13
17
8
14
18
8
12
18
7
8
16
5
6
15
4
7
13
5
8
12
7
8
12
8
7
11
8
4
8
7
2
5
5
3
4
4
4
5
4
4
7
5
4
8
7
4
8
8
5
8
10
7
9
13
10
11
14
13
13
14
15
15
14
16
17
15
19
20
16
20
24
17
19
26
18
17
25
18
15
23
18
12
20
16
9
16
14
8
13
15
7
12
16
5
12
16
4
13
17
5
15
20
5
17
23
12
20
23
21
26
24
18
26
25
17
25
25
16
24
24
15
23
22
12
19
17
9
14
14
8
12
16
9
12
19
11
13
20
12
15
21
12
16
23
13
17
23
15
18
21
15
18
19
16
18
18
16
18
20
16
20
23
15
20
23
13
19
21
12
17
20
12
16
19
11
16
17
8
14
16
5
11
16
5
11
17
7
12
19
8
13
20
8
14
20
8
13
19
8
12
17
7
12
16
5
12
16
4
12
15
4
12
13
5
10
12
7
10
13
8
9
15
7
8
16
5
9
15
4
11
12
5
12
10
7
12
11
10
12
10
13
14
7
13
13
7
10
12
7
8
12
6
8
12
7
7
12
8
5
8
7
3
5
5
0
3
4
3
0
4
5
4
3
4
4
4
4
1
3
6
5
5
4
5
7
3
5
4
4
5
4
4
3
4
5
6
4
4
4
5
0
0
4
0
0
1
0
0
2
0
0
1
0
0
0
0
0
0
0
0
1
0
0
2
1
0
1
3
0
2
4
2
3
4
2
2
4
1
1
5
3
0
7
4
0
7
4
0
5
3
0
4
0
0
4
0
0
4
0
0
4
0
0
4
0
0
4
0
0
4
1
2
4
2
3
5
2
2
7
3
4
8
4
4
7
3
6
6
2
5
6
4
4
5
1
4
4
4
4
4
1
2
4
4
3
4
2
4
4
2
4
4
4
3
4
4
2
5
4
4
6
1
4
5
0
3
4
0
1
3
0
1
2
0
3
3
2
4
5
1
4
7
2
4
7
3
4
5
1
4
4
4
4
4
4
5
5
4
7
6
4
7
5
1
7
4
0
8
5
3
8
7
4
7
6
2
4
7
3
4
8
4
3
8
4
2
8
4
2
8
4
2
8
4
3
7
3
4
5
1
5
6
3
5
9
3
3
9
5
4
8
7
3
8
7
3
8
5
5
8
4
5
8
4
4
7
3
4
5
1
5
5
0
6
6
0
5
5
0
4
4
0
4
4
0
3
4
0
2
4
0
4
4
3
6
4
4
5
1
1
5
0
0
6
0
0
5
0
0
3
1
0
3
2
0
1
1
0
4
0
0
4
1
0
4
3
0
3
4
0
1
4
0
1
4
0
3
4
0
4
4
0
4
4
0
4
4
0
4
4
0
4
4
0
4
4
0
4
4
2
4
4
4
4
4
2
4
4
0
4
4
0
4
4
0
4
3
0
4
2
0
4
3
0
4
3
0
5
1
0
7
0
0
7
1
1
5
3
4
4
3
3
5
2
0
7
3
0
8
4
1
7
3
3
5
1
4
4
0
4
4
0
4
5
1
1
7
2
1
8
2
2
7
3
1
5
4
0
5
4
1
7
4
1
6
4
2
4
4
2
6
4
2
8
4
4
7
4
4
7
4
4
7
3
4
8
2
4
7
3
4
5
4
3
5
4
1
7
4
0
8
3
1
7
2
2
5
2
2
5
1
4
7
0
1
7
0
0
5
1
0
4
4
0
4
4
3
4
3
4
5
1
1
4
0
3
4
0
4
5
0
2
6
3
4
5
4
5
5
1
6
6
0
5
5
0
4
3
1
4
1
4
4
4
3
1
4
3
0
1
4
3
1
1
4
3
1
1
4
4
0
3
4
4
3
1
4
4
0
1
2
1
4
4
4
3
4
3
1
1
2
4
1
3
4
3
3
1
4
4
0
5
4
0
4
3
0
3
1
0
5
0
1
7
3
4
8
4
6
7
5
5
7
4
5
7
0
5
5
4
4
3
7
6
4
5
4
4
7
0
4
5
3
5
4
4
4
7
5
5
5
4
5
4
4
6
7
4
7
5
4
7
4
4
5
4
4
7
1
4
4
4
4
3
5
4
4
4
0
5
255
255
255
255
255
255
8
6
4
8
5
3
7
3
4
5
2
4
5
4
0
8
5
4
7
4
5
4
1
2
5
0
2
12
1
1
11
4
3
7
7
3
6
5
2
5
4
4
4
6
4
4
5
4
4
7
4
4
8
5
2
8
6
5
11
3
7
8
1
7
5
4
8
7
4
7
5
1
5
4
1
7
6
4
8
4
6
5
1
4
2
1
2
3
3
3
3
4
4
2
7
4
5
4
4
7
3
4
4
4
4
0
1
3
3
0
0
4
2
2
3
4
3
4
2
2
6
3
3
7
4
6
9
3
5
7
4
4
5
5
4
7
7
3
5
10
4
4
10
3
7
7
2
7
7
4
7
9
4
8
10
2
8
10
3
7
10
5
7
10
5
7
10
4
5
10
5
7
10
8
5
9
8
5
11
9
10
13
12
10
13
12
8
10
10
12
10
10
16
12
8
15
13
8
14
15
8
14
16
10
15
15
8
15
14
7
13
14
5
10
13
4
10
13
4
11
16
5
10
15
7
10
14
8
10
15
9
12
17
13
16
18
12
18
18
9
19
19
8
19
19
7
17
18
5
15
18
5
14
18
7
15
20
8
16
21
8
16
18
8
16
16
8
17
17
8
18
20
9
18
20
11
18
20
11
17
20
9
15
20
8
13
20
9
12
19
10
12
16
9
9
12
9
8
11
10
8
12
10
8
11
10
6
8
8
3
5
5
3
4
4
3
4
4
4
4
4
4
4
4
4
4
4
3
5
5
5
7
7
7
8
6
7
9
8
8
11
12
8
13
14
8
15
13
8
16
13
8
15
15
8
13
15
7
13
13
5
14
12
5
12
11
2
9
9
4
10
10
11
16
15
13
19
18
14
20
18
14
20
18
13
19
18
12
17
18
11
16
16
9
16
14
9
16
15
11
16
15
13
18
15
16
22
18
18
24
20
17
23
20
17
22
21
20
24
23
23
27
24
25
28
25
26
28
27
25
27
29
23
25
30
21
24
28
20
23
25
19
21
24
17
20
23
15
19
21
14
17
20
15
16
20
15
16
20
13
16
19
12
15
18
11
13
19
9
11
20
7
10
19
6
12
18
7
14
19
7
13
20
5
12
20
4
12
19
5
12
16
7
11
13
7
9
11
5
7
8
5
7
7
7
8
7
9
8
7
9
7
5
5
5
3
2
5
2
4
8
5
7
9
5
5
8
4
1
7
2
4
4
4
6
4
5
3
4
4
4
3
3
5
6
5
5
5
7
4
4
6
3
3
5
1
1
5
3
5
7
4
7
10
4
6
11
4
7
12
4
8
11
4
8
9
4
8
8
4
8
8
4
8
8
4
8
8
4
7
8
4
6
9
4
8
11
5
11
11
7
12
9
7
11
8
4
9
8
3
7
8
2
4
8
0
2
7
0
2
5
0
2
5
0
3
7
0
4
7
0
4
6
1
4
8
2
4
11
1
4
10
0
4
6
0
4
4
0
4
3
1
3
1
3
3
0
4
2
0
4
3
3
4
2
4
4
3
6
4
2
5
4
2
4
4
1
1
3
2
1
4
1
3
3
0
4
4
0
4
4
0
2
4
0
3
4
0
4
5
3
4
7
4
4
7
3
5
5
1
7
4
2
8
3
4
8
1
2
7
2
3
7
3
4
7
3
1
8
4
0
8
4
3
10
3
4
10
0
4
10
1
3
8
4
0
4
7
3
1
8
3
1
8
1
3
8
0
4
8
0
5
8
1
6
8
3
5
8
4
4
8
4
3
8
4
4
8
3
4
8
4
5
8
1
5
7
0
5
5
0
6
4
0
6
4
0
6
4
0
7
4
1
4
4
2
4
4
1
4
4
0
5
4
0
6
3
1
5
1
4
5
0
4
7
0
1
7
0
0
7
1
0
6
4
0
5
4
0
4
4
0
5
4
0
6
4
0
5
4
0
4
4
0
2
4
0
4
4
0
6
3
0
5
1
0
4
1
0
5
3
0
7
4
0
7
4
0
6
4
0
7
4
2
7
4
4
6
4
2
6
3
0
6
2
0
7
2
0
8
2
0
7
3
0
5
4
0
4
4
0
4
3
0
5
2
0
7
4
3
7
4
4
5
5
1
4
7
0
4
7
0
4
5
0
5
4
0
7
4
1
7
4
2
5
4
1
4
4
0
4
5
0
4
6
1
4
6
2
4
7
1
4
8
2
4
8
1
4
8
3
4
7
4
5
5
4
7
4
4
8
4
4
7
4
3
7
4
2
6
4
2
6
4
1
7
4
0
7
4
0
5
4
0
5
4
2
6
4
1
6
4
2
6
4
3
7
1
0
6
0
0
5
0
0
4
1
1
4
3
4
4
4
3
5
4
1
4
3
4
4
1
3
5
0
3
4
1
4
4
4
3
5
4
3
4
3
2
4
1
4
4
0
4
4
3
1
4
4
0
2
2
0
3
4
4
4
4
4
4
1
0
4
1
1
4
4
4
4
4
3
4
1
3
4
0
4
4
3
2
2
4
4
3
2
4
5
3
1
7
4
0
7
4
0
4
4
0
4
4
0
4
3
1
8
0
4
9
1
4
6
4
5
5
6
6
5
4
4
5
1
4
4
3
4
2
5
5
4
4
4
4
5
1
4
7
4
6
4
4
4
5
4
4
7
4
5
5
4
5
7
4
8
7
4
7
5
4
4
5
4
5
3
5
5
3
4
4
4
3
4
4
0
4
255
255
255
255
255
255
8
4
4
5
3
1
5
1
4
7
3
4
8
4
0
9
2
3
7
4
4
7
3
1
9
0
0
13
3
3
8
4
4
4
5
1
5
5
3
6
4
4
3
3
2
2
6
4
5
7
6
7
5
4
7
5
5
7
8
4
5
7
2
6
6
4
8
7
2
8
7
0
7
5
3
7
7
5
5
4
4
1
2
3
0
4
4
0
4
3
0
2
1
2
4
3
6
5
5
5
4
4
4
4
3
7
4
3
7
3
3
5
2
2
4
4
3
4
3
4
5
1
4
8
4
5
8
4
7
7
4
7
5
5
5
6
3
1
6
7
2
4
11
2
5
9
0
7
7
1
7
7
4
8
7
3
7
8
0
7
9
4
8
8
4
8
10
0
8
11
1
7
9
4
4
5
5
5
3
4
8
5
4
8
7
6
4
7
7
2
4
5
8
4
4
9
4
2
7
4
3
7
4
7
2
4
5
3
3
4
7
4
6
5
5
4
4
2
2
5
4
0
4
6
0
6
4
0
4
4
1
1
4
5
5
5
8
8
8
8
11
11
8
13
13
9
15
15
10
16
17
9
16
19
9
16
19
10
16
18
10
15
18
10
13
16
9
13
14
8
15
16
8
17
18
8
17
17
9
13
15
9
8
12
6
7
8
4
5
7
5
7
11
5
5
9
6
2
6
5
1
6
4
3
5
4
4
4
4
4
4
4
1
4
0
5
4
2
8
5
3
7
5
2
5
3
5
4
1
4
5
2
4
4
2
2
0
1
4
3
3
6
5
5
8
7
8
9
8
11
10
7
12
9
5
11
7
5
8
5
7
5
4
7
5
3
2
2
2
0
2
2
5
7
7
10
12
10
11
14
10
10
13
11
11
12
13
12
14
15
12
18
16
12
20
14
12
19
10
12
17
8
12
16
8
11
16
8
9
16
9
9
17
11
12
19
13
15
20
15
16
20
16
16
20
15
16
20
14
16
19
15
16
17
15
15
15
13
13
13
12
12
12
11
12
11
8
8
8
5
5
5
3
4
4
1
4
4
0
4
4
3
4
4
3
4
4
4
4
4
4
4
4
5
4
4
7
3
5
7
3
5
5
2
7
4
1
8
4
3
7
4
4
5
5
4
4
5
4
4
5
4
6
5
5
5
7
7
7
7
9
8
8
9
7
5
5
4
1
4
5
1
7
9
4
8
10
7
7
10
5
7
10
5
7
8
8
7
8
8
8
8
8
8
10
9
8
12
11
7
12
11
8
12
9
8
12
8
9
13
9
11
15
12
12
16
15
12
16
16
12
16
16
12
16
16
12
16
16
12
16
16
11
16
15
9
16
13
8
15
12
8
13
12
8
13
12
8
14
13
8
14
15
9
15
16
11
16
16
10
15
16
6
12
16
4
10
16
4
11
16
5
12
16
7
12
16
8
12
15
7
12
13
5
12
12
4
12
12
4
11
12
4
9
11
4
8
9
4
8
8
4
8
8
3
7
8
1
5
8
0
5
9
0
6
9
0
5
7
0
5
8
0
6
10
0
5
9
0
4
8
3
4
7
3
3
5
1
1
5
1
0
5
1
0
7
2
0
7
3
3
7
3
4
10
2
4
12
1
4
12
0
5
11
0
7
9
0
7
8
1
6
9
4
7
10
3
5
9
1
1
7
1
1
8
2
4
14
4
6
18
4
5
16
5
5
14
2
6
13
0
5
11
0
4
11
1
4
12
3
4
12
4
4
11
3
4
11
1
4
14
0
5
15
0
7
13
0
4
11
0
3
9
0
2
9
0
0
10
1
1
10
3
2
9
3
1
7
2
1
8
3
2
8
4
1
8
4
2
8
4
0
8
4
0
7
4
0
6
4
1
8
4
4
11
4
4
13
4
4
14
4
4
13
4
3
11
2
1
9
3
0
8
4
1
8
3
3
9
1
4
11
1
3
11
3
1
9
3
0
9
2
0
10
3
0
9
4
0
8
4
0
7
4
0
6
3
0
7
1
0
8
0
1
8
0
4
8
1
4
8
3
1
8
5
0
7
7
1
5
7
2
4
5
1
4
4
0
5
4
0
6
4
0
7
4
0
7
4
3
7
2
4
7
4
1
5
6
0
3
5
0
3
4
0
4
5
0
4
7
0
4
8
0
4
8
0
3
7
0
1
6
0
1
6
2
3
5
0
5
4
2
6
4
2
5
4
2
4
4
0
4
4
1
5
4
3
5
4
4
7
4
3
7
4
1
5
5
0
4
6
0
4
5
0
5
4
0
6
4
0
5
3
0
4
2
1
4
2
3
4
2
3
4
4
1
5
4
0
4
3
0
4
1
0
3
0
2
2
0
4
4
1
2
4
3
2
2
4
4
4
4
2
4
1
3
2
0
4
4
1
2
4
3
4
1
4
3
3
4
3
4
1
4
3
1
1
2
4
0
4
4
0
4
4
4
4
5
4
4
4
0
4
1
3
4
1
4
4
4
1
5
3
4
4
0
4
2
1
3
4
4
4
4
4
1
5
1
0
5
0
0
4
0
0
5
1
0
7
4
1
5
3
4
5
0
4
4
0
1
4
3
4
4
5
5
4
5
4
4
3
5
1
1
3
3
4
4
5
4
5
5
5
2
5
7
4
5
4
4
3
4
4
4
5
4
7
5
4
5
7
4
7
7
4
7
7
4
3
7
4
4
4
6
6
2
4
4
4
2
4
4
0
5
255
255
255
255
255
255
5
4
4
2
0
3
4
1
4
6
4
4
7
3
1
7
0
1
5
4
4
7
5
4
8
3
1
9
4
4
6
3
4
5
4
1
7
7
4
3
3
3
6
2
0
5
4
4
6
4
7
7
4
4
10
4
5
8
7
4
7
8
1
8
7
4
9
7
3
8
8
0
9
8
4
9
10
7
5
5
4
3
4
3
1
2
1
0
1
5
0
1
2
1
1
1
5
5
6
7
5
4
5
4
2
4
3
1
2
3
2
4
3
2
5
4
1
7
4
4
8
3
4
11
5
2
11
5
3
10
5
6
10
8
7
10
7
4
7
6
3
2
5
1
4
7
0
5
7
0
5
5
3
10
7
4
11
9
1
12
13
4
13
13
4
12
14
0
12
15
0
11
14
1
8
13
4
8
12
5
8
10
4
8
8
5
5
8
8
4
7
7
7
7
7
8
7
6
10
7
5
9
5
5
7
5
7
5
5
8
6
4
7
6
6
7
4
3
5
4
1
4
3
5
4
5
5
4
5
5
4
6
7
5
6
6
7
7
7
8
8
8
7
9
9
6
10
10
7
10
10
5
10
10
4
9
10
5
7
8
4
5
8
4
4
8
4
2
5
1
5
3
2
7
5
3
7
5
2
10
7
3
13
9
2
12
11
2
9
10
3
7
10
2
7
8
3
7
4
4
8
5
3
7
6
2
4
3
0
3
3
4
4
6
4
4
4
4
5
4
5
4
4
7
1
1
8
0
0
8
3
2
7
4
6
10
8
9
11
11
11
8
12
12
6
12
12
8
13
12
10
14
13
9
13
14
7
11
13
7
11
11
5
11
10
5
11
12
8
12
14
10
13
14
11
15
15
11
15
15
11
13
13
9
12
12
9
12
12
10
12
12
11
12
12
12
12
12
9
12
12
6
10
11
6
6
9
5
5
8
4
7
8
4
8
8
4
8
7
5
8
7
7
7
8
8
7
8
7
5
8
5
5
8
5
7
7
7
5
7
5
5
7
4
7
7
6
7
6
4
4
4
3
2
3
2
3
2
0
4
2
1
3
1
2
3
0
1
2
0
0
1
0
1
2
2
2
3
3
3
3
2
2
3
1
0
3
0
0
1
3
2
0
4
4
3
1
3
4
3
4
2
5
7
4
5
8
4
5
8
5
7
11
9
8
10
8
5
6
7
4
3
7
7
3
8
7
5
10
9
7
11
12
7
11
12
7
12
13
7
12
15
8
13
17
9
15
19
11
16
19
12
16
17
11
16
16
9
16
16
8
16
17
8
16
18
8
16
17
7
16
16
7
16
16
10
16
16
12
16
16
12
15
15
12
13
13
12
12
13
12
12
14
12
11
13
12
9
12
12
8
11
13
9
11
15
11
13
16
11
13
16
9
13
15
8
14
14
8
14
15
8
14
15
8
13
12
8
12
10
8
11
10
7
9
9
5
8
8
4
8
9
4
8
11
4
8
12
4
8
12
4
8
12
4
7
11
3
6
9
0
7
9
0
8
10
1
8
10
3
8
11
3
8
13
1
9
15
0
11
16
1
11
15
4
8
12
4
5
10
1
4
11
0
4
12
0
4
12
1
5
12
2
6
12
3
5
11
2
4
9
0
4
9
0
5
10
1
7
10
3
8
11
4
8
12
3
10
12
2
8
13
0
8
15
2
8
16
1
8
16
4
8
17
4
8
20
3
8
23
4
8
23
4
8
21
4
8
19
3
8
16
0
8
14
0
8
15
0
7
17
0
5
18
0
5
18
0
7
18
0
6
16
1
3
13
2
3
12
1
4
12
1
3
11
3
3
10
4
2
8
4
1
9
4
2
11
4
2
12
4
2
11
4
2
10
4
3
11
4
4
12
4
5
13
4
7
16
4
8
19
3
7
19
1
5
16
1
4
12
2
2
10
1
5
12
0
6
15
1
5
16
4
4
16
4
4
15
4
2
13
4
2
12
4
1
12
3
0
12
1
0
11
0
0
11
1
0
12
2
0
10
2
0
8
3
1
8
5
4
8
7
3
8
7
0
7
6
3
5
6
4
5
6
7
6
6
7
5
5
4
5
5
1
8
6
0
8
5
1
8
4
4
8
4
3
7
1
0
5
1
0
5
3
0
5
4
0
2
4
0
1
4
0
3
4
0
4
4
0
4
3
0
4
2
1
4
2
2
4
1
1
4
0
2
4
0
1
5
0
3
7
1
4
7
3
3
5
4
2
4
4
2
5
4
3
6
4
0
6
4
0
6
4
0
5
4
0
4
4
0
4
4
0
4
4
0
4
4
4
4
4
4
5
5
0
7
6
0
5
5
0
5
4
0
6
4
1
5
4
4
4
3
4
2
1
2
4
1
4
5
4
3
4
4
1
5
3
4
7
1
3
5
0
3
4
1
4
4
4
2
3
4
4
1
1
3
4
1
0
5
3
0
4
4
4
4
5
4
4
5
1
4
4
4
4
3
3
4
4
1
5
4
4
4
1
3
4
0
4
5
1
4
4
4
0
5
3
0
5
0
0
4
0
0
5
3
1
7
4
4
5
1
4
4
0
1
2
0
0
2
1
3
2
4
4
4
7
4
3
5
5
1
3
4
5
2
6
7
4
6
5
6
1
5
5
4
5
5
4
4
5
3
4
5
4
7
5
5
7
7
4
6
5
4
6
7
4
5
8
4
4
5
6
5
4
4
4
4
2
4
4
1
7
255
255
255
255
255
255
4
4
4
4
1
4
5
3
4
5
4
4
7
1
4
7
0
1
5
4
2
4
6
3
5
2
2
10
2
5
9
2
4
7
4
2
5
8
5
1
1
2
8
4
1
7
1
4
0
1
5
5
4
4
8
5
6
8
7
4
8
9
1
12
10
3
13
8
4
10
8
1
11
10
4
11
11
8
5
5
4
2
1
0
3
1
1
0
0
4
0
2
5
0
5
5
1
4
5
4
3
3
2
3
3
4
4
4
8
5
3
10
5
2
13
5
4
16
5
5
17
5
5
16
7
5
14
7
6
13
8
7
13
11
7
14
10
3
14
11
0
12
11
0
7
6
0
1
2
0
3
7
1
5
8
4
7
8
4
9
10
4
11
10
4
11
10
3
12
12
1
12
13
0
9
13
1
9
13
5
11
14
5
11
12
5
7
10
8
5
8
8
7
7
7
5
5
4
7
7
3
8
4
2
8
4
4
7
7
8
7
4
4
7
5
3
5
5
4
5
3
1
4
4
0
4
3
0
1
1
0
0
4
0
2
3
3
1
1
4
4
4
4
4
5
4
5
7
4
5
5
3
4
4
1
4
5
4
4
3
2
4
2
2
3
5
3
6
7
3
8
5
2
9
8
3
11
8
3
12
7
2
11
8
1
8
8
1
7
5
3
6
5
4
7
5
5
5
2
5
5
4
5
7
6
0
7
7
2
3
1
2
3
7
6
7
10
8
7
10
8
7
10
7
5
9
6
4
8
8
5
9
11
7
11
11
10
12
8
8
12
5
9
13
5
11
14
7
12
14
8
13
15
8
16
17
9
18
20
11
20
21
10
20
20
11
19
19
12
17
16
11
15
13
10
13
11
9
12
9
10
11
8
9
9
8
8
8
7
8
8
5
8
8
4
9
7
5
12
5
6
11
4
5
8
4
3
4
3
1
2
3
3
2
1
4
3
3
5
0
5
7
1
5
7
2
5
5
3
4
4
3
4
4
2
7
5
3
5
4
2
4
3
3
4
7
5
5
5
5
5
4
5
4
4
7
4
4
8
4
5
8
4
7
8
5
7
8
7
5
8
8
4
7
8
5
5
8
6
5
7
5
7
5
4
8
4
3
7
3
4
5
0
4
5
1
1
5
4
2
6
3
4
6
4
3
6
4
4
7
1
4
9
5
5
10
5
7
10
5
5
8
5
5
5
4
6
5
5
6
7
8
7
7
8
9
7
8
11
4
9
13
4
12
15
4
15
15
4
15
15
5
13
15
7
12
16
8
12
16
8
12
16
8
12
15
8
12
14
8
12
15
8
12
16
8
12
16
8
11
16
8
10
15
8
11
13
9
12
13
11
12
14
12
11
12
12
9
10
12
8
10
12
7
9
11
5
7
9
5
5
8
7
5
8
5
6
7
4
5
5
3
4
5
1
4
7
0
4
8
1
4
8
3
4
8
4
4
8
4
4
8
1
4
8
0
4
8
0
4
8
0
4
8
4
4
7
4
4
5
0
4
4
1
4
5
4
4
7
4
5
8
4
7
9
4
8
11
1
8
11
0
8
10
2
10
12
4
8
13
2
8
14
0
7
13
1
5
12
3
4
11
4
4
9
4
4
8
1
4
8
0
4
9
0
4
11
2
5
12
2
6
11
2
7
10
2
8
11
1
11
13
2
12
15
1
11
15
2
10
13
3
11
13
2
10
14
1
8
14
0
9
15
0
9
16
3
8
15
4
8
13
1
8
12
0
7
10
0
5
6
0
4
5
0
5
7
0
7
9
0
7
11
3
5
10
2
4
7
2
3
6
4
2
5
4
4
7
3
2
6
1
3
10
0
3
11
0
1
9
0
1
9
0
3
11
0
4
12
0
4
11
0
4
9
0
4
8
0
4
9
0
4
11
1
5
13
4
5
13
4
4
12
4
7
13
2
4
13
4
4
11
4
2
11
1
4
12
1
1
11
2
0
10
1
2
11
0
0
12
0
0
12
0
0
11
3
0
9
3
0
8
4
0
8
4
0
7
5
4
6
5
4
6
3
0
7
1
4
7
2
6
5
6
5
4
7
5
5
5
5
8
4
3
8
4
0
5
4
0
5
3
3
7
1
4
9
0
3
9
1
1
6
3
0
4
3
0
4
2
0
4
2
0
4
1
0
5
0
0
7
0
0
7
0
0
5
0
0
3
0
0
2
0
1
3
0
2
5
1
1
6
2
0
6
1
2
6
0
0
5
0
2
5
0
4
7
0
1
8
0
2
7
0
1
4
0
0
1
0
0
1
1
0
4
3
0
4
4
3
5
4
4
7
4
1
7
4
0
7
5
0
8
6
0
8
5
0
7
4
1
5
4
4
4
4
3
4
3
3
4
2
4
4
3
1
5
4
4
7
4
4
6
3
2
5
1
4
4
2
3
5
4
4
7
2
3
7
0
0
7
0
0
7
1
4
7
4
4
5
5
3
4
4
4
4
4
2
4
4
4
5
4
4
5
3
2
7
0
4
8
0
3
8
3
0
7
4
0
7
1
1
7
1
3
7
4
4
5
3
4
5
0
1
6
0
0
5
0
0
4
0
1
4
1
4
4
5
4
2
7
4
4
5
6
7
3
7
5
3
5
4
5
1
4
5
3
4
5
4
4
5
3
4
5
4
7
5
6
8
6
4
7
4
4
7
5
4
5
8
4
2
7
7
4
5
4
4
4
1
5
4
3
7
255
255
255
255
255
255
4
4
3
6
2
3
7
4
4
5
4
2
7
0
4
8
1
4
5
3
3
1
4
1
7
7
2
13
7
7
17
5
4
12
5
1
7
8
6
2
0
4
7
4
2
8
0
3
3
1
5
3
2
4
6
3
5
4
4
4
4
6
2
9
10
1
11
10
4
10
8
3
12
10
4
12
9
8
7
6
5
2
4
3
3
4
5
2
6
5
3
5
5
4
4
4
5
4
3
7
4
2
7
5
4
8
5
3
13
7
1
13
7
4
14
5
4
14
4
4
12
4
4
8
4
3
7
3
3
7
6
4
7
8
4
7
6
2
4
3
1
6
3
0
7
4
0
5
5
0
3
6
0
4
8
1
4
7
4
4
7
4
7
4
3
8
7
4
8
8
4
10
7
1
8
8
0
7
8
3
8
10
4
10
11
4
7
9
5
5
8
7
6
7
7
6
7
5
9
8
4
9
5
3
7
4
4
7
7
7
7
4
4
6
3
1
4
5
4
4
4
3
3
2
0
2
2
0
1
1
0
2
4
0
2
4
3
4
2
4
4
3
4
1
4
4
3
4
4
4
2
4
2
2
4
4
4
5
5
5
7
6
7
7
6
8
6
9
11
7
11
10
5
11
12
4
10
10
5
4
5
4
5
8
4
7
11
4
7
12
4
5
10
4
5
11
5
7
12
8
8
13
12
8
15
11
8
16
9
10
15
8
11
18
8
13
21
8
14
23
8
14
25
8
15
26
8
16
26
9
16
26
10
15
24
9
12
20
8
9
17
9
8
16
11
9
17
11
10
18
10
10
17
10
12
17
10
15
19
12
17
22
15
17
22
16
16
20
15
15
16
13
12
13
11
9
13
9
8
14
8
8
13
8
8
11
7
8
9
6
7
8
6
5
7
6
4
5
7
3
4
8
4
3
7
4
2
5
1
3
0
5
5
2
7
5
4
8
5
0
10
7
3
7
4
4
4
2
3
4
2
3
7
4
3
8
7
2
8
4
1
7
3
1
5
5
4
5
4
4
5
3
3
4
1
4
3
1
4
2
4
5
4
7
7
6
10
7
5
10
6
4
10
7
5
9
9
7
7
10
8
7
9
5
6
7
5
5
5
5
5
5
3
7
7
1
5
8
3
4
8
4
4
8
4
2
7
4
4
7
1
4
8
3
4
8
4
5
9
5
5
11
4
4
12
1
4
11
2
3
8
2
1
7
3
3
8
4
4
7
4
4
5
4
3
4
5
4
4
7
5
3
5
7
2
5
8
4
6
8
7
6
8
8
7
9
8
7
10
9
5
10
10
5
11
9
7
12
8
7
11
8
7
10
8
4
10
8
4
9
8
4
8
7
5
7
5
5
5
5
4
5
6
4
5
5
4
4
4
5
4
5
7
4
7
5
4
8
1
4
8
0
4
8
0
3
8
0
1
8
0
1
8
0
3
8
2
4
7
4
4
5
3
4
4
3
1
5
5
1
7
7
2
8
7
0
8
5
1
8
4
1
7
4
2
5
5
2
4
7
3
4
6
0
4
2
2
4
2
0
4
1
2
5
4
5
8
4
4
12
1
4
13
1
4
10
4
4
8
4
1
8
3
1
8
1
3
9
0
5
12
0
6
13
0
5
11
1
4
11
3
4
11
4
5
9
4
4
8
1
4
8
0
4
8
0
4
8
1
4
8
3
5
8
4
7
8
4
8
8
1
8
8
0
8
8
1
8
8
4
7
8
4
6
8
3
6
7
1
7
5
0
7
4
0
7
4
0
5
4
0
5
5
3
6
7
2
5
7
1
4
5
4
5
5
2
7
8
0
5
11
0
4
11
0
4
9
1
2
7
3
1
5
3
3
5
1
3
7
0
2
8
0
2
7
0
3
5
0
3
4
0
2
5
3
4
8
4
4
10
2
3
8
4
5
8
4
1
5
4
4
5
1
2
4
0
4
4
0
3
4
1
2
4
2
1
4
2
0
4
3
0
5
4
0
6
4
0
5
2
0
4
2
0
4
2
0
4
4
3
4
3
4
4
0
1
5
1
4
5
4
7
4
2
4
6
3
7
11
3
5
10
0
3
6
0
0
3
0
0
3
0
1
6
0
3
9
0
4
10
3
4
8
4
1
6
4
0
7
4
0
7
4
0
5
4
0
4
3
0
4
1
0
4
1
0
4
3
0
4
4
0
4
4
0
5
4
0
6
3
0
5
2
0
4
2
1
5
2
2
6
3
2
5
4
4
5
4
4
4
4
4
4
4
4
4
3
3
4
1
1
4
0
0
5
0
0
4
0
1
4
0
4
4
0
3
4
1
0
4
3
0
3
4
0
3
4
0
5
3
0
5
2
4
4
3
4
4
4
1
5
3
4
5
0
3
5
1
4
7
3
5
4
4
4
4
3
5
4
2
5
7
4
4
8
2
1
8
0
1
7
0
3
5
0
4
4
2
4
4
4
4
3
2
4
2
4
4
5
4
4
7
4
2
5
4
4
7
0
4
8
0
1
8
1
0
7
4
0
5
4
3
5
3
4
6
3
3
5
2
2
4
1
3
5
0
4
7
0
4
8
0
4
7
0
4
5
1
4
4
4
4
5
7
7
5
5
5
3
4
4
4
5
3
5
5
2
5
5
4
5
5
5
4
5
5
7
6
5
8
5
3
7
5
4
5
5
4
4
7
4
4
7
8
5
7
4
5
5
0
7
2
4
5
255
255
255
255
255
255
8
4
3
8
2
1
10
4
4
11
3
4
11
1
3
10
4
3
2
2
3
7
2
2
4
3
3
6
4
8
13
6
4
14
8
1
10
8
5
5
2
6
7
4
2
11
7
4
12
8
7
12
9
5
13
11
7
12
12
5
12
13
3
13
12
3
11
10
4
10
10
4
11
11
4
11
7
7
5
5
6
3
6
3
2
3
4
5
3
4
7
3
4
9
2
3
11
3
1
11
4
4
10
4
4
13
4
1
13
6
2
8
3
3
7
2
2
7
2
4
4
3
4
2
4
4
3
5
5
5
8
5
8
13
6
12
13
5
12
14
4
11
13
1
7
9
0
5
7
0
2
4
0
0
1
0
3
2
3
4
7
4
7
5
1
7
5
1
8
8
4
9
7
4
8
8
1
7
11
2
7
11
5
10
11
5
10
11
5
8
11
7
7
11
9
7
10
9
11
9
7
12
9
5
10
7
5
10
8
7
10
10
7
12
10
5
15
12
5
16
15
7
16
16
8
15
15
7
13
13
5
12
12
4
11
12
5
10
12
7
12
12
7
14
13
7
14
15
8
14
15
7
12
13
7
10
12
10
11
12
12
12
12
12
12
13
11
13
16
10
16
16
11
18
19
11
20
20
10
15
18
8
15
19
8
17
21
8
16
22
8
14
22
7
15
23
6
15
24
8
14
25
11
16
26
12
18
24
12
17
20
11
16
17
9
17
18
8
19
22
9
21
25
11
23
27
11
24
28
9
24
27
8
22
24
9
18
21
10
16
20
10
14
18
9
10
14
6
7
12
5
5
11
7
5
9
7
7
9
6
8
12
7
7
12
8
7
12
8
7
13
8
6
15
8
7
16
8
7
15
7
5
12
5
4
9
4
4
8
5
4
8
7
4
7
7
5
5
5
4
5
7
4
4
8
4
1
7
3
4
6
6
7
6
4
5
7
4
4
5
4
7
5
2
8
7
1
8
8
3
7
8
7
7
8
7
8
7
4
4
5
3
1
3
5
4
5
7
3
3
5
2
3
4
3
3
4
2
2
5
4
5
3
5
7
3
2
7
2
1
5
2
4
6
2
6
10
2
7
11
5
5
8
5
4
5
5
5
5
7
4
6
5
5
6
3
7
6
2
7
6
3
5
6
4
4
6
5
5
7
4
7
9
2
7
11
4
7
12
7
7
12
6
5
11
5
5
8
6
4
7
4
0
5
2
0
7
5
1
8
8
4
7
12
8
5
14
9
4
12
7
4
10
7
3
10
8
2
8
7
3
4
4
3
3
2
4
2
2
4
2
2
4
2
4
5
2
4
6
3
4
5
6
4
4
3
4
5
0
4
6
0
4
5
4
5
4
5
4
3
3
2
1
3
4
2
1
5
5
1
4
5
4
4
4
5
4
5
2
4
7
0
4
7
1
4
5
3
3
5
4
0
7
4
0
7
4
0
5
5
2
4
5
4
2
5
3
4
7
4
4
8
4
4
7
4
5
6
2
7
7
3
8
9
4
8
11
5
6
12
7
3
11
6
4
9
2
6
8
1
6
8
4
7
7
4
8
4
0
8
1
2
8
3
2
7
4
4
6
1
4
6
0
1
5
0
0
5
0
2
7
0
1
8
0
2
8
0
1
7
0
1
7
1
4
7
4
4
8
4
4
9
4
4
10
4
4
8
4
4
6
4
4
7
5
5
8
7
6
8
5
6
8
4
7
8
4
7
9
4
5
10
4
4
9
4
5
9
4
7
11
3
8
11
1
8
9
0
8
8
0
9
8
1
10
9
2
8
10
2
6
9
4
6
9
4
7
11
1
7
11
0
7
9
0
6
9
2
7
10
3
4
8
2
3
5
3
5
4
0
3
4
0
4
4
0
4
4
0
4
4
0
3
4
4
4
5
4
4
7
0
3
4
1
4
4
2
2
2
1
4
4
1
1
4
3
4
4
4
4
4
4
0
3
5
0
1
6
0
0
6
0
1
7
0
3
7
0
4
5
0
4
4
0
4
4
0
5
4
1
6
1
4
5
1
4
5
4
3
5
2
4
7
2
6
10
4
5
11
1
3
6
0
1
4
0
1
5
0
2
7
0
2
8
0
2
7
1
2
7
4
4
7
3
4
8
1
4
8
2
4
8
2
3
8
3
1
8
5
0
8
7
0
7
8
1
6
8
3
7
8
4
7
8
4
5
8
4
4
7
4
4
6
4
3
7
4
3
8
4
0
8
5
2
8
7
4
8
6
0
8
4
1
8
5
4
8
5
7
7
4
7
5
3
5
4
1
4
4
0
3
3
3
1
1
4
4
0
1
5
0
0
3
1
0
4
3
0
4
4
0
4
4
4
4
1
4
5
3
1
7
4
4
7
1
4
7
0
4
7
0
6
5
4
4
7
4
4
7
1
4
7
4
2
7
4
3
5
1
4
6
0
5
5
0
6
4
2
5
4
4
5
4
2
5
4
3
5
7
4
4
7
4
4
5
4
4
4
1
1
7
0
0
4
0
1
5
1
2
6
4
3
7
4
5
7
3
3
8
4
4
7
3
5
7
0
6
7
0
5
8
0
4
8
0
4
7
0
5
5
1
4
5
5
5
5
7
4
4
5
4
4
4
4
6
4
3
6
5
5
4
5
7
5
6
7
8
5
4
8
5
1
7
5
4
5
5
4
5
6
4
5
5
8
5
7
4
4
8
0
5
5
4
5
255
255
255
255
255
255
10
2
2
8
3
0
11
4
2
12
1
7
8
3
5
5
4
3
5
2
1
8
4
1
5
5
4
11
8
7
17
10
4
20
14
3
16
14
5
11
12
5
10
12
4
12
13
5
16
14
7
18
14
5
17
17
7
17
19
4
18
19
4
17
16
5
15
13
6
14
15
5
12
12
5
10
6
7
5
5
5
7
7
4
10
5
5
13
5
5
13
6
6
13
6
5
14
7
4
13
7
4
11
5
1
11
5
0
8
5
2
6
1
2
7
3
2
5
2
3
4
1
2
4
2
3
3
0
4
0
2
1
4
7
3
7
10
5
7
10
5
7
10
4
6
8
1
2
4
0
2
3
0
2
3
0
2
1
1
4
2
4
8
7
3
5
4
0
7
5
1
8
5
4
8
5
3
8
8
3
7
8
2
8
8
4
8
8
4
8
8
4
7
10
5
4
8
8
7
7
7
11
8
4
10
5
4
10
5
5
11
7
5
12
8
4
11
8
4
10
8
4
11
8
4
13
9
4
14
10
4
13
10
1
12
11
0
13
12
3
15
12
4
15
12
3
12
11
3
10
10
4
9
10
1
5
8
2
4
5
2
5
4
4
6
4
7
7
7
7
8
7
4
12
10
5
15
14
8
15
14
8
15
14
7
13
14
5
13
15
4
13
17
5
14
18
6
14
17
5
14
16
5
13
15
6
11
13
5
8
10
4
7
7
5
7
7
6
9
8
6
12
9
7
15
12
8
16
14
8
15
12
7
12
10
5
9
9
4
8
10
4
7
8
3
4
4
3
3
1
0
5
4
1
3
3
4
5
2
3
7
4
0
3
3
0
1
2
0
4
4
0
1
4
2
2
3
2
2
3
2
2
5
2
0
4
1
0
4
4
2
3
4
5
5
4
7
7
5
5
6
5
5
3
7
5
0
5
4
2
4
5
5
5
4
5
7
3
5
8
3
7
9
4
8
11
4
9
12
4
11
12
7
13
12
10
14
12
11
13
11
7
8
8
3
5
8
3
4
8
3
7
11
4
8
11
2
7
9
4
4
8
8
1
4
9
5
4
6
6
5
5
7
5
1
2
3
2
6
4
4
4
6
4
1
4
1
4
3
4
3
4
7
2
4
5
5
3
5
7
1
7
5
0
9
4
2
9
3
2
5
1
2
1
2
6
1
6
8
7
8
8
10
10
7
7
7
8
1
4
8
2
4
8
7
3
7
11
3
7
13
5
7
15
6
6
15
1
8
13
1
11
13
5
11
16
7
6
17
7
5
16
7
5
17
5
6
15
5
5
9
4
4
6
4
4
7
4
4
7
4
4
5
3
4
3
1
4
1
3
4
2
4
5
2
5
7
7
7
7
5
5
5
7
3
4
8
4
4
9
3
3
10
3
2
8
4
2
5
4
1
4
4
1
5
4
4
7
3
7
8
0
8
8
1
7
7
3
7
7
4
7
8
5
8
8
7
7
8
7
4
7
6
1
5
7
1
4
4
3
4
2
4
4
2
4
4
2
4
4
2
5
5
5
8
7
1
7
8
4
5
7
4
4
5
0
5
4
4
6
3
4
6
4
4
7
4
4
7
0
5
6
0
4
6
0
4
6
0
2
5
1
1
3
2
1
3
1
1
4
0
3
5
0
5
7
1
7
8
3
8
8
4
8
8
4
8
8
4
8
8
4
8
8
4
8
8
5
8
8
7
8
8
8
8
8
8
8
9
8
9
11
7
9
11
6
7
10
7
7
11
7
7
12
5
6
12
4
7
11
3
8
10
1
8
10
0
8
9
0
8
8
1
8
8
4
8
8
4
8
8
1
7
7
0
5
5
1
5
5
4
7
7
1
4
4
4
5
2
0
3
3
0
2
4
0
1
3
0
3
1
1
4
0
4
4
4
3
4
5
0
3
3
0
4
4
0
4
5
1
4
6
4
1
5
5
4
4
7
3
4
7
0
4
6
0
4
6
0
4
5
1
3
5
3
1
7
4
1
8
4
3
8
4
4
6
4
4
3
4
4
3
4
4
4
6
5
4
2
7
1
2
8
3
2
7
3
1
4
4
0
1
3
0
3
1
2
5
0
0
6
0
1
5
0
3
5
3
4
7
4
3
9
1
5
11
0
5
12
0
4
11
0
4
9
1
4
9
4
1
11
7
0
11
8
3
9
8
4
8
8
4
7
8
4
4
8
4
1
9
4
0
10
4
0
10
5
1
10
6
2
9
5
3
8
4
4
8
4
0
8
4
0
8
4
3
8
5
4
8
6
4
8
5
3
8
4
2
8
4
3
7
4
4
5
5
4
4
4
5
3
3
3
1
1
2
0
0
2
1
0
4
4
4
6
3
4
5
1
3
5
4
4
5
4
4
5
1
4
5
0
5
4
3
5
5
4
4
7
3
3
7
2
3
7
4
4
5
4
4
4
3
5
4
1
4
4
1
4
4
4
5
4
4
4
4
4
4
5
5
4
6
5
3
3
5
1
3
4
0
7
3
1
5
1
4
5
0
4
7
3
3
7
4
6
5
1
5
4
3
6
5
4
5
7
1
4
5
0
4
4
0
4
4
0
4
4
0
4
4
0
2
5
2
4
5
5
4
5
6
5
6
3
5
8
2
5
9
4
8
8
6
8
11
5
7
11
4
4
10
5
4
8
4
4
7
6
4
8
5
4
8
4
7
7
5
4
5
7
0
4
7
4
6
255
255
255
255
255
255
3
2
2
3
3
0
7
4
3
9
3
8
5
4
5
3
4
0
2
0
1
8
3
4
8
5
4
15
10
5
21
12
5
21
15
4
17
14
6
11
11
4
9
11
4
8
10
5
9
11
5
11
12
5
12
14
5
13
13
2
12
12
2
12
12
4
11
11
4
10
11
3
8
7
4
7
4
7
5
5
5
7
7
4
10
5
5
8
5
4
8
4
2
7
3
1
7
4
2
6
2
1
4
1
0
4
3
0
4
4
2
4
1
2
5
3
1
6
3
2
7
3
3
5
3
3
2
1
5
2
2
1
3
2
2
3
4
4
4
5
5
3
7
7
4
8
5
3
5
3
4
3
1
3
4
0
0
2
0
4
1
4
7
6
4
4
4
0
5
4
0
8
4
3
8
5
4
8
8
4
7
8
1
8
8
4
8
8
4
8
8
4
8
9
4
4
8
8
3
6
7
7
7
4
7
5
2
8
4
4
10
4
5
8
4
4
7
4
4
5
4
3
4
3
0
5
1
2
7
4
4
7
5
2
7
4
0
7
5
1
7
6
3
5
5
4
7
5
5
7
5
3
7
5
2
4
6
1
1
4
0
1
1
1
4
4
4
5
4
6
5
4
4
7
4
3
6
4
2
4
4
3
6
5
4
6
7
4
8
8
4
9
8
5
11
8
6
13
9
5
13
10
4
9
9
4
5
8
4
3
8
4
3
8
4
2
7
4
0
5
3
2
3
3
2
1
1
1
0
3
2
2
4
6
5
4
4
3
4
2
3
3
4
6
2
4
4
4
4
4
1
6
5
0
5
5
3
8
5
4
8
7
1
5
4
1
4
2
2
4
3
1
2
2
1
3
5
3
3
7
2
1
4
2
1
1
4
3
2
4
5
3
0
9
7
4
11
8
5
10
5
4
10
2
5
9
3
4
7
4
1
5
4
1
2
1
4
2
5
8
4
6
11
5
7
11
6
8
9
5
8
9
5
10
10
5
13
10
10
14
11
13
16
13
12
17
15
12
15
15
11
13
13
9
12
12
7
11
11
4
8
8
2
5
4
3
4
3
2
2
5
5
3
4
9
5
2
9
5
4
7
4
4
5
3
4
5
4
4
7
3
5
10
4
6
12
10
5
14
9
3
15
7
0
20
10
2
22
13
2
18
12
2
8
5
2
1
2
1
4
5
3
11
11
6
11
13
11
9
12
15
6
12
16
7
11
17
7
10
19
10
12
20
13
16
20
15
19
21
14
20
23
12
19
25
5
13
23
4
7
19
11
3
14
15
3
11
15
4
9
13
5
8
7
3
7
6
1
5
9
2
5
7
0
8
2
3
10
3
3
9
4
3
7
6
2
6
8
4
7
10
7
8
8
7
7
12
8
5
17
11
4
20
15
2
22
18
2
19
15
1
14
9
3
10
4
4
6
1
4
4
0
4
4
2
5
5
3
7
8
2
6
10
4
6
8
7
4
8
5
3
8
3
2
7
5
1
3
3
3
2
3
4
3
4
4
1
4
5
0
3
5
1
5
4
2
0
1
1
4
4
0
2
4
0
2
4
3
3
4
4
2
4
2
0
5
3
3
6
1
5
6
0
5
7
0
7
7
0
7
4
4
4
4
5
3
2
5
2
0
3
2
2
1
1
2
0
3
3
0
4
3
0
4
1
0
4
1
0
4
3
0
4
4
0
4
4
1
4
4
3
5
4
4
6
4
4
6
4
4
6
4
5
5
5
4
4
4
4
4
4
5
4
5
5
4
7
3
1
7
3
0
5
2
1
3
0
4
4
0
3
3
1
2
4
2
4
4
3
4
4
2
4
4
0
2
4
0
3
5
3
5
7
2
4
5
3
5
5
0
5
7
0
4
8
0
4
8
0
4
7
3
5
5
4
5
5
1
5
7
0
3
5
0
3
4
1
4
4
5
5
4
7
5
4
5
7
1
5
5
0
7
4
1
7
5
3
7
7
4
9
8
4
9
8
4
8
8
4
8
8
4
8
8
4
8
8
3
8
8
2
8
7
4
7
5
6
5
2
5
5
4
5
7
4
6
8
4
5
8
4
4
7
3
4
6
3
4
7
4
2
7
4
3
5
2
5
4
3
7
3
0
8
0
0
8
0
2
8
0
0
8
0
1
8
3
4
7
4
4
5
1
3
5
3
4
7
4
4
5
4
1
4
4
0
4
4
0
4
4
0
4
4
0
4
5
3
3
7
3
1
7
4
4
5
1
4
4
1
0
4
2
1
4
2
4
4
3
3
5
4
0
7
5
1
7
4
4
5
4
4
5
4
4
7
5
3
8
6
3
8
5
4
7
4
2
2
1
1
0
1
4
3
4
5
4
3
6
3
4
5
2
5
5
4
4
5
4
3
4
1
4
1
1
7
3
3
4
4
4
2
4
3
4
5
1
3
4
3
3
1
4
4
0
4
1
0
4
3
1
4
4
3
4
1
4
4
4
5
5
4
7
5
0
5
5
0
6
4
1
7
4
4
7
3
4
7
0
3
5
1
5
3
4
7
2
4
7
3
2
4
4
4
3
4
4
2
2
4
3
3
4
4
4
4
3
4
4
2
4
3
4
5
3
4
5
6
4
5
5
6
5
2
4
8
3
4
10
4
7
8
5
6
9
4
4
7
4
3
5
6
3
7
4
3
7
5
3
8
5
4
7
2
5
5
4
4
4
7
1
4
7
3
5
255
255
255
255
255
255
3
1
1
2
1
1
5
3
4
9
4
7
9
5
4
7
5
0
3
3
3
1
1
4
7
4
1
16
10
4
19
11
7
14
10
5
10
9
5
5
4
4
7
5
4
6
5
6
7
7
4
5
7
4
5
8
4
5
7
1
4
5
1
4
4
4
1
3
3
4
4
0
5
4
4
4
1
7
3
3
4
4
5
2
9
7
4
11
8
5
8
6
4
5
3
4
5
4
4
5
4
4
7
5
4
10
8
4
14
11
5
17
12
6
18
12
5
17
11
4
17
10
5
17
10
4
15
9
7
11
6
6
5
2
4
2
1
2
3
3
3
4
5
5
5
8
5
5
7
4
2
4
4
0
2
1
2
2
0
4
2
4
5
4
4
4
5
0
5
5
0
7
5
1
8
7
3
9
8
3
7
8
2
7
8
4
9
7
5
8
7
4
7
8
3
5
8
7
4
7
8
7
8
8
7
8
5
7
7
3
5
5
4
6
4
2
5
1
4
5
4
4
3
4
0
0
0
2
1
1
4
4
4
2
5
4
1
2
3
3
6
5
4
7
7
4
7
4
4
7
6
3
6
6
4
4
4
4
3
5
3
2
3
1
3
3
4
4
1
5
4
4
4
5
5
4
4
5
4
5
8
4
8
11
5
11
12
7
13
12
7
13
11
5
11
9
4
10
8
4
9
8
4
7
8
5
7
9
8
10
12
10
11
13
8
8
10
6
5
7
5
2
4
2
2
2
0
4
3
1
4
4
2
5
4
1
4
2
2
5
2
2
5
4
1
5
4
4
4
6
4
5
6
4
6
4
5
6
4
7
4
4
5
0
2
5
2
3
6
2
4
5
0
3
4
1
2
4
3
5
4
4
1
4
4
2
3
5
1
1
7
4
2
8
8
4
10
8
3
11
5
4
10
5
5
10
7
7
11
7
8
10
5
8
6
4
8
4
4
8
2
3
8
4
4
8
4
4
7
4
4
6
4
5
7
4
8
8
6
12
9
11
14
12
14
18
15
13
19
15
11
17
12
8
14
10
7
10
8
8
8
6
7
10
7
7
12
8
8
15
9
7
15
10
4
11
10
1
7
10
2
7
10
3
5
10
5
3
10
8
2
10
11
7
8
15
11
8
12
5
5
10
3
1
12
8
1
9
4
3
15
8
4
14
10
4
4
4
4
1
2
4
7
8
7
13
14
13
15
16
17
15
17
19
18
19
21
20
21
23
22
24
25
25
25
26
23
21
22
17
17
15
18
18
15
12
15
16
5
10
15
3
6
13
1
4
11
6
4
11
11
7
12
7
7
13
4
6
14
3
5
12
4
4
9
1
4
8
5
4
7
8
6
7
10
5
4
12
7
5
12
8
7
11
8
8
13
8
7
18
12
7
23
18
6
26
20
2
28
22
1
25
19
3
18
14
4
13
12
4
12
12
4
11
10
2
9
5
3
7
1
3
3
3
0
4
7
2
4
5
3
1
3
2
3
6
2
6
5
5
4
5
7
5
7
9
6
8
10
4
6
8
1
2
4
0
0
2
1
5
3
4
4
3
7
6
0
10
10
3
14
12
3
13
11
1
8
9
1
7
7
2
6
4
2
2
4
2
0
4
2
5
8
5
3
4
3
3
1
1
7
6
2
8
8
0
7
7
2
5
5
0
4
4
0
4
4
0
4
4
0
4
4
0
4
3
0
3
1
0
1
2
0
0
0
0
1
2
0
4
3
3
5
4
4
4
1
1
4
0
0
5
2
0
5
4
0
4
2
1
4
0
2
1
0
2
1
3
4
3
5
2
5
7
3
6
6
4
4
3
4
2
4
4
2
1
4
1
1
4
1
4
5
2
7
7
1
7
8
0
7
8
0
7
8
0
7
9
0
5
10
4
5
8
4
5
6
0
5
7
1
2
4
4
3
2
7
7
3
8
7
4
7
7
5
7
7
4
10
7
1
11
9
0
12
11
0
12
12
0
12
11
1
11
9
3
9
8
4
8
8
4
8
8
4
9
8
4
10
8
2
9
8
2
8
8
3
9
8
2
11
9
2
11
10
2
10
9
0
11
8
0
12
8
2
12
7
3
11
5
4
9
5
4
7
4
3
4
2
3
1
1
5
0
2
5
0
3
4
0
4
5
0
4
7
4
4
7
4
4
4
0
4
2
3
5
4
4
5
4
1
4
5
0
3
7
0
1
8
0
0
8
0
0
8
3
3
7
2
2
5
3
3
4
2
2
3
0
0
0
0
0
3
0
0
5
1
1
4
3
2
4
3
3
4
3
2
4
2
0
2
2
1
2
5
3
2
5
4
4
5
5
4
8
5
2
7
3
4
3
3
4
2
4
4
3
2
4
4
4
4
3
6
5
1
5
4
4
4
2
4
5
3
1
7
4
0
3
4
3
2
4
4
4
4
4
3
2
4
4
3
5
3
4
6
1
5
5
4
6
4
3
6
3
1
6
1
4
7
4
3
8
5
0
7
5
0
7
4
3
7
4
4
7
4
2
7
1
4
5
0
4
4
1
5
4
4
7
5
3
4
6
1
4
5
3
4
4
4
4
4
4
4
5
3
4
7
2
4
8
3
4
7
5
1
5
7
4
5
7
5
5
8
4
5
8
5
6
8
8
6
8
10
7
8
8
5
9
8
4
12
7
6
12
4
4
10
2
5
11
4
4
8
5
1
6
7
3
8
5
4
8
4
5
255
255
255
255
255
255
7
0
1
5
0
4
3
0
5
5
1
5
7
4
4
7
7
3
3
4
4
3
3
3
6
4
0
12
8
4
16
10
7
13
12
6
9
10
5
2
5
5
3
3
4
1
3
5
4
6
4
1
4
3
4
5
4
4
6
1
4
3
2
4
2
4
1
1
3
4
2
3
5
3
4
3
2
4
3
3
4
5
6
4
8
9
4
12
11
5
15
12
4
13
9
5
13
8
6
13
7
5
11
7
4
11
7
4
12
9
4
12
11
4
12
11
4
12
9
4
13
8
5
13
8
4
16
9
5
17
9
6
13
6
5
8
3
4
5
1
1
5
1
3
7
4
4
7
5
4
5
7
5
4
5
4
4
5
3
5
6
4
5
5
4
5
5
1
7
5
0
5
7
0
7
8
0
10
7
0
7
7
1
7
8
4
10
7
7
8
7
5
7
8
2
7
9
4
5
8
7
5
7
8
4
7
7
4
5
5
6
4
4
5
4
2
5
3
3
6
3
4
4
4
3
1
1
2
1
1
4
5
5
2
10
8
2
13
8
4
15
10
3
16
9
3
14
8
1
9
7
1
7
4
4
4
1
4
3
5
4
1
5
2
3
7
4
6
9
5
9
11
7
10
12
8
11
12
8
13
13
8
15
14
8
15
13
7
14
13
5
13
14
4
10
13
5
8
11
6
9
10
6
11
11
7
13
13
8
15
14
8
15
13
8
12
11
7
9
8
5
7
7
4
5
7
1
2
5
2
4
4
2
7
4
1
7
3
2
7
3
1
5
1
0
4
4
1
1
5
3
4
5
4
5
7
4
5
8
5
5
8
7
4
7
7
4
4
6
3
4
7
0
2
8
2
2
8
3
5
7
3
4
5
3
4
4
4
3
3
4
4
3
5
7
5
10
8
5
10
7
5
5
7
6
4
5
7
5
3
10
6
1
10
7
3
6
8
6
3
7
4
2
2
3
4
5
4
7
5
4
5
5
4
5
7
5
7
8
7
8
7
8
8
7
9
8
5
10
8
5
8
7
8
8
8
7
8
8
7
7
4
7
6
4
9
11
8
12
16
12
16
20
14
19
23
17
20
24
19
19
24
19
17
24
18
14
19
18
11
11
16
11
10
14
14
12
11
6
5
7
4
5
8
11
10
11
14
14
12
17
16
12
15
15
13
7
9
15
5
9
16
8
11
17
11
12
15
12
12
12
12
12
9
12
13
8
12
15
8
12
16
9
11
15
11
8
13
10
10
8
9
15
12
7
10
11
8
8
12
9
11
14
11
12
13
13
12
12
14
11
10
13
7
7
12
4
4
13
7
5
13
1
1
6
9
5
1
13
8
4
13
11
5
10
10
3
12
8
4
14
8
4
13
8
4
11
7
5
14
12
8
16
18
8
10
10
4
13
13
2
19
17
1
22
19
2
23
20
4
23
18
4
19
13
4
12
8
0
3
3
4
6
4
7
9
8
9
11
12
11
12
13
11
9
8
8
4
4
7
4
2
4
3
2
4
1
2
4
3
6
5
2
7
6
1
4
5
3
7
4
5
4
4
5
3
3
8
5
0
11
8
1
14
12
3
17
15
4
16
14
3
13
12
1
12
11
0
8
7
1
3
4
4
2
5
6
4
5
5
3
4
5
7
1
5
11
6
1
12
8
2
12
8
2
12
8
2
12
8
1
12
8
0
12
8
0
12
8
1
11
8
2
9
7
1
8
5
0
7
4
3
4
3
4
2
0
4
3
0
4
4
2
4
4
4
4
2
2
4
1
0
4
1
0
4
4
3
5
4
7
7
5
4
7
4
4
6
4
2
6
4
4
5
4
1
4
4
4
4
1
6
6
0
8
9
0
7
8
0
4
5
0
1
4
1
3
3
3
4
4
5
4
5
5
5
4
5
7
5
8
10
5
12
12
2
11
11
3
8
8
2
7
7
3
10
7
4
11
4
3
9
4
0
8
4
1
7
1
3
5
0
4
4
1
4
4
3
4
4
4
3
5
5
2
7
6
3
7
4
1
5
1
2
4
3
4
5
5
4
7
7
2
8
8
2
8
8
4
8
7
3
8
5
4
7
4
5
4
3
5
5
5
4
4
4
4
2
4
4
0
4
5
0
4
7
0
4
8
0
4
8
0
4
7
3
4
5
4
4
4
1
5
4
1
7
5
4
7
7
3
6
8
0
5
8
0
4
8
0
3
7
0
1
4
4
2
4
3
3
4
4
4
1
6
6
2
5
5
0
3
3
4
1
1
6
0
3
3
0
4
3
2
3
3
3
1
1
3
1
2
4
3
1
4
3
3
4
1
4
3
4
2
5
6
4
7
5
5
5
4
4
3
3
4
0
3
4
3
5
4
4
7
4
3
7
2
2
4
4
4
5
5
4
5
6
1
1
5
1
2
4
3
4
1
4
5
3
4
4
4
4
2
5
4
4
7
4
4
7
4
1
6
4
3
7
3
4
7
2
1
7
4
0
5
5
0
4
7
4
4
7
4
5
7
2
7
5
4
5
3
2
4
1
4
3
4
7
4
4
2
4
0
2
4
0
3
4
0
3
3
0
2
2
2
3
4
0
3
6
1
1
6
4
0
6
5
3
5
7
4
4
8
4
4
8
4
5
9
5
5
11
8
7
12
10
7
12
10
4
12
11
5
13
12
5
12
9
4
13
8
3
15
7
2
15
7
3
14
7
2
14
7
3
255
255
255
255
255
255
7
4
2
7
1
4
6
0
5
4
1
4
5
4
4
7
6
2
4
4
1
5
4
2
8
4
0
14
7
3
18
11
5
19
17
7
18
18
8
13
15
8
10
13
7
7
10
7
7
10
5
7
10
4
7
10
5
5
10
4
5
8
4
5
7
5
3
5
5
4
4
3
2
3
1
6
6
3
8
8
5
8
8
7
8
8
7
9
9
7
12
12
7
15
14
7
16
13
5
15
12
4
13
11
4
11
9
3
8
7
1
5
5
1
5
5
3
7
7
4
10
7
5
8
7
4
6
4
4
8
5
4
12
7
2
11
5
4
8
4
3
7
4
1
5
4
3
5
4
4
7
5
5
4
7
4
3
5
4
4
4
4
5
5
4
5
4
2
6
6
3
5
8
4
6
8
3
9
5
1
7
5
0
7
9
1
10
9
5
10
8
7
7
7
4
5
7
1
5
7
4
5
5
7
4
5
7
4
7
7
5
5
7
5
4
5
7
4
4
7
3
4
4
4
3
4
3
2
8
5
3
11
8
3
12
7
4
12
7
7
8
7
4
9
5
3
10
4
1
8
2
3
3
2
4
2
4
2
6
7
4
10
13
4
13
17
5
16
18
7
20
18
8
23
19
8
23
20
8
20
18
8
16
14
8
12
12
7
9
13
7
9
14
7
11
14
8
12
15
8
13
16
8
15
16
8
14
15
7
10
12
5
8
10
5
10
10
6
8
11
7
8
10
9
8
10
9
7
10
8
8
10
8
8
9
7
5
5
5
5
1
4
4
0
3
1
4
1
1
4
0
5
2
0
5
2
0
4
3
1
3
4
3
1
3
3
4
3
2
3
3
3
0
2
4
1
2
4
4
4
4
2
5
5
2
7
7
4
7
8
4
7
8
5
8
8
10
13
8
13
16
8
15
20
8
17
23
8
18
23
8
16
20
8
12
16
8
8
12
7
10
11
5
5
11
4
5
11
5
7
9
6
8
7
6
8
5
7
7
5
7
5
6
5
6
5
4
4
4
4
2
7
5
5
8
8
8
10
10
7
10
10
7
8
10
7
8
10
7
7
8
5
5
6
8
9
7
11
15
10
13
20
15
17
24
20
21
29
23
23
29
24
24
27
26
22
26
26
18
21
24
18
20
24
20
21
24
24
24
24
27
26
24
24
24
23
18
21
21
16
19
20
15
17
18
12
15
13
10
13
10
9
10
8
7
6
7
5
3
4
1
1
2
3
4
3
7
10
7
12
11
12
14
14
14
13
15
14
12
14
13
12
14
11
12
12
10
9
7
9
0
1
7
10
5
3
14
9
1
16
10
7
21
14
5
24
18
3
23
19
5
21
18
7
20
15
8
20
13
7
20
12
5
16
12
4
12
8
5
14
12
8
14
20
9
7
10
5
4
7
2
7
10
0
12
12
1
11
8
5
7
9
10
10
12
11
12
11
11
11
11
13
8
11
13
9
13
12
11
15
11
13
17
10
14
17
10
11
13
7
6
8
2
2
4
2
1
1
0
1
1
2
2
3
2
2
5
5
4
8
4
5
5
4
4
6
6
7
10
8
7
10
6
2
4
2
5
2
0
8
6
2
10
10
2
13
11
1
13
10
3
12
8
4
11
4
5
8
2
6
5
4
4
3
4
2
1
2
4
4
0
3
7
3
2
8
4
2
9
4
1
11
4
0
12
5
0
13
7
2
14
8
1
13
7
3
11
5
4
9
3
5
7
1
7
5
0
8
4
0
7
3
1
5
3
4
4
2
3
4
0
0
4
3
1
4
4
3
6
1
8
9
4
8
8
3
4
5
3
1
4
3
4
5
1
4
7
4
8
8
2
5
8
0
4
8
0
4
6
1
2
2
3
4
0
5
10
3
8
12
4
10
12
3
10
14
4
12
15
6
17
17
8
18
18
8
16
16
13
14
14
12
14
14
9
13
12
7
8
10
8
5
9
9
4
6
8
4
4
4
4
3
1
4
1
3
4
3
3
5
3
4
7
5
5
9
8
3
10
10
3
8
7
4
5
2
6
4
4
8
2
4
8
1
3
8
0
1
8
2
3
8
4
5
8
3
4
7
4
5
7
7
8
7
4
5
8
1
4
7
0
4
5
0
4
4
0
4
4
0
3
4
0
1
4
1
1
4
4
3
5
4
4
7
1
5
8
3
7
8
4
5
8
1
5
8
0
6
8
0
5
7
0
4
7
5
4
5
8
8
6
10
10
3
11
12
4
9
11
1
8
9
4
7
7
6
5
7
4
4
5
2
4
4
0
4
3
1
4
3
2
3
2
4
2
1
5
3
3
5
4
5
7
5
7
10
4
7
9
5
4
7
4
2
5
1
4
5
1
6
4
3
7
2
4
5
4
4
2
5
4
4
5
5
3
4
4
1
3
3
4
2
1
5
3
0
5
5
0
3
5
0
3
5
1
4
7
4
1
6
4
0
6
3
4
7
4
4
6
4
0
5
2
0
5
3
0
4
5
4
4
7
4
4
7
1
5
7
4
4
5
3
0
4
3
0
5
7
4
7
6
4
5
5
0
3
4
3
2
1
3
2
0
3
2
2
4
3
0
3
4
0
4
5
0
4
7
2
3
8
6
2
8
7
5
8
5
8
9
5
7
11
6
5
12
7
6
11
7
4
10
9
5
12
12
6
12
12
4
13
12
1
15
11
4
16
8
7
16
6
5
16
7
2
255
255
255
255
255
255
8
6
2
8
2
4
6
0
5
4
2
4
5
4
4
7
3
3
9
4
3
10
5
3
11
4
0
14
5
1
17
7
4
15
11
4
19
16
5
19
19
8
17
20
11
16
20
13
15
20
12
13
19
9
13
17
8
10
14
7
7
9
5
8
8
5
7
9
7
7
11
7
8
11
8
8
10
8
8
10
7
9
10
6
10
10
7
9
9
8
8
8
8
9
9
8
10
11
8
10
12
8
9
11
7
6
9
5
4
7
4
4
5
4
4
5
3
4
6
2
7
7
4
7
7
3
4
4
1
4
4
4
8
5
4
8
5
4
6
7
4
5
7
3
4
5
1
2
4
2
4
2
4
6
4
2
4
3
4
4
4
4
6
6
3
3
4
3
3
5
4
6
8
4
7
8
4
8
4
3
6
3
0
5
5
0
7
7
3
9
8
5
9
7
5
7
6
4
5
5
5
4
5
6
4
5
5
4
7
7
4
7
7
5
5
5
8
5
4
9
5
5
5
3
4
7
4
3
8
6
4
4
5
3
7
7
2
11
11
5
10
12
5
10
11
7
10
9
7
9
9
4
9
11
3
12
13
1
15
15
4
17
16
7
19
16
8
19
16
8
18
17
8
19
19
8
20
19
7
19
16
6
16
14
6
15
15
7
15
16
7
16
16
8
16
16
8
15
16
9
13
15
10
11
12
8
7
8
5
2
5
4
2
5
4
5
5
5
4
7
7
5
7
8
5
7
8
6
5
5
10
6
2
9
7
4
7
8
5
4
5
4
1
1
4
0
3
4
3
4
1
7
4
0
5
4
0
4
3
0
3
1
1
1
2
3
3
3
3
2
3
2
1
6
3
0
9
4
3
9
4
4
8
4
7
9
5
8
12
7
8
15
8
9
16
8
12
17
8
17
20
8
23
25
9
28
30
10
32
33
10
33
35
11
30
36
12
26
33
11
19
26
8
11
20
5
9
17
5
10
16
7
8
15
8
5
12
7
4
8
5
7
5
4
7
4
4
7
5
5
5
7
7
5
8
8
8
10
9
9
13
13
11
17
16
11
16
14
8
12
11
5
8
9
3
5
8
1
4
8
1
5
9
5
9
11
12
17
13
21
27
16
31
34
22
38
39
28
38
38
30
33
33
27
29
29
22
27
27
20
23
24
20
18
21
19
16
20
16
15
19
14
13
16
14
12
14
13
12
14
13
12
13
15
13
12
15
13
8
13
8
5
11
5
4
8
7
7
6
10
7
7
9
7
8
7
7
8
4
4
8
5
5
7
8
7
5
13
8
5
19
13
4
22
17
4
25
19
2
25
20
5
25
19
4
22
15
4
19
12
5
17
12
7
15
9
7
15
8
5
15
10
5
13
10
1
12
11
4
14
15
8
14
20
10
8
12
6
7
7
2
4
5
2
6
10
7
18
22
14
27
30
17
27
28
17
22
25
15
16
22
14
10
18
13
8
16
12
8
15
12
8
13
12
10
13
12
14
15
11
16
16
9
15
16
8
13
14
8
10
9
8
7
4
8
4
4
7
4
7
7
4
5
5
5
8
7
8
11
7
11
14
7
13
15
7
13
15
8
7
12
7
2
5
5
3
4
4
5
4
4
7
7
4
9
8
4
10
8
4
9
7
5
6
4
2
2
1
4
2
2
6
3
2
6
3
0
6
4
0
5
4
0
4
4
0
4
4
1
3
5
2
2
7
3
4
5
2
7
4
0
8
5
1
8
6
3
7
6
3
5
7
1
4
7
3
4
5
4
4
4
1
4
4
2
5
3
1
7
0
5
8
4
10
8
4
8
7
0
5
6
0
5
7
2
5
7
3
7
5
3
1
3
4
4
2
5
8
4
7
12
3
10
16
1
15
19
5
15
17
5
13
16
5
13
17
7
15
15
5
17
17
11
19
21
12
21
24
14
23
27
17
25
29
19
24
30
20
22
32
20
22
34
18
21
32
17
20
29
15
19
27
15
17
24
13
16
20
11
15
15
6
11
9
2
7
8
5
7
10
5
10
11
8
8
7
6
7
4
6
5
1
6
4
0
7
4
0
7
4
3
5
5
5
5
5
4
5
5
8
7
8
9
5
5
4
5
0
5
7
0
7
7
0
7
5
0
5
3
0
4
1
1
3
2
3
0
1
3
0
2
4
0
2
2
1
3
1
4
4
4
4
4
2
2
4
0
3
4
0
3
5
1
4
7
7
8
8
10
11
11
5
8
5
6
8
3
10
11
3
13
13
4
14
14
5
13
15
3
12
15
2
11
14
2
9
10
4
7
7
7
4
5
10
1
3
9
1
4
9
4
7
13
5
8
13
3
5
11
5
0
8
9
2
6
9
4
7
8
5
5
8
8
5
8
7
8
7
5
7
5
5
4
5
2
1
4
3
1
4
4
4
4
4
5
1
4
7
0
2
7
0
4
7
0
3
5
3
0
4
4
1
4
1
4
5
2
3
5
4
0
6
2
0
5
0
1
4
1
4
4
4
4
4
4
3
4
4
4
3
5
3
1
5
2
2
8
6
3
12
8
3
14
8
2
12
8
5
9
4
3
7
1
2
5
2
4
4
0
5
4
0
6
4
0
5
4
2
5
4
3
6
5
4
7
7
7
8
8
5
5
8
4
3
8
4
3
8
3
4
9
4
5
11
5
5
13
7
5
16
10
5
18
15
6
17
18
7
15
13
7
14
10
3
255
255
255
255
255
255
10
8
3
8
2
4
2
0
2
6
1
4
8
4
4
8
3
1
8
1
3
7
4
3
6
4
0
10
4
0
17
5
4
12
7
4
10
8
1
14
10
3
16
10
5
16
12
8
15
14
10
14
15
9
16
17
10
17
18
8
13
16
5
13
16
5
15
16
5
16
16
7
15
15
7
13
13
5
12
12
4
11
11
4
9
9
5
8
8
7
8
8
7
8
8
6
7
8
7
5
8
7
4
7
5
4
5
5
4
5
6
4
5
4
3
4
3
2
4
2
5
7
3
7
7
4
4
4
1
4
4
1
8
5
4
5
4
4
4
3
2
4
3
2
4
3
2
4
4
3
4
3
3
7
4
2
4
4
4
4
4
4
6
5
2
3
4
2
4
5
1
5
8
0
7
7
4
8
4
4
7
5
0
4
4
0
3
6
2
5
7
4
7
7
3
7
7
2
6
5
6
4
5
6
5
5
2
4
6
4
1
5
7
4
5
5
8
7
5
12
8
8
13
8
8
13
8
8
15
10
7
16
11
5
17
12
5
19
14
7
20
17
7
21
17
6
22
17
7
21
17
7
19
15
5
18
15
4
18
15
4
16
12
4
13
9
4
11
8
4
9
8
4
8
8
4
8
8
4
8
9
4
9
11
4
12
11
5
14
9
6
12
9
5
8
10
4
5
9
5
4
7
6
3
7
5
6
4
4
4
4
2
3
4
2
4
4
2
2
4
1
5
4
3
8
6
6
11
7
6
11
5
2
7
3
2
6
4
3
4
7
0
1
5
1
0
4
4
3
5
4
7
7
4
5
7
4
4
5
4
1
3
4
1
3
4
3
6
4
5
9
4
7
11
4
8
12
4
9
13
4
10
15
4
10
16
5
11
17
4
12
19
3
13
20
2
16
20
4
19
21
5
20
23
7
21
24
8
24
26
9
27
31
11
29
35
11
29
35
10
25
30
8
20
22
8
16
17
8
12
15
8
10
14
8
7
13
7
5
10
7
7
7
6
7
7
5
8
7
4
8
6
4
7
7
5
7
10
7
11
15
9
16
20
12
19
24
15
20
27
16
19
27
16
16
24
16
12
19
14
9
14
9
9
12
5
12
14
4
16
19
2
21
25
5
26
31
8
28
34
11
25
30
12
24
25
13
23
24
15
19
22
14
14
17
11
11
13
11
9
12
12
8
13
13
9
15
15
10
15
16
10
13
15
9
11
13
10
9
13
7
5
10
5
4
7
9
7
5
11
7
6
8
6
6
7
5
7
7
5
8
11
8
8
14
10
8
17
11
6
16
13
3
10
9
4
9
9
4
13
10
5
14
7
4
8
4
1
6
4
0
6
5
0
6
4
0
9
5
4
10
8
7
8
5
5
8
7
7
8
8
5
6
10
7
6
14
13
8
17
16
13
25
16
24
33
17
32
37
17
28
31
14
22
24
11
19
22
8
16
19
6
13
14
8
11
12
11
9
12
12
8
12
12
7
12
12
6
12
12
7
12
12
9
12
11
10
12
10
10
12
11
10
10
11
8
8
10
7
10
12
8
11
14
11
11
13
11
10
11
10
12
11
12
16
14
16
19
15
17
22
12
15
20
9
11
14
7
5
8
5
1
4
4
0
1
4
0
0
4
1
2
7
3
0
6
5
1
4
6
2
3
5
1
5
4
1
5
4
3
4
3
3
4
1
2
5
0
4
7
1
4
7
4
4
7
3
4
7
1
3
7
2
2
5
1
4
5
2
4
7
3
4
8
3
2
8
4
4
8
5
4
8
6
0
8
5
3
7
4
4
7
4
7
8
3
8
10
0
8
9
1
8
7
4
3
5
8
4
4
12
12
2
16
20
3
21
25
8
26
31
13
29
34
15
31
35
17
28
32
15
25
29
13
23
26
11
20
22
8
17
19
10
18
24
13
16
21
3
19
24
4
20
24
7
20
24
8
19
22
4
17
19
5
15
18
8
13
15
4
11
11
4
9
8
3
8
6
2
6
7
11
4
5
16
2
8
16
0
6
13
5
7
13
3
1
8
5
3
5
8
8
4
10
10
2
9
8
1
8
5
2
6
6
8
7
8
8
6
14
8
7
12
5
6
8
4
0
7
4
0
5
4
0
4
4
1
3
4
4
4
4
8
5
4
11
4
2
12
7
1
10
7
0
6
5
2
4
4
1
4
3
3
1
2
4
1
4
3
3
2
4
5
4
4
8
10
6
7
10
12
4
8
13
3
8
14
2
6
13
4
2
9
8
7
1
11
12
5
12
15
5
13
15
5
14
15
5
12
12
7
10
10
7
7
8
4
5
5
4
4
7
7
4
5
5
6
2
1
6
2
4
8
4
3
11
7
3
12
9
0
12
12
4
11
12
7
10
11
2
8
9
2
8
5
3
5
4
4
4
4
5
5
5
5
4
4
5
1
3
5
0
4
5
0
1
4
1
1
4
4
4
4
4
4
5
3
1
5
4
0
4
2
1
4
0
4
4
1
5
5
4
7
7
4
7
7
2
7
5
3
5
4
0
4
5
2
4
6
2
2
4
7
3
2
12
8
5
11
8
5
10
7
2
10
5
4
9
4
6
7
4
5
5
4
6
4
3
5
6
4
3
9
4
3
10
7
8
9
5
4
7
5
1
7
5
4
7
3
4
7
1
3
10
2
4
15
8
2
20
15
5
24
22
5
27
28
7
27
29
8
24
22
5
255
255
255
255
255
255
11
11
4
13
8
5
12
5
1
11
4
4
10
5
4
7
5
3
6
4
4
7
5
1
5
6
0
5
5
0
14
5
4
14
7
4
11
8
0
10
8
0
10
8
0
10
7
4
12
7
5
14
8
2
15
11
6
19
16
7
20
18
5
18
18
5
18
18
6
16
17
5
13
16
4
11
15
4
9
12
4
7
8
3
6
6
2
6
7
3
6
8
4
6
7
4
7
5
4
5
4
5
3
4
5
2
3
2
2
4
2
2
4
5
2
0
4
2
2
1
3
5
1
6
6
4
4
3
3
4
1
0
7
4
4
4
3
4
4
3
2
5
4
1
4
2
2
6
4
4
5
3
2
5
4
3
3
4
3
4
4
4
7
4
3
4
4
0
4
6
0
4
7
0
5
6
4
8
4
4
8
5
0
4
5
0
3
7
3
4
5
4
5
5
1
8
7
3
5
4
5
4
4
5
6
7
2
4
7
3
3
7
7
2
8
7
4
9
7
8
11
7
13
12
7
16
12
7
18
12
7
17
12
7
17
13
8
19
14
9
20
13
10
20
13
8
20
15
6
20
15
7
20
13
9
19
11
10
17
9
8
14
8
5
10
8
4
8
7
4
7
4
4
4
1
3
3
1
2
2
3
2
2
3
1
2
3
2
3
3
2
6
2
1
6
3
2
5
3
1
5
4
0
5
7
3
5
6
4
3
4
4
3
4
1
4
4
0
4
5
3
7
4
4
8
5
5
9
7
5
7
4
2
3
2
2
4
3
3
7
5
4
8
8
5
8
11
8
8
12
10
10
13
9
10
14
7
10
13
5
10
12
3
9
12
1
8
12
2
9
12
5
12
12
5
14
12
4
14
13
4
14
15
4
13
16
5
14
16
5
18
16
6
19
17
6
17
19
7
15
19
8
13
16
8
11
14
8
10
15
7
12
16
6
14
16
7
13
17
10
14
20
8
15
17
5
13
15
4
13
16
4
11
15
4
10
14
5
10
14
7
8
14
8
7
13
8
7
12
7
8
13
6
11
15
8
13
16
10
14
17
9
15
18
10
16
20
9
19
23
11
20
25
12
21
27
12
22
27
11
20
24
9
16
21
7
13
20
5
12
20
4
12
19
5
12
17
7
15
20
7
14
20
7
11
16
7
9
16
8
9
15
8
11
13
8
11
11
9
9
9
10
8
10
9
7
12
8
7
12
8
8
11
7
11
10
8
11
6
7
7
6
7
4
9
12
8
13
17
14
16
17
14
15
16
13
14
17
14
14
18
16
14
18
12
11
16
10
11
11
6
13
7
2
10
5
4
11
4
8
10
5
7
8
7
7
8
8
8
9
8
8
11
7
8
12
5
11
13
5
14
16
10
17
20
12
21
26
14
27
34
19
32
41
24
35
46
27
35
45
26
34
39
21
33
35
17
25
27
15
15
17
9
10
10
6
8
7
6
8
6
5
8
7
4
8
8
4
8
8
4
7
8
5
5
8
6
4
8
7
3
8
10
2
8
12
4
8
12
7
10
11
8
12
9
10
14
9
8
13
11
8
11
12
8
9
12
8
9
13
7
10
15
7
10
16
10
11
16
13
13
15
12
15
12
12
17
9
10
16
9
7
15
10
4
13
8
1
11
5
1
9
5
2
9
8
1
10
10
41
48
48
110
120
118
139
151
149
105
121
125
53
73
87
23
42
61
8
21
40
2
7
24
4
1
12
7
1
6
8
4
4
8
4
4
7
5
5
4
1
7
3
4
8
3
2
7
3
1
5
5
4
4
7
3
4
7
4
4
5
6
5
3
1
5
2
4
7
3
5
5
5
7
4
8
4
5
12
8
7
17
17
7
20
20
4
24
21
10
26
23
14
25
25
12
21
21
9
18
17
4
18
16
2
15
14
1
11
11
2
11
11
5
11
15
12
4
6
15
3
4
18
4
9
21
4
12
22
5
15
24
7
21
25
8
24
24
9
26
27
10
28
30
9
27
29
8
24
27
7
21
24
5
16
17
3
13
14
1
7
10
4
2
5
8
8
4
11
13
6
10
12
4
5
7
4
4
11
9
5
16
13
10
21
13
12
21
10
7
17
10
4
10
8
4
4
4
4
0
1
4
3
0
4
4
0
5
3
1
8
5
4
11
10
7
12
11
4
12
13
4
11
14
3
10
12
2
9
7
4
6
2
4
4
2
4
5
4
4
7
3
4
7
4
4
5
7
7
2
8
10
3
15
15
5
18
18
7
16
16
7
14
12
3
8
11
1
6
9
1
8
10
2
10
8
3
7
7
5
5
6
5
7
7
7
8
3
10
10
1
11
13
5
12
15
7
12
15
6
11
12
5
10
10
3
11
11
3
12
13
4
11
14
5
11
15
8
14
17
8
15
19
5
15
17
4
14
13
4
12
12
5
10
11
4
8
8
3
5
7
4
3
7
5
1
4
4
0
3
5
1
3
6
4
2
5
5
1
4
7
0
2
5
3
4
1
5
5
3
5
7
4
5
5
3
4
4
3
3
5
2
4
6
2
5
6
3
7
7
5
9
9
7
10
11
4
7
11
3
2
10
2
3
8
7
4
7
10
7
5
9
7
6
8
5
3
9
5
3
12
7
1
12
5
2
11
5
8
8
5
5
5
4
4
6
4
2
9
6
1
9
5
4
8
4
4
10
8
2
11
10
3
11
8
1
15
9
5
20
18
7
23
19
4
255
255
255
255
255
255
13
13
4
16
15
7
17
15
4
13
12
5
11
10
5
8
8
4
7
7
4
7
5
1
5
4
0
4
4
0
8
3
3
11
5
4
12
5
4
9
5
3
8
7
1
8
5
3
9
5
4
10
7
3
10
7
5
12
8
6
14
11
4
12
12
3
11
12
4
11
12
3
8
12
1
7
11
3
5
10
4
4
8
4
4
7
1
4
5
0
4
4
1
4
5
2
7
5
3
7
3
6
5
4
6
3
4
3
2
3
2
1
4
4
2
2
4
3
4
1
2
4
0
5
5
4
7
4
4
4
0
0
5
4
4
5
4
4
4
4
1
6
4
2
5
2
2
5
4
4
6
2
4
4
4
4
2
4
1
5
4
3
7
4
4
3
3
3
4
5
1
4
7
0
4
7
3
7
4
4
7
4
4
5
6
3
4
7
4
4
5
4
4
5
4
7
8
5
5
5
5
5
7
5
8
10
4
10
11
4
9
13
5
7
14
6
5
13
5
5
13
5
7
14
7
8
14
7
9
14
7
11
13
7
12
12
8
13
12
9
15
12
11
15
12
12
13
11
9
12
9
8
12
7
8
11
5
8
9
4
8
7
4
7
5
4
5
3
4
4
3
4
3
5
3
3
4
0
2
2
1
0
5
4
3
7
5
4
8
5
3
8
4
1
5
4
0
6
5
1
5
5
2
5
5
1
4
4
1
1
4
4
1
4
2
4
4
2
7
6
5
8
4
4
7
4
3
7
5
4
8
8
5
11
12
7
12
13
8
13
11
9
15
11
11
16
13
11
15
15
9
14
16
8
15
17
8
17
19
8
19
21
9
20
22
11
20
21
12
19
19
11
17
17
9
16
16
9
16
16
10
16
15
9
16
13
8
16
13
8
17
15
9
19
16
11
18
16
12
14
15
11
12
13
9
11
12
8
8
10
6
5
6
2
4
4
1
7
5
5
5
12
7
5
11
4
8
12
4
13
16
3
13
18
1
10
18
1
12
20
3
15
22
5
15
21
7
14
21
8
15
22
8
17
23
8
19
25
8
19
24
7
15
20
5
10
17
3
8
13
3
8
12
3
9
13
4
12
16
5
15
18
7
14
17
8
9
14
7
5
10
5
4
8
4
5
9
4
10
13
5
10
13
7
7
8
4
4
8
2
5
9
4
6
12
7
7
12
8
7
12
8
8
10
7
7
7
6
8
11
7
10
15
8
14
18
11
10
17
10
8
18
12
12
19
16
16
23
18
20
27
17
21
27
16
20
22
16
20
21
16
22
21
20
22
20
22
20
18
18
14
17
11
8
16
8
7
16
7
10
15
6
15
17
7
19
20
8
21
23
9
24
25
11
28
28
12
33
32
13
38
35
16
40
36
19
40
37
20
41
39
20
42
40
19
41
40
16
40
39
14
37
34
15
29
26
15
18
17
12
13
10
8
8
7
6
5
5
7
4
5
8
4
7
7
4
7
5
4
5
4
4
4
4
4
4
4
3
5
5
4
6
8
3
6
10
1
7
9
4
9
8
7
11
8
8
12
8
7
13
8
6
12
8
2
11
7
1
9
6
4
7
6
1
5
5
1
4
5
6
5
8
4
5
10
5
8
8
8
9
8
8
11
9
8
12
10
5
12
10
4
13
8
3
14
8
2
13
9
168
157
126
255
255
255
255
255
255
255
255
255
255
255
255
255
255
255
255
255
255
255
255
255
255
255
255
255
255
255
255
255
255
234
235
228
185
190
192
142
151
159
103
118
132
71
89
108
43
63
85
22
42
63
9
25
43
4
9
27
7
2
14
8
5
5
8
5
4
8
7
4
2
6
21
7
16
32
12
18
25
9
11
10
8
12
11
9
13
15
9
12
17
5
15
18
4
19
21
7
22
23
7
22
24
5
22
23
4
19
20
7
16
17
8
18
17
9
25
20
12
30
25
15
34
30
16
36
32
15
35
31
13
33
29
12
32
28
13
32
28
13
27
25
9
21
23
5
16
19
2
10
12
3
3
5
7
11
8
6
12
3
7
12
1
10
15
5
12
17
6
10
12
2
10
19
9
8
18
13
7
15
10
6
12
6
5
7
4
7
4
4
9
7
3
11
8
4
11
8
4
9
8
4
8
7
4
7
5
4
5
5
5
8
11
8
8
10
8
7
8
3
8
7
1
8
8
5
8
5
5
8
1
2
8
4
0
7
4
3
5
3
4
3
2
5
1
6
7
0
8
9
0
7
10
0
5
8
3
7
5
5
11
7
4
13
11
4
14
12
4
15
13
5
15
14
6
12
12
4
8
8
1
5
7
1
2
4
4
4
1
8
9
1
10
13
4
11
14
5
12
14
6
10
12
4
8
8
1
8
5
1
8
5
4
8
8
3
8
9
2
10
13
5
10
15
6
11
15
6
13
15
4
15
17
0
17
18
3
15
17
5
12
15
6
9
13
4
8
10
3
7
11
3
5
10
4
4
7
4
6
4
4
10
5
5
9
7
5
8
5
5
8
5
4
6
7
4
7
5
4
7
3
5
5
1
6
4
2
5
3
1
5
1
5
10
6
10
18
7
12
22
5
11
20
4
8
17
2
6
15
2
6
12
0
4
9
4
3
8
4
2
9
2
6
11
7
8
13
8
10
11
5
7
10
2
5
9
2
3
8
4
3
8
3
2
4
4
6
4
5
8
4
7
12
7
8
14
8
6
12
10
5
10
10
255
255
255
255
255
255
10
10
4
10
11
5
9
12
4
10
12
5
11
11
7
10
8
5
9
8
5
8
7
4
8
6
4
8
7
4
9
5
5
10
4
6
11
4
5
11
2
4
12
4
4
12
5
2
8
7
4
7
8
5
5
8
5
5
8
7
8
8
5
7
8
3
7
7
5
8
7
4
7
7
0
7
8
0
7
10
1
5
8
4
4
8
4
2
5
3
2
2
1
3
4
3
6
6
4
8
4
4
5
4
5
4
4
5
3
3
4
0
4
2
3
4
4
4
4
4
1
2
1
4
4
4
8
4
4
5
0
0
4
4
3
6
4
4
5
4
1
5
4
0
6
1
1
5
4
4
5
3
6
3
3
4
3
4
1
7
5
1
5
4
2
2
1
2
4
4
3
3
6
4
4
7
4
5
5
4
5
4
4
7
5
4
5
8
4
7
8
5
7
8
5
8
11
5
8
10
7
8
9
7
8
9
6
8
11
6
9
12
7
10
12
7
9
12
7
7
12
7
5
11
7
4
10
7
5
11
9
6
11
9
5
9
8
4
8
8
5
8
7
7
7
8
7
5
7
4
4
5
0
3
2
4
0
2
7
1
3
7
3
3
7
4
3
7
4
3
7
4
4
5
3
4
3
0
1
2
2
0
6
4
3
5
4
4
5
4
3
5
2
1
4
3
1
5
4
3
5
3
3
3
3
1
3
2
0
3
4
3
1
4
3
3
5
4
7
8
7
10
9
5
12
11
7
13
12
8
15
13
9
16
14
11
16
14
12
16
15
11
16
15
8
15
13
5
14
13
5
15
15
8
16
16
11
16
16
12
16
16
12
17
17
13
19
20
14
20
22
13
19
20
12
17
18
12
15
18
12
13
17
12
12
15
11
11
13
9
9
12
8
9
12
8
11
12
8
12
12
8
11
11
8
9
8
8
7
5
7
4
4
5
5
2
3
8
4
4
4
8
5
1
5
7
3
4
7
7
7
6
11
13
6
12
16
5
12
19
4
13
21
4
16
23
5
19
24
8
19
24
10
17
23
8
15
21
6
13
19
6
11
15
4
8
9
1
5
5
4
4
5
3
4
7
3
4
8
5
5
10
6
7
9
5
7
6
4
4
4
4
2
4
4
4
9
3
7
11
2
7
10
4
5
9
4
7
11
4
8
13
4
7
14
4
7
14
4
6
15
5
5
14
7
5
12
9
8
12
10
11
15
10
16
20
13
16
22
15
16
21
15
16
20
12
15
19
9
14
18
8
14
20
7
14
17
5
15
15
5
15
14
10
17
14
14
18
15
17
15
14
12
15
16
10
13
17
10
12
15
5
12
13
4
12
12
3
12
12
1
13
13
2
15
15
6
17
16
8
20
17
8
22
19
9
20
19
10
18
17
9
18
16
7
18
16
5
18
17
5
17
18
8
16
16
10
14
13
10
9
11
11
5
9
12
3
7
11
2
5
9
3
4
8
4
4
7
3
3
5
4
1
4
4
3
5
1
4
6
4
4
5
3
3
4
0
1
4
0
3
5
3
4
6
5
5
6
6
8
6
5
11
6
4
11
6
1
9
5
3
8
4
3
7
4
1
5
4
5
5
5
4
4
7
1
5
7
4
4
7
5
5
7
8
7
10
8
9
13
8
11
12
7
10
10
5
7
8
255
253
187
255
255
255
255
255
255
255
255
255
255
255
255
255
255
255
255
255
255
255
255
255
255
255
255
255
255
255
255
255
255
255
255
255
255
255
255
255
255
255
255
255
255
255
255
255
255
255
255
255
255
255
255
255
255
255
255
255
255
255
255
255
255
255
255
255
255
255
255
255
255
255
255
255
255
255
254
240
213
23
25
26
5
11
8
7
15
15
8
15
19
10
22
25
11
26
28
9
24
26
8
22
23
7
22
21
5
22
20
5
24
19
7
24
18
9
25
19
11
27
20
12
28
21
13
30
23
15
32
24
15
29
23
13
23
20
10
17
15
5
10
9
6
7
5
4
5
5
5
7
3
8
15
7
8
18
7
8
14
3
6
7
1
3
3
4
6
7
7
4
9
4
13
23
9
10
16
7
8
14
2
11
15
0
12
16
1
12
15
4
12
13
2
11
10
4
10
7
6
11
7
5
12
8
4
10
8
4
7
6
4
8
6
5
8
11
7
2
11
7
2
13
10
2
13
10
1
4
5
3
1
2
4
2
4
3
3
8
1
5
11
0
7
10
0
8
6
0
7
5
0
5
6
0
5
5
2
5
5
4
5
5
2
7
7
0
7
7
1
5
7
4
1
4
4
1
4
1
2
4
0
2
5
0
3
4
0
3
4
2
3
4
0
0
3
0
3
2
0
2
2
2
3
3
0
4
3
0
2
4
1
2
4
2
5
4
3
4
7
6
5
7
5
8
8
2
6
10
1
4
5
7
5
4
12
10
1
15
13
6
15
13
5
15
14
4
16
15
4
17
19
7
17
23
10
13
22
8
12
16
4
18
20
6
22
25
8
20
23
8
17
15
5
12
10
4
10
8
6
11
8
5
11
7
5
9
5
6
7
4
5
5
4
7
5
4
12
4
3
10
4
4
11
2
5
12
2
7
12
1
7
11
2
5
9
4
4
7
1
4
7
4
7
11
7
8
12
5
8
10
1
5
8
3
5
9
2
6
11
2
5
11
3
4
9
5
5
9
7
7
11
9
9
12
10
10
11
8
9
10
4
7
8
255
255
255
255
255
255
8
8
5
5
7
5
5
7
4
8
8
5
10
11
7
10
10
7
10
10
7
10
10
6
10
9
5
11
8
4
11
7
4
10
5
4
12
5
4
11
4
2
10
2
4
9
3
4
7
4
2
7
5
4
4
7
4
4
7
5
5
5
7
4
4
5
6
4
6
5
5
4
5
4
1
4
5
0
4
7
0
4
4
1
4
5
3
3
7
4
3
3
3
5
4
3
7
6
4
7
4
2
4
4
4
4
4
4
3
4
4
1
4
4
4
3
2
3
4
4
0
3
4
4
3
4
8
4
4
6
1
1
4
4
1
6
4
4
7
4
4
5
4
1
5
1
0
6
4
4
5
3
6
4
2
4
4
4
2
7
6
0
5
4
3
4
1
1
4
4
2
2
5
3
4
5
3
3
5
2
4
5
0
5
4
3
3
5
3
5
7
4
5
7
4
5
8
4
5
7
5
4
5
5
4
5
4
4
6
4
4
5
4
5
5
5
7
7
7
5
5
7
5
5
5
4
7
5
4
6
6
4
7
5
3
5
4
1
4
2
4
5
4
7
5
5
10
5
3
13
7
2
15
5
3
17
5
4
19
7
4
19
8
3
18
8
3
18
9
3
17
9
2
14
6
1
9
4
0
4
3
0
5
3
1
6
3
3
6
4
4
4
3
4
2
3
4
3
4
4
4
5
4
7
7
4
8
8
3
8
9
2
8
11
2
9
13
2
11
15
5
13
17
7
15
18
8
15
17
8
13
15
8
12
13
8
12
12
8
12
12
7
12
12
5
11
12
5
10
12
7
11
12
9
12
12
10
12
12
9
12
12
7
12
12
7
12
12
6
12
13
7
12
14
9
11
13
8
9
12
6
8
12
6
8
12
5
8
11
5
7
9
6
5
8
6
5
8
7
6
7
7
5
5
5
4
4
4
3
2
5
5
4
5
6
5
4
7
4
5
4
5
5
0
4
7
0
4
8
1
5
9
4
8
10
7
10
9
8
10
8
8
12
8
9
15
9
11
16
11
12
16
11
11
14
9
8
10
8
5
7
8
4
5
7
4
4
5
4
4
5
4
4
5
4
4
4
4
4
5
3
5
7
3
5
7
5
5
6
7
6
6
6
5
5
4
9
4
5
9
4
5
12
5
7
15
7
8
16
7
8
16
5
8
16
4
8
16
4
7
16
4
5
16
4
4
16
4
5
13
4
7
12
5
11
13
8
14
14
11
15
14
12
12
13
10
9
10
6
11
9
5
10
13
5
11
15
3
13
14
3
12
11
8
12
10
9
12
11
13
11
10
12
13
12
10
13
16
13
11
16
12
8
12
11
4
8
8
1
5
4
4
5
4
4
5
4
5
3
4
7
5
5
5
8
8
7
8
11
7
7
11
5
6
9
5
7
9
7
8
10
8
8
9
7
8
8
5
8
8
4
8
9
4
7
11
4
5
12
3
5
12
1
7
11
4
8
9
4
8
9
3
8
11
4
7
11
3
5
9
4
5
7
2
7
6
0
7
7
0
5
8
1
4
8
3
5
8
4
7
8
5
7
8
5
7
8
4
7
8
4
9
8
5
10
8
4
10
7
5
8
7
4
7
7
0
7
8
1
7
9
3
8
10
5
8
9
7
8
10
8
8
11
8
8
12
8
9
12
255
255
222
255
255
255
255
255
216
90
45
51
126
76
55
187
110
43
255
159
34
255
227
54
255
255
101
255
255
158
255
255
210
255
255
251
255
255
255
255
255
255
255
255
255
255
255
255
255
255
255
255
255
255
255
255
255
255
255
255
255
255
255
255
255
255
255
255
255
255
255
255
255
255
255
255
255
255
255
255
255
69
61
62
7
4
5
5
7
9
1
8
14
6
11
16
7
12
16
4
10
14
3
7
11
2
4
8
2
6
7
2
10
11
2
13
16
5
14
18
5
13
15
4
9
11
4
8
10
3
7
8
1
5
4
1
2
0
5
4
3
11
13
8
14
18
11
12
18
10
12
19
8
12
18
8
9
14
5
8
8
2
7
4
1
4
5
1
4
13
5
5
14
8
8
13
7
8
11
4
10
10
2
9
10
2
7
9
3
6
8
4
7
8
3
7
8
2
7
8
0
10
9
2
12
10
1
11
9
3
8
6
4
4
2
5
4
9
10
7
16
16
7
15
15
4
9
9
1
5
7
0
5
8
0
7
12
0
8
12
0
7
11
0
4
7
0
2
3
0
4
5
0
7
7
0
8
8
2
8
9
4
7
10
2
6
10
0
6
10
0
5
8
2
4
5
4
5
5
2
7
7
0
8
7
0
8
7
0
8
10
1
9
11
2
10
10
2
9
10
2
8
10
1
6
9
1
1
6
2
3
5
1
4
4
1
6
4
4
5
7
7
6
8
6
10
11
3
9
10
3
8
6
4
8
8
3
7
10
4
7
8
5
5
5
7
3
4
9
8
0
13
18
7
20
24
11
25
31
15
21
26
10
18
25
8
18
25
8
18
26
10
17
21
11
15
16
8
12
12
3
10
10
2
10
10
5
9
10
5
8
5
7
9
5
7
12
8
9
14
11
7
13
12
4
12
10
3
11
7
1
9
5
1
7
4
3
5
4
5
4
4
4
5
4
7
7
4
4
7
4
4
8
1
3
7
3
0
5
3
3
4
1
4
2
2
5
3
2
7
4
0
7
5
1
5
7
2
4
6
1
4
1
3
4
255
255
255
255
255
255
8
7
5
7
7
5
4
7
4
5
7
5
7
8
7
7
8
7
7
7
7
7
7
5
5
7
4
4
7
1
5
5
0
5
4
1
7
5
4
7
5
4
7
4
2
8
1
4
7
0
3
8
1
4
5
2
4
3
3
1
4
5
4
5
4
7
5
2
5
4
4
4
7
3
3
4
4
1
4
7
2
5
4
1
4
5
0
4
7
4
4
4
4
6
5
1
7
6
4
5
4
3
3
4
4
4
4
4
2
3
1
2
4
4
4
4
3
2
5
1
1
4
4
4
1
4
7
4
4
6
3
4
4
3
1
6
4
1
8
5
4
7
4
4
5
2
1
5
4
3
6
2
6
4
2
4
4
4
2
5
5
1
5
4
3
4
4
2
2
4
3
3
3
2
4
3
4
1
4
2
4
5
0
4
4
1
0
2
2
4
4
2
4
5
3
3
5
4
4
4
4
2
4
4
2
3
3
3
1
0
2
2
0
1
1
2
4
4
1
4
4
2
4
2
4
3
4
2
1
4
3
4
5
4
4
10
1
7
11
5
13
11
8
17
10
5
20
9
3
21
8
2
20
8
4
21
8
3
23
8
0
25
9
1
25
11
2
21
11
2
17
9
3
15
8
3
13
8
1
12
7
0
11
4
0
7
1
0
3
3
1
4
4
2
5
5
1
7
7
0
9
8
1
11
9
3
12
12
4
13
14
4
15
13
4
15
12
3
13
13
2
11
14
2
10
14
2
11
15
3
12
16
4
12
16
4
11
15
3
9
13
2
8
12
4
9
12
7
10
12
8
10
12
7
11
13
6
12
15
7
12
16
8
11
15
7
9
12
5
7
9
4
5
8
4
5
8
4
7
8
4
8
8
4
7
8
4
5
8
4
4
8
4
4
7
4
3
5
4
3
4
4
5
5
4
5
4
3
5
2
4
5
3
3
5
5
2
5
5
5
4
5
5
1
7
5
0
7
7
0
5
7
0
5
6
1
6
7
3
5
8
4
4
7
4
4
6
4
4
7
4
4
6
4
5
7
4
7
8
3
5
8
4
6
9
4
9
10
4
9
10
3
7
9
1
5
7
4
4
6
4
5
7
1
5
9
3
6
9
7
5
8
8
7
7
5
10
6
5
14
8
7
17
11
8
18
12
7
16
12
5
13
11
5
12
9
7
12
9
7
12
9
8
12
6
7
14
4
5
15
5
5
16
7
8
15
8
10
12
8
9
8
7
7
5
5
7
5
5
10
8
5
13
13
7
12
16
5
11
16
5
12
13
9
12
10
11
9
9
11
8
8
12
8
6
10
7
8
10
7
13
11
8
12
12
8
12
13
8
12
15
7
10
14
5
7
10
7
7
9
8
10
12
7
8
14
7
5
13
7
5
12
6
7
13
6
8
15
6
8
15
6
8
12
4
7
9
4
5
8
6
4
8
7
4
7
5
5
6
4
7
7
3
8
8
4
8
8
5
8
8
2
8
8
4
7
7
4
5
5
3
5
4
2
7
4
0
7
4
0
5
4
1
4
5
3
4
6
3
3
6
4
3
5
4
3
4
2
3
4
4
4
6
4
5
5
4
7
4
6
5
4
3
6
6
0
10
9
0
11
10
0
9
8
1
9
7
3
10
10
4
9
12
5
10
13
7
13
14
255
255
255
255
255
255
255
251
170
14
30
20
41
65
39
47
36
32
40
36
41
25
20
28
17
12
10
15
10
5
20
13
3
28
18
4
35
20
5
40
22
7
44
26
7
55
32
6
90
50
3
152
85
4
232
136
11
255
198
30
255
255
70
255
255
118
255
255
158
255
255
188
255
255
149
255
255
255
255
255
255
109
94
85
3
1
12
1
4
12
1
5
11
2
4
9
3
3
8
3
7
8
5
7
11
4
2
10
3
3
9
1
5
12
3
7
14
4
7
12
0
3
8
3
2
5
6
6
3
11
12
3
15
18
7
16
19
8
16
20
7
17
23
8
16
22
8
13
18
5
11
16
5
9
12
4
7
7
2
4
2
3
5
4
3
6
10
2
1
8
4
2
7
5
2
2
3
3
7
2
4
5
1
5
4
4
7
4
2
7
4
2
5
4
3
5
4
2
3
3
2
2
2
4
3
4
8
5
8
11
7
12
13
7
14
15
8
14
15
8
12
12
8
8
9
7
6
9
5
7
12
3
7
13
1
5
9
0
3
4
0
3
3
0
1
4
0
3
7
0
4
10
0
4
6
0
5
5
1
5
7
4
7
8
4
5
8
1
4
8
1
5
8
4
8
8
4
11
9
1
12
10
0
11
9
0
9
8
0
8
8
0
7
8
1
5
8
3
4
8
4
3
8
4
1
8
3
2
7
1
1
5
2
5
5
0
5
7
4
7
11
8
10
11
5
7
7
4
7
2
2
4
3
2
5
4
4
9
8
4
9
10
3
6
8
2
3
4
7
13
4
11
19
7
11
14
2
16
21
7
20
26
5
16
19
4
11
12
5
13
15
5
12
15
9
13
17
9
13
16
5
11
10
4
10
8
7
10
11
6
10
10
3
10
9
4
10
8
5
11
8
4
11
8
2
9
7
4
7
5
5
5
3
6
4
1
6
3
4
8
2
4
9
4
3
5
5
3
4
6
4
4
5
1
2
5
3
3
7
3
4
8
4
4
8
2
2
9
4
1
11
4
2
11
3
3
6
1
5
5
8
8
13
13
13
255
255
255
255
255
255
5
4
3
6
3
4
3
4
4
2
4
2
4
4
4
3
4
4
4
4
4
7
4
5
5
4
4
4
6
2
4
4
0
4
3
1
7
4
2
8
3
3
7
4
2
7
4
4
6
1
4
8
0
3
7
3
4
2
4
1
4
3
4
6
4
7
4
2
4
5
4
5
7
4
3
4
4
2
4
6
1
6
4
2
4
5
0
4
5
4
5
5
4
5
6
0
7
5
4
4
5
4
2
4
3
4
4
4
2
3
1
2
2
4
4
4
4
2
5
0
3
4
3
5
1
4
7
4
3
7
4
4
5
1
2
7
4
0
7
6
1
7
4
4
7
2
3
4
4
1
4
3
5
4
1
7
3
4
5
4
4
4
3
4
5
4
7
6
4
5
4
4
5
2
4
6
4
1
5
3
3
5
1
4
7
2
3
5
1
4
2
0
4
4
0
2
7
3
4
5
4
4
4
4
3
4
4
3
2
4
3
3
4
3
3
4
4
2
1
4
4
1
5
4
4
4
4
1
3
7
4
4
8
4
4
10
3
9
8
6
12
5
5
10
3
2
8
2
0
7
4
2
4
2
3
7
2
3
8
4
4
7
4
4
6
2
4
4
1
5
2
2
6
4
1
5
5
0
4
3
2
4
4
2
3
3
1
2
3
4
3
6
7
4
8
8
4
8
8
3
9
8
2
11
8
3
12
8
5
12
8
7
12
8
7
12
8
5
12
8
4
12
8
4
12
9
4
13
11
4
15
12
5
16
12
7
16
13
8
16
15
8
15
16
8
14
16
8
14
16
8
13
16
7
11
15
5
9
13
4
8
12
4
7
12
3
5
12
2
4
11
2
4
9
2
2
8
3
3
8
5
4
8
7
4
7
7
3
4
4
1
1
2
3
2
2
5
3
0
7
4
4
8
5
5
8
4
2
4
2
1
3
1
3
4
4
4
3
5
4
4
4
4
3
4
3
0
4
1
0
4
2
0
4
3
0
5
6
0
6
8
0
5
8
0
4
7
0
4
5
0
4
5
3
5
7
4
7
8
4
9
8
4
10
9
4
9
11
4
8
11
4
8
9
4
7
8
5
5
7
4
5
5
0
4
5
0
4
7
4
5
9
8
7
10
7
8
9
4
8
8
4
8
8
3
7
8
3
5
8
2
4
8
2
5
7
5
5
5
4
3
4
5
4
4
6
5
4
3
5
4
2
5
4
1
4
3
3
6
1
4
6
2
4
3
3
7
4
4
9
8
5
12
10
7
11
15
7
11
18
5
13
16
7
9
10
10
6
7
8
7
8
9
7
5
9
4
5
7
5
8
7
7
9
10
9
12
16
11
15
21
11
14
19
9
11
14
8
11
13
10
13
15
8
12
13
5
12
12
4
12
13
4
11
14
3
8
13
1
5
11
0
4
9
4
4
7
3
3
5
3
0
4
4
1
4
5
3
4
7
3
1
5
1
1
5
4
4
7
4
2
5
1
2
7
4
4
5
2
4
3
2
4
1
1
4
0
4
4
2
4
4
7
1
4
8
2
4
8
2
4
8
4
4
8
1
4
8
0
5
7
3
5
6
4
4
7
4
6
5
4
9
1
8
9
0
11
9
0
12
10
0
12
9
0
11
8
0
9
9
0
8
11
2
8
12
6
16
17
255
255
255
255
255
255
255
141
89
1
42
27
33
92
54
17
68
49
19
23
14
21
34
38
17
19
29
8
7
11
8
5
3
10
7
3
11
5
3
12
5
1
15
5
1
15
7
6
14
7
7
14
9
5
16
11
5
20
13
7
22
14
7
23
14
7
24
14
7
25
15
7
51
36
20
255
255
255
255
255
255
118
101
85
8
19
17
7
17
16
4
14
15
1
10
12
0
7
8
2
8
7
6
10
9
4
5
10
0
4
10
0
4
9
3
3
7
4
0
5
4
4
5
5
5
2
8
8
4
11
12
7
9
10
5
8
8
1
7
9
2
7
10
5
5
6
7
2
5
5
2
9
7
6
14
9
9
18
12
11
23
16
12
26
17
8
22
15
5
16
13
4
13
11
5
14
10
7
13
12
8
14
16
8
14
15
7
14
11
7
15
12
10
17
15
11
19
16
10
20
17
11
21
19
12
22
19
11
21
16
8
18
13
5
13
11
4
8
8
4
7
6
4
7
8
5
7
10
5
5
9
4
4
7
3
1
4
0
2
3
0
3
3
0
3
4
0
4
7
0
3
4
0
2
1
0
4
1
0
3
2
2
4
3
4
4
6
2
0
8
2
3
7
3
5
6
3
4
7
4
1
5
4
1
5
4
4
7
5
6
5
7
7
5
7
6
6
5
5
6
3
3
7
1
0
9
1
4
11
2
7
11
1
8
9
0
5
10
3
6
11
7
8
7
7
5
1
5
7
1
5
8
4
4
7
4
5
5
4
7
8
4
9
12
4
13
19
4
18
28
7
19
26
4
15
17
5
12
15
4
14
17
0
15
18
7
15
18
7
11
12
5
10
7
7
13
11
6
11
15
4
10
12
5
10
8
8
10
8
6
8
8
4
5
7
5
4
4
4
4
4
2
4
3
4
4
5
7
5
6
8
4
4
6
0
1
6
0
4
7
0
6
8
2
5
9
3
3
10
4
3
10
3
1
11
4
4
12
2
3
11
4
3
9
3
1
9
2
4
11
5
8
13
9
13
15
16
18
17
20
22
17
20
24
16
255
255
255
255
255
255
5
4
1
5
2
2
4
4
4
4
3
3
4
4
4
2
4
3
4
4
4
7
4
6
7
4
4
5
5
2
5
4
0
8
5
3
10
4
4
10
2
3
8
1
1
7
4
4
8
3
4
10
1
2
8
4
3
4
3
2
5
3
5
7
4
5
5
1
4
7
4
6
5
4
3
4
4
3
4
6
2
5
4
2
4
3
1
4
4
4
7
7
4
4
5
0
5
4
4
4
6
4
2
4
1
4
4
4
2
4
4
2
3
5
4
4
4
3
3
0
4
4
1
6
4
4
6
4
5
5
3
3
5
0
3
7
4
3
5
5
1
5
4
4
8
3
4
4
4
0
1
4
1
4
0
4
4
3
4
4
4
3
3
2
4
1
5
4
4
7
4
4
5
4
4
4
4
4
5
2
4
6
4
4
7
4
4
7
4
4
4
1
4
2
0
3
5
1
1
7
4
4
5
4
5
5
3
6
6
4
5
5
4
4
4
5
5
4
5
5
2
3
5
4
4
4
5
4
4
8
4
4
10
4
4
10
5
8
11
7
12
10
7
13
10
5
13
9
4
13
8
5
14
8
7
16
8
8
18
8
8
21
9
8
22
12
8
20
14
7
16
13
5
13
11
5
12
9
7
12
7
8
11
5
8
9
4
8
10
4
8
8
4
7
8
4
5
8
4
4
7
5
5
5
6
6
4
5
6
4
5
6
5
7
5
8
8
6
10
8
9
10
8
9
11
8
8
12
8
8
12
8
7
12
8
5
13
9
5
15
11
8
15
11
10
13
9
9
12
8
7
10
8
5
7
8
4
7
8
4
7
8
4
5
7
4
3
5
4
1
5
4
4
7
4
4
7
3
2
5
1
4
2
2
7
4
2
5
5
2
4
4
0
5
4
0
7
4
2
5
2
3
4
4
4
5
5
7
1
4
8
2
3
7
4
2
4
2
4
2
4
4
4
4
4
3
1
5
4
3
7
5
4
8
5
4
9
4
4
10
4
4
9
5
4
8
6
3
8
6
1
8
7
1
7
8
3
6
7
4
7
5
4
7
4
4
5
4
1
4
3
2
4
2
5
4
2
6
5
2
4
4
2
3
2
2
4
1
3
4
2
4
5
3
5
5
2
5
3
0
5
3
1
2
5
4
0
8
5
0
8
4
2
9
5
3
11
5
2
9
5
2
8
8
3
8
8
4
6
10
3
8
11
1
11
10
3
11
8
4
10
7
3
10
4
1
11
4
1
9
6
4
8
5
4
9
10
4
11
16
4
13
17
5
8
14
9
7
10
10
9
12
12
10
12
14
7
9
12
5
8
11
4
8
9
4
8
10
4
9
11
4
11
13
4
11
15
4
9
15
8
10
11
7
10
7
4
11
8
4
11
11
3
8
10
3
5
7
7
4
5
12
4
7
15
8
5
18
8
4
23
9
2
26
11
3
25
12
3
23
12
2
21
12
1
19
11
3
15
8
2
10
5
4
7
4
5
4
2
5
1
4
8
0
7
11
0
8
13
5
8
14
6
5
14
2
4
14
3
4
13
4
5
13
3
4
16
2
4
17
2
5
15
2
7
15
4
8
16
2
8
15
0
7
12
0
5
8
0
5
6
0
7
7
0
6
7
1
4
5
3
3
4
4
3
4
36
40
30
255
255
255
255
255
255
142
46
29
2
34
13
21
71
28
34
112
70
16
56
47
20
18
12
28
34
36
16
25
32
9
10
16
3
4
2
3
3
4
2
5
7
4
4
7
7
8
11
10
6
10
14
9
7
15
10
10
12
9
8
10
7
4
11
8
4
11
7
4
15
10
6
50
34
16
255
255
255
255
255
255
109
93
77
8
20
13
5
16
12
5
14
12
4
14
11
4
12
8
4
11
7
7
13
8
5
10
8
4
6
7
3
3
5
0
1
3
3
3
2
3
4
4
3
3
5
5
5
5
5
7
5
7
10
8
8
13
10
9
16
9
12
20
8
15
23
10
16
25
14
16
27
17
16
29
19
16
31
19
16
31
17
15
30
17
13
30
19
12
28
19
12
25
18
12
24
18
12
24
17
12
22
16
12
18
15
12
16
14
11
15
15
9
13
11
7
11
7
5
10
10
3
10
12
1
7
9
1
1
5
3
3
3
4
5
1
4
6
2
4
5
2
5
3
0
7
4
3
5
4
4
4
3
3
4
3
3
3
2
3
4
1
4
4
1
6
4
4
4
4
7
2
4
8
3
5
7
4
7
7
3
8
7
1
8
7
2
7
7
1
6
9
3
8
12
3
11
15
2
12
16
2
12
16
2
12
16
4
12
14
3
11
9
1
8
5
0
5
4
1
4
4
4
4
4
4
5
4
5
7
5
7
8
7
8
7
8
8
6
10
5
8
13
1
11
13
0
12
13
2
13
16
3
15
20
4
17
24
5
20
27
6
23
29
5
25
34
10
24
35
9
17
22
2
13
13
8
11
8
2
8
5
3
10
16
7
15
21
8
9
12
7
8
9
5
11
8
3
11
11
4
10
14
5
10
11
8
10
8
8
10
8
5
9
8
5
9
8
4
5
7
5
2
5
7
4
7
7
6
5
7
4
4
2
3
3
3
1
2
4
0
2
5
2
1
8
4
2
10
3
0
9
3
3
8
5
2
8
0
3
9
5
6
11
8
8
14
11
14
18
17
20
20
23
24
20
24
25
18
22
27
14
22
29
12
255
255
255
255
255
255
8
4
1
7
4
4
7
5
5
7
4
5
6
4
5
7
4
4
8
5
4
8
4
4
8
3
4
8
4
3
10
4
1
10
5
4
8
4
3
9
3
0
8
0
0
8
4
3
9
4
4
8
3
3
5
4
2
2
1
2
4
4
5
6
4
4
4
1
5
4
4
5
4
3
2
4
3
2
4
5
3
5
5
4
4
3
3
4
4
4
7
7
4
4
4
0
4
5
3
4
7
4
2
5
1
4
5
1
3
5
4
1
5
6
4
5
4
5
4
3
5
4
1
5
6
3
5
4
5
5
3
4
7
3
4
10
4
4
7
4
3
5
4
3
8
4
4
5
4
1
3
4
0
4
3
3
4
2
4
4
4
2
4
4
2
4
4
1
5
5
4
5
4
6
4
5
3
4
6
2
3
5
3
2
7
1
3
7
4
4
7
4
4
5
3
4
5
1
3
7
3
2
7
4
3
6
4
4
5
3
4
4
1
2
2
1
6
4
4
7
4
4
3
2
2
4
4
4
4
7
5
4
10
6
4
10
7
5
12
7
10
14
8
14
13
8
17
12
8
16
12
8
16
12
7
17
13
5
20
14
4
23
14
4
23
15
4
20
15
3
18
13
3
17
12
5
14
12
6
13
12
7
15
12
9
15
11
10
12
9
9
9
8
7
8
8
6
8
8
8
7
8
10
5
8
9
4
8
7
4
8
5
4
8
5
4
8
7
5
8
8
7
8
8
8
8
8
7
8
8
5
7
7
4
6
5
4
6
4
4
5
4
5
4
4
7
4
4
7
3
4
7
1
3
5
1
1
4
3
3
4
4
4
7
4
4
5
4
4
0
1
4
1
1
4
4
4
4
6
3
2
5
4
1
5
6
0
4
3
3
3
3
4
3
4
4
3
5
4
3
7
5
4
7
6
5
7
5
3
6
4
1
5
4
4
5
4
4
7
5
5
8
7
7
9
8
7
10
7
5
9
6
4
8
6
4
8
5
4
8
4
4
8
4
4
7
4
4
5
4
3
4
4
0
4
4
0
3
4
1
0
4
2
2
1
4
4
0
5
3
1
7
3
3
10
4
4
10
6
3
8
4
1
8
1
0
8
1
0
9
4
0
10
4
3
9
1
2
10
1
1
11
5
2
12
7
0
13
7
1
13
7
2
13
7
3
10
7
6
8
8
7
8
11
5
8
10
4
9
10
4
11
9
3
10
7
4
11
6
4
13
5
0
14
4
0
12
3
0
8
2
3
5
4
4
7
8
5
9
12
7
10
14
8
11
16
10
13
19
11
15
20
13
17
20
17
15
18
18
12
15
17
9
13
14
7
9
9
5
5
6
4
5
8
3
7
10
6
2
8
13
6
5
14
6
5
7
3
8
1
4
7
2
6
7
8
8
7
11
7
6
14
6
9
19
7
10
21
5
10
20
4
8
21
5
4
22
7
2
21
9
3
19
10
5
16
8
8
13
5
11
11
2
13
9
2
14
7
5
13
4
8
15
0
10
18
0
12
20
5
13
20
5
13
21
4
14
22
4
14
21
4
14
21
4
13
22
4
12
22
4
13
23
5
15
23
7
15
19
5
11
14
1
5
12
0
2
9
0
2
8
0
1
8
0
3
9
2
4
10
3
4
8
2
4
5
77
74
56
255
255
255
255
255
255
41
19
21
4
34
22
4
45
7
26
92
38
40
112
73
13
48
40
24
17
8
24
34
30
20
29
35
15
15
26
8
7
13
4
8
9
3
4
5
7
11
15
3
5
12
4
3
8
7
1
3
8
4
7
3
5
4
8
7
3
12
6
5
13
9
4
44
27
13
255
255
255
255
255
255
89
75
65
6
7
4
3
6
1
4
3
2
3
2
3
0
4
5
1
5
5
5
7
5
7
8
5
5
7
4
4
5
4
4
4
4
3
5
4
1
5
4
1
4
5
4
5
7
7
7
8
8
8
8
8
9
8
8
11
8
7
12
8
6
12
8
6
11
8
5
8
8
3
5
7
0
4
5
4
2
3
4
4
2
4
5
2
4
7
2
4
8
2
6
9
1
10
12
3
13
16
4
15
20
4
17
24
3
20
28
7
23
32
11
24
34
12
23
33
14
21
32
14
21
33
14
23
35
14
24
35
12
23
33
9
21
31
8
20
29
8
20
27
8
19
24
7
17
22
7
15
22
7
13
21
7
13
20
5
15
21
4
16
24
4
17
27
4
19
29
4
20
31
5
20
31
6
20
29
5
19
27
5
18
26
7
19
27
7
20
29
5
20
32
7
20
35
10
20
35
11
20
32
11
19
27
13
16
22
12
12
18
8
10
14
4
11
12
3
13
13
1
14
14
4
13
14
4
12
15
2
12
15
3
12
13
4
11
12
1
10
13
0
12
16
0
16
20
2
19
24
2
21
28
3
23
31
8
23
32
9
20
31
7
15
26
7
8
11
4
2
3
8
3
7
7
2
4
3
4
7
5
10
15
5
12
16
7
5
8
9
4
7
7
6
8
8
6
7
12
5
9
12
4
8
13
5
6
12
5
4
10
7
4
7
7
4
5
7
4
7
4
6
5
4
7
4
5
7
4
7
8
2
8
8
4
8
8
4
7
7
4
6
5
7
7
2
7
7
4
7
2
8
8
8
12
9
13
17
11
15
19
12
16
21
13
13
23
12
13
20
11
14
17
10
10
13
8
7
11
7
8
10
7
255
255
255
255
255
255
8
4
3
8
3
4
8
4
4
10
4
5
11
3
5
11
4
4
9
6
3
8
1
1
8
2
4
8
4
4
8
4
3
7
4
4
7
4
1
7
4
0
4
0
0
4
3
2
4
4
4
5
5
3
7
7
2
5
4
3
5
4
3
7
4
4
7
4
7
6
5
5
7
4
4
7
5
4
7
7
3
8
8
4
5
5
4
5
5
5
7
7
3
7
6
2
7
7
2
5
8
4
4
7
4
4
7
3
4
7
4
1
5
5
1
5
6
5
5
5
8
5
4
7
7
4
7
7
5
7
5
4
5
4
1
8
4
4
8
4
4
7
5
1
8
5
4
5
5
4
4
6
3
4
5
2
4
4
4
5
2
4
4
3
3
4
4
3
5
5
4
5
4
5
4
4
3
5
4
3
3
5
1
2
7
2
3
7
2
4
7
2
3
7
2
3
5
2
4
5
1
3
5
3
0
4
4
2
5
4
4
5
3
2
4
0
5
2
1
7
4
4
4
4
4
5
5
2
4
5
3
3
5
4
4
7
5
4
8
6
4
8
7
5
9
7
8
11
8
11
12
7
13
12
5
15
13
5
16
16
6
16
18
6
16
16
7
16
13
8
17
12
8
17
13
8
14
15
8
12
15
7
13
14
6
14
15
6
13
16
5
12
16
5
12
16
7
12
16
8
12
14
7
12
10
6
11
8
6
9
8
6
7
8
7
5
8
7
4
8
6
4
7
7
4
5
7
4
4
5
3
4
4
0
4
4
0
3
4
0
3
3
2
1
1
4
3
0
6
4
3
5
4
4
4
3
4
3
1
4
1
0
4
7
1
4
7
4
4
3
4
4
1
4
4
3
5
5
7
5
7
7
6
5
7
10
4
5
11
4
4
9
5
4
8
6
4
7
5
4
5
2
4
5
2
6
5
3
4
4
0
4
5
1
5
8
4
7
10
7
9
9
8
10
8
8
8
8
7
5
8
5
3
7
4
1
4
4
0
2
4
0
3
4
1
4
4
4
4
3
3
1
1
1
4
0
3
5
1
5
3
4
8
5
4
12
7
4
13
5
4
12
5
3
12
6
1
11
5
2
10
4
2
9
3
0
8
4
0
8
4
0
10
1
2
12
1
3
15
5
2
13
9
1
11
8
1
8
7
4
7
5
5
6
3
6
6
4
5
7
8
4
8
10
4
8
7
1
8
7
4
8
5
4
5
3
3
7
3
4
9
2
3
8
1
2
7
1
3
5
3
5
4
4
6
5
6
5
6
8
4
5
12
4
9
17
6
14
22
10
16
24
12
17
25
13
20
27
15
22
27
17
20
25
18
16
22
16
13
17
13
12
14
12
13
15
11
11
14
10
8
15
12
9
11
13
6
6
9
4
5
5
1
5
7
7
10
10
12
15
13
17
20
16
18
23
18
17
20
19
14
18
21
12
19
21
12
20
20
13
21
20
15
23
22
16
23
24
15
21
23
13
20
23
12
20
24
12
19
23
10
17
22
8
13
20
8
13
19
8
15
17
8
16
15
6
16
14
7
16
15
8
16
16
7
15
15
5
13
14
4
12
15
4
11
15
5
10
15
8
12
15
5
12
17
3
8
16
1
5
16
0
4
16
0
5
16
1
6
15
4
5
13
4
6
14
177
168
135
255
255
255
255
255
255
23
18
20
8
21
24
8
38
24
6
59
1
36
106
49
40
110
73
4
38
31
14
16
7
19
28
21
24
30
34
21
22
35
12
14
25
4
5
8
5
7
10
7
10
15
7
10
17
5
6
13
9
7
11
1
5
6
8
8
6
14
8
7
11
8
3
70
49
17
255
255
255
255
255
255
60
53
48
8
13
5
5
8
4
4
5
3
4
5
2
3
7
4
4
5
3
3
5
4
3
4
4
3
4
0
2
4
0
1
2
1
2
3
4
2
3
5
1
3
6
3
2
6
4
1
6
4
3
5
5
6
4
7
9
4
8
10
5
9
11
6
11
13
4
12
15
1
13
17
0
15
20
1
18
24
3
22
28
4
24
31
4
24
33
4
25
34
5
27
34
7
28
36
8
28
39
8
28
40
7
28
40
6
28
40
6
28
40
4
28
40
3
29
42
8
31
46
13
32
47
14
32
45
14
32
44
13
32
44
13
32
44
14
32
44
13
31
44
12
29
44
11
28
45
10
28
47
11
28
48
12
28
48
12
28
48
13
28
49
15
28
50
16
28
50
16
28
51
16
27
51
16
25
48
15
24
45
14
23
43
14
22
41
14
23
41
15
23
44
15
21
47
12
20
47
9
20
45
8
20
42
8
19
38
10
17
34
9
16
27
8
16
22
5
15
21
6
13
18
5
12
15
8
12
13
4
11
12
4
10
13
3
12
15
0
15
17
0
16
19
0
16
20
3
16
21
2
16
22
5
15
19
1
12
14
4
8
10
3
3
2
8
2
11
14
4
16
15
5
17
13
8
18
13
13
24
15
14
25
17
11
19
18
5
15
19
5
14
17
7
14
15
5
12
13
6
11
13
4
9
13
3
5
11
2
2
8
0
4
6
4
4
7
5
5
10
4
5
8
5
3
8
4
3
8
3
5
9
3
5
11
2
5
9
2
8
9
3
10
13
4
10
13
10
12
12
12
17
11
12
18
10
11
17
10
10
13
8
9
12
5
5
10
3
4
5
2
6
4
4
5
2
3
8
5
2
12
10
5
255
255
255
255
255
255
5
4
3
4
4
4
5
5
5
8
7
7
7
5
5
7
5
5
8
8
6
8
7
4
7
6
4
8
7
4
11
7
4
12
7
4
12
7
4
12
7
3
12
5
1
10
5
2
8
7
4
8
8
2
8
8
1
8
8
4
8
7
3
8
7
1
8
8
5
7
8
7
7
7
5
7
5
3
7
5
3
9
9
3
8
8
4
7
8
6
7
8
3
8
7
4
9
7
4
7
7
4
5
7
4
5
8
4
5
9
5
4
7
4
3
5
4
2
5
5
5
5
4
5
5
4
5
5
4
7
4
4
5
4
3
6
4
3
5
2
4
7
4
3
8
5
2
5
4
3
5
4
4
4
4
3
1
4
1
4
4
2
3
1
3
0
1
4
4
4
3
4
4
4
4
1
1
5
1
1
3
4
2
4
5
1
5
5
2
3
4
2
2
4
2
1
4
2
4
4
0
4
4
0
0
2
0
2
4
3
3
5
4
2
5
1
4
4
0
5
5
1
5
7
4
7
8
4
7
7
4
8
8
5
7
8
7
5
8
7
4
8
7
2
8
7
4
9
7
7
11
5
8
12
5
8
12
7
8
13
8
8
14
8
8
13
8
9
12
9
10
12
10
10
12
10
11
12
10
11
12
9
10
12
7
11
12
5
12
12
4
12
12
5
11
11
6
9
9
5
8
8
3
8
8
2
8
7
3
7
5
4
5
4
4
3
4
4
3
3
3
2
3
2
0
2
3
4
0
4
4
2
1
0
0
0
0
1
0
1
4
1
4
1
3
5
0
3
5
1
2
3
3
4
4
4
6
4
2
6
0
2
7
5
1
8
5
1
8
4
3
8
4
4
8
2
5
7
5
5
7
5
4
6
5
5
5
5
7
3
3
5
1
3
4
0
2
4
5
0
4
2
3
5
2
5
7
4
7
7
4
8
10
4
8
10
4
7
7
4
5
7
5
4
7
6
5
5
5
4
4
4
4
4
4
3
4
1
0
3
1
1
0
3
5
2
3
8
5
2
9
4
3
11
5
3
13
7
1
14
5
1
15
7
3
16
5
3
15
4
0
12
4
3
9
1
4
8
2
3
5
4
1
4
2
0
5
2
0
8
2
1
10
0
4
8
2
2
7
6
2
4
8
4
3
4
4
1
1
4
4
2
2
4
2
2
5
5
1
7
10
1
7
7
4
7
4
4
7
4
4
5
1
3
3
1
1
5
4
2
7
4
2
4
1
3
1
2
4
1
2
4
3
2
4
5
7
5
8
12
6
11
15
6
13
16
7
15
16
8
16
17
8
16
18
7
16
19
6
17
22
7
18
25
10
18
27
13
19
28
13
20
28
12
23
30
13
29
32
15
31
29
17
26
25
17
18
23
15
12
20
15
9
17
17
10
17
19
15
21
19
21
26
18
27
29
19
29
31
20
29
29
21
29
29
24
31
31
27
32
33
28
31
34
26
29
34
22
28
34
19
27
32
17
25
29
17
22
26
19
18
21
18
15
17
14
13
16
11
12
15
9
13
13
7
9
11
5
7
9
4
6
8
4
7
8
5
8
8
7
7
8
7
4
7
7
2
7
8
5
8
12
7
12
16
5
11
17
3
7
14
0
7
12
0
8
12
0
8
12
2
9
14
6
12
18
255
255
211
255
255
255
255
255
246
54
104
37
13
31
29
10
20
26
13
42
22
8
73
4
36
121
61
32
101
68
8
25
21
8
11
2
16
25
14
28
35
31
21
24
37
14
14
26
8
9
12
0
2
4
7
10
15
8
10
15
5
7
7
4
7
4
13
10
7
13
7
6
10
7
4
143
103
35
255
255
255
255
255
255
29
31
27
8
13
2
8
12
1
8
12
2
8
12
3
8
12
3
8
11
3
8
10
5
7
11
5
5
11
4
4
9
3
4
8
2
3
7
3
1
5
4
3
5
4
5
4
5
7
5
6
8
7
5
8
8
4
9
9
4
10
12
5
9
11
7
7
9
7
7
8
5
9
8
4
9
9
4
8
12
4
9
13
1
11
15
0
13
16
0
15
16
4
15
16
4
13
16
1
12
16
2
12
15
1
11
13
1
9
11
3
8
10
4
9
13
4
12
19
3
16
23
2
17
23
4
15
22
3
15
25
4
17
30
7
19
33
8
20
35
8
20
37
9
20
40
11
20
42
11
20
42
10
20
44
10
19
48
10
17
49
10
16
44
9
15
38
7
13
36
6
12
36
6
12
36
6
12
36
6
12
36
5
11
35
5
9
33
8
8
33
11
8
34
10
8
32
6
8
29
5
8
28
3
9
27
1
11
27
6
13
26
8
15
26
7
16
23
2
15
20
0
13
18
8
12
15
10
12
13
4
12
13
4
12
15
3
13
16
2
14
16
3
13
16
4
11
14
4
9
9
1
7
4
4
3
3
9
4
8
13
7
15
15
8
21
15
8
23
14
9
22
15
12
25
17
13
27
18
13
26
17
11
21
17
8
17
20
6
17
20
7
17
17
7
15
13
4
11
12
5
10
12
4
8
10
3
6
12
5
8
12
7
13
12
7
15
13
5
16
16
4
16
17
5
16
19
5
17
21
7
20
22
10
20
21
11
20
20
12
19
19
13
17
17
14
15
12
13
12
8
10
10
6
4
7
8
2
4
8
4
2
8
5
4
8
3
4
8
2
4
9
4
5
13
5
7
14
7
9
14
8
12
15
255
255
255
255
255
255
18
17
4
18
15
4
18
13
5
19
12
8
19
11
10
17
10
9
15
10
8
14
9
8
12
8
7
12
8
5
13
8
5
15
8
6
16
8
5
15
8
4
14
8
3
13
7
1
9
5
4
7
4
4
7
4
1
5
5
3
5
7
4
5
5
1
4
4
1
4
5
4
5
5
4
5
4
4
4
2
4
5
5
1
7
5
4
4
5
5
2
5
2
4
5
2
7
7
3
7
5
4
5
4
4
5
4
2
5
7
4
4
7
3
4
5
1
3
5
4
4
4
3
4
4
4
4
4
4
5
4
4
5
4
4
7
4
1
5
4
2
7
4
3
8
5
2
7
3
0
6
3
3
4
4
4
1
2
1
3
4
0
4
4
3
1
1
4
3
1
2
4
4
4
4
4
4
4
3
3
1
2
1
3
4
0
5
7
1
7
7
3
7
6
4
5
7
3
5
8
1
5
8
2
3
5
1
2
4
2
3
5
4
4
5
2
5
7
0
5
7
0
5
7
1
8
8
3
10
10
4
9
9
4
8
8
4
7
9
5
7
11
7
8
11
7
7
9
5
5
9
5
4
11
7
4
11
7
3
8
6
1
6
6
0
7
5
0
8
4
0
8
4
1
7
3
3
6
2
4
7
4
4
7
6
4
5
5
4
4
4
3
3
3
3
2
2
2
2
3
0
2
4
0
3
4
1
4
4
4
4
4
3
3
3
3
1
1
4
2
1
1
3
2
0
3
2
4
4
4
4
4
4
1
1
3
2
1
2
2
4
4
4
4
4
4
1
4
4
0
4
2
0
4
4
4
3
4
2
1
3
0
3
4
2
3
4
0
4
2
0
4
3
0
4
2
3
4
4
4
5
4
1
4
3
0
4
4
3
5
4
4
5
4
5
3
3
7
4
4
7
6
5
6
6
6
7
7
4
7
7
1
5
5
0
3
3
2
2
1
3
2
2
2
1
0
4
2
3
4
3
2
5
3
3
5
4
2
5
4
3
8
4
4
13
7
4
13
8
4
12
7
4
12
7
4
12
7
4
12
5
1
12
2
0
10
1
3
5
3
2
3
2
0
1
5
3
4
5
4
2
5
4
0
6
4
3
5
4
6
4
4
4
4
4
4
4
3
5
7
4
4
9
4
1
8
3
1
5
1
4
4
0
6
6
0
4
6
0
4
8
0
4
5
3
3
5
6
3
7
4
3
8
4
4
8
6
5
8
5
8
8
5
11
8
6
11
9
5
10
11
4
12
13
5
15
15
7
16
16
8
16
16
8
15
15
7
13
13
5
13
13
5
15
15
7
16
16
8
17
18
8
19
21
8
21
23
8
23
26
8
23
28
8
22
29
9
23
30
10
23
28
9
22
26
9
22
27
11
20
27
12
17
25
12
15
23
13
13
21
14
12
20
13
13
21
13
18
24
14
22
27
14
24
27
15
24
25
16
23
23
16
20
21
14
17
21
11
15
21
9
13
18
6
11
15
5
9
13
7
8
11
7
7
9
5
5
7
4
5
8
4
8
7
3
7
8
4
7
8
4
5
8
4
5
9
5
7
11
7
8
11
8
8
10
8
8
11
8
8
11
8
8
10
8
8
11
8
5
8
8
4
8
8
5
9
9
7
12
12
8
15
15
8
15
14
255
255
250
255
255
255
255
255
200
66
153
33
52
121
41
17
39
35
14
18
28
16
48
25
5
87
12
31
124
66
25
84
56
14
17
11
8
6
1
18
26
11
24
33
25
22
27
32
22
27
36
19
29
36
15
22
30
8
10
22
5
5
17
8
8
16
15
13
17
14
11
16
14
8
11
234
175
73
255
255
255
255
255
255
14
16
13
8
12
4
8
12
3
8
12
1
8
12
3
7
12
3
6
12
4
7
11
5
8
9
7
7
7
5
6
6
4
7
6
4
8
6
4
8
7
4
8
8
3
10
9
4
8
10
4
9
9
4
10
8
7
9
10
8
9
13
7
10
12
5
9
11
5
8
9
7
8
9
2
8
10
1
7
8
4
5
7
4
5
8
1
7
7
0
7
6
3
5
7
4
4
5
4
4
3
5
4
2
6
4
3
5
5
5
3
7
8
0
8
14
5
7
18
5
5
17
3
4
17
0
4
19
2
4
21
1
4
23
1
4
24
2
4
24
1
4
24
2
4
23
2
4
21
1
4
21
4
3
22
1
1
21
0
0
19
1
0
15
4
0
11
4
0
10
4
0
9
4
0
10
4
0
14
4
0
16
5
0
15
7
0
12
7
0
7
7
0
2
10
0
7
12
0
11
13
0
10
15
0
12
17
1
14
18
4
11
18
4
10
18
3
6
20
4
7
22
5
6
19
4
4
13
4
6
6
6
9
4
9
9
5
8
5
7
4
2
8
2
5
9
5
12
12
7
17
16
9
23
19
12
27
19
15
30
18
15
32
18
16
36
19
16
36
22
16
32
24
15
30
24
13
27
23
13
24
22
12
21
21
10
21
20
11
22
18
11
22
18
10
22
19
11
22
20
11
22
19
10
21
17
10
21
17
10
22
16
8
20
16
8
18
17
8
18
16
8
17
15
8
16
14
8
15
13
8
14
12
8
13
12
7
14
13
8
13
14
11
12
12
10
12
10
9
12
11
8
11
12
8
10
13
11
12
13
12
15
15
11
16
16
10
17
17
12
18
19
14
18
20
15
19
17
15
20
16
16
22
15
255
255
255
255
255
255
14
15
4
12
12
4
9
10
2
8
8
3
9
8
5
5
5
4
5
5
1
8
5
5
5
4
6
5
4
4
5
4
3
4
5
4
5
5
3
5
4
4
7
3
4
8
4
0
5
4
2
4
4
4
6
4
2
5
2
2
4
4
4
6
3
2
4
2
0
1
4
1
4
3
4
7
4
7
4
3
3
4
3
2
7
4
4
4
4
4
4
4
1
4
4
0
4
5
0
5
7
2
5
7
4
4
5
2
4
5
4
3
5
4
4
5
0
4
6
3
3
4
4
4
4
4
5
4
4
4
4
4
4
4
4
5
4
1
4
4
2
7
4
4
8
6
2
7
4
0
5
5
1
5
7
4
4
5
4
4
4
3
5
5
2
4
4
4
4
3
4
5
2
4
5
3
4
7
4
4
7
4
4
6
4
3
6
5
2
5
7
2
5
7
3
5
6
4
5
7
2
5
8
0
4
7
2
4
8
2
3
8
3
2
7
2
4
5
1
5
4
0
6
5
0
5
6
0
4
5
1
5
5
2
7
6
1
7
5
1
6
5
3
5
7
4
3
6
4
2
6
3
2
5
4
3
4
4
4
4
4
3
4
4
0
4
4
0
4
4
0
4
3
0
4
3
0
4
0
0
4
2
0
4
1
0
3
4
0
1
4
3
2
4
4
1
2
1
3
4
0
4
5
0
1
5
0
1
4
4
3
5
4
4
5
4
4
4
4
2
5
0
3
6
1
4
5
4
3
4
4
4
4
4
2
4
4
0
3
4
2
3
5
3
3
4
2
3
4
0
4
4
0
3
5
4
3
5
3
3
4
2
4
4
1
3
5
0
1
4
0
2
3
0
2
1
1
4
3
4
7
4
4
5
2
3
4
3
2
5
5
3
6
5
3
5
2
2
3
4
4
1
7
5
0
9
6
0
12
6
2
12
7
2
12
7
0
10
5
0
6
4
1
4
4
2
5
3
3
5
3
2
4
2
1
4
2
3
4
4
4
7
4
4
8
4
3
5
3
3
3
4
1
4
5
1
3
5
4
4
5
4
5
7
3
6
8
4
10
9
6
10
9
8
7
7
7
7
7
5
5
8
4
3
7
4
4
7
3
5
4
4
4
4
4
4
4
3
4
5
1
4
7
0
3
8
1
2
5
3
3
5
4
5
9
4
5
10
4
5
12
4
7
15
5
9
17
8
11
19
11
12
20
12
11
19
11
10
17
10
11
17
10
13
19
9
15
20
8
15
20
8
13
19
8
12
17
7
12
16
6
12
16
7
11
16
8
9
16
8
9
16
8
11
17
9
13
19
11
15
20
12
16
20
11
16
21
10
17
23
11
18
23
12
17
21
12
16
21
12
16
22
10
16
20
7
15
17
6
14
16
5
14
16
4
13
16
3
11
14
2
9
11
4
8
11
8
9
12
10
11
12
9
12
12
8
11
12
8
9
12
8
8
11
8
8
9
8
7
9
9
7
10
10
5
9
8
4
9
6
3
10
6
4
8
5
4
7
5
5
8
7
8
11
8
8
13
9
9
14
10
10
14
9
9
15
7
8
16
5
9
15
6
12
14
10
14
15
12
13
15
13
13
15
13
14
16
12
14
16
12
13
16
14
11
15
12
9
13
9
6
10
7
1
5
4
255
255
255
255
255
255
255
255
181
32
93
7
65
157
29
57
128
41
17
43
39
12
23
36
18
57
31
8
99
19
30
122
69
20
63
40
12
8
4
7
8
2
9
21
10
13
25
17
21
28
24
27
34
33
30
39
39
26
36
38
20
31
34
20
30
33
23
29
35
24
28
36
25
26
36
255
255
157
255
255
255
255
255
255
8
8
6
5
7
2
4
5
2
3
4
2
3
4
3
0
3
4
1
1
3
5
2
2
7
2
4
8
3
4
9
5
4
12
8
3
15
11
2
16
12
4
15
11
5
12
10
7
9
10
9
8
9
11
8
8
12
8
10
11
8
9
9
8
7
8
9
9
8
10
10
10
9
11
8
9
12
7
11
12
5
11
12
5
9
12
4
8
10
1
8
11
1
8
11
3
8
10
5
8
11
7
8
13
5
8
15
4
8
17
3
8
20
3
7
19
5
5
13
4
3
9
8
2
8
10
2
8
10
1
8
10
0
5
9
0
3
9
0
1
11
0
1
14
0
2
18
0
3
19
0
6
18
0
5
17
0
5
16
0
9
17
0
10
17
0
5
15
0
6
15
0
11
18
0
15
21
0
17
23
0
20
25
0
24
28
0
27
31
0
29
33
0
32
34
0
34
33
0
32
31
1
30
29
3
29
27
4
25
25
5
22
23
7
21
20
8
20
18
7
17
19
5
16
20
4
15
19
5
14
18
7
16
18
9
20
19
11
24
22
13
29
23
17
36
22
20
40
24
20
41
27
21
45
32
22
47
32
21
46
29
19
42
29
18
40
31
17
36
31
18
33
29
18
31
28
18
30
28
17
31
28
15
32
28
13
31
27
12
28
24
12
25
22
12
24
23
12
23
23
11
21
21
9
20
19
8
19
17
7
17
16
6
15
16
7
14
17
8
14
15
7
14
12
7
15
9
7
15
8
7
13
8
8
13
8
8
12
10
10
12
11
10
11
12
8
10
12
8
12
12
8
15
12
11
16
13
10
18
14
9
18
15
9
18
15
10
18
13
11
17
13
12
16
12
12
16
9
9
16
8
7
16
7
255
255
255
255
255
255
4
6
2
6
7
4
4
5
2
4
4
0
8
7
4
4
4
4
4
3
3
7
4
4
4
4
4
4
4
4
4
4
1
5
5
4
7
7
4
5
5
3
5
4
4
7
4
3
7
5
4
4
4
4
5
4
1
6
3
2
4
4
4
6
4
2
4
2
0
0
4
0
4
2
4
7
4
7
4
4
2
4
1
1
5
4
3
5
4
4
6
4
3
4
5
0
2
4
0
4
5
3
7
8
4
4
7
1
3
5
4
4
5
4
5
6
0
4
5
1
1
5
4
4
5
4
6
5
4
4
5
4
4
6
4
4
5
4
5
4
2
7
4
4
8
5
4
6
4
2
4
4
2
5
5
2
4
5
3
4
4
4
5
5
4
4
4
2
4
4
3
5
4
4
4
1
3
5
1
1
7
3
3
5
4
4
4
4
5
4
2
1
4
4
2
4
4
3
4
4
1
4
5
2
2
6
0
2
5
2
3
5
0
2
5
2
1
4
3
3
5
1
4
6
3
3
5
3
1
5
2
4
6
3
5
5
4
5
4
1
4
4
0
4
5
3
2
4
4
3
4
4
4
4
4
1
1
4
3
1
4
4
3
4
1
4
4
0
4
4
0
4
4
0
2
5
0
2
6
0
2
4
0
2
1
0
3
1
0
2
3
4
1
5
4
2
6
0
2
5
0
4
3
0
3
2
0
0
3
4
1
3
4
1
4
4
3
3
4
3
3
1
0
2
4
0
3
4
2
4
4
4
4
4
2
2
2
2
2
2
2
2
4
2
5
2
2
4
3
0
4
4
0
4
5
3
5
4
4
5
1
4
5
2
4
5
3
3
4
2
1
4
1
0
3
0
1
1
2
2
3
4
1
4
3
2
1
3
2
1
5
1
2
7
4
3
7
5
2
8
4
2
8
3
0
7
2
0
5
1
1
1
3
3
0
4
4
2
4
4
0
4
4
2
4
4
3
4
5
4
5
6
4
7
5
5
8
4
5
8
3
8
9
3
11
11
1
11
12
2
11
13
1
10
14
1
8
14
3
8
15
4
8
14
4
8
11
6
8
11
8
8
11
6
8
10
4
8
10
4
8
9
4
5
8
3
4
9
3
4
5
3
4
4
3
5
4
4
5
5
4
4
5
4
4
8
4
5
11
4
7
13
4
9
15
4
10
16
4
10
17
4
11
19
4
12
20
5
12
19
7
12
17
7
12
16
6
11
17
7
10
19
8
10
20
8
10
20
8
10
20
8
9
19
8
8
16
8
8
13
8
8
12
7
7
12
5
5
12
4
4
12
5
4
12
7
4
12
8
4
12
8
5
13
9
7
15
10
8
16
9
9
16
8
10
15
8
9
13
8
8
12
8
7
13
8
8
9
7
7
9
6
7
10
7
7
9
7
7
7
5
7
5
5
7
4
4
7
5
5
5
4
7
4
5
8
5
7
8
6
8
8
6
8
9
7
8
10
8
9
10
9
10
11
7
10
12
6
10
9
5
10
8
5
12
9
7
15
11
9
15
12
10
12
11
8
9
9
6
8
7
7
8
6
8
8
6
9
8
5
10
9
4
8
10
5
5
8
7
5
7
8
7
8
8
7
10
10
7
10
8
5
8
7
2
4
5
4
2
1
8
5
1
6
7
7
255
255
255
255
255
255
255
249
152
18
11
21
21
99
9
66
159
24
65
133
34
23
49
34
14
24
41
15
64
29
18
112
38
31
112
66
10
41
25
11
4
1
13
4
0
13
4
1
11
7
3
15
8
4
17
16
6
19
26
10
12
26
13
11
23
15
17
24
16
25
30
18
45
27
20
255
255
255
255
255
255
255
255
203
4
9
8
0
8
7
1
5
6
3
3
6
3
3
5
3
2
4
5
3
4
7
4
3
4
4
1
4
5
3
5
8
4
8
10
3
7
8
1
8
7
4
7
5
6
5
5
6
4
5
7
3
4
7
1
3
5
3
4
4
4
5
5
1
7
7
3
5
7
4
3
8
3
3
13
3
4
15
2
3
13
1
4
13
2
4
13
4
3
10
4
4
9
4
1
12
4
2
15
4
2
15
4
3
14
4
4
15
3
5
16
1
10
18
0
13
23
0
18
27
0
20
27
0
21
25
0
22
24
0
21
24
0
21
24
0
23
25
0
24
27
0
23
28
0
22
28
0
24
28
0
28
29
0
31
31
0
33
33
0
34
34
1
33
33
3
33
32
4
35
32
4
37
32
4
40
32
4
43
32
4
44
33
4
43
34
4
40
34
4
36
33
4
32
29
5
29
25
7
28
24
8
28
24
9
28
24
11
28
24
12
28
23
12
29
20
12
28
17
12
29
17
13
32
19
15
36
22
16
39
26
17
41
29
19
43
31
20
44
32
20
45
33
20
44
34
18
41
32
17
40
30
18
37
29
16
32
31
13
29
32
12
28
32
13
27
30
13
23
26
12
23
23
12
23
21
11
21
20
9
20
20
8
19
20
7
16
19
5
13
16
5
12
14
7
12
16
5
12
16
4
12
17
4
13
19
5
14
19
5
13
17
7
13
15
7
14
13
5
13
12
5
13
11
7
14
9
7
14
9
8
14
10
10
12
12
7
9
14
7
9
13
7
11
12
5
12
11
4
13
9
5
12
9
8
11
11
5
11
10
3
8
7
4
7
7
4
7
7
5
5
7
7
7
5
4
7
4
1
7
4
1
5
3
255
255
255
255
255
255
4
6
2
6
7
4
5
4
2
4
5
0
6
7
3
4
4
4
5
2
4
5
4
4
4
5
2
5
4
4
5
4
3
6
5
4
7
7
4
7
7
1
4
5
2
5
4
3
8
6
5
4
4
4
4
5
3
5
4
2
4
3
4
6
4
4
4
2
1
1
4
0
4
3
4
5
3
4
4
4
4
5
1
4
4
3
3
6
4
4
5
2
3
4
4
0
3
3
0
4
4
3
7
7
4
4
5
1
2
5
3
4
6
4
7
5
3
4
5
1
0
5
3
4
5
4
5
4
4
4
3
4
5
4
2
5
4
4
6
4
3
5
5
1
8
5
4
7
4
4
2
1
3
4
3
3
3
4
0
2
2
1
4
4
4
2
4
3
1
2
0
4
4
3
3
4
4
0
1
1
4
0
0
4
1
4
1
4
5
4
4
2
4
2
3
4
4
2
4
5
0
4
4
0
3
4
2
2
5
2
4
4
1
2
4
1
0
6
2
0
5
4
3
4
4
4
5
4
4
8
7
7
12
8
8
11
8
4
4
4
2
3
1
4
4
1
2
2
3
1
1
4
4
4
3
2
2
1
2
0
0
4
0
2
2
1
2
0
2
0
0
3
1
0
2
3
0
0
3
1
0
3
3
2
2
4
4
0
3
2
1
3
0
4
4
0
5
0
0
3
0
3
3
0
4
4
0
4
3
4
4
2
4
1
4
3
1
4
4
4
4
4
4
4
4
4
4
1
5
4
3
7
5
4
5
4
1
5
5
1
6
6
4
5
5
4
4
2
2
3
3
4
2
4
7
4
5
5
6
7
3
5
7
2
4
5
3
4
3
4
3
2
3
0
2
0
2
1
2
2
1
4
0
4
4
1
4
3
2
3
4
3
2
4
3
3
5
4
5
8
7
8
11
9
10
13
11
9
15
12
8
15
12
7
13
12
5
11
12
4
9
11
4
7
9
4
6
8
5
7
8
7
7
8
7
7
9
5
6
10
4
7
9
3
8
9
1
8
10
2
9
9
2
11
9
2
8
10
0
5
9
2
4
8
1
2
7
2
1
5
2
1
5
2
3
6
2
5
6
3
8
7
4
8
8
4
5
11
5
5
10
7
7
10
8
9
11
8
11
12
8
10
12
8
11
13
6
12
15
3
11
15
2
10
14
1
11
15
1
12
16
3
11
15
3
9
13
1
8
12
0
8
12
0
9
13
1
11
15
3
12
16
4
11
15
5
9
13
7
8
12
8
8
12
7
8
12
6
8
12
7
7
11
7
5
9
5
4
8
4
4
7
4
3
5
4
1
4
4
0
4
4
1
5
4
3
6
4
3
5
3
2
5
1
4
7
3
4
7
4
1
7
5
3
10
6
5
10
5
7
8
4
7
7
4
4
7
5
5
7
6
5
5
4
5
4
1
7
5
1
7
4
3
4
4
4
5
5
5
6
6
6
5
6
6
3
6
7
5
4
4
7
4
2
4
4
5
4
4
6
4
5
5
2
4
4
2
4
5
3
5
6
5
5
5
8
5
4
7
7
5
8
7
4
8
7
4
8
9
4
9
10
3
12
9
0
12
8
3
12
8
5
12
8
5
10
8
5
10
8
4
10
8
6
8
7
5
8
7
1
8
9
2
33
31
24
255
255
255
255
255
255
167
188
94
21
80
47
14
21
7
12
97
10
61
154
18
66
140
25
24
59
34
17
24
48
17
73
17
22
121
50
21
100
57
13
22
17
4
3
0
24
2
0
9
6
0
3
5
0
10
5
0
16
7
0
6
8
0
1
5
0
1
5
0
16
11
0
199
151
70
255
255
255
255
255
255
142
112
80
4
13
14
0
13
13
3
8
9
5
5
8
7
6
7
8
4
5
7
4
5
4
3
7
1
1
8
0
4
7
3
7
7
7
7
7
5
7
8
4
8
8
4
7
7
3
7
5
1
7
4
0
8
5
0
8
7
3
9
9
4
11
11
4
12
12
5
13
12
5
13
13
4
15
14
4
16
14
4
15
16
4
14
19
4
15
21
5
17
23
7
19
24
8
19
24
8
18
24
8
19
24
8
20
23
7
21
22
6
24
24
7
28
27
7
29
27
5
26
24
4
25
22
4
27
23
4
29
24
4
31
25
4
33
28
5
35
30
7
36
28
8
37
25
8
40
24
8
43
25
8
44
26
8
44
27
8
43
29
8
41
29
8
41
28
8
43
29
8
43
30
8
40
29
8
37
27
8
36
25
8
35
23
9
32
21
11
29
20
12
29
21
12
30
23
12
30
24
12
31
25
12
31
26
12
30
25
12
31
23
12
32
22
12
32
23
13
32
23
15
32
21
15
31
20
13
30
20
11
30
21
10
29
23
12
29
23
12
27
21
11
25
21
10
22
22
8
20
22
7
17
20
5
13
17
4
8
15
3
7
16
4
9
15
7
10
13
5
10
13
4
11
15
4
10
15
1
10
13
3
8
13
4
5
14
4
4
12
3
5
9
4
7
8
4
7
9
1
7
6
0
7
7
3
7
8
4
7
7
4
8
5
4
8
4
1
7
5
0
6
7
3
7
7
5
7
8
5
7
8
7
7
10
5
6
11
1
6
11
4
7
8
6
8
8
4
8
8
2
8
8
4
5
7
8
4
7
4
5
4
0
4
4
4
4
5
5
5
7
4
5
7
7
5
5
4
5
4
1
2
4
2
1
4
255
255
255
255
255
255
4
6
1
7
5
4
7
5
4
4
7
1
3
7
2
4
5
4
6
4
3
4
4
4
4
5
3
7
4
4
6
2
4
5
4
3
6
5
4
8
5
1
4
4
3
4
4
4
8
5
2
4
5
3
4
7
4
4
5
3
3
4
1
5
5
4
5
4
4
3
4
1
3
4
3
4
2
2
5
4
2
6
4
6
4
2
5
6
4
3
4
3
2
3
3
1
4
4
0
5
4
1
6
5
4
4
5
3
2
7
1
4
7
2
7
5
3
4
4
2
1
4
1
3
7
4
4
5
4
2
3
4
4
4
4
7
4
5
6
2
4
4
4
0
8
5
1
8
5
2
3
4
2
4
2
4
4
4
3
3
4
1
4
2
3
1
4
4
0
4
1
4
2
1
4
4
4
0
4
3
4
1
0
4
0
3
1
1
4
4
4
2
3
3
4
4
1
4
5
4
1
3
4
1
3
4
3
3
7
4
4
5
3
2
4
2
0
4
3
0
3
3
2
2
1
4
3
1
55
53
48
108
107
93
116
124
106
71
87
78
31
47
43
11
21
17
2
7
5
2
4
1
4
4
2
3
3
2
4
4
0
4
3
1
1
3
2
0
2
1
0
1
0
0
3
0
0
4
2
2
4
3
2
4
3
0
5
4
2
4
4
1
2
4
4
2
4
3
1
4
1
1
5
0
3
6
0
4
5
4
5
4
4
5
4
2
3
4
4
3
3
6
4
2
4
4
2
0
3
3
1
4
3
4
4
2
3
4
2
0
4
2
1
5
2
4
6
2
4
5
2
5
4
3
8
4
4
8
4
4
8
4
3
7
4
2
5
5
2
5
7
1
7
8
2
8
8
6
8
8
8
8
8
9
8
8
11
8
7
11
9
7
9
11
7
9
13
8
11
15
8
12
15
8
11
13
8
9
12
8
7
11
8
5
9
8
4
7
7
4
6
7
3
7
7
2
7
8
2
4
7
2
4
5
4
4
4
4
3
5
4
4
5
4
4
4
2
2
4
2
1
4
1
5
5
0
7
7
1
7
7
2
7
6
4
5
7
3
4
8
2
4
8
3
4
8
4
5
9
4
8
10
4
11
11
5
11
14
7
12
16
7
12
16
6
13
17
7
16
19
8
19
20
8
19
19
7
17
17
5
15
15
4
13
14
4
12
15
4
12
16
4
12
15
4
12
13
4
12
13
4
12
15
4
11
15
4
10
13
4
10
12
4
9
11
4
8
9
4
7
8
4
5
8
4
4
8
4
4
8
4
4
8
5
5
8
7
4
7
8
4
5
7
4
4
5
3
4
3
0
3
1
0
1
1
0
0
4
0
3
3
1
3
2
2
3
2
3
4
0
3
4
0
2
3
2
4
5
3
8
5
2
10
5
1
9
5
0
10
7
0
10
5
0
11
3
0
12
4
0
12
4
0
10
5
0
12
7
2
15
9
0
16
11
2
16
12
3
15
12
4
13
11
3
12
10
2
11
10
3
12
10
4
14
13
4
17
17
5
19
17
2
20
17
3
20
17
2
17
15
4
17
13
2
19
12
0
20
12
3
19
12
4
16
12
4
13
11
4
12
9
4
11
7
4
9
7
5
7
7
3
4
4
0
4
1
3
4
4
4
2
7
5
64
58
41
255
255
255
255
255
255
73
127
39
20
134
50
8
43
29
16
25
2
14
82
8
48
142
14
68
147
24
40
69
41
13
19
48
10
84
5
23
127
57
6
73
47
9
10
7
20
2
0
8
6
0
2
5
0
10
5
0
20
7
0
8
8
0
3
2
0
5
3
0
19
7
0
255
255
149
255
255
255
255
255
255
27
18
18
4
11
13
0
11
14
4
12
15
7
13
16
4
12
16
3
8
15
1
6
14
0
8
14
0
11
13
0
13
12
1
16
13
5
18
16
7
17
17
5
15
14
4
13
12
4
13
12
4
15
12
4
16
12
4
16
12
5
16
13
7
17
15
8
20
17
8
23
19
8
23
18
8
21
14
7
20
13
5
20
15
5
21
16
7
23
18
9
25
22
11
26
23
11
25
20
9
24
17
8
23
16
8
21
16
8
20
16
8
20
17
8
21
18
8
23
17
8
24
16
8
25
17
8
27
18
8
29
17
8
32
17
8
34
19
8
33
20
8
32
21
9
34
23
11
37
24
11
37
24
10
36
24
11
36
24
12
35
23
11
32
21
8
28
20
5
25
20
4
24
20
4
23
20
4
21
20
4
20
20
4
20
19
4
20
17
4
20
16
5
20
17
7
20
20
7
20
22
5
19
20
4
17
17
5
17
15
4
15
13
4
13
12
4
13
12
4
10
11
3
10
9
2
8
8
2
7
7
0
7
8
3
8
9
6
9
7
3
7
7
2
5
7
4
7
5
3
6
5
4
5
7
5
4
7
3
2
7
0
5
7
4
7
7
8
6
7
4
7
7
4
5
5
4
4
4
0
4
5
3
1
7
4
0
5
1
1
4
1
5
6
4
7
8
3
7
7
0
7
5
0
5
7
4
5
5
5
5
4
4
5
4
3
7
5
0
5
8
1
5
10
4
7
8
6
5
9
4
4
10
5
2
10
4
4
7
0
4
4
4
4
3
6
5
3
3
4
4
3
3
5
5
2
6
9
3
5
8
4
4
7
4
5
7
4
7
8
4
5
8
4
6
10
4
6
9
3
7
10
3
8
8
3
8
255
255
255
255
255
255
4
7
0
7
7
1
7
7
4
5
8
3
3
8
2
4
5
4
5
4
2
4
4
3
5
5
4
8
5
4
5
4
4
4
4
2
7
5
4
8
5
3
5
7
3
5
7
4
8
5
1
5
5
0
5
7
4
5
5
4
1
4
0
4
5
1
6
5
4
4
4
4
3
4
2
4
2
2
6
3
4
5
5
5
4
3
4
7
3
4
4
4
4
1
2
3
4
4
0
7
4
0
7
4
4
4
4
4
1
5
0
4
8
3
5
7
3
4
4
1
3
2
1
2
5
4
4
5
4
2
4
1
2
5
4
8
5
7
6
3
4
4
1
0
8
4
0
7
4
0
4
4
1
5
4
2
4
2
3
4
4
2
4
3
1
0
1
4
1
4
3
4
3
0
4
1
4
3
4
4
4
3
0
3
0
1
3
0
4
4
3
4
2
4
2
5
1
4
7
1
4
3
2
4
1
3
4
5
5
4
4
4
4
1
1
4
0
4
3
0
4
2
3
2
2
4
1
2
137
124
108
254
255
208
255
255
255
255
255
255
255
255
255
255
255
255
180
211
174
84
100
80
20
25
18
5
3
2
4
1
2
1
2
2
0
3
2
0
3
3
0
3
3
0
1
1
1
0
1
2
0
3
1
2
4
0
3
4
1
4
3
2
1
1
1
0
1
2
2
2
2
0
1
0
0
2
0
0
2
3
1
2
4
4
2
3
4
0
4
4
2
5
4
0
4
4
0
4
4
3
3
5
3
4
6
4
4
5
4
6
5
4
5
7
4
5
8
4
7
9
4
8
10
4
9
9
4
10
8
4
10
9
2
11
10
4
11
10
4
10
11
4
11
11
4
11
9
4
8
8
4
7
8
4
9
8
4
10
8
5
10
8
7
9
8
8
8
8
8
8
7
7
8
5
6
7
4
7
5
4
5
5
4
4
5
4
3
4
4
4
3
4
4
1
3
4
4
4
3
5
4
1
5
4
1
4
3
3
3
4
4
4
4
4
4
4
5
2
5
7
1
7
7
3
8
5
5
9
4
8
11
4
11
12
5
11
12
6
9
12
5
8
12
4
8
12
4
8
12
5
9
12
7
12
13
8
12
14
7
12
15
6
12
16
7
12
15
8
12
15
8
12
16
8
12
15
8
11
13
7
10
13
6
11
14
7
11
13
7
9
11
5
8
10
4
8
11
5
8
11
6
8
9
5
7
7
4
5
5
4
4
4
4
5
5
3
5
5
1
4
4
0
3
3
1
0
3
2
0
2
1
2
1
1
4
2
3
3
3
4
3
4
3
5
2
1
5
0
2
5
3
2
7
4
3
9
7
4
11
10
0
12
11
2
13
12
1
14
12
0
14
12
0
15
13
1
17
15
2
21
13
1
19
12
0
18
11
0
19
10
1
20
8
3
21
9
4
23
12
4
24
12
4
25
14
3
27
19
2
28
22
3
28
21
3
27
21
1
24
22
2
22
21
2
23
20
2
23
21
0
21
22
6
20
20
6
20
17
3
20
16
2
19
15
2
16
13
4
13
12
5
12
11
4
12
9
4
12
8
4
11
8
4
10
8
3
10
8
1
9
7
0
8
5
2
7
4
3
4
3
3
1
0
5
4
0
6
4
3
6
1
5
6
104
89
61
255
255
255
255
255
255
44
71
28
48
132
29
14
95
32
13
11
19
8
21
4
4
64
4
40
133
11
80
154
25
52
88
45
17
13
50
12
101
14
24
121
66
14
51
31
12
4
1
4
2
0
4
4
0
18
2
0
20
5
0
4
3
0
2
2
0
6
4
0
21
11
0
255
255
187
255
255
255
255
255
255
7
10
15
4
11
12
4
12
17
5
16
21
8
19
22
5
20
21
4
16
19
3
13
17
2
13
16
3
15
16
4
17
18
4
21
22
5
25
23
7
24
22
7
20
21
5
18
18
5
19
16
7
20
17
8
20
18
8
20
17
8
19
16
8
18
16
8
20
16
8
22
17
8
20
18
7
17
17
7
16
16
7
17
16
8
19
17
8
20
18
8
20
18
8
20
19
8
21
20
8
23
19
8
24
18
8
25
19
8
26
20
7
25
19
5
24
16
5
25
14
7
27
15
8
27
16
8
25
16
8
24
15
8
24
14
8
22
14
7
18
13
5
17
14
4
19
17
4
19
17
4
17
16
4
17
18
4
19
20
4
20
18
4
20
16
4
18
16
4
14
15
4
12
13
4
12
12
3
11
12
1
8
11
0
5
9
1
4
8
3
4
8
4
4
7
3
4
5
0
4
5
0
1
6
2
1
6
4
6
7
2
4
9
1
4
10
4
5
9
4
4
7
3
6
6
4
5
8
3
5
8
1
7
8
4
8
10
4
8
7
2
5
8
3
4
7
4
6
7
3
8
10
4
8
11
5
8
12
4
10
12
3
13
11
5
13
10
7
12
11
4
10
12
4
7
11
3
7
9
1
7
8
2
7
7
4
9
6
4
11
8
4
12
11
4
10
11
2
10
10
3
9
10
4
8
9
4
7
8
6
7
8
4
7
8
1
7
9
0
7
11
3
7
10
4
5
8
5
3
8
4
1
7
2
2
4
5
3
1
5
3
1
5
5
4
8
7
4
10
8
3
9
7
4
8
5
4
10
4
4
10
4
4
9
5
4
9
5
5
12
7
4
14
7
3
15
5
4
15
4
4
13
3
5
9
3
8
255
255
255
255
255
255
5
7
0
5
7
0
5
7
4
7
8
4
5
8
1
5
7
4
4
5
4
4
2
2
6
4
4
7
4
4
5
3
4
2
4
3
6
5
4
8
4
4
4
5
1
5
7
4
7
4
4
4
4
1
6
7
3
6
4
4
2
2
3
4
4
1
4
5
1
4
4
4
5
4
4
4
3
2
6
3
6
4
6
5
4
4
2
8
2
2
4
4
4
1
3
4
4
4
0
7
4
0
8
3
3
5
4
4
3
3
1
4
7
3
4
7
3
4
5
3
3
3
3
3
4
4
4
4
4
2
2
0
4
4
4
7
5
7
6
4
4
5
1
1
7
4
0
5
4
0
4
1
0
6
4
3
5
3
4
4
3
1
3
4
0
1
1
4
4
3
4
5
4
0
5
1
3
4
3
4
4
4
4
4
1
3
5
0
2
5
2
4
5
4
4
8
2
4
7
0
4
5
3
3
6
4
2
5
3
3
3
4
4
1
3
3
3
4
2
4
3
3
4
1
3
3
2
1
199
173
149
255
255
255
249
255
182
255
255
229
255
255
255
255
255
255
255
255
255
255
255
255
184
208
158
45
50
36
1
4
1
0
2
3
0
1
3
0
0
1
0
3
2
1
2
2
4
1
0
3
0
0
2
2
0
2
1
0
1
4
0
0
4
1
0
2
3
2
3
3
2
4
2
0
4
2
0
4
3
1
4
1
4
5
3
5
7
4
7
8
5
7
8
6
7
8
6
7
8
7
5
8
8
5
8
8
7
8
7
7
8
5
5
7
3
4
6
2
4
7
2
4
8
1
4
8
1
5
8
4
6
7
3
6
6
3
7
6
0
5
5
1
4
4
4
4
5
3
6
4
2
3
4
2
4
4
2
5
5
3
4
5
4
3
4
3
0
4
1
0
4
0
1
4
1
4
1
4
4
0
7
4
0
5
3
0
4
3
3
4
4
4
5
1
3
5
2
1
3
5
1
3
6
3
4
4
4
4
2
5
4
4
4
4
4
5
6
4
6
8
4
5
7
2
4
7
3
4
6
4
5
2
5
7
3
7
8
3
7
8
4
5
8
4
4
8
4
4
7
4
4
6
4
5
6
4
4
6
4
4
6
5
3
5
5
1
4
3
2
4
2
2
4
1
2
4
3
4
4
4
3
5
4
2
7
4
4
5
4
4
4
4
3
4
4
2
2
4
0
3
4
1
2
4
4
3
1
4
4
0
4
2
0
7
4
0
5
4
0
5
3
0
5
4
0
4
5
0
5
4
0
8
5
0
10
7
0
10
8
1
11
8
4
12
9
3
13
11
0
15
12
3
17
13
5
19
15
7
20
15
8
20
14
7
20
15
6
20
15
6
19
13
5
18
12
4
17
12
4
16
9
3
13
8
0
14
8
0
15
8
2
15
10
3
17
12
2
20
16
1
21
16
0
22
17
1
22
18
3
22
18
4
21
18
3
20
19
2
20
19
4
19
17
3
17
15
1
16
13
0
14
12
5
12
11
6
11
9
1
10
8
2
10
7
2
10
7
4
11
7
4
12
8
3
12
8
1
12
8
2
12
8
4
12
7
3
12
5
1
10
4
1
6
4
4
4
3
7
4
1
7
4
0
5
4
0
4
4
2
3
7
5
1
143
120
81
255
255
255
255
255
255
32
37
24
49
91
19
55
113
14
2
44
20
21
3
16
4
10
5
7
45
0
33
113
7
69
153
24
53
107
54
22
17
40
28
110
38
31
103
58
8
19
17
1
1
0
8
3
0
22
6
0
14
1
0
5
0
0
4
1
0
5
3
0
37
26
9
255
255
172
255
255
255
255
255
255
15
26
23
18
28
22
20
31
24
21
32
23
24
33
22
26
37
23
24
39
24
21
40
23
20
39
22
20
38
24
21
39
27
23
40
28
23
41
27
22
42
26
23
42
27
23
42
28
21
41
28
20
40
28
20
40
28
20
40
28
20
40
26
20
39
22
20
37
19
21
37
19
22
40
23
21
42
27
21
42
27
23
43
25
24
44
24
24
44
24
24
44
24
23
45
24
22
47
24
23
47
24
24
46
24
24
47
24
24
48
25
24
48
25
24
47
22
24
45
21
23
44
23
22
43
23
22
41
22
21
39
23
20
37
23
20
36
21
20
36
20
20
35
19
19
32
17
17
29
17
16
28
18
15
28
17
13
27
16
12
25
15
13
25
14
15
27
15
16
27
17
16
25
19
15
24
19
13
24
17
12
24
16
12
24
16
12
24
16
12
24
17
11
23
18
9
21
16
8
19
14
9
19
15
11
21
16
11
20
16
9
17
17
8
16
20
7
17
22
7
18
22
7
17
22
8
18
22
8
18
22
8
18
20
7
18
18
5
17
17
5
15
18
5
13
17
5
14
17
8
18
18
8
15
16
7
15
13
5
16
12
5
15
12
7
13
11
7
11
10
5
9
11
4
8
12
1
7
12
2
7
11
3
7
9
5
9
8
5
10
9
3
9
10
1
8
9
2
7
8
2
5
7
1
4
6
2
4
7
5
5
8
4
5
8
0
5
7
0
4
7
4
3
5
4
1
5
4
0
6
4
1
5
1
2
4
3
1
4
4
0
4
5
0
3
6
2
2
5
4
4
4
4
5
4
6
3
4
4
3
4
1
4
5
4
3
4
3
4
4
3
5
5
5
5
8
5
4
10
4
1
10
3
3
12
4
5
255
255
255
255
255
255
6
4
1
4
4
0
5
4
4
5
8
4
4
8
0
7
7
1
4
7
4
4
4
3
5
5
3
5
4
4
7
0
4
4
2
4
7
4
4
7
2
4
4
4
1
6
7
1
5
4
4
5
5
4
5
8
2
5
4
3
6
3
4
4
4
3
2
2
0
4
4
1
5
4
4
4
2
3
5
2
5
4
5
6
5
5
3
8
4
2
5
5
4
4
4
4
5
4
1
7
4
2
7
1
2
5
4
4
3
5
4
4
6
2
5
7
1
5
6
3
5
4
4
7
4
4
7
4
3
7
4
0
10
5
4
11
4
5
10
3
4
10
3
4
10
4
1
8
3
0
7
1
0
7
4
4
7
3
4
5
2
0
4
4
1
4
2
4
5
2
3
5
4
0
5
3
1
4
2
3
5
3
4
7
2
4
7
1
4
7
4
2
7
4
3
7
2
4
5
3
3
4
4
0
4
4
0
4
5
0
4
7
1
4
5
2
5
5
1
7
4
1
7
4
2
5
3
1
228
197
165
255
255
255
129
210
166
62
137
171
72
82
133
127
34
61
219
168
79
255
255
234
255
255
255
255
255
198
86
88
65
9
16
8
0
8
2
0
7
1
0
7
1
2
7
3
3
8
4
3
8
4
4
8
4
4
8
4
4
9
4
4
11
4
4
12
4
4
11
4
4
9
4
1
8
5
0
8
7
0
8
8
1
8
8
2
7
7
4
5
5
4
4
4
3
3
4
3
3
4
3
1
4
2
3
4
0
4
3
2
2
0
3
3
0
0
4
0
0
3
0
0
1
0
2
0
0
2
1
1
2
2
2
2
1
1
4
2
0
4
2
0
0
1
5
4
4
3
5
3
4
2
0
4
2
0
4
4
3
4
4
4
4
4
3
3
1
1
1
0
1
0
0
4
0
4
4
1
6
3
5
4
1
7
2
0
5
1
1
4
4
3
4
3
4
4
3
3
4
4
0
3
4
0
2
5
1
3
4
4
4
4
4
4
2
3
3
2
2
1
3
3
2
2
4
5
0
3
5
1
1
4
3
0
3
3
1
3
3
2
2
3
1
2
2
0
3
2
2
3
4
2
1
4
0
0
2
2
1
3
3
2
4
2
2
4
2
3
3
3
4
2
5
4
4
4
3
4
2
1
2
3
0
4
4
0
5
4
0
5
4
0
4
3
1
1
3
2
1
4
2
5
1
4
7
2
4
7
4
4
8
4
4
7
4
4
6
5
3
7
4
1
5
4
0
5
5
0
8
5
0
13
7
0
12
8
0
12
10
3
13
10
4
14
9
2
13
9
4
12
12
4
13
13
5
13
11
7
11
9
7
11
8
4
11
8
1
10
8
0
11
8
2
12
7
0
12
5
4
12
4
4
10
5
0
8
5
0
10
7
1
10
8
4
10
9
2
11
9
4
11
7
4
10
8
2
10
10
2
10
7
2
10
9
3
11
10
1
12
9
4
11
8
0
8
7
0
5
5
1
4
4
3
4
1
5
4
2
1
4
4
3
3
2
4
2
3
7
3
4
8
4
2
8
3
3
8
0
5
8
0
7
8
1
8
8
3
8
8
5
8
9
7
8
11
8
8
12
7
8
12
5
8
11
4
8
9
5
8
7
8
10
7
166
144
99
255
255
255
255
255
255
29
109
31
30
95
28
70
75
21
53
48
2
15
22
22
31
16
27
9
19
15
13
10
4
12
81
7
45
140
31
50
117
58
38
35
31
42
105
41
27
65
42
8
9
7
17
1
0
22
5
0
7
2
0
3
1
0
2
2
0
5
3
0
60
50
26
255
255
127
255
255
255
255
255
255
67
70
54
36
47
26
35
48
23
34
48
22
36
49
22
39
52
23
40
56
25
41
59
27
41
59
27
38
57
25
36
54
22
36
49
19
35
46
20
33
48
22
33
51
22
35
52
24
36
52
27
36
52
26
36
52
23
35
51
24
33
50
27
32
50
27
32
49
25
32
49
24
32
51
24
33
52
25
35
53
27
36
55
28
35
56
27
33
55
26
32
53
25
31
52
23
29
52
22
28
51
22
27
49
22
25
48
22
25
48
22
27
47
22
28
45
24
28
44
26
28
44
25
27
44
23
25
43
21
24
41
21
23
39
22
21
38
21
20
39
20
20
39
19
20
36
18
20
33
19
19
32
19
17
31
16
16
29
14
15
28
15
13
27
16
12
26
16
12
26
16
12
25
16
12
24
16
13
25
17
15
27
19
16
28
20
16
28
20
16
28
20
15
27
20
13
25
20
12
24
19
12
24
17
11
23
16
9
21
16
8
19
16
8
18
17
8
20
17
8
20
20
8
19
23
8
18
23
8
15
20
7
12
16
5
10
12
4
8
11
4
8
10
2
9
11
5
12
12
7
14
10
3
8
8
2
8
7
2
8
5
4
5
4
4
4
3
4
1
4
3
2
4
3
3
2
3
2
3
2
5
4
4
4
4
6
3
4
4
4
7
3
4
7
1
4
8
1
1
7
3
0
6
4
1
7
3
4
8
3
4
8
4
4
8
1
4
7
0
1
5
4
0
5
4
0
5
3
0
4
4
3
4
0
4
4
2
4
5
1
5
7
1
7
8
4
9
9
4
10
10
2
8
8
4
7
5
3
5
5
2
5
8
5
8
10
5
10
12
7
10
13
7
10
12
6
10
12
7
9
12
8
9
12
8
10
13
255
255
255
255
255
255
6
4
2
5
4
0
6
2
4
4
5
4
5
7
0
8
7
1
5
4
3
4
4
3
4
7
2
4
4
4
7
0
4
7
2
4
8
4
4
6
3
4
4
4
3
5
4
0
4
4
1
6
6
4
5
8
4
4
5
1
7
4
4
4
4
4
3
0
0
4
4
0
4
4
4
5
0
4
4
2
4
4
4
5
6
4
4
7
4
3
7
6
4
5
4
3
7
4
2
8
5
1
7
3
2
5
5
2
5
5
4
5
6
2
5
9
3
7
5
4
10
4
4
12
5
4
12
5
1
12
4
0
14
4
4
15
4
5
12
3
2
10
3
3
10
4
2
7
3
0
6
4
1
7
4
4
7
2
3
5
4
0
4
4
2
3
1
3
4
3
2
5
4
1
5
3
0
5
3
0
7
2
0
5
1
1
4
3
4
5
4
4
5
1
1
5
2
3
4
3
4
1
4
1
1
5
0
4
5
0
4
3
0
3
1
1
3
4
2
2
3
1
0
0
1
1
2
3
255
219
180
255
255
181
111
114
81
34
148
154
9
167
182
18
166
183
25
148
169
86
88
113
255
220
137
255
255
184
222
197
135
115
121
98
72
82
70
35
43
33
4
13
9
1
10
7
3
8
5
3
5
4
2
5
4
2
6
4
1
6
4
0
6
3
0
6
1
2
6
1
4
5
2
2
4
2
0
4
3
1
4
3
3
3
1
4
3
2
4
2
2
2
0
0
4
2
0
4
3
0
1
3
0
3
3
3
4
5
4
3
0
4
1
1
4
0
3
4
0
4
4
0
4
3
2
3
1
3
1
1
2
1
4
1
2
6
3
2
6
4
2
7
1
1
7
3
3
3
4
4
2
1
3
2
1
1
2
4
1
2
4
3
3
4
4
4
3
4
4
0
1
3
0
1
1
4
3
0
5
4
1
4
3
4
3
0
4
0
0
4
4
0
4
4
3
4
3
4
4
4
4
4
3
4
4
7
3
4
6
2
4
2
3
4
4
3
3
4
2
2
3
3
3
2
3
3
3
3
4
4
2
5
4
1
4
4
2
3
4
2
1
5
4
3
4
4
4
4
3
3
4
1
1
1
0
0
3
3
0
4
4
0
3
1
3
2
1
2
3
4
1
4
4
2
5
1
0
4
3
0
4
4
0
5
4
0
5
5
0
4
5
0
2
4
0
3
4
1
5
3
2
8
1
2
7
4
3
7
5
4
5
4
4
2
3
4
4
6
4
4
4
4
2
3
1
5
4
0
8
4
0
8
5
0
7
5
1
7
5
4
8
4
2
7
2
4
4
4
3
4
6
0
6
5
0
2
2
0
3
3
0
4
4
4
1
1
3
3
3
2
7
4
1
8
3
0
8
1
4
7
3
4
5
5
0
5
5
0
7
4
0
5
5
3
4
7
2
7
5
3
8
7
0
7
8
3
7
8
4
5
7
4
4
8
4
4
8
2
4
7
4
4
6
2
5
7
3
7
8
4
9
10
5
11
14
8
12
16
10
13
17
9
16
19
8
20
21
9
23
23
11
25
24
13
27
24
14
27
24
13
25
24
12
24
24
13
24
23
15
22
21
14
19
20
11
19
20
11
19
20
12
17
20
12
16
19
12
17
18
13
20
19
15
206
177
123
255
255
255
255
255
255
20
93
30
10
81
20
39
52
15
83
21
22
64
19
15
19
20
24
46
39
36
12
55
26
19
34
8
8
47
7
29
113
28
47
107
52
58
49
23
55
67
39
26
34
17
24
4
1
16
5
0
3
6
0
3
6
0
5
5
0
8
8
1
86
76
44
255
255
153
255
255
255
255
255
255
65
56
48
22
28
13
20
28
12
20
27
13
19
26
15
18
27
15
20
29
14
23
30
16
24
29
18
24
27
16
22
25
12
18
24
10
17
24
11
18
24
12
17
24
12
17
25
11
19
27
9
20
27
8
20
25
8
19
24
10
17
24
12
16
23
15
16
21
16
15
20
15
14
20
13
15
20
12
16
20
12
16
20
12
15
20
11
13
20
10
12
19
11
12
17
12
12
16
12
12
17
12
11
18
12
9
17
12
8
15
11
8
13
10
8
12
10
7
12
8
6
11
5
6
9
4
6
8
4
6
8
4
5
8
4
4
8
5
3
7
7
1
6
8
0
7
8
0
8
7
4
7
6
4
5
7
0
5
5
2
4
5
2
4
6
0
4
6
0
4
6
1
4
5
2
4
5
0
4
7
3
4
8
4
4
8
3
3
8
1
1
7
0
1
5
0
3
5
1
5
6
2
6
5
1
5
5
0
4
6
0
4
7
0
5
8
2
7
6
3
4
6
2
2
7
5
5
7
3
4
6
3
1
7
4
4
7
3
4
5
2
1
4
2
2
4
6
7
5
5
9
4
5
5
4
6
5
5
5
7
5
5
7
2
7
5
1
8
3
4
8
2
3
8
3
0
7
4
0
4
7
0
3
5
1
5
2
5
4
3
9
4
6
8
3
4
8
0
0
8
0
1
9
3
4
10
4
4
9
2
2
8
4
4
8
3
3
8
0
0
7
4
1
7
4
3
7
2
4
5
4
5
5
3
7
7
3
7
8
4
9
9
5
12
11
7
14
11
6
14
10
7
15
12
7
16
15
6
16
16
8
16
17
11
17
17
10
17
18
9
17
17
11
18
16
13
18
17
16
19
19
18
19
20
17
18
20
255
255
255
255
255
255
6
4
2
7
4
1
7
3
3
5
4
4
7
7
1
7
8
2
4
2
1
4
4
2
5
7
3
5
4
4
7
1
4
8
2
4
8
4
4
7
5
3
5
4
4
7
2
1
7
5
0
7
5
1
7
7
4
5
6
4
7
4
4
5
4
4
5
1
1
5
4
0
5
3
4
7
1
4
5
4
4
8
5
4
8
5
3
7
5
4
8
5
4
8
3
3
8
4
2
7
6
3
5
3
1
7
5
2
7
5
4
5
7
2
7
9
3
9
4
4
9
4
4
8
6
4
8
4
1
8
1
0
9
4
4
7
4
6
4
0
3
5
1
2
5
4
1
1
5
0
3
4
2
4
2
4
3
2
2
4
4
0
2
2
1
1
1
2
4
4
2
6
3
2
4
1
1
4
4
0
4
3
0
1
0
1
3
3
3
4
4
5
3
3
4
3
2
2
2
4
4
1
5
4
2
4
4
3
4
4
3
7
4
4
7
3
4
7
2
4
7
3
4
7
5
4
6
7
255
255
207
255
255
196
174
156
118
144
154
120
110
104
83
74
42
32
48
24
24
51
75
67
192
177
127
217
171
104
141
110
56
178
148
97
167
142
100
103
95
67
9
13
5
0
4
4
0
4
3
0
4
0
0
1
0
0
0
0
1
0
0
2
2
0
2
0
0
4
1
0
4
4
0
1
3
0
0
1
0
3
0
2
4
2
2
3
4
1
1
1
3
3
2
4
4
2
4
1
3
4
0
3
3
3
2
3
4
5
5
1
3
5
0
1
4
0
1
4
0
3
4
0
4
4
3
4
4
4
4
4
1
1
4
0
1
4
1
3
5
4
4
7
4
3
7
2
1
4
3
3
2
2
4
2
1
4
1
4
1
0
4
0
0
4
1
1
3
4
3
0
4
4
0
1
4
4
0
1
4
3
1
4
4
4
4
1
6
0
0
6
4
0
6
4
1
5
2
3
4
4
3
4
6
1
3
8
2
1
4
2
1
3
0
3
4
1
4
1
1
4
1
2
3
4
4
2
5
5
3
6
4
5
5
4
6
4
4
5
5
4
3
7
5
1
6
4
0
6
4
2
5
4
2
4
4
0
4
4
0
4
4
0
3
3
2
5
4
2
7
4
2
7
2
2
7
3
0
7
5
0
7
5
0
5
4
0
4
5
1
2
5
3
5
4
3
7
4
1
7
4
0
7
4
2
5
5
0
4
5
0
2
4
0
4
4
0
4
5
1
2
4
4
4
4
3
7
4
0
5
4
0
5
5
0
6
4
3
4
3
4
5
4
2
4
3
4
1
4
1
3
5
0
5
4
0
4
4
0
3
5
0
2
4
4
1
0
4
5
4
1
8
4
3
7
1
4
4
3
4
1
4
3
3
6
0
4
4
0
4
1
1
4
3
4
2
5
6
5
4
5
8
5
4
10
10
5
11
12
6
11
13
4
13
16
1
15
18
1
16
17
4
16
16
4
15
16
5
14
17
8
15
18
10
16
17
9
16
17
8
17
19
7
19
20
5
20
20
4
21
22
5
23
25
7
24
25
9
24
24
10
24
24
10
24
24
11
23
23
12
20
21
11
17
20
8
16
20
5
15
19
4
12
16
4
9
12
5
8
8
7
10
7
7
255
229
152
255
255
255
255
255
255
4
3
0
4
5
0
7
8
2
51
7
16
96
1
33
63
1
24
18
36
11
53
36
36
17
77
34
27
67
18
18
12
2
6
80
25
32
83
36
60
52
28
59
37
17
44
10
2
20
6
0
8
5
0
0
4
0
6
4
0
25
15
3
145
114
64
255
255
255
255
255
255
255
255
205
46
33
31
2
4
4
1
3
3
2
3
4
3
3
3
2
3
4
0
3
4
1
3
4
2
2
5
2
0
7
4
1
7
4
2
6
3
1
7
3
2
6
2
3
6
0
3
6
0
3
5
0
3
5
1
2
6
4
1
5
3
3
4
0
4
4
1
3
6
4
0
5
3
2
5
0
4
6
0
2
5
0
0
4
4
0
3
4
1
0
1
4
1
4
4
2
3
1
2
1
1
2
4
4
1
3
3
0
0
2
0
0
4
0
1
2
2
4
0
3
5
3
4
6
4
7
5
4
7
4
5
5
4
4
4
2
2
5
5
5
8
7
7
11
8
7
10
8
4
6
7
2
4
5
5
5
4
5
4
3
4
4
1
4
5
0
5
7
1
4
8
4
1
8
4
0
8
4
0
7
4
0
5
4
1
3
4
4
2
4
4
3
4
4
4
4
4
4
4
4
4
4
4
5
4
2
6
4
2
5
4
1
5
3
3
8
2
5
6
3
5
5
4
3
4
7
3
4
7
4
3
8
3
4
7
2
5
5
4
6
4
3
7
2
2
7
5
5
5
7
7
5
4
5
6
3
5
5
3
4
4
3
4
4
5
4
4
7
3
5
4
4
4
0
5
4
6
7
4
6
7
5
1
6
7
4
4
8
3
4
8
3
5
5
4
3
4
1
1
5
0
4
7
1
4
5
4
2
4
3
4
5
4
4
7
4
1
8
0
1
8
4
4
7
4
5
7
3
7
8
5
8
11
5
11
12
4
11
11
4
12
10
5
14
11
5
14
11
5
13
10
7
13
13
5
14
15
5
14
16
9
14
15
8
12
10
5
10
8
5
8
8
5
8
8
7
8
10
8
9
11
7
11
12
5
13
12
255
255
255
255
255
255
7
4
4
8
4
3
8
4
1
7
4
4
7
5
3
5
8
1
4
4
1
7
4
3
7
5
3
7
4
4
8
2
4
8
3
4
8
5
4
7
5
2
7
3
4
9
4
2
8
8
0
8
7
0
8
7
2
7
5
4
8
4
3
7
3
4
7
3
4
7
4
1
8
2
3
8
4
4
7
4
5
8
4
5
7
4
4
8
3
5
11
4
5
9
2
3
7
4
3
7
6
4
7
4
0
5
6
1
3
4
4
3
6
3
7
8
1
8
4
4
7
4
4
5
5
4
5
4
4
4
1
1
5
3
4
4
4
5
3
1
4
4
0
4
4
4
3
1
5
1
3
4
1
4
4
4
2
2
3
4
4
0
4
4
0
4
4
2
4
4
1
4
1
3
4
0
4
4
3
4
4
4
4
1
1
4
3
1
4
4
2
5
2
3
5
3
2
4
4
1
4
3
5
4
1
7
4
3
7
4
4
5
4
4
4
4
4
5
2
3
4
3
0
4
4
3
8
11
255
255
236
255
255
243
184
174
101
163
191
132
170
203
143
165
201
139
160
192
132
187
202
138
255
255
172
255
238
156
179
148
87
85
77
44
120
101
71
123
111
79
48
53
38
15
20
15
1
4
5
0
4
3
0
4
1
0
4
0
2
4
1
1
5
3
3
5
3
4
3
1
1
3
1
0
4
2
1
4
1
3
1
2
3
1
5
1
4
5
1
3
4
4
1
4
3
2
4
0
0
4
1
0
4
1
1
3
3
4
1
3
3
2
0
0
0
0
2
0
0
0
0
1
3
1
5
2
3
5
3
4
4
2
4
4
1
4
5
3
4
7
4
4
8
3
1
7
0
4
7
0
0
5
2
0
5
4
2
5
2
0
4
0
0
4
0
0
1
1
0
0
4
1
1
4
4
4
1
3
4
1
2
4
4
2
4
3
2
3
0
0
4
0
1
4
0
4
4
1
4
5
2
3
8
2
2
7
1
1
2
1
4
4
1
4
4
1
4
3
4
2
4
4
2
5
4
2
5
5
2
5
5
1
7
6
1
8
6
2
7
6
2
5
5
3
4
5
5
4
7
5
5
8
3
7
8
3
7
7
4
5
5
4
4
4
3
5
3
2
5
2
2
5
4
1
7
5
0
5
7
0
4
7
0
4
6
1
4
7
4
5
7
3
9
5
3
8
5
1
7
7
2
5
7
1
4
5
0
2
5
0
4
4
0
4
4
0
2
5
0
4
5
4
4
4
4
5
3
0
4
4
0
4
3
0
6
4
4
4
3
3
3
3
4
4
4
2
3
5
3
1
4
3
4
1
1
4
4
0
4
7
0
3
4
4
3
0
4
7
4
3
8
4
4
5
3
4
1
4
3
1
3
1
4
5
0
4
5
1
2
3
4
3
3
4
3
3
3
2
2
1
0
1
1
4
4
3
7
7
4
10
8
4
12
10
4
12
14
5
12
16
7
11
14
7
8
10
5
7
9
4
5
9
4
3
6
4
3
4
4
4
4
4
3
4
4
0
4
3
1
4
2
2
4
3
4
5
4
5
7
4
7
8
4
7
7
4
5
7
4
5
7
5
2
7
6
2
5
4
4
4
1
6
6
1
8
7
3
13
8
3
18
8
1
255
255
197
255
255
255
255
255
241
6
6
0
5
7
0
5
2
0
16
5
2
45
2
15
91
5
35
75
26
35
18
64
4
62
27
31
20
82
43
33
98
33
37
39
8
20
21
12
12
42
16
24
32
10
34
12
1
39
6
0
46
5
1
70
6
5
82
2
7
94
27
8
255
225
119
255
255
255
255
255
255
135
96
62
14
5
6
5
1
4
4
4
0
5
5
1
7
4
4
6
4
4
7
5
1
8
7
0
8
5
1
8
5
4
7
7
5
5
7
6
4
5
5
3
3
3
1
1
3
0
0
2
1
3
5
3
5
5
4
3
5
5
2
6
4
3
5
4
4
4
4
3
4
4
0
4
1
3
4
0
4
4
1
1
5
5
2
5
10
5
5
8
5
6
5
3
4
4
3
1
2
2
1
4
1
3
4
4
4
1
3
4
0
2
4
1
4
4
4
2
6
5
1
10
5
4
12
4
4
12
4
4
12
4
4
11
4
1
9
4
3
8
7
7
10
5
5
8
4
4
8
4
4
7
3
3
5
1
6
5
0
4
7
0
2
8
1
4
8
3
4
7
4
1
5
4
0
4
1
0
5
1
0
6
3
0
6
4
3
6
4
4
6
3
1
7
1
0
8
1
0
8
4
1
8
6
4
8
6
2
7
6
2
6
5
3
7
4
1
8
4
4
5
1
6
7
1
4
7
4
2
5
6
2
4
5
4
5
4
4
7
4
4
8
4
4
8
3
5
8
1
7
7
4
7
7
5
8
7
4
9
6
2
8
3
0
7
3
0
7
4
6
7
5
7
5
5
3
5
7
4
7
8
5
4
8
1
5
7
3
4
5
4
3
5
4
4
4
5
1
3
4
3
4
1
4
5
0
1
4
3
3
4
4
4
4
5
2
4
4
3
5
0
5
7
4
7
7
4
7
5
4
7
7
7
8
8
4
11
8
1
10
9
1
10
10
4
11
9
4
8
8
4
8
8
3
8
11
1
7
8
5
7
8
7
7
8
3
8
8
3
8
8
4
8
8
4
8
10
5
7
11
5
7
9
4
10
7
4
13
5
255
255
255
255
255
255
7
4
4
11
3
4
9
4
0
7
5
4
7
5
4
7
7
0
7
5
3
8
4
4
7
5
2
7
4
4
7
1
3
7
4
4
8
7
4
8
4
3
8
2
4
8
6
1
7
8
0
7
5
0
7
5
3
7
5
4
7
4
1
7
2
1
7
4
4
7
4
4
9
4
2
8
4
3
8
2
5
10
4
5
10
4
4
13
2
5
13
4
5
10
4
3
8
5
4
8
7
4
7
5
0
6
5
0
5
4
4
5
6
4
8
7
0
7
3
4
6
4
4
4
4
1
2
4
4
4
3
2
5
1
4
4
4
4
4
4
3
4
1
4
4
3
4
3
4
4
2
2
1
4
4
4
2
3
4
2
1
0
4
4
0
5
6
1
4
4
2
3
3
2
4
1
3
4
1
4
4
4
4
2
3
2
1
0
0
4
3
3
3
3
4
0
1
3
4
1
4
4
2
3
0
2
0
0
2
1
0
2
2
0
1
2
4
4
2
4
2
2
0
4
2
7
14
17
255
255
254
255
255
253
118
110
13
22
30
9
43
63
31
76
99
57
99
122
73
126
144
86
240
223
131
255
255
179
255
255
170
225
199
123
255
255
171
255
255
245
255
255
241
255
236
158
95
85
58
9
11
8
0
6
4
0
5
2
2
4
4
3
3
3
2
3
3
1
2
2
1
0
2
3
2
0
4
4
2
4
3
2
4
3
0
5
3
2
7
4
1
7
4
3
6
3
3
7
3
1
8
4
1
8
4
2
7
5
2
5
5
3
4
4
4
4
5
4
4
6
3
5
5
2
8
4
3
7
4
4
7
4
4
9
4
4
11
4
3
11
3
0
8
1
2
5
0
3
4
0
1
4
2
2
4
4
0
2
2
2
2
0
1
3
0
0
0
0
0
1
2
0
4
4
3
5
2
4
5
1
3
5
4
0
5
3
1
4
0
1
3
0
2
4
0
2
5
2
5
7
1
3
8
3
3
4
4
5
3
3
5
4
3
2
3
2
3
3
4
2
2
2
1
4
2
1
4
4
3
3
4
4
2
2
3
1
0
1
2
2
3
1
2
3
0
2
4
0
2
1
2
0
0
2
1
2
1
3
0
2
3
0
2
1
0
4
1
2
3
4
2
3
4
0
4
3
0
1
4
0
0
5
1
3
4
4
4
5
4
5
4
1
8
2
4
5
5
2
4
5
0
3
4
0
1
3
0
3
3
0
4
3
0
1
2
0
2
3
0
3
3
3
2
3
4
4
4
4
4
5
4
4
4
3
6
4
4
4
4
3
2
4
4
5
5
1
4
6
2
0
4
2
3
4
3
4
5
2
5
8
1
5
5
3
4
3
4
7
4
4
8
4
5
7
5
5
4
5
4
3
4
4
3
5
4
4
8
4
3
5
4
1
4
1
4
5
2
4
7
2
4
8
2
5
8
2
7
9
1
8
10
3
8
9
5
7
9
6
5
10
5
4
9
4
3
7
3
3
5
1
4
3
0
8
3
1
10
0
3
9
0
4
8
0
4
8
0
4
8
1
4
8
3
4
8
4
3
8
4
2
8
2
2
8
4
1
8
4
0
8
1
0
10
3
1
12
5
4
14
8
4
15
12
4
20
12
4
23
11
4
22
8
2
255
255
255
255
255
255
255
255
176
9
7
0
11
7
0
8
2
0
11
3
0
5
1
0
37
2
9
90
5
32
78
31
39
16
79
17
69
41
19
34
68
41
29
124
38
42
104
27
41
56
12
38
37
1
30
38
0
4
27
0
47
5
2
76
10
7
73
10
3
77
84
29
255
255
235
255
255
255
255
255
232
21
11
9
5
0
3
5
3
4
8
7
2
12
10
2
13
12
4
15
15
3
16
15
4
16
14
3
16
15
1
15
16
1
13
16
3
11
14
4
8
9
3
5
5
2
4
4
4
4
4
4
7
5
3
10
8
3
11
7
2
9
8
3
8
7
4
7
4
4
5
2
5
4
3
6
4
4
4
5
3
2
10
4
4
17
14
5
18
17
7
15
15
7
9
9
5
5
5
4
5
5
4
7
7
4
6
7
4
7
5
5
8
4
7
8
4
8
7
2
8
5
4
8
4
4
7
2
3
5
3
4
4
4
2
5
4
0
5
4
4
8
5
8
8
3
4
4
0
0
2
0
1
4
1
3
5
3
5
7
4
3
8
4
3
8
4
4
7
4
1
5
4
0
4
4
1
4
4
2
4
4
2
4
4
2
4
4
3
5
4
4
7
4
0
8
4
0
8
4
0
8
4
0
9
4
4
9
4
1
7
4
2
7
4
3
7
2
0
7
4
4
5
4
6
4
3
4
4
1
3
3
0
4
3
0
7
6
3
5
7
4
3
5
4
4
5
4
6
5
3
4
4
4
4
5
5
7
5
7
7
4
5
4
4
4
2
4
4
4
4
7
4
5
11
3
5
11
5
5
10
7
6
10
5
4
9
5
2
9
7
5
10
7
5
9
5
4
9
1
4
10
4
3
8
4
4
5
1
4
5
4
4
7
3
3
8
3
1
7
4
3
5
5
5
5
5
7
5
5
7
5
7
7
8
8
8
5
11
8
1
11
11
3
10
11
4
10
10
4
8
12
4
8
14
2
8
13
4
9
10
7
10
10
5
9
9
1
9
8
4
12
8
5
12
10
4
11
11
6
9
8
4
8
6
4
11
6
4
11
5
255
255
255
255
255
255
6
4
3
10
2
4
7
3
1
5
6
4
5
7
4
5
6
0
4
4
3
5
4
4
7
5
3
5
4
3
7
2
3
8
4
5
7
6
3
7
4
3
6
4
4
6
5
3
6
6
1
4
7
0
4
5
3
4
4
4
4
2
4
6
2
3
5
4
2
5
4
4
8
4
3
7
3
0
8
4
4
11
5
4
13
5
2
14
5
4
12
7
6
9
7
5
7
7
3
5
5
3
7
4
1
7
5
0
9
5
3
10
7
4
11
5
1
8
2
4
5
4
4
4
3
0
3
4
4
3
4
2
3
0
3
3
2
4
4
4
1
4
2
2
4
2
2
4
4
4
4
2
2
4
4
3
1
4
4
3
0
1
4
4
0
3
5
0
4
3
0
4
4
0
4
4
0
5
1
0
4
4
1
1
4
2
1
0
2
4
3
1
3
3
3
0
3
1
4
3
4
4
2
4
0
2
0
0
1
2
0
2
0
0
2
1
3
4
2
4
4
1
4
5
3
13
19
23
255
255
255
255
255
245
79
91
4
11
4
3
6
5
4
2
2
2
2
2
4
3
2
1
11
17
2
151
125
76
255
225
124
196
161
99
255
255
199
255
255
203
255
255
205
255
255
194
170
151
93
18
15
9
5
2
4
7
3
3
8
3
3
8
5
1
8
7
4
8
5
1
8
4
1
9
5
2
10
7
0
10
5
1
10
5
1
10
7
1
10
7
2
9
5
3
8
4
2
8
4
3
7
4
1
6
5
4
6
7
7
6
5
8
7
4
7
8
4
5
8
4
4
8
3
4
8
1
4
5
3
3
4
4
1
5
3
0
7
1
0
5
0
2
3
1
1
2
3
2
3
4
3
3
2
1
1
2
4
3
4
3
4
1
3
4
0
0
4
1
0
5
4
0
8
5
1
8
4
3
8
4
4
8
4
4
7
1
4
5
0
4
5
0
3
8
0
3
10
1
4
8
2
6
7
2
8
4
2
7
4
2
5
3
4
4
1
4
5
4
5
6
4
4
6
5
5
7
5
7
8
2
7
8
3
5
7
4
7
6
4
7
6
1
5
5
0
2
5
1
3
5
2
4
3
1
4
3
2
3
4
2
1
4
2
2
3
3
3
3
2
3
5
4
3
5
4
5
4
4
7
4
4
8
4
5
7
4
5
8
1
5
9
1
9
10
4
8
11
4
8
11
4
8
12
3
8
11
2
8
10
3
8
11
4
8
11
4
8
10
4
8
11
5
8
12
7
8
11
8
8
10
7
8
11
5
10
12
5
11
12
6
11
12
5
11
13
5
10
13
7
9
15
7
8
15
5
8
14
4
8
16
4
10
16
2
9
16
4
12
16
7
13
16
8
15
17
9
15
18
11
14
17
12
15
16
12
16
17
10
16
19
6
16
19
4
17
17
5
19
16
7
19
16
7
18
16
5
17
16
4
14
16
4
12
14
4
11
10
3
8
8
2
7
8
3
5
8
4
2
6
4
4
4
3
8
4
1
7
0
0
8
0
0
8
0
1
7
1
4
7
3
6
10
4
5
12
3
4
12
3
4
11
1
4
8
4
4
5
7
4
5
7
4
5
7
4
6
7
5
7
8
7
12
11
7
15
7
4
10
4
4
8
10
7
255
255
255
255
255
255
255
179
99
11
5
0
15
6
0
12
1
0
14
3
0
3
2
0
1
3
0
31
5
8
85
1
29
81
31
44
12
86
28
79
80
8
50
12
31
14
89
35
33
95
25
32
58
4
19
27
0
31
26
0
41
17
1
43
13
7
8
67
14
139
239
113
255
255
255
255
255
255
205
151
110
6
0
4
5
1
5
4
4
7
7
8
7
9
9
6
10
7
7
8
5
8
8
6
8
9
7
7
11
8
5
13
10
4
15
9
3
16
9
1
15
11
1
12
8
4
9
5
7
9
5
7
14
10
5
17
14
4
20
13
2
20
13
2
14
9
5
9
5
5
9
4
6
11
4
6
12
3
7
13
2
7
17
8
6
17
15
6
10
7
5
10
10
4
12
8
5
13
8
7
14
12
7
13
11
5
12
10
4
12
11
4
12
10
5
11
6
7
9
4
7
7
4
4
5
2
1
4
2
0
4
3
2
4
2
3
4
1
3
4
4
7
5
7
5
5
5
4
6
2
4
5
2
5
5
4
7
7
5
8
8
4
8
8
4
8
7
3
8
5
1
8
4
3
8
4
4
8
4
4
7
4
4
6
4
4
6
4
3
6
3
3
6
2
0
7
3
0
7
3
0
8
1
0
8
1
4
8
2
3
8
2
2
8
4
1
7
3
0
7
1
4
5
3
6
2
4
4
0
4
5
1
1
4
5
1
4
7
4
4
5
7
8
4
10
12
4
14
17
3
15
21
0
14
21
3
15
21
4
17
24
0
19
26
4
20
25
7
19
24
7
18
22
5
19
18
4
20
16
4
20
15
3
20
13
4
20
12
4
19
12
7
17
13
4
16
13
4
15
8
5
13
7
3
13
5
3
9
4
5
7
4
3
7
2
4
7
5
5
7
7
7
7
7
8
7
7
8
5
8
12
5
11
14
8
11
14
7
11
13
4
9
11
4
7
9
4
7
9
5
7
13
4
6
14
3
7
12
4
8
10
5
8
10
4
8
9
0
8
7
4
10
7
6
8
8
4
8
5
6
9
2
4
12
4
4
14
4
4
13
5
255
255
255
255
255
255
5
4
2
10
4
4
9
4
2
3
7
3
4
9
4
4
9
1
2
7
1
5
4
4
7
4
4
5
5
3
7
5
5
7
4
6
7
4
2
10
5
2
9
7
3
8
7
4
7
5
4
7
8
1
7
10
1
7
8
2
7
7
1
8
5
2
9
5
2
8
5
3
8
5
4
7
5
3
7
4
4
9
4
4
9
5
3
7
4
4
4
4
6
2
4
6
2
4
2
4
2
2
7
4
2
7
7
0
7
5
2
8
7
4
10
5
2
8
4
4
7
4
4
5
2
0
4
4
4
4
3
3
4
0
1
5
3
4
5
4
3
5
1
1
4
3
2
4
4
4
4
1
2
1
3
1
0
4
4
4
1
4
4
3
1
2
4
1
4
3
2
4
2
1
4
4
0
5
3
0
4
3
2
3
4
1
3
3
2
3
2
1
2
2
2
1
2
2
3
4
4
4
5
4
3
6
0
2
6
2
3
6
5
3
5
5
2
5
4
3
6
4
4
5
5
21
26
31
255
255
255
255
255
231
47
71
15
5
10
7
2
7
4
7
8
5
5
5
3
2
1
1
17
14
9
191
154
97
255
203
102
144
112
87
255
196
106
58
52
39
255
248
154
255
255
210
255
233
144
75
70
42
7
4
3
8
5
2
8
4
2
8
4
1
8
4
4
8
3
1
8
4
0
8
5
0
8
5
2
7
3
1
5
3
3
5
3
3
5
2
2
4
2
4
3
2
3
2
2
3
4
3
3
7
4
2
8
4
1
8
2
0
8
2
2
9
2
2
11
3
1
11
4
2
9
4
1
8
5
0
8
5
0
7
4
0
7
5
0
7
7
1
9
8
2
11
8
2
12
8
4
12
9
4
13
9
4
13
6
2
11
4
4
11
4
1
12
4
0
11
4
0
11
4
0
12
4
0
12
3
0
11
1
1
9
0
2
8
0
2
8
0
3
10
0
5
8
0
4
4
0
4
4
0
4
4
0
3
3
1
2
1
3
3
0
4
4
2
4
5
2
3
7
3
4
7
6
5
5
3
7
4
1
4
4
1
4
3
3
5
4
3
7
4
0
4
2
3
3
4
4
1
4
5
4
1
6
4
0
4
3
0
0
3
1
3
5
4
4
7
7
5
8
8
7
8
8
8
9
8
8
12
7
9
15
5
10
16
4
10
15
4
12
14
4
12
16
4
12
18
4
12
17
4
11
16
4
10
15
4
11
14
4
12
15
5
12
16
6
11
15
5
10
13
4
11
13
4
12
15
4
12
17
5
13
19
7
14
19
8
14
18
8
15
19
8
16
20
8
15
20
8
13
19
6
12
18
3
13
20
4
15
22
4
16
22
5
16
23
6
16
24
6
17
24
8
19
24
11
20
24
12
20
23
12
21
22
12
22
23
11
21
24
9
20
23
8
20
22
9
20
22
11
20
21
12
19
20
12
17
20
12
16
19
10
16
17
7
16
16
6
15
15
5
14
13
5
12
11
7
11
11
7
10
8
5
4
5
4
3
4
4
4
4
5
4
4
6
4
4
5
4
4
4
4
4
4
4
3
4
4
4
4
4
6
4
3
7
4
3
5
4
4
7
4
6
8
4
9
11
4
10
11
4
7
7
4
7
9
6
39
39
28
255
255
255
255
255
255
122
73
35
12
6
0
14
8
0
11
5
0
14
6
0
0
3
0
3
3
0
2
2
0
24
3
7
73
5
25
79
29
42
10
83
32
68
110
6
77
78
30
36
65
31
35
53
8
55
51
0
43
36
0
24
14
0
39
17
3
37
131
48
255
255
246
255
255
255
255
255
238
60
41
27
4
0
7
4
2
7
4
4
6
5
7
5
7
8
4
5
8
6
4
11
8
4
11
7
4
10
7
4
12
7
4
11
9
4
8
10
1
4
8
7
4
5
11
6
4
9
3
5
9
2
7
14
8
10
12
11
8
8
4
8
8
3
7
9
6
7
7
4
8
9
1
4
9
2
5
9
1
7
12
4
7
11
8
5
5
10
5
1
13
7
3
13
9
3
5
10
8
8
9
12
10
7
12
9
5
11
11
5
9
12
6
8
11
5
8
9
3
8
7
1
8
5
2
9
5
1
10
7
3
9
8
5
8
8
7
9
9
7
10
10
5
9
8
4
8
7
4
8
4
7
8
4
8
7
4
8
5
4
8
4
4
8
4
3
8
4
1
8
5
3
8
5
4
8
2
3
8
0
2
8
0
2
8
0
1
9
0
1
11
0
3
11
0
4
9
0
4
8
0
4
8
0
4
7
0
4
5
0
3
5
0
0
7
3
0
8
4
0
7
4
3
5
4
5
4
6
11
3
10
16
1
12
19
6
13
22
4
15
27
1
17
31
4
19
32
6
20
30
5
20
27
5
20
27
6
20
28
5
20
27
4
20
25
4
19
23
5
16
20
7
13
18
7
11
13
5
10
8
5
8
8
5
9
5
7
10
4
8
8
5
8
7
6
7
7
8
9
7
7
9
7
7
10
7
7
13
4
7
13
4
7
12
6
8
13
3
11
15
2
11
15
5
12
13
6
12
13
3
13
13
4
14
14
7
12
12
5
10
10
5
8
8
4
5
8
4
4
8
6
4
11
4
4
8
4
5
8
4
7
7
5
5
7
4
5
7
0
8
8
4
10
7
6
8
7
5
9
4
6
11
4
3
13
5
4
14
4
5
12
5
255
255
255
255
255
255
10
5
3
14
6
4
14
5
1
12
5
1
12
8
4
12
11
4
8
13
1
8
12
3
8
8
4
12
7
3
15
8
5
16
10
7
15
9
5
14
8
3
14
9
0
14
11
2
12
10
3
10
7
2
8
10
1
7
10
3
7
8
4
7
7
3
9
5
1
11
5
1
12
5
3
12
7
4
11
7
5
14
8
5
15
9
5
11
7
5
7
5
6
3
5
5
2
7
4
4
5
2
5
5
2
6
8
1
5
7
2
5
7
4
6
4
2
4
2
4
3
2
4
3
2
0
1
4
3
0
2
4
3
0
1
5
4
4
5
4
4
4
0
1
1
3
3
3
4
5
4
1
4
1
1
3
0
4
2
4
4
4
4
2
4
1
3
4
4
4
3
5
3
3
4
3
0
3
4
0
3
2
1
4
3
1
4
4
1
3
4
1
4
3
2
3
2
2
1
3
4
3
4
4
4
4
1
3
4
2
1
4
2
2
4
3
3
2
4
3
2
4
4
0
4
31
37
40
255
255
234
255
255
193
126
165
137
134
180
135
109
156
115
86
132
95
62
102
71
57
83
53
157
148
95
255
255
176
255
255
156
255
255
174
255
255
218
255
255
194
241
199
116
255
233
145
255
254
160
131
117
69
7
8
5
2
4
1
4
1
2
4
1
2
1
4
4
1
3
4
4
1
1
4
4
1
2
3
2
3
1
2
4
2
3
5
3
4
5
2
4
5
1
5
7
3
6
8
4
5
10
4
4
11
3
1
12
2
3
11
4
2
9
4
1
8
4
2
9
5
0
10
7
0
10
8
0
11
7
0
13
5
0
14
5
0
13
7
0
13
9
0
15
10
0
15
9
1
14
8
3
16
8
3
18
9
0
17
9
2
16
7
3
16
7
2
15
7
0
13
5
0
12
4
0
11
3
0
10
0
1
9
0
2
8
0
1
8
0
3
7
0
4
5
0
5
3
0
6
1
0
4
4
0
1
4
1
0
3
3
0
4
4
0
4
4
0
4
3
0
4
0
0
4
1
0
5
4
0
4
4
3
4
2
4
4
1
3
3
3
2
3
5
4
0
4
4
3
4
5
4
4
7
3
5
8
2
7
7
2
4
5
2
2
4
0
3
4
1
4
2
3
4
3
4
4
5
4
5
7
4
7
8
5
8
8
7
9
8
5
10
8
5
9
7
7
8
5
7
8
4
5
8
5
4
9
6
5
10
5
7
10
4
8
11
4
8
12
4
8
12
5
8
11
7
8
10
7
8
11
7
9
12
10
10
12
11
9
12
9
8
12
8
8
13
8
9
14
8
10
13
8
10
13
8
11
15
7
13
16
6
14
16
7
13
16
7
13
17
6
14
18
7
13
17
7
12
17
7
12
18
7
12
18
8
12
19
9
12
19
10
12
19
10
12
21
11
12
21
12
12
20
12
11
19
11
10
17
9
10
15
8
9
14
7
9
15
5
13
15
4
13
15
4
14
14
4
14
13
5
15
14
8
16
15
10
12
13
10
6
11
10
3
9
8
1
7
5
0
5
4
0
4
4
0
3
4
0
1
3
1
4
1
3
4
1
4
2
3
3
4
4
4
6
4
6
7
4
8
10
5
9
12
6
5
12
7
4
11
10
79
73
52
255
255
255
255
255
255
37
14
4
12
10
0
9
5
0
10
7
0
9
6
0
4
0
0
2
0
0
5
0
0
2
2
0
19
2
4
61
2
22
80
18
42
33
53
34
45
80
22
67
86
27
51
63
12
35
31
2
7
6
0
11
0
0
48
24
12
255
255
156
255
255
255
255
255
255
193
137
93
7
1
2
1
0
4
0
1
4
3
4
4
4
7
4
5
7
3
4
7
4
1
9
4
4
11
4
5
12
5
6
13
7
6
14
8
7
13
9
8
12
11
4
11
8
4
7
5
4
2
4
5
2
4
8
8
7
5
17
9
8
19
9
9
18
9
5
12
9
2
6
7
5
3
2
4
3
2
4
2
1
5
6
3
2
4
4
2
7
5
1
10
7
2
8
8
3
7
7
6
13
5
6
7
4
4
5
4
4
2
5
4
2
7
4
5
7
4
5
5
4
3
4
4
1
5
4
4
7
5
5
8
7
5
8
8
7
7
8
7
5
8
5
4
7
3
5
3
1
5
1
5
7
1
6
8
2
7
8
2
9
8
0
10
8
0
9
9
0
8
11
2
8
12
0
8
11
2
7
9
0
5
8
0
4
8
1
4
8
3
4
8
4
4
8
4
4
7
4
3
5
4
1
4
4
0
4
4
1
4
4
3
4
4
4
4
6
6
4
11
13
3
15
26
1
17
40
2
19
46
1
21
44
1
22
40
5
20
36
5
16
32
2
13
27
6
11
20
8
9
14
10
8
8
10
8
5
11
7
7
11
5
7
9
4
7
7
4
7
5
6
8
4
4
11
5
5
10
7
7
10
7
4
9
5
3
7
4
5
8
5
8
12
8
7
14
8
7
14
7
8
14
7
8
13
13
5
10
17
4
8
17
6
8
16
5
9
15
2
8
13
3
7
12
6
8
11
5
7
10
2
7
8
3
7
5
5
4
4
5
5
5
6
5
5
4
3
7
4
1
7
5
4
8
5
4
5
5
4
4
5
7
4
7
4
5
5
4
4
3
7
4
4
7
3
6
5
4
7
7
4
6
7
3
2
7
4
4
7
4
7
4
5
255
255
255
255
255
255
12
7
4
15
5
3
16
5
0
13
7
0
12
8
2
13
10
3
13
10
2
13
11
2
12
11
3
11
10
4
10
9
4
10
8
4
10
8
6
11
8
4
13
7
1
14
8
2
13
11
2
11
8
2
9
7
2
7
8
4
5
8
4
5
7
0
7
5
0
8
5
0
11
5
1
12
5
1
10
4
3
13
5
4
18
9
4
16
10
6
12
8
5
7
5
5
4
5
5
5
7
4
5
7
4
7
9
3
8
11
1
10
11
4
10
10
4
8
8
4
5
5
4
4
4
3
3
5
2
1
4
4
3
1
4
6
3
4
5
4
4
2
3
3
0
2
1
2
4
3
4
3
2
2
0
3
0
1
2
4
4
1
5
3
3
3
1
3
5
4
3
5
3
4
3
2
0
3
4
0
3
2
0
5
0
3
5
1
4
4
2
3
4
3
1
4
2
2
3
0
3
4
0
4
3
2
4
4
1
3
6
2
0
8
3
2
10
1
1
10
4
0
10
4
2
48
51
52
255
255
190
255
242
109
151
156
122
175
194
145
166
199
148
156
194
140
148
185
130
167
185
121
255
255
188
255
255
224
255
255
173
255
255
186
255
255
249
255
255
255
255
255
255
255
255
213
255
249
158
115
103
58
7
8
4
4
3
2
4
1
1
2
3
0
3
5
2
4
5
3
5
4
3
4
4
3
5
2
2
7
4
2
8
4
1
8
4
1
8
4
3
8
4
4
8
4
4
7
3
4
5
1
3
3
0
2
0
2
4
0
3
4
1
2
4
4
1
4
5
4
3
4
2
1
5
1
0
7
2
0
5
1
0
5
2
0
6
4
0
5
4
0
4
2
0
2
0
0
4
0
0
5
1
0
6
2
3
6
1
4
6
0
3
5
2
0
4
0
3
4
0
4
5
1
4
7
2
4
5
1
4
4
0
4
5
0
4
7
0
4
7
0
3
5
0
1
4
0
3
5
1
4
8
3
4
7
4
1
6
4
0
7
4
0
7
3
0
5
1
0
4
1
0
4
2
0
5
3
0
5
2
1
5
1
2
5
3
3
5
3
2
3
3
1
3
2
3
3
1
4
2
3
5
4
5
7
6
7
8
4
7
8
1
4
8
0
1
7
0
0
5
0
0
4
0
0
4
1
0
4
2
0
5
1
0
7
4
1
8
4
3
8
1
4
8
2
4
8
3
4
7
2
4
6
1
4
6
3
5
6
4
7
7
4
7
7
4
5
6
5
5
7
4
7
9
4
7
10
4
5
9
2
4
8
3
4
8
3
4
8
4
3
7
4
5
6
2
7
6
4
5
5
4
5
5
3
6
7
1
5
5
3
5
4
4
7
5
4
8
7
5
7
7
4
7
5
5
7
5
5
7
4
3
7
4
3
7
4
3
7
5
2
5
6
1
5
5
0
5
3
0
3
1
2
4
2
4
4
2
4
4
1
2
4
4
2
2
3
5
4
1
4
5
3
5
7
3
8
10
3
11
12
2
15
13
6
19
12
8
17
12
7
12
11
4
8
9
2
5
8
3
3
7
4
1
5
4
0
4
4
0
4
4
0
3
4
0
1
4
0
4
4
4
7
4
5
7
4
5
9
5
9
13
7
8
13
8
6
10
6
131
114
74
255
255
255
255
255
255
18
5
0
16
12
0
9
1
0
14
7
0
6
3
0
6
1
0
3
0
0
6
1
0
5
2
0
5
0
0
14
2
2
48
1
17
78
7
32
73
12
30
35
16
19
11
11
9
16
4
4
22
5
0
26
0
2
145
123
63
255
255
255
255
255
255
255
255
177
32
23
14
3
4
5
4
5
4
4
7
5
5
9
7
5
12
7
5
12
6
7
12
5
5
12
4
5
12
5
6
12
7
5
11
8
4
10
7
5
12
6
8
15
8
8
16
8
7
14
8
5
10
7
5
8
5
7
9
5
7
13
7
7
16
7
5
14
5
3
11
4
2
9
4
4
8
4
4
9
4
4
10
4
5
12
5
6
13
7
6
13
8
5
11
8
2
8
7
3
10
7
5
17
7
8
20
9
10
23
11
9
24
11
8
24
9
8
23
8
8
21
9
7
19
11
5
17
12
5
17
11
7
19
9
7
20
8
5
20
9
5
20
11
7
20
12
8
20
11
8
20
9
7
19
8
5
17
9
4
15
10
4
14
9
1
14
8
0
13
8
0
12
8
1
12
8
2
12
8
1
11
8
0
9
8
1
7
7
4
4
4
4
1
1
5
1
0
7
3
0
8
5
1
8
8
3
9
12
4
11
16
5
12
21
5
13
29
2
15
40
2
16
48
6
16
51
6
16
45
2
15
34
2
12
26
7
9
19
10
7
12
11
4
7
10
3
3
11
0
9
11
0
10
8
3
7
7
4
4
5
4
7
5
4
11
6
2
11
5
4
11
3
5
9
4
4
11
7
6
14
8
8
12
7
5
10
6
3
10
7
7
13
10
8
15
13
5
13
10
5
10
7
7
9
10
7
7
14
4
7
10
4
8
9
5
8
11
4
8
11
2
7
9
4
7
8
6
8
7
4
5
7
2
5
7
2
5
5
4
4
5
6
6
7
6
3
7
4
1
7
3
3
8
4
5
8
5
7
5
4
7
4
3
8
5
5
5
7
5
5
5
3
8
4
4
5
4
5
4
4
7
7
4
7
5
3
3
5
4
4
5
4
8
4
4
255
255
255
255
255
255
5
5
3
10
5
2
10
4
3
7
4
3
8
5
1
10
7
2
10
5
2
10
7
2
7
8
0
5
8
3
5
8
4
5
7
5
7
5
5
7
4
4
7
4
3
8
5
1
9
7
2
11
7
3
11
5
2
9
8
3
7
11
4
7
10
1
7
8
0
7
8
0
11
7
2
14
7
1
12
5
2
12
4
4
15
7
4
16
8
4
18
11
4
16
10
5
12
8
5
10
8
4
10
8
5
10
10
5
9
11
4
12
12
4
13
12
5
13
13
5
12
12
6
8
8
5
5
7
4
4
7
4
2
5
5
5
4
5
7
4
6
4
4
4
1
4
2
3
4
2
4
4
3
2
1
3
3
1
3
5
4
3
7
3
1
5
3
0
7
4
3
7
1
4
6
3
3
5
4
1
5
1
0
7
0
3
5
0
4
4
2
0
4
4
2
5
2
1
4
0
1
4
0
3
5
3
3
7
4
2
5
3
2
5
1
1
8
2
0
5
3
0
4
3
2
70
68
66
255
255
211
255
239
155
70
153
173
24
124
144
38
75
96
54
26
51
75
41
30
137
98
52
255
255
170
255
250
143
145
119
64
86
74
40
94
78
40
133
106
58
194
153
87
207
163
92
137
112
62
38
34
15
5
5
3
4
4
4
3
4
4
4
4
4
3
4
4
2
4
2
4
2
4
2
3
6
3
4
5
4
5
4
1
4
4
3
4
4
4
4
4
2
5
4
2
6
4
1
5
4
1
4
3
3
4
1
4
4
1
3
4
2
3
4
2
5
4
3
4
4
4
1
3
4
4
4
1
3
4
1
3
4
3
5
4
4
4
5
4
5
5
4
7
7
3
7
8
1
7
8
0
7
7
0
5
6
3
4
5
4
5
3
4
6
3
4
4
4
4
2
4
4
4
4
4
6
4
4
4
4
3
1
1
2
3
0
3
4
0
3
4
0
1
5
0
0
7
0
0
7
3
1
7
4
4
4
3
4
4
1
4
4
0
4
4
0
3
4
1
1
5
4
0
6
3
0
5
1
0
5
3
0
5
4
3
4
4
3
5
5
2
7
6
3
7
4
1
5
1
0
3
0
0
1
0
0
2
1
1
2
3
4
0
4
7
0
4
8
0
4
8
0
4
8
0
4
7
3
3
5
3
1
4
4
0
4
4
0
4
4
1
4
3
2
5
4
1
5
4
2
4
1
2
4
0
0
4
0
1
4
1
1
4
3
3
4
3
3
5
4
0
5
4
1
2
5
4
2
5
3
5
4
0
5
4
3
4
2
4
4
5
1
4
5
1
3
4
4
1
4
3
2
2
1
0
4
4
3
4
4
4
3
1
4
2
0
4
4
0
4
4
4
4
2
4
4
4
0
4
3
3
1
3
4
0
4
1
0
1
3
1
2
2
2
2
2
1
0
4
0
1
3
0
2
1
1
4
2
3
4
4
4
1
4
5
2
4
5
3
5
7
3
7
8
5
8
8
7
9
6
8
11
1
12
13
2
17
15
1
19
16
2
18
15
3
18
12
4
13
9
7
8
7
7
5
7
5
3
7
5
1
7
6
0
4
4
0
1
2
0
1
3
3
5
4
4
7
4
4
8
4
7
8
2
7
8
3
7
8
4
193
164
105
255
255
255
255
255
255
17
5
0
10
8
0
3
4
0
18
4
0
5
3
0
4
4
0
3
1
0
10
2
0
7
3
0
4
2
0
1
1
0
10
3
1
35
2
7
63
5
12
74
13
12
55
14
7
19
10
2
14
8
1
48
7
14
224
206
96
255
255
255
255
255
255
77
60
42
7
11
3
8
12
3
8
13
3
8
15
3
9
16
5
11
17
7
12
19
8
12
19
8
12
17
7
11
16
5
9
16
4
8
16
4
8
16
4
8
16
4
9
16
6
11
16
9
12
17
9
11
19
8
10
18
8
11
14
8
11
12
8
9
12
8
8
13
8
9
16
8
11
19
8
13
21
8
15
22
8
15
21
8
13
21
8
11
21
8
10
18
8
10
17
8
9
18
8
9
19
10
11
23
13
13
27
13
14
28
12
13
27
11
11
24
9
9
20
8
8
17
8
8
16
8
8
16
8
8
17
8
8
20
8
8
23
8
8
24
10
8
23
13
8
21
12
8
20
10
7
18
9
4
13
7
3
9
7
2
7
8
4
5
8
2
5
8
0
7
7
0
7
5
0
7
4
1
5
4
4
5
4
7
5
5
8
4
6
7
5
5
6
7
5
7
10
6
8
15
4
9
19
2
11
22
5
12
24
6
12
26
5
12
25
4
12
28
4
11
31
5
8
22
7
5
5
10
3
13
14
0
25
16
4
26
17
4
22
18
2
17
17
4
16
17
3
18
16
1
20
10
3
18
6
4
15
7
5
15
8
7
17
8
5
18
8
5
19
8
8
21
9
10
22
12
10
24
13
10
23
12
9
17
12
8
15
14
7
15
18
7
14
19
7
14
17
5
10
13
7
8
13
8
8
14
5
7
11
4
9
7
4
11
8
4
10
8
4
10
9
1
10
10
4
8
10
7
10
10
4
8
8
1
8
7
3
8
8
5
7
10
5
7
10
6
4
10
4
5
9
2
7
8
4
8
8
6
11
8
4
10
8
1
10
7
4
10
7
7
10
7
4
11
8
4
8
8
5
8
7
7
11
7
7
8
7
4
8
7
5
8
5
7
8
5
255
255
255
255
255
255
2
7
0
7
5
2
9
4
2
7
4
1
7
5
1
7
7
2
7
7
3
7
7
1
7
5
0
7
5
1
5
8
4
5
9
7
7
8
5
7
5
4
7
4
4
7
5
4
8
7
4
11
7
5
11
6
3
11
7
1
8
9
4
8
10
4
8
10
3
9
11
2
12
10
3
14
10
4
12
8
3
11
7
4
15
7
3
15
6
2
15
8
5
16
10
7
16
9
7
13
8
6
12
8
7
11
10
7
7
10
7
7
8
5
7
8
4
8
10
2
9
9
3
7
8
3
5
5
2
5
4
3
4
4
3
5
3
2
5
2
3
4
2
3
5
4
2
7
4
3
5
4
3
5
3
3
7
4
4
8
4
4
8
1
4
7
4
1
7
4
1
5
0
3
4
3
4
3
4
4
3
1
4
4
0
4
2
0
5
1
1
4
2
4
4
3
4
4
2
1
4
0
0
4
2
3
4
4
4
4
2
4
5
3
4
6
5
4
5
5
4
3
4
5
1
95
88
82
255
255
255
255
255
217
62
177
191
13
196
211
11
196
211
19
189
205
36
177
191
133
186
177
255
255
216
255
210
126
54
45
24
5
5
4
4
5
5
1
5
5
0
3
3
1
2
2
5
5
4
7
8
7
8
10
7
8
9
5
8
8
4
8
8
4
8
9
5
7
10
6
7
9
5
6
7
5
6
6
6
7
7
5
5
7
4
4
6
4
5
7
4
4
8
4
4
7
3
3
5
1
1
3
2
3
1
2
4
2
0
4
2
0
4
0
0
4
3
0
4
4
1
1
4
4
3
5
4
3
6
4
4
6
4
5
7
4
7
8
4
8
8
4
7
8
4
7
8
4
7
7
3
7
5
1
7
4
1
8
4
3
7
4
5
5
4
6
4
3
4
3
1
2
4
0
3
5
1
4
5
4
4
4
4
3
5
3
1
4
1
0
1
0
0
2
0
0
4
0
0
2
3
0
2
4
1
3
1
3
3
0
4
1
0
4
1
0
4
2
2
4
4
3
3
4
1
1
3
1
0
3
3
0
4
4
3
2
2
3
1
2
4
2
2
4
1
2
4
2
2
4
1
0
4
3
0
4
3
0
4
1
0
4
0
1
4
0
3
4
0
4
5
0
4
7
1
4
7
4
4
6
2
2
6
3
2
5
4
1
4
5
2
4
4
3
5
4
3
5
4
3
4
4
1
4
4
0
5
4
0
6
4
3
5
5
3
4
7
1
4
7
1
4
5
0
3
5
3
2
5
4
3
3
3
4
2
2
4
4
4
2
7
4
3
5
3
4
3
3
2
1
2
3
2
2
5
4
4
7
2
4
9
0
4
10
2
3
8
3
1
5
2
3
5
3
4
6
4
3
5
2
2
5
3
4
7
4
4
7
1
5
5
1
7
6
3
8
9
4
9
9
4
10
8
4
9
8
5
8
8
5
8
9
3
8
11
2
9
12
3
11
12
4
12
12
5
12
12
7
11
12
9
10
10
10
12
6
10
15
4
13
15
4
13
15
4
14
15
8
16
12
10
14
10
12
12
10
11
11
9
9
8
7
7
5
5
5
3
4
4
1
4
5
1
5
6
3
7
5
4
8
3
5
9
1
7
11
3
8
12
4
255
227
142
255
255
255
255
255
255
19
4
0
6
5
0
12
4
0
16
2
0
0
1
0
4
4
0
3
4
0
9
0
0
4
4
0
5
1
0
3
1
0
11
4
0
21
1
0
12
2
0
27
6
0
52
10
0
39
6
0
17
3
3
62
5
25
198
179
84
255
255
255
255
255
255
175
164
125
13
19
15
4
11
3
4
9
3
3
7
2
3
6
1
5
8
3
5
11
4
5
12
4
7
12
4
7
12
4
7
12
4
7
12
4
5
12
4
4
12
5
5
12
8
7
12
11
8
13
11
8
14
9
8
13
7
8
12
5
8
11
4
8
10
5
8
11
8
8
12
10
8
12
8
8
12
6
8
12
7
8
12
8
8
12
8
8
12
8
7
12
6
7
13
2
7
14
2
5
13
6
4
12
8
4
11
8
5
10
8
7
10
7
5
9
5
4
8
4
1
7
4
1
7
4
3
7
4
4
7
5
4
5
7
4
5
8
4
7
7
3
7
5
0
5
4
0
4
4
1
4
4
4
6
5
3
4
7
3
4
6
4
4
7
1
2
8
0
3
8
0
4
8
1
7
8
5
8
7
8
8
5
9
10
4
10
10
6
9
10
9
8
11
9
8
12
8
7
11
8
5
8
8
4
7
10
4
6
8
4
4
8
4
9
9
2
19
12
2
29
18
4
39
25
5
46
26
7
47
22
8
42
19
7
37
16
6
33
13
8
33
11
10
35
10
9
35
10
8
32
9
9
30
8
12
31
10
14
32
15
12
32
17
10
29
15
10
26
15
11
26
17
11
25
17
10
23
14
10
19
13
10
17
15
8
15
17
5
13
17
4
12
14
5
10
10
6
5
9
7
5
10
5
7
10
1
8
7
4
9
7
4
8
9
4
7
8
4
8
9
0
8
11
4
5
12
8
7
11
4
7
9
0
7
8
4
5
8
7
4
8
4
5
8
5
5
7
4
7
6
3
7
6
4
7
5
5
8
4
4
7
4
1
7
4
4
8
5
7
7
4
4
7
4
4
7
5
7
7
6
7
8
5
5
5
5
4
5
4
7
7
4
5
7
5
255
255
255
255
255
255
4
8
1
5
7
1
8
6
3
7
5
3
6
5
1
5
5
1
7
5
4
5
7
3
5
5
1
7
4
0
5
5
1
4
8
5
5
8
7
5
7
5
7
5
4
5
4
4
5
5
4
8
5
6
8
4
4
8
5
1
5
7
1
5
5
3
5
4
4
1
5
1
4
5
0
7
7
6
7
5
4
6
4
4
9
4
1
11
4
4
8
5
3
6
4
4
8
4
4
7
4
3
6
4
4
7
6
2
4
6
2
6
4
6
5
5
4
5
6
3
8
7
4
8
8
1
7
6
2
7
4
4
7
5
2
8
5
3
8
4
4
8
4
1
10
4
2
7
4
3
6
4
3
7
3
4
5
4
3
5
2
2
7
0
4
7
4
4
5
4
1
4
0
0
4
1
1
4
4
3
3
3
4
3
0
4
2
0
4
3
0
3
2
1
4
1
4
4
2
4
4
0
3
4
1
2
4
4
3
4
4
4
4
5
4
4
6
4
4
5
4
4
4
4
4
108
96
86
255
255
255
255
255
234
210
226
180
146
142
105
64
37
20
50
15
29
69
62
78
98
168
166
255
255
255
255
255
255
143
140
97
7
10
4
4
4
4
2
4
4
1
1
1
3
2
2
3
1
1
1
0
2
4
4
2
4
4
3
0
2
3
4
4
4
4
2
3
3
3
1
4
4
2
3
4
2
2
3
0
3
1
0
4
4
0
3
3
0
4
0
0
3
1
1
4
4
4
4
3
4
4
2
3
4
3
1
4
2
0
3
1
0
1
0
0
1
1
0
4
3
0
4
4
1
4
4
3
3
4
3
2
2
1
3
3
0
4
5
0
4
4
0
4
4
1
5
4
3
5
4
4
5
4
4
4
1
4
4
1
4
4
3
4
5
4
4
4
4
4
4
4
4
5
4
4
7
4
4
8
5
4
8
6
4
10
5
4
8
4
4
5
3
4
5
1
4
7
0
4
5
1
3
4
4
2
5
4
2
5
4
1
2
4
0
2
3
1
1
3
3
3
5
4
4
5
4
4
4
4
4
5
4
5
7
5
4
8
6
5
8
5
7
8
5
6
7
6
2
5
5
0
3
4
0
1
4
0
0
4
0
0
3
1
0
1
3
1
0
4
3
3
5
4
4
7
3
4
7
3
1
5
1
3
4
3
3
4
4
5
4
4
6
2
5
7
4
4
7
4
1
8
4
0
8
4
0
8
5
0
7
6
3
5
5
3
5
4
4
5
4
4
3
4
1
3
4
1
4
3
3
3
0
4
1
2
4
3
3
5
4
5
7
6
5
7
7
4
7
7
4
8
8
4
9
8
5
10
8
4
9
8
4
8
9
4
8
11
4
8
11
4
8
9
5
8
8
7
8
8
5
7
9
2
6
11
4
7
11
4
8
9
4
8
8
3
8
8
1
8
8
1
8
8
3
8
8
5
8
8
7
8
8
5
8
8
4
8
7
3
7
5
1
5
4
1
5
3
2
7
2
2
5
5
4
3
7
5
1
7
5
3
6
5
5
6
5
7
8
7
8
5
9
7
3
8
7
6
9
8
8
11
7
9
9
7
11
8
7
11
8
8
8
8
8
6
8
8
7
9
8
8
10
9
8
10
12
6
11
15
2
255
255
190
255
255
255
255
255
229
18
7
0
2
4
0
14
6
0
7
1
0
8
2
0
7
1
0
5
4
0
6
4
0
5
4
0
1
2
0
5
2
0
14
4
0
18
2
0
5
0
0
13
4
0
27
7
0
57
6
0
42
5
3
57
9
25
108
79
62
255
255
192
255
255
255
255
255
255
155
145
114
5
8
17
7
1
8
8
3
6
8
4
7
8
4
8
7
4
8
5
3
7
4
1
6
5
3
6
5
4
6
5
4
6
4
3
5
1
2
5
0
4
7
0
4
6
0
4
7
1
4
7
4
5
5
3
6
4
1
5
4
4
4
4
3
1
4
0
0
4
0
0
4
0
0
4
0
1
4
4
4
5
4
4
7
1
5
8
4
6
8
4
5
7
4
5
6
3
7
7
0
7
5
0
7
4
1
7
4
4
5
4
5
5
4
5
6
4
4
5
4
1
5
4
0
4
5
0
4
7
4
4
8
4
2
7
4
4
5
4
7
4
0
5
4
0
3
4
3
4
5
4
5
7
1
5
8
4
5
8
4
5
8
0
4
8
0
1
8
0
1
8
2
5
8
6
11
9
6
12
11
4
12
12
2
12
13
0
12
15
1
12
15
4
13
14
3
16
16
2
20
18
3
24
16
4
28
14
4
30
16
4
28
19
4
28
19
4
33
16
4
34
13
5
32
12
7
31
12
7
28
11
6
25
9
8
24
7
11
24
6
9
25
7
9
26
5
10
24
5
9
21
7
10
20
11
8
20
15
7
20
14
7
17
12
7
16
10
7
14
12
5
11
13
4
10
14
4
10
13
4
10
12
4
7
10
1
7
8
3
7
7
5
5
8
5
4
7
7
5
5
4
7
5
0
7
5
4
7
7
4
5
8
4
6
7
4
7
7
0
7
9
4
6
10
8
7
10
4
7
11
0
4
11
4
1
7
8
3
4
4
5
4
4
5
1
4
4
3
3
4
4
4
4
3
5
5
1
4
7
0
2
4
2
4
5
4
6
4
2
4
4
1
4
7
4
8
4
4
8
5
3
4
5
3
4
4
0
8
6
3
4
4
4
255
255
255
255
255
255
3
6
5
5
4
3
8
2
1
7
3
1
5
4
2
5
3
2
7
4
2
7
6
3
8
5
2
9
4
0
8
5
1
7
8
4
7
7
4
8
5
4
10
7
3
8
5
1
8
5
4
9
5
4
8
3
4
8
4
3
7
6
0
8
6
1
10
5
4
9
7
2
10
7
2
10
7
5
11
7
4
11
4
3
14
2
2
15
4
3
11
6
2
10
4
4
9
4
5
10
4
4
8
4
4
7
7
4
4
5
3
5
4
5
7
6
4
7
5
3
8
6
4
8
8
1
5
5
1
5
4
4
6
7
4
6
7
4
5
3
4
4
2
3
5
2
2
2
4
3
3
4
4
4
1
4
1
4
4
4
4
3
6
3
1
4
4
4
3
4
4
4
1
1
4
1
0
4
4
0
4
3
0
4
0
3
4
0
4
5
1
1
5
3
0
6
3
0
5
1
0
4
2
0
4
2
0
4
0
0
4
0
0
4
1
0
4
1
1
2
2
3
5
5
5
114
98
84
207
208
146
220
255
189
235
255
227
203
255
206
184
255
225
255
255
255
255
255
255
249
255
221
48
96
73
255
255
255
255
255
213
53
50
28
4
3
4
1
4
4
2
3
2
3
3
1
3
4
1
4
4
3
5
5
3
7
5
4
7
3
2
7
4
2
5
4
2
4
3
1
5
1
2
4
4
2
1
3
0
1
2
1
4
4
3
5
5
4
5
4
3
5
3
3
4
3
3
4
2
3
4
2
4
3
4
4
4
4
4
4
4
4
4
3
3
3
1
1
2
0
0
3
0
0
4
1
0
4
4
0
4
3
0
3
1
0
1
3
1
0
3
2
1
4
1
4
4
0
5
4
1
5
5
3
4
4
4
3
3
4
2
1
3
4
0
1
3
1
1
1
3
2
3
4
1
5
5
0
7
6
0
7
5
1
8
5
3
10
4
4
8
4
4
8
4
5
8
4
6
8
3
5
7
2
4
7
3
4
8
4
4
7
4
2
5
4
2
4
4
1
5
4
1
7
5
4
7
7
7
5
8
7
5
9
5
4
11
4
4
11
4
4
9
4
4
8
4
4
8
4
4
8
4
3
7
4
1
5
3
1
4
1
4
4
1
4
4
3
5
3
4
7
0
3
7
2
4
5
1
2
4
2
4
5
2
2
6
3
2
5
4
0
4
4
3
4
4
3
1
4
5
1
3
6
3
1
5
4
0
4
4
1
4
3
3
4
1
4
4
3
5
4
4
4
4
3
4
4
1
4
4
0
5
4
1
7
5
3
8
6
5
8
6
7
8
7
7
8
8
5
9
8
4
10
7
5
10
6
7
11
6
7
12
6
5
12
7
4
12
8
4
12
8
4
11
8
5
10
8
8
10
7
5
9
5
5
8
5
6
8
7
5
8
7
4
7
5
3
5
4
0
5
5
0
7
7
1
8
8
4
8
7
5
9
6
6
10
6
5
9
5
4
7
4
1
5
4
2
5
4
5
7
4
5
5
4
5
4
4
5
4
4
4
5
5
3
5
7
3
8
2
5
10
0
7
10
2
6
10
6
8
10
9
8
10
11
8
9
11
8
7
8
8
5
6
7
4
6
5
4
6
4
4
7
5
4
6
6
6
4
255
255
255
255
255
255
255
255
164
13
10
0
2
1
0
11
7
0
5
2
0
5
2
0
2
3
0
9
5
0
1
6
0
7
4
0
5
3
0
8
6
0
18
7
0
14
4
0
15
4
0
10
3
0
7
5
0
51
11
0
70
10
1
63
4
14
76
26
48
181
134
99
255
255
217
255
255
255
255
255
255
108
105
87
10
3
7
8
2
8
6
1
11
6
0
11
5
3
9
5
4
8
8
5
8
12
8
8
13
10
8
15
12
7
14
11
5
10
8
5
5
2
5
4
0
3
4
0
2
4
2
4
4
2
5
3
2
7
1
3
8
4
4
8
3
3
7
0
0
5
0
0
5
1
0
6
3
0
6
4
1
7
3
3
7
1
3
5
4
3
6
4
2
10
4
1
10
3
2
6
0
3
4
1
4
4
3
4
2
4
4
4
5
2
8
4
2
11
3
4
11
2
4
10
1
2
11
3
2
11
4
4
8
3
2
5
4
1
4
4
5
4
0
5
4
1
4
5
4
5
7
3
5
7
0
5
5
4
5
4
4
5
4
0
5
5
0
4
7
0
3
7
2
2
6
5
7
8
6
12
11
4
15
12
3
17
11
4
18
10
4
18
11
4
17
12
4
15
12
1
13
11
0
12
10
1
12
11
3
12
12
4
12
12
3
12
11
2
12
8
3
11
5
4
11
4
3
9
4
0
7
4
3
9
4
7
10
5
5
8
7
1
8
7
2
8
5
3
7
4
2
8
5
5
10
11
4
8
13
0
5
6
4
4
8
4
7
5
4
7
7
4
5
8
3
6
7
4
7
7
4
5
5
4
2
4
1
4
7
4
3
6
6
3
5
4
5
5
6
7
7
4
7
7
1
5
7
4
6
7
3
5
7
4
5
7
4
7
4
0
6
4
4
3
4
8
4
5
4
5
6
0
2
5
4
0
4
7
4
3
4
6
3
5
4
0
4
3
4
1
4
4
4
4
1
7
4
3
4
7
4
1
5
3
4
4
3
7
4
3
4
4
4
4
7
4
8
4
2
8
4
2
4
7
2
4
5
3
8
5
4
4
4
3
255
255
255
255
255
255
19
8
7
19
7
5
17
6
4
16
7
3
16
7
1
17
6
0
16
7
2
15
8
4
16
9
2
15
8
0
13
8
3
13
11
4
15
10
1
17
8
4
15
8
4
14
5
2
14
5
4
12
5
2
10
5
3
9
7
4
8
7
1
9
5
2
10
6
3
8
7
3
8
5
3
10
5
5
12
5
4
11
1
1
12
3
2
11
4
1
7
5
2
5
4
4
4
3
4
7
4
5
7
4
7
4
7
5
2
5
4
5
5
5
7
7
5
7
7
4
8
8
5
8
8
4
5
5
1
5
5
1
7
8
4
8
12
5
9
10
4
7
8
3
7
7
2
5
7
0
5
5
0
7
4
1
4
4
4
4
4
3
5
4
0
5
4
1
5
4
4
5
4
4
2
3
3
0
4
1
1
2
0
4
0
1
5
1
4
7
4
3
7
4
0
7
4
0
8
4
0
8
3
0
9
1
0
11
1
0
12
3
0
12
4
0
11
4
1
9
4
2
14
7
5
145
125
113
189
159
154
183
126
177
241
154
190
153
99
98
128
86
69
187
161
96
239
255
186
255
255
255
255
255
255
159
184
142
255
255
236
107
95
55
3
4
4
0
5
4
1
4
2
4
3
2
3
3
1
1
2
0
4
4
0
6
3
3
4
0
3
3
3
4
1
4
4
2
4
4
3
4
3
2
5
1
1
4
1
0
4
4
1
5
5
4
7
6
5
8
5
8
7
5
11
8
4
12
11
4
12
11
4
12
10
4
11
10
4
10
9
4
10
8
4
9
8
4
7
8
4
5
8
3
5
7
2
7
6
3
7
6
4
5
6
4
4
7
4
1
8
4
0
8
4
1
7
4
4
5
3
4
5
1
3
7
0
4
8
0
3
8
0
3
7
0
4
5
0
1
4
0
0
4
0
1
3
0
4
1
0
3
3
0
4
4
0
5
4
0
2
2
0
1
3
2
3
4
0
4
4
3
3
4
2
3
1
2
4
1
4
6
2
4
6
2
4
6
2
4
5
2
4
3
3
3
3
4
1
3
4
2
4
4
2
4
4
0
1
5
0
0
7
0
1
8
1
3
7
3
4
6
4
4
7
4
3
8
4
2
8
4
3
8
5
3
9
7
4
10
7
5
9
5
2
7
5
0
6
7
0
6
7
2
5
5
2
3
3
1
4
1
2
4
1
1
2
3
0
3
4
3
4
4
4
4
4
3
4
5
1
4
6
0
4
5
0
4
5
3
5
7
4
7
8
3
8
7
1
8
6
0
7
6
0
5
5
0
4
4
1
5
5
3
7
7
4
8
8
3
8
8
1
8
8
3
8
7
3
8
5
3
8
3
3
8
1
3
8
1
4
9
4
4
10
6
2
9
5
5
9
4
7
10
4
8
10
5
7
10
7
5
9
8
5
8
8
7
8
8
5
8
7
4
8
6
3
9
6
2
10
5
3
9
5
4
8
7
4
8
8
4
8
8
3
8
9
1
9
10
5
10
9
7
10
8
5
10
8
5
9
7
4
9
5
4
11
4
4
12
3
5
12
5
7
12
5
7
11
4
7
10
4
7
8
4
6
9
4
6
11
5
5
11
6
4
9
5
4
8
4
3
7
4
4
5
5
11
12
12
255
255
255
255
255
255
237
158
88
8
9
0
4
3
0
4
5
0
7
7
0
3
5
0
0
4
0
9
3
0
3
4
0
8
2
0
5
4
0
7
4
0
21
3
0
7
2
0
18
5
0
8
4
0
3
3
0
25
4
0
62
13
0
64
5
1
63
10
16
86
29
55
198
141
104
255
255
239
255
255
255
255
255
246
66
66
52
2
5
7
1
5
5
0
7
4
0
7
4
3
5
4
7
4
5
9
9
8
12
11
9
14
10
7
12
6
5
12
9
7
6
4
7
7
3
5
8
4
4
8
4
6
7
4
10
5
3
11
4
1
9
4
4
8
1
4
8
1
0
8
3
0
8
5
0
8
7
0
9
7
1
9
5
3
6
5
4
4
7
5
5
7
4
8
7
5
10
6
8
8
8
12
6
11
12
8
12
12
10
13
12
9
14
12
8
12
11
9
8
9
11
6
7
11
7
5
8
8
4
5
7
4
4
5
1
5
4
0
6
3
4
6
0
4
7
3
1
8
4
4
7
1
4
5
1
4
4
4
4
4
3
4
4
0
4
4
0
3
4
0
4
4
3
3
4
5
1
4
5
5
4
3
5
3
0
4
1
0
5
0
1
4
0
4
4
1
4
4
3
1
2
4
0
0
4
0
1
4
0
3
3
1
3
1
2
1
1
3
5
3
3
4
5
2
5
6
1
6
5
0
4
4
3
6
4
7
6
4
7
4
4
4
5
2
2
8
4
4
5
7
4
5
10
5
7
12
5
5
10
3
2
4
4
4
7
4
8
6
5
7
7
4
5
8
1
7
5
4
7
4
5
3
4
4
3
5
2
4
8
4
1
5
5
4
4
4
7
5
7
4
7
4
4
8
2
4
7
4
5
7
2
7
7
3
4
5
4
5
2
1
6
4
4
4
3
7
4
1
4
4
3
1
2
4
4
0
4
5
4
3
4
5
2
7
4
3
4
6
4
0
4
3
4
4
3
8
4
4
4
5
4
0
7
5
4
4
6
8
4
7
4
4
7
4
5
5
8
5
4
7
4
4
4
7
4
5
6
4
7
4
3
4
5
1
255
255
255
255
255
255
20
7
4
17
5
4
16
5
3
17
7
4
18
5
4
17
5
1
15
8
1
13
8
4
13
8
3
10
7
0
10
7
3
11
8
4
10
5
1
8
4
3
8
4
4
8
1
2
8
4
4
8
4
4
7
2
2
7
4
4
5
4
2
7
4
3
6
6
4
4
7
4
5
4
4
7
4
6
8
4
4
7
1
3
8
4
2
8
4
2
5
4
4
4
4
4
2
1
0
4
4
3
7
4
7
5
5
5
3
5
3
6
5
4
5
5
4
5
5
4
8
8
4
9
9
4
8
9
2
8
9
2
8
7
2
7
9
4
8
9
5
7
6
3
7
7
2
7
10
1
6
8
1
7
7
4
8
5
4
7
4
1
5
4
0
5
4
0
5
2
1
6
4
2
3
4
3
0
4
2
3
4
1
4
1
2
3
2
2
3
3
4
4
3
3
4
4
1
3
4
0
1
4
0
3
3
0
5
4
0
4
2
0
4
1
0
5
1
2
7
3
0
21
11
9
192
159
161
255
223
255
255
160
255
245
141
255
163
75
255
233
120
255
255
245
255
255
255
255
183
145
190
202
185
180
26
23
72
255
255
223
122
107
67
8
8
10
1
7
4
0
5
3
3
5
4
4
6
4
3
7
4
3
5
4
5
6
5
5
5
6
3
4
6
1
4
6
1
4
5
3
4
4
4
5
4
4
6
4
4
6
4
3
5
4
2
3
3
3
5
5
5
7
5
7
8
4
9
9
1
11
11
0
12
12
0
12
12
0
12
12
1
12
13
3
13
15
4
15
16
4
15
15
4
13
12
4
12
10
4
11
11
4
10
12
4
10
12
3
9
11
2
7
9
3
4
8
4
4
9
4
4
11
4
3
11
4
4
10
3
4
10
1
2
9
1
4
8
3
4
8
4
4
8
4
4
7
3
5
6
1
4
7
0
5
8
0
5
8
1
4
8
2
3
7
1
2
5
1
4
4
3
4
5
3
2
4
1
0
3
1
1
2
2
3
3
3
4
3
5
4
1
5
3
0
3
3
0
1
2
0
1
2
0
3
4
0
4
4
1
4
1
3
3
0
4
2
1
4
2
3
3
1
4
1
0
3
3
1
1
4
4
2
4
7
2
6
5
4
9
4
7
9
4
4
7
5
1
5
6
0
4
5
1
4
4
3
5
5
4
8
7
4
10
8
4
9
8
3
7
8
4
7
8
4
10
8
4
12
8
4
12
8
4
10
8
3
7
8
2
7
8
3
7
7
4
5
5
4
4
4
1
4
4
0
4
4
0
1
1
0
2
3
1
5
3
5
4
3
4
2
2
1
3
3
0
4
4
2
4
4
4
4
4
2
4
4
0
4
4
1
4
4
4
5
4
3
7
4
1
8
4
3
8
4
4
8
5
5
7
6
5
5
5
5
5
5
7
7
8
7
8
10
5
7
8
4
5
5
3
5
5
0
6
6
4
6
6
4
7
7
3
7
8
4
7
7
1
8
5
3
8
5
5
8
6
5
8
6
5
8
7
4
8
7
4
8
5
4
7
5
1
7
7
1
6
7
4
7
5
5
10
4
5
10
4
5
12
5
7
15
7
8
16
8
9
16
9
10
15
10
10
13
9
8
13
9
42
43
29
255
255
255
255
255
255
104
63
28
3
8
0
3
2
0
2
1
0
3
2
0
3
1
0
4
2
0
7
3
0
4
7
0
5
4
0
2
7
0
6
5
0
22
2
0
8
1
0
16
3
0
8
2
0
8
1
0
17
8
0
212
150
86
253
217
122
146
148
84
55
12
18
100
32
53
247
178
120
255
255
255
255
255
255
255
255
184
21
23
20
4
6
3
2
3
1
4
5
3
7
4
4
8
7
4
8
12
4
9
8
4
5
3
7
7
8
5
9
10
8
3
1
5
4
4
5
4
4
7
4
3
8
4
1
8
4
0
8
3
1
7
2
4
5
4
3
5
7
0
7
8
1
8
8
3
8
8
4
6
9
5
3
11
8
4
12
11
7
12
13
7
12
15
5
13
17
4
15
18
5
16
18
4
16
18
4
16
17
3
14
15
2
10
12
4
8
9
5
8
6
5
8
2
6
7
1
5
5
2
3
4
1
2
4
0
3
3
0
5
2
4
7
3
4
8
4
1
7
3
4
5
1
4
4
4
4
4
4
3
4
1
4
4
0
4
3
1
1
1
3
4
2
5
3
5
7
1
5
4
5
4
1
5
4
1
5
3
3
7
1
4
5
1
5
5
4
4
5
4
4
4
4
4
4
3
4
5
2
4
7
3
4
8
4
4
7
4
5
8
5
7
7
6
7
7
5
5
7
4
3
5
4
2
5
5
4
8
7
7
8
8
8
7
8
5
9
8
4
8
9
4
7
11
5
9
10
5
6
8
3
3
6
3
5
7
4
7
7
6
7
7
4
7
8
1
6
5
3
5
4
6
2
4
5
4
5
2
4
7
3
0
5
4
4
6
4
8
4
7
4
4
5
4
5
2
4
6
4
4
5
4
7
4
2
4
1
4
5
3
3
6
4
3
4
1
5
5
3
5
4
4
3
1
4
3
0
4
4
4
4
4
4
4
7
4
4
5
8
3
1
4
2
4
4
4
7
4
3
4
4
1
1
8
5
4
5
7
7
4
7
4
4
7
5
4
6
8
6
5
5
5
4
4
5
3
6
5
1
5
5
0
5
6
1
255
255
255
255
255
255
8
5
3
8
4
4
8
4
1
8
4
1
5
1
4
4
3
4
4
6
1
5
5
3
5
6
4
4
7
1
5
4
1
5
5
4
4
4
3
4
3
1
6
4
4
5
2
3
5
4
1
4
3
4
3
1
4
4
4
5
4
4
4
5
4
4
6
6
4
4
5
1
6
5
4
8
5
5
8
5
3
7
3
4
6
4
3
8
4
1
6
3
5
4
4
4
5
2
0
7
4
3
8
4
5
7
4
4
5
3
4
5
4
4
3
4
2
4
3
4
5
5
3
5
7
4
5
7
2
5
7
0
7
6
2
7
5
3
7
8
5
5
3
4
4
2
3
4
5
2
3
4
2
2
4
4
5
4
2
6
4
0
6
5
0
6
5
1
5
4
3
6
4
4
4
4
4
0
5
1
3
7
2
4
5
0
5
5
1
7
7
3
9
8
4
10
7
4
9
5
3
8
4
2
8
4
2
9
7
1
5
4
0
4
4
0
4
4
1
4
4
2
14
9
7
223
177
197
255
250
255
157
90
190
26
55
94
36
56
126
53
41
155
158
30
213
255
177
255
255
255
255
255
197
179
159
126
150
255
237
202
79
72
46
35
34
35
19
24
22
1
12
7
1
9
6
4
9
6
5
12
5
7
15
4
9
15
5
11
13
7
11
11
8
9
9
7
7
7
5
4
5
4
2
5
4
3
7
3
4
7
1
4
5
3
4
4
2
4
5
2
3
7
4
1
7
5
1
5
3
3
4
0
4
5
1
5
8
3
6
10
3
5
10
1
5
11
2
8
11
0
11
9
2
11
9
5
9
11
4
9
12
2
11
12
3
13
12
4
15
12
4
15
12
4
13
13
4
12
14
5
11
13
7
9
11
7
8
9
5
8
8
4
7
9
4
6
11
5
7
11
6
8
9
5
9
9
4
10
11
4
9
12
4
9
12
3
10
12
1
10
12
0
10
12
0
9
12
3
9
11
3
10
10
4
9
11
5
7
10
6
5
7
5
4
7
5
5
8
7
7
8
7
7
7
6
7
5
7
7
4
8
5
4
8
2
3
7
4
1
5
4
0
5
4
0
7
4
3
8
4
4
7
2
4
5
1
4
4
1
4
4
4
4
4
4
4
1
3
5
1
4
7
3
4
5
4
3
4
4
1
1
3
2
1
2
1
4
4
1
7
5
3
9
7
3
10
7
3
9
5
3
8
4
2
7
4
1
5
4
1
4
5
3
5
6
4
7
5
4
7
4
1
5
4
1
4
4
4
4
4
4
5
5
1
7
7
0
7
5
0
5
4
3
4
1
6
5
2
1
2
1
3
4
5
2
5
7
2
7
8
4
8
8
4
8
8
3
7
8
1
5
7
3
5
6
4
7
7
1
7
7
0
7
5
0
3
4
4
2
4
4
4
4
1
1
1
2
1
2
4
3
1
4
4
2
4
4
2
4
2
3
3
3
4
5
4
4
5
5
4
3
5
4
3
4
4
2
4
5
1
5
4
4
7
4
4
6
4
4
7
5
3
7
7
2
5
8
4
5
7
2
7
5
0
5
4
1
5
4
4
8
5
5
11
7
5
11
8
3
8
7
2
7
5
1
6
4
4
5
4
5
5
4
4
8
5
88
80
54
255
255
255
255
255
255
34
17
2
3
5
0
2
1
0
1
2
0
3
3
0
4
2
0
4
3
0
5
3
0
3
7
0
0
4
0
4
5
0
10
7
0
16
2
0
5
5
0
18
3
0
13
0
0
15
4
0
99
76
28
255
255
255
255
255
255
255
255
255
104
113
66
63
10
15
107
32
48
255
249
155
255
255
255
255
255
255
180
167
121
0
7
10
5
3
4
10
9
4
10
10
5
8
8
6
7
8
5
5
7
5
6
10
8
7
8
10
3
4
7
3
4
3
5
5
3
7
4
4
7
4
3
4
3
1
2
1
1
3
3
4
5
4
4
10
2
4
12
4
5
12
7
7
12
9
8
12
11
7
12
12
6
12
13
6
12
13
5
13
16
3
14
16
1
13
15
2
11
12
3
8
8
3
4
4
3
1
1
3
1
6
6
3
7
7
3
6
5
0
6
3
2
5
2
1
4
3
0
3
4
1
1
3
3
4
1
5
7
5
7
8
7
9
10
8
10
11
7
9
11
6
8
10
6
8
10
5
8
8
4
8
5
4
8
5
4
8
4
4
8
5
4
7
4
4
5
5
5
2
9
7
3
10
7
5
10
6
7
10
7
7
10
8
5
10
7
4
9
5
4
8
4
4
9
4
4
10
5
4
9
6
3
8
5
2
8
4
3
10
5
5
8
6
7
8
5
6
8
4
6
10
4
5
9
5
4
8
10
4
9
11
7
7
11
7
7
9
5
7
8
3
10
8
4
10
5
6
5
5
4
4
3
2
6
5
3
6
5
5
6
3
7
7
5
5
5
4
2
5
0
5
3
1
8
4
4
5
4
5
4
0
3
5
3
3
5
7
4
8
5
5
9
5
7
5
5
4
4
4
3
5
5
1
4
5
0
4
7
4
4
5
4
2
4
1
4
7
4
6
4
3
4
0
0
2
0
2
4
4
6
5
5
7
5
4
5
6
7
4
3
4
4
4
4
5
5
5
4
4
5
5
3
7
8
4
6
5
5
4
3
4
4
4
6
5
3
7
5
4
5
6
1
5
5
0
5
5
0
4
7
1
7
5
4
255
255
255
255
255
255
3
4
2
2
2
4
4
3
4
4
4
1
1
1
2
2
2
4
5
6
2
6
6
1
4
6
4
5
8
3
8
5
1
7
4
4
7
4
3
8
2
1
8
3
4
8
5
4
7
4
2
5
2
0
5
3
2
7
5
4
7
5
2
7
5
2
7
5
4
5
3
3
7
4
4
8
4
4
8
6
0
8
4
1
7
3
2
7
4
3
5
2
3
4
4
4
6
5
4
5
4
3
5
4
4
4
3
4
4
2
4
4
5
3
2
4
4
4
1
4
3
4
1
4
5
3
4
3
3
4
6
1
5
8
1
5
4
1
7
7
4
7
5
5
4
3
4
4
4
2
4
2
2
2
3
3
4
4
2
5
4
1
5
5
0
7
5
2
7
5
2
7
5
1
5
6
2
1
5
1
1
5
1
3
7
2
4
5
1
4
4
0
4
4
2
4
4
2
5
4
1
6
4
3
7
5
4
10
8
4
10
7
3
9
6
1
9
7
0
10
8
0
7
5
3
233
181
218
255
243
255
136
62
166
20
14
2
14
10
1
21
34
3
37
61
20
17
43
81
86
4
149
201
150
220
255
255
255
215
181
154
34
28
25
15
17
14
41
38
40
24
27
25
2
9
6
1
9
4
3
11
4
4
11
4
5
10
4
7
8
4
8
9
4
8
10
4
8
9
4
8
8
3
5
8
1
5
9
0
6
10
0
6
10
1
7
10
3
8
9
3
8
9
1
7
10
5
4
9
4
1
8
2
0
8
4
0
8
4
0
7
2
2
6
3
0
7
1
2
7
0
1
7
3
4
7
4
4
8
4
4
8
3
5
8
2
8
8
3
10
9
4
10
11
4
12
11
4
12
10
5
12
10
6
10
10
5
8
10
5
9
10
7
10
11
7
9
12
5
8
12
4
7
11
4
5
9
5
5
8
6
7
8
5
8
9
4
8
11
3
9
12
2
11
12
2
13
12
3
14
13
2
14
14
1
15
13
4
15
13
7
13
13
8
12
10
7
11
9
6
11
11
7
13
12
8
12
12
8
10
12
8
11
11
7
9
9
5
8
7
4
8
5
5
7
4
6
7
4
6
7
4
7
4
4
8
3
4
8
3
4
7
3
4
5
1
3
4
1
2
4
1
4
4
3
4
4
4
4
5
4
4
6
3
3
4
4
2
3
4
2
2
3
0
3
2
4
3
4
5
4
2
2
2
5
2
3
7
4
4
8
4
3
8
3
1
7
1
0
5
2
0
4
3
1
4
3
3
3
4
4
3
4
4
2
5
5
1
7
6
3
4
5
4
2
4
4
5
5
3
6
7
4
5
8
1
4
5
2
4
4
2
3
4
2
2
4
2
4
4
3
4
4
2
1
4
3
0
4
2
3
4
0
5
5
0
4
6
3
5
5
4
7
5
3
5
4
3
4
3
5
3
1
5
2
1
3
4
3
4
4
4
5
3
4
7
1
3
5
4
1
4
4
0
3
0
1
2
0
4
3
1
3
5
4
1
5
4
2
4
1
3
4
3
6
4
3
7
4
1
4
1
4
2
0
5
3
0
5
4
1
3
4
2
3
3
3
3
2
3
3
2
5
5
3
7
4
0
8
4
0
8
1
1
8
4
4
151
127
86
255
255
255
255
255
255
21
12
0
2
5
0
2
4
0
4
2
0
1
4
0
6
3
0
4
3
0
3
1
0
3
5
0
4
8
0
7
5
0
11
6
0
9
5
0
10
1
0
15
4
0
7
0
0
10
6
0
255
232
116
255
255
255
255
255
241
255
255
255
255
255
205
14
13
2
66
6
9
146
58
48
255
255
210
255
255
255
255
255
255
156
146
124
18
23
25
7
7
7
4
5
7
2
3
5
2
4
4
2
3
4
1
1
5
1
1
6
4
4
5
8
8
4
12
7
4
12
7
4
12
8
4
12
8
4
12
8
4
12
7
5
12
5
6
13
5
5
11
10
5
11
10
4
11
9
4
9
9
5
7
10
6
6
8
4
7
7
3
7
5
1
2
6
3
3
12
5
7
15
7
8
17
8
9
18
9
11
17
11
10
15
11
5
11
8
2
5
5
4
2
4
5
10
4
8
15
2
12
17
4
15
20
7
16
23
8
16
24
8
15
23
5
13
20
4
12
16
4
12
13
5
11
11
6
9
9
5
9
9
4
11
11
4
12
12
5
11
12
7
10
12
7
10
12
5
9
12
4
8
13
5
8
11
6
7
10
7
5
10
10
4
13
11
3
12
9
1
11
8
0
9
8
0
8
8
0
7
7
0
5
5
0
5
4
0
8
2
0
11
5
0
11
5
3
10
7
3
11
8
5
14
9
7
16
10
8
14
10
7
12
7
7
11
7
5
10
8
7
8
7
7
12
8
7
11
8
7
8
5
7
7
2
5
7
3
4
8
4
4
8
4
5
7
4
8
7
4
8
8
4
8
7
6
10
7
4
8
5
3
8
3
5
8
2
4
7
5
7
7
5
7
9
4
7
8
6
4
5
5
4
4
5
4
4
6
4
4
7
4
4
4
3
3
4
3
3
7
4
5
4
1
5
1
1
3
0
4
4
4
4
6
7
4
4
4
5
6
5
7
4
5
7
4
5
7
4
7
7
4
7
7
4
7
7
4
7
4
5
5
4
4
4
4
4
6
1
5
4
3
7
5
2
7
7
2
4
5
3
4
5
4
8
4
5
255
255
255
255
255
255
5
5
4
4
4
2
4
2
4
4
4
3
1
4
2
3
4
4
7
6
2
5
5
1
4
6
4
7
8
3
8
7
3
7
4
4
7
3
1
8
3
2
8
2
4
8
5
4
5
4
0
5
3
1
7
4
4
7
4
2
7
4
1
7
4
1
5
4
4
7
4
4
8
4
4
8
3
4
7
5
0
7
4
0
6
2
1
5
4
4
4
4
4
4
4
2
5
5
4
7
7
5
7
7
5
4
4
5
4
4
5
4
7
5
4
7
5
5
4
4
2
2
1
4
4
2
5
3
4
4
5
2
3
7
0
3
5
0
7
7
3
8
8
5
7
9
5
8
10
4
8
9
4
9
9
3
10
10
5
10
8
5
8
7
4
8
7
4
8
7
4
12
7
4
13
7
4
11
5
3
9
5
0
8
7
1
8
8
2
8
7
1
8
5
2
8
5
3
8
7
2
8
8
2
8
8
1
9
9
1
10
10
3
9
9
2
8
8
1
8
8
3
8
8
4
243
187
234
255
233
255
132
53
142
9
2
23
26
13
9
7
6
0
14
18
0
35
39
5
76
62
155
255
231
255
255
231
231
69
52
42
31
20
25
34
26
32
7
7
4
32
29
31
31
27
30
15
15
15
1
5
3
0
4
4
0
6
3
0
4
1
4
4
0
4
5
1
1
5
3
5
7
4
7
8
4
8
8
4
8
9
4
8
12
4
8
14
4
8
12
3
9
10
2
11
10
4
12
9
5
9
9
4
7
10
5
5
9
3
4
9
4
4
10
4
3
9
4
1
9
4
0
10
4
2
10
4
5
10
3
5
9
4
5
8
1
7
8
2
7
8
0
7
8
0
7
8
1
7
10
2
10
13
1
13
14
3
12
14
3
11
13
5
10
12
6
10
12
5
8
12
5
5
12
7
4
12
7
5
11
5
6
9
4
5
7
5
5
6
7
7
7
8
9
8
8
10
8
6
9
9
3
8
10
3
8
9
4
9
9
2
11
11
3
12
12
3
12
12
1
13
12
1
15
13
2
15
14
2
14
13
3
15
11
4
15
10
5
13
11
7
11
12
7
9
11
5
10
9
4
10
7
4
10
5
5
9
4
7
8
4
7
8
4
6
8
3
7
7
1
7
5
3
5
5
4
4
7
5
4
8
7
5
4
6
7
1
2
4
1
2
1
2
2
4
0
1
3
4
4
4
4
5
5
7
4
3
5
2
0
6
1
2
10
2
2
11
5
0
8
4
0
4
0
1
2
2
2
3
2
2
3
2
2
1
1
3
2
4
4
3
4
3
2
0
3
1
1
5
2
2
7
1
1
4
2
0
2
1
0
2
3
2
1
4
2
0
3
2
0
4
4
0
4
2
0
3
0
1
1
2
2
0
2
2
0
5
4
1
5
4
4
5
4
4
7
5
4
5
6
7
4
7
4
4
7
0
4
5
4
4
4
7
3
3
4
2
3
1
3
2
0
4
0
0
3
0
3
1
2
4
0
5
4
3
6
4
5
7
2
3
7
4
2
6
4
4
6
1
4
5
0
4
4
0
4
4
0
4
5
0
5
6
2
7
5
4
7
3
5
7
2
6
7
4
5
5
4
7
4
4
7
2
4
7
4
4
231
188
123
255
255
255
255
255
255
19
12
0
6
2
0
5
3
0
1
3
0
4
4
0
5
3
0
4
1
0
3
0
0
2
1
0
4
5
0
7
3
0
12
3
0
6
4
0
8
5
0
13
3
0
9
2
0
11
7
0
255
255
234
255
255
255
255
219
157
255
255
255
255
255
255
171
142
84
41
24
0
84
24
4
211
94
56
255
255
240
255
255
255
255
255
255
255
255
217
72
72
60
5
8
10
3
3
4
0
2
2
2
2
3
0
0
4
2
2
4
9
7
4
11
7
4
10
5
4
8
5
5
10
7
6
15
9
5
17
11
4
14
10
4
11
6
4
8
4
4
5
6
4
4
4
1
2
4
0
0
5
1
2
6
3
3
10
5
3
12
7
4
13
7
7
15
6
8
16
7
8
15
8
6
12
7
1
7
5
4
2
3
7
7
1
11
14
2
16
18
5
18
23
5
17
26
5
16
26
4
16
25
5
15
22
8
13
17
10
11
14
7
10
14
2
10
13
1
10
13
3
11
16
4
12
19
4
11
20
4
9
22
5
8
25
7
8
24
8
8
21
9
8
19
10
8
17
10
8
15
9
7
13
6
5
13
6
3
12
9
1
12
9
0
13
8
0
9
8
0
8
8
0
8
8
0
7
8
0
7
7
0
12
5
0
17
5
0
17
5
0
18
8
0
23
5
1
26
5
2
25
7
2
25
9
3
28
10
4
31
7
5
29
0
8
25
5
8
21
4
8
14
4
8
12
8
8
12
6
7
9
5
7
8
3
7
7
3
8
8
6
8
11
8
8
10
7
9
10
5
10
11
7
9
10
7
10
9
7
8
7
7
6
3
11
7
3
9
7
4
8
5
6
7
6
5
5
7
7
4
6
7
4
3
7
4
4
7
5
4
5
6
4
4
5
4
4
4
2
5
4
4
4
3
6
3
4
4
3
4
4
5
2
5
7
3
4
4
5
7
5
7
4
8
8
4
8
7
5
7
5
4
7
4
4
8
5
4
8
4
6
7
4
4
7
3
2
8
1
5
5
1
8
5
3
7
8
4
4
8
4
5
7
4
7
7
5
255
255
255
255
255
255
7
7
4
7
5
4
7
4
5
5
2
4
4
4
1
4
6
4
7
5
3
5
7
2
4
8
3
7
8
2
8
9
4
7
8
4
5
5
4
7
5
4
7
4
5
5
5
5
4
5
3
4
5
1
4
7
3
3
6
2
5
7
1
5
7
2
4
5
4
7
5
4
6
2
3
6
2
4
6
4
1
5
4
0
6
4
0
4
2
1
4
4
4
5
4
3
5
3
1
7
5
4
7
8
4
7
5
4
7
4
5
4
5
5
5
7
7
7
7
7
4
4
4
5
5
4
7
5
4
5
5
3
4
7
4
4
7
3
7
7
2
7
8
4
8
11
4
12
13
3
15
14
5
16
14
6
17
14
6
18
14
7
18
12
7
17
12
5
16
12
4
17
12
3
19
12
4
20
12
4
20
12
1
19
12
2
17
12
0
16
12
2
16
12
1
16
12
4
16
12
2
16
12
2
16
12
4
15
12
4
14
12
4
14
12
0
14
12
4
14
11
4
13
9
4
255
195
250
255
227
255
146
63
103
55
34
88
54
35
55
21
14
1
4
12
0
21
25
1
110
67
199
255
223
255
255
178
193
39
25
22
6
5
2
17
13
18
26
19
29
11
7
12
29
24
21
39
29
30
14
11
8
4
5
4
3
7
4
1
7
4
3
8
3
4
9
2
4
11
3
5
12
5
7
12
6
7
10
5
5
7
4
4
7
4
5
9
4
6
12
4
6
11
4
7
10
4
10
11
5
11
12
6
12
12
5
12
12
4
11
13
5
9
14
7
8
13
8
8
12
8
8
12
6
8
12
4
8
12
3
9
12
5
10
12
5
9
12
3
9
12
3
11
12
3
13
14
3
15
16
1
16
15
2
17
15
1
18
17
0
17
18
1
16
17
2
15
15
1
13
12
4
8
10
6
6
10
7
5
9
7
4
8
6
5
8
5
7
7
4
7
5
4
5
5
4
4
6
4
4
5
4
4
5
4
4
7
3
4
7
1
4
6
0
4
8
0
5
10
0
6
10
0
6
10
2
8
9
0
10
8
2
10
8
1
11
8
4
10
9
7
10
11
7
10
12
6
12
13
7
14
14
7
13
13
6
12
11
6
12
9
5
12
8
5
12
8
6
12
7
5
11
6
4
9
7
4
9
8
3
13
7
2
14
7
4
13
7
7
11
7
8
8
5
7
6
4
5
7
5
4
10
8
7
11
10
5
10
9
7
8
7
7
4
5
5
3
2
4
5
5
4
7
7
5
8
8
6
7
8
5
5
7
5
3
5
6
2
5
7
4
7
9
4
5
8
3
4
5
0
3
5
2
2
4
1
3
4
0
4
4
4
4
4
4
4
4
0
4
3
3
5
1
4
7
1
3
8
4
1
7
5
0
5
5
0
4
4
0
4
4
3
5
6
4
7
5
5
5
4
8
2
3
4
3
3
1
4
2
4
5
0
6
3
2
4
3
3
4
5
3
3
7
4
1
7
4
3
5
5
4
3
7
2
2
9
4
4
10
3
6
8
4
6
5
4
7
5
0
8
7
0
7
7
0
5
5
0
5
4
0
7
4
2
7
5
5
5
6
7
7
6
7
7
6
8
5
5
7
4
5
2
4
6
2
6
5
255
255
169
255
255
255
255
255
233
16
12
0
11
1
0
1
4
0
7
3
0
10
2
0
6
2
0
4
1
0
2
1
0
7
2
0
5
2
0
11
3
0
15
4
0
5
4
0
7
2
0
15
4
0
14
7
0
116
89
41
255
255
255
255
255
255
144
103
75
255
255
218
255
255
255
255
255
255
212
182
101
48
56
4
90
52
0
228
92
52
255
255
183
255
255
255
255
255
255
255
255
255
163
157
131
25
31
35
4
9
7
4
11
7
3
10
7
5
8
5
9
6
4
5
4
4
7
5
4
5
7
4
4
8
4
4
8
4
1
8
4
3
8
5
4
8
8
6
8
11
6
9
11
7
11
9
7
11
7
5
10
5
3
11
4
4
11
5
3
10
7
4
9
7
2
4
5
3
4
5
8
12
6
12
15
5
13
17
4
15
17
4
15
15
4
14
17
4
15
18
4
12
16
4
11
11
4
8
5
5
4
2
5
1
4
4
0
6
4
0
5
4
3
4
4
4
3
5
5
10
7
7
15
7
8
17
6
8
20
7
7
21
8
5
17
9
4
13
10
4
11
9
3
9
8
1
9
8
0
10
9
0
10
10
0
11
10
0
9
11
0
8
12
0
8
11
0
6
9
0
7
8
0
10
7
0
15
6
0
20
7
0
24
8
0
24
9
0
24
10
0
24
8
0
25
5
0
27
3
0
27
4
0
23
7
0
20
5
0
24
4
1
31
5
4
32
1
7
31
6
8
22
8
8
14
8
8
12
3
8
11
4
9
10
2
10
10
4
9
10
5
8
8
6
7
5
6
5
5
7
3
7
10
4
7
10
6
8
11
6
8
12
3
5
13
5
7
8
7
7
5
6
7
5
6
8
7
7
9
8
6
10
7
2
8
6
3
8
8
4
7
10
4
7
9
4
7
8
3
5
8
4
5
8
6
7
7
4
7
6
4
8
7
4
8
8
4
7
8
8
9
8
4
11
8
4
8
7
7
7
5
4
9
4
4
9
4
5
7
1
5
7
1
4
8
2
5
8
3
8
8
5
8
8
5
5
11
4
4
9
4
7
7
4
5
8
5
255
255
255
255
255
255
7
9
1
7
7
4
7
5
6
5
4
4
5
5
3
5
7
4
7
6
4
8
7
4
7
9
4
8
10
4
11
12
5
10
13
6
8
10
5
8
7
4
8
4
5
10
5
5
8
7
4
7
6
4
7
7
4
7
7
2
7
7
3
7
8
2
9
8
4
13
10
3
13
9
2
11
7
3
11
7
2
10
8
1
10
8
0
8
5
1
8
5
4
8
7
3
8
5
0
10
4
3
10
7
4
10
7
2
11
8
4
9
7
4
8
7
5
10
8
5
10
8
3
10
8
5
12
8
5
12
9
4
12
10
4
11
10
4
11
10
3
10
9
3
10
8
4
12
9
4
14
10
5
13
9
5
13
9
3
15
13
3
17
12
4
17
10
5
15
11
6
14
12
5
14
12
5
14
12
5
14
11
4
13
9
2
12
8
2
12
8
1
12
8
0
12
8
1
12
8
4
11
8
4
10
8
3
12
8
2
15
9
3
16
11
4
16
12
4
16
11
1
17
10
4
255
201
255
255
231
255
177
84
48
60
35
90
89
61
100
25
18
3
18
11
0
12
18
25
179
107
255
255
228
255
190
123
127
18
10
9
15
12
0
16
11
1
11
5
11
24
19
33
10
11
28
29
20
22
22
15
7
15
10
3
13
11
4
11
12
4
10
13
4
11
14
4
12
13
4
11
12
4
9
12
4
7
12
4
5
11
3
4
8
2
4
6
3
4
8
4
4
10
3
4
9
2
5
9
3
7
11
4
9
12
3
11
12
2
11
12
3
10
12
4
11
12
4
13
12
4
14
12
4
13
12
3
13
13
2
15
15
3
15
16
4
13
16
4
12
16
4
13
16
4
15
16
5
16
15
6
17
14
5
19
15
4
20
17
4
20
18
3
19
17
1
18
15
1
18
14
6
16
12
6
12
9
4
8
8
7
6
8
5
7
9
4
7
10
4
5
9
4
4
8
3
5
7
2
5
5
3
5
5
4
6
7
4
5
7
4
3
5
4
0
4
4
0
3
3
0
2
1
0
2
1
1
4
3
4
5
4
4
7
4
5
5
4
5
4
4
5
4
4
7
5
4
9
8
4
11
11
5
12
12
5
12
11
3
10
9
4
8
7
5
7
6
2
7
7
2
5
5
0
4
4
0
5
4
0
8
4
0
11
5
1
12
7
4
13
8
7
14
8
7
12
7
5
10
6
4
12
7
7
15
8
5
15
9
7
16
11
8
15
13
8
16
12
8
17
13
8
15
11
7
14
10
6
14
10
6
13
10
6
11
10
6
9
10
6
9
11
7
9
11
8
7
8
7
3
5
5
0
4
4
0
4
4
0
4
5
3
4
6
4
4
5
4
5
4
5
7
4
6
8
1
5
7
4
3
7
4
1
4
4
2
0
2
1
2
2
2
3
4
4
4
4
6
7
2
8
5
1
4
1
3
2
3
3
3
5
4
4
7
5
6
8
7
5
8
7
4
8
5
3
8
4
1
8
3
4
8
3
4
8
4
5
7
2
5
6
3
5
7
2
5
8
3
3
7
6
1
7
8
0
7
8
0
8
6
1
6
2
5
3
0
8
4
1
8
5
3
7
6
4
6
5
4
2
5
4
6
12
4
11
19
5
255
255
234
255
255
255
255
255
171
11
9
0
9
3
0
4
4
0
10
3
0
7
2
0
5
1
0
4
2
0
3
2
0
11
1
0
3
2
0
17
5
0
14
2
0
1
4
0
12
2
0
19
7
0
16
7
0
255
255
137
255
255
255
255
255
255
39
27
18
151
116
62
255
255
236
255
255
255
255
255
255
182
165
90
47
72
0
82
73
0
134
15
4
255
231
93
255
255
255
255
255
255
255
255
255
255
255
253
117
116
100
17
24
22
4
12
8
5
14
9
8
12
10
11
13
9
12
15
8
12
16
7
12
16
7
12
16
9
11
16
9
9
14
8
8
10
8
7
7
10
5
5
12
3
3
10
4
4
8
1
4
7
2
3
5
3
1
4
0
3
4
1
2
5
4
4
6
7
7
5
8
7
4
8
5
6
7
6
9
5
6
9
3
3
8
3
8
7
10
14
5
8
16
5
8
19
7
7
19
9
4
16
9
1
11
6
1
5
4
4
6
5
7
7
7
5
9
8
4
12
8
3
9
8
0
5
9
0
5
11
0
1
11
0
3
9
0
3
8
0
0
7
0
3
6
0
4
6
0
5
6
0
7
7
0
7
7
0
4
7
0
4
7
0
4
7
0
4
5
0
4
4
0
7
5
0
11
6
0
14
5
0
14
5
0
10
7
0
12
8
0
14
8
0
13
8
0
13
7
0
13
7
0
11
8
0
4
5
0
5
5
0
8
9
0
15
13
1
21
12
5
23
11
8
18
7
8
14
1
8
12
4
8
10
1
7
7
5
7
10
7
4
10
6
5
9
7
7
11
13
5
12
13
7
12
10
8
11
9
5
8
10
4
7
10
7
8
8
5
7
7
4
8
6
5
11
8
7
9
8
7
8
9
3
8
11
1
8
12
4
7
9
4
7
9
4
7
10
4
6
9
4
7
8
7
8
8
4
7
9
4
7
10
5
7
9
5
8
8
7
11
8
4
11
8
4
8
7
7
8
5
4
9
3
4
7
1
7
7
1
4
9
4
4
8
4
7
7
4
7
7
4
5
7
4
3
8
4
4
7
4
8
5
4
4
7
5
255
255
255
255
255
255
5
8
0
6
7
3
5
4
5
5
3
4
5
5
4
5
7
4
5
5
3
7
5
4
7
7
3
7
7
1
9
7
3
10
9
4
10
11
3
10
9
1
7
5
4
7
2
4
8
4
5
9
4
5
10
4
4
9
5
4
8
5
4
8
5
4
8
7
4
10
9
1
13
10
3
13
10
2
15
10
1
17
9
2
17
10
0
15
8
3
13
9
4
12
10
1
12
9
0
12
7
2
12
7
4
10
7
2
12
8
1
14
8
4
14
9
7
15
10
5
15
9
1
13
8
3
12
8
4
12
9
1
12
10
0
13
10
4
15
11
4
16
11
1
15
9
3
12
8
4
9
9
4
7
9
4
5
7
4
5
8
4
9
11
4
10
10
4
10
8
4
9
8
4
9
9
4
10
10
5
9
9
5
9
9
4
11
11
4
11
11
4
9
9
3
7
7
1
5
5
1
5
4
3
7
4
4
8
5
4
8
7
4
9
8
3
10
7
1
10
7
0
12
8
7
255
207
255
255
235
255
170
79
19
14
18
87
98
66
117
21
15
5
32
24
1
15
5
75
255
150
255
255
213
255
96
61
58
8
10
0
12
10
0
14
11
2
14
12
2
8
7
7
10
5
17
10
7
16
15
9
6
19
13
3
18
15
4
19
15
4
19
13
3
17
12
1
15
12
2
13
11
0
11
9
1
9
9
3
8
11
4
8
11
4
7
9
4
6
8
4
6
8
4
6
8
4
6
8
4
5
8
4
4
8
4
4
8
4
5
8
4
7
8
3
8
8
2
8
9
3
8
11
5
8
12
6
8
12
5
8
12
4
8
12
5
8
12
5
8
12
2
8
12
2
8
11
6
8
9
7
8
8
5
8
8
4
8
7
4
10
7
5
10
7
5
11
9
2
14
13
5
16
13
7
15
10
2
15
10
2
12
9
5
9
8
4
7
8
4
7
8
4
4
8
4
5
9
4
7
10
5
7
9
6
5
8
5
7
8
4
5
8
4
3
7
4
1
5
4
0
3
4
0
2
4
0
3
4
3
4
4
4
7
5
5
7
5
5
5
2
5
4
1
7
4
2
8
4
1
9
5
1
10
7
2
11
8
2
9
8
3
5
5
3
4
4
2
5
5
3
5
7
4
6
8
4
5
8
4
4
8
4
5
8
4
6
8
4
6
8
1
7
7
0
8
6
0
8
7
1
9
7
5
10
7
6
11
6
5
11
6
4
12
8
5
15
11
7
15
12
8
13
9
6
11
7
3
10
5
4
11
5
6
12
7
5
12
8
3
11
9
1
10
10
1
10
10
3
5
7
2
1
3
0
0
1
1
0
1
2
2
4
3
5
7
4
5
8
5
4
8
7
4
7
4
7
5
3
6
7
7
4
6
0
4
1
3
5
3
4
6
4
3
4
2
2
4
2
3
7
7
5
5
4
7
2
5
7
3
7
6
4
8
7
4
8
8
4
8
8
5
7
8
7
7
7
5
7
5
4
9
4
4
11
3
5
11
2
7
9
3
8
8
3
8
7
2
5
5
4
4
5
4
1
7
4
0
8
4
2
7
4
6
8
4
6
5
4
5
5
3
5
8
3
11
13
6
14
17
8
14
17
8
27
27
14
255
255
255
255
255
255
255
171
95
4
4
0
5
2
0
2
2
0
8
1
0
5
2
0
4
0
0
2
1
0
3
0
0
10
3
0
8
4
0
19
5
0
7
9
0
5
4
0
15
4
0
18
9
0
23
16
1
255
255
250
255
255
255
255
232
158
7
8
8
14
10
7
117
87
42
255
255
225
255
255
255
255
255
255
76
89
36
39
96
0
74
83
0
75
17
0
198
131
48
255
255
169
255
255
255
255
255
255
255
255
255
255
255
214
73
75
68
5
17
13
3
15
11
4
15
11
5
12
9
7
9
8
5
7
8
4
5
7
3
4
5
2
4
5
3
3
7
8
4
8
11
6
4
12
7
7
10
6
2
6
2
5
3
0
5
2
1
4
2
3
4
1
4
5
4
7
7
5
8
7
5
11
6
5
14
8
5
15
10
5
15
9
4
13
8
5
14
9
8
18
10
8
19
10
7
16
10
5
13
9
5
8
8
2
5
8
3
9
8
5
8
9
4
6
11
2
8
9
2
10
4
1
6
4
0
1
7
0
4
9
0
3
11
0
1
11
0
1
9
0
5
8
0
7
8
0
6
8
0
2
7
0
3
5
0
4
4
0
4
4
0
5
4
0
7
4
0
8
5
0
7
4
0
8
5
0
11
6
0
12
5
0
12
4
0
10
4
0
10
5
0
9
7
0
9
8
0
12
9
0
15
10
0
14
10
0
12
8
0
15
7
0
19
7
0
21
10
0
18
12
1
15
10
4
15
7
4
10
5
4
9
5
4
12
7
5
14
10
7
15
10
6
14
10
7
11
13
5
11
14
4
9
8
6
8
5
5
5
4
2
4
5
4
7
7
8
7
8
4
7
10
2
8
9
4
8
8
6
7
6
8
7
7
4
7
8
0
5
7
4
5
6
4
4
8
4
4
10
4
5
8
4
7
5
8
7
5
4
5
7
4
5
5
7
7
4
6
9
5
5
9
5
5
8
4
4
7
4
5
7
3
4
7
1
4
5
3
8
7
4
4
8
4
4
7
2
8
7
2
7
5
1
4
4
1
2
7
2
4
7
1
7
5
3
4
7
4
255
255
255
255
255
255
14
9
0
13
11
2
15
10
4
17
9
2
18
8
4
17
8
5
16
9
3
16
10
4
15
10
3
14
8
0
15
8
1
17
10
4
19
13
3
20
16
0
17
16
3
17
13
3
19
13
3
20
14
4
19
12
4
17
10
4
15
10
4
13
9
6
11
8
4
10
8
1
10
9
3
11
10
3
12
9
1
13
8
1
13
10
0
15
10
3
16
9
4
15
8
1
14
8
0
14
8
3
14
8
4
12
7
1
12
5
0
12
5
1
10
6
5
10
7
8
10
7
4
11
8
2
10
8
4
8
7
2
8
7
0
8
7
4
8
8
4
9
8
0
9
8
0
6
7
0
5
6
0
5
7
1
4
7
2
2
6
1
5
8
2
8
12
2
11
12
4
12
11
4
10
10
1
11
11
4
13
12
4
15
12
3
15
12
4
13
13
4
12
14
4
13
13
3
15
12
1
16
12
2
16
12
1
15
11
0
14
9
0
15
9
0
15
10
0
13
10
0
12
12
10
255
210
255
255
237
255
143
62
27
29
29
95
83
53
109
8
3
8
30
20
5
35
22
85
255
169
255
255
201
255
57
38
38
8
7
1
8
5
0
7
5
1
5
7
3
4
8
4
4
8
4
6
8
4
9
9
3
10
11
1
10
11
0
10
9
0
11
8
0
12
9
1
12
11
2
13
12
1
14
11
0
14
9
0
14
9
1
13
11
2
12
11
1
11
9
0
9
8
1
8
9
3
8
10
4
7
9
4
5
7
4
4
6
4
4
7
4
4
7
4
4
5
4
3
4
4
2
5
4
2
6
4
1
5
4
0
4
3
0
4
2
0
4
2
1
4
3
2
4
2
2
3
2
2
2
1
1
2
2
2
1
1
4
2
0
5
3
0
5
4
3
7
7
4
8
10
4
11
13
4
12
14
4
13
14
2
15
15
2
15
15
4
14
14
1
15
15
0
12
15
1
10
14
3
11
15
5
11
15
4
10
12
4
10
10
2
10
11
3
9
11
4
7
10
4
5
10
5
4
10
7
3
9
6
2
7
2
3
8
2
5
11
0
7
11
2
8
9
0
8
8
0
8
7
0
7
6
0
7
7
1
10
8
2
13
10
1
13
9
1
10
10
3
12
11
5
15
13
7
15
13
7
13
12
6
11
11
6
9
9
5
7
7
3
5
4
1
1
2
0
1
4
0
3
6
0
4
6
1
5
7
2
9
7
2
10
5
3
8
5
4
8
6
4
5
5
4
4
4
4
4
4
4
5
2
4
6
2
4
7
2
4
7
3
4
5
4
4
8
5
3
11
10
1
9
11
2
5
8
0
4
5
0
4
4
0
4
4
1
4
4
3
4
4
4
3
4
5
3
4
7
8
7
3
9
9
7
4
4
1
2
4
4
3
2
2
3
1
0
1
2
2
1
2
4
5
5
4
7
7
4
3
8
4
1
8
4
3
8
4
5
8
4
7
8
5
8
8
7
8
9
8
8
11
8
8
11
6
8
9
3
8
9
4
8
10
7
8
9
7
9
8
4
7
9
3
7
10
0
7
9
0
5
8
2
5
9
6
8
13
8
10
14
8
9
14
8
11
15
9
12
16
11
12
15
11
12
13
10
60
52
32
255
255
255
255
255
255
109
61
29
2
2
0
4
1
0
5
3
0
5
4
0
2
3
0
5
1
0
5
1
0
4
3
0
5
4
0
11
4
0
13
5
0
1
11
0
10
1
0
17
5
0
18
10
0
149
111
52
255
255
255
255
255
255
121
86
60
7
14
11
7
12
9
5
8
8
135
95
52
255
255
255
255
255
255
255
191
152
7
74
4
38
126
2
62
82
1
56
16
0
82
32
1
255
183
67
255
255
204
255
255
255
255
255
255
255
255
255
193
184
142
33
43
39
1
12
15
1
10
12
4
9
9
7
11
8
5
11
8
2
8
8
4
7
10
7
5
10
9
5
7
11
9
5
8
6
7
5
1
7
4
2
8
5
0
8
7
1
8
8
3
8
8
4
8
8
7
8
7
5
8
4
3
8
2
2
7
4
5
6
4
8
7
1
8
8
2
5
8
4
4
8
4
6
8
5
7
9
8
10
10
7
8
10
5
7
10
7
9
9
5
7
9
1
7
10
2
10
8
2
13
6
0
8
8
0
5
7
0
4
7
0
4
7
0
4
8
0
4
8
0
4
8
0
3
8
0
7
8
0
9
7
0
11
5
0
13
4
0
15
4
0
15
5
0
14
5
0
14
7
0
13
8
0
11
7
0
11
6
0
11
7
0
15
8
0
18
8
0
17
8
0
16
8
0
17
8
0
19
8
0
18
7
0
14
7
0
14
6
0
18
5
0
18
7
0
20
11
0
21
12
1
21
13
4
21
15
4
18
16
4
18
16
6
18
15
7
14
12
5
11
10
5
10
11
8
8
12
4
8
9
3
5
6
5
5
5
5
4
2
3
4
4
4
8
7
8
7
5
4
7
7
3
7
7
4
5
7
5
6
7
8
7
7
4
5
5
0
4
4
3
4
5
4
1
7
4
4
6
4
7
6
4
4
5
7
4
4
5
4
4
5
4
1
7
7
0
5
8
4
5
7
4
7
5
0
4
6
4
4
5
3
4
5
4
4
5
4
8
5
3
4
7
1
4
7
0
8
4
0
8
2
1
4
4
2
2
7
1
5
7
1
6
5
4
3
7
3
255
255
255
255
255
255
29
12
0
28
15
3
28
16
4
27
16
2
26
16
4
26
16
6
25
15
4
24
14
3
24
15
2
23
14
3
22
14
4
22
14
4
22
15
2
24
17
2
24
20
0
24
20
1
23
19
3
21
17
3
20
17
4
20
16
3
20
16
4
19
15
7
17
13
5
17
11
4
17
10
2
18
10
4
17
10
4
16
10
3
14
10
1
15
11
1
16
11
4
17
10
4
16
10
1
16
10
3
18
10
4
18
8
3
17
7
1
16
7
0
13
7
2
11
7
7
10
7
6
12
8
3
13
8
4
12
8
2
11
9
0
9
10
4
8
9
4
8
9
0
7
10
0
7
9
1
7
7
3
8
6
4
8
7
4
8
8
4
9
9
3
10
11
2
10
12
4
12
12
3
12
11
0
12
10
4
12
11
4
12
12
1
12
11
3
13
10
4
14
10
4
14
10
2
15
11
4
16
13
4
15
14
4
14
13
4
14
11
3
13
9
2
12
9
3
12
11
4
11
14
13
255
208
255
255
238
255
119
48
30
41
37
102
69
44
96
6
2
8
21
10
8
25
13
44
255
154
255
255
219
255
104
68
76
5
5
3
4
6
0
4
5
0
4
3
0
5
2
1
6
3
3
5
4
3
3
4
2
4
4
3
4
4
4
4
5
4
4
6
3
4
6
1
5
6
2
7
6
2
9
7
0
11
8
0
12
8
0
12
9
0
11
10
0
9
9
0
8
8
0
8
8
1
8
7
2
8
5
1
7
4
0
5
4
0
4
4
0
4
4
1
4
4
2
3
1
1
1
0
0
0
0
0
0
0
1
0
0
2
0
0
1
0
0
2
0
0
4
0
0
1
0
2
3
0
1
2
1
3
2
2
4
4
4
5
1
4
7
0
5
8
1
5
8
4
5
9
6
8
12
5
8
14
2
8
14
3
9
15
2
11
16
4
13
17
4
15
18
1
17
17
0
16
16
0
15
17
4
14
18
3
15
17
4
13
16
4
12
15
4
12
13
4
12
13
4
12
14
4
11
13
4
9
12
4
8
11
4
7
9
0
6
9
2
7
10
0
7
9
3
5
8
3
4
8
1
4
8
0
5
7
0
8
7
1
12
8
2
14
11
2
15
12
3
15
11
4
12
9
4
10
8
4
10
7
4
9
7
4
8
7
4
8
7
4
8
7
4
4
2
4
1
2
3
0
1
1
0
1
0
1
3
1
5
5
2
8
7
2
10
8
2
8
7
1
4
4
0
1
1
1
1
3
3
3
3
4
4
4
4
5
4
4
7
4
4
8
4
4
10
4
4
11
5
4
13
8
5
12
12
6
11
11
6
8
8
6
4
5
4
2
4
1
3
4
1
4
4
4
5
5
8
8
9
6
9
12
4
5
8
3
4
8
3
5
9
5
6
11
6
5
11
4
4
10
2
5
10
3
9
9
4
8
8
5
8
8
6
8
8
5
7
8
4
5
8
4
5
9
4
7
11
5
8
12
7
9
12
8
10
12
8
9
12
8
8
12
7
9
13
7
13
15
6
12
16
6
10
15
6
11
13
5
12
12
4
12
13
4
12
16
4
13
19
4
15
20
6
15
19
9
13
16
9
12
14
7
12
15
5
116
98
58
255
255
255
255
255
255
27
10
1
1
2
0
2
3
0
7
2
0
4
1
0
1
2
0
4
2
0
0
2
0
3
2
0
1
4
0
10
4
0
7
1
0
3
8
0
13
1
0
21
4
0
21
10
0
255
255
154
255
255
255
255
255
254
32
18
13
6
12
6
4
13
6
7
15
8
5
8
3
255
221
134
255
255
255
255
255
255
155
87
73
14
95
4
33
138
3
53
79
5
42
17
5
42
8
2
112
60
7
255
239
89
255
255
255
255
255
255
255
255
255
255
255
243
103
103
90
5
20
24
1
12
13
5
12
11
7
12
11
6
11
13
4
10
11
6
7
6
8
7
4
7
8
7
4
7
12
1
4
12
4
1
11
7
1
13
7
4
13
6
4
12
8
5
11
10
8
9
9
5
8
7
4
8
5
4
7
5
4
6
5
7
7
5
9
8
7
8
7
8
10
7
10
14
9
11
14
9
10
14
8
8
12
7
8
14
4
7
20
5
5
26
10
4
31
9
3
34
11
1
30
16
0
22
15
0
16
10
0
11
7
0
6
7
0
2
6
0
4
5
0
12
4
0
18
4
0
20
5
0
19
6
0
16
5
0
12
3
0
9
2
0
7
4
0
5
2
0
5
3
0
9
4
0
8
5
0
8
7
0
5
8
0
3
8
0
3
10
0
4
12
0
0
10
0
6
9
0
6
11
0
2
10
0
4
7
0
13
6
0
18
7
0
16
11
0
15
10
0
14
6
3
14
10
5
16
10
5
15
11
4
14
12
5
9
9
8
6
6
4
8
8
4
8
9
7
8
5
4
8
4
2
4
5
4
4
6
7
4
5
4
4
5
4
8
8
7
8
7
4
8
4
4
7
4
4
5
4
4
5
4
7
7
2
5
4
2
1
4
1
1
4
3
4
1
4
5
4
2
4
7
3
3
4
4
5
4
3
7
5
1
6
4
1
5
7
3
5
8
4
7
7
3
8
5
0
5
7
3
4
8
3
4
7
4
4
5
1
7
5
1
5
7
3
5
8
4
7
5
4
7
5
4
4
7
4
2
7
4
7
7
4
6
5
4
1
7
1
255
255
255
255
255
255
24
6
1
21
7
3
19
8
4
17
9
3
16
11
4
17
12
5
17
12
4
16
10
1
17
12
2
17
12
3
16
10
2
15
11
1
14
11
2
15
10
0
16
10
2
13
11
3
12
11
4
12
10
1
10
10
3
12
11
2
13
12
2
13
13
6
13
10
4
13
8
4
15
8
4
15
8
4
15
8
4
16
8
4
15
8
4
13
8
4
12
8
4
13
9
5
12
10
4
12
10
2
13
11
3
14
13
4
14
12
4
16
9
1
17
9
2
16
10
5
16
9
5
16
8
5
17
8
7
16
9
5
15
10
3
13
9
4
12
9
4
11
10
3
10
9
1
8
9
2
8
10
3
8
9
3
9
8
3
11
8
1
11
8
1
8
7
4
6
5
4
8
5
1
10
7
0
9
8
4
8
8
4
7
8
3
6
8
4
7
8
4
8
9
2
7
10
2
5
9
4
5
8
2
7
7
3
5
7
3
4
7
2
3
6
3
2
3
3
2
3
1
3
10
15
255
207
255
255
241
239
95
35
25
54
46
113
53
34
79
9
2
8
19
7
10
1
4
15
215
126
255
255
216
255
132
85
93
4
5
4
3
6
3
2
5
1
3
4
0
4
4
0
4
4
0
3
3
0
2
1
0
4
0
0
2
1
0
3
3
0
4
4
2
4
4
1
4
4
2
4
4
1
4
5
0
4
6
0
5
5
0
7
4
0
7
5
0
7
7
0
7
8
0
8
8
2
8
7
1
8
5
2
8
5
1
7
6
0
5
4
0
4
2
0
4
4
0
4
4
0
3
4
0
0
4
0
0
3
2
0
2
1
0
2
2
0
2
2
0
2
4
0
2
4
0
4
4
0
6
4
0
6
2
3
6
4
4
5
2
2
4
2
4
3
1
4
2
3
2
2
4
4
1
3
4
3
3
3
4
1
2
3
4
2
2
3
2
3
3
3
4
2
5
5
0
4
6
1
4
5
4
5
5
3
7
8
1
8
10
2
9
10
1
11
12
1
12
14
3
12
13
3
11
11
1
10
10
1
11
11
4
12
11
4
11
9
4
8
8
4
5
8
4
4
8
4
3
8
4
2
8
4
3
7
4
4
7
4
5
7
4
8
8
4
10
9
4
8
9
3
7
7
2
4
6
3
4
5
3
4
5
2
3
4
2
7
5
2
8
10
3
5
9
4
4
6
4
3
4
4
1
4
4
0
4
4
1
5
3
3
7
1
4
7
2
4
5
0
4
4
0
4
4
1
4
5
3
4
6
4
5
6
4
6
7
4
7
8
2
9
8
3
11
8
4
10
8
4
12
8
4
12
8
5
11
8
6
10
8
5
7
8
4
2
7
4
0
6
4
1
7
5
5
8
7
10
10
8
13
16
4
13
15
3
10
13
0
8
12
1
8
13
2
8
15
1
8
16
3
9
15
4
12
13
5
14
12
7
12
12
7
9
12
6
8
12
6
7
11
5
6
9
5
7
8
7
8
8
7
7
8
6
5
9
7
5
11
7
7
13
5
9
15
5
12
16
7
15
16
8
15
17
8
14
18
8
15
17
7
15
16
5
14
16
4
15
17
4
16
19
4
16
20
4
16
20
1
16
20
1
15
20
2
192
155
95
255
255
255
255
255
255
16
4
0
3
5
0
2
4
0
5
3
0
1
4
0
1
4
0
2
3
0
3
1
0
4
1
0
7
4
0
7
3
0
3
5
0
3
4
0
19
1
0
24
1
0
41
27
4
255
255
255
255
255
255
255
194
134
8
5
2
5
5
0
1
5
1
2
8
5
5
12
8
72
45
27
255
255
228
255
255
255
255
247
219
53
26
29
10
104
5
33
140
6
44
77
5
34
19
5
37
3
0
45
10
1
161
107
36
255
255
147
255
255
255
255
255
255
255
255
255
221
206
160
36
44
46
4
8
12
8
7
8
8
8
9
5
10
8
7
9
5
8
9
4
5
5
6
3
4
9
0
4
9
3
4
8
4
4
8
0
5
9
2
7
10
4
8
8
4
10
5
1
7
4
2
3
5
6
2
7
8
5
7
10
9
5
10
11
4
10
10
5
12
16
8
15
18
9
12
19
5
9
22
2
7
23
5
4
22
7
1
23
11
0
18
11
0
9
11
0
7
14
0
12
14
0
17
10
0
18
8
0
19
8
0
21
8
0
23
8
0
24
8
0
23
7
0
20
5
0
16
4
0
12
5
0
10
7
0
7
6
0
4
6
0
6
5
0
10
5
0
14
8
0
21
10
0
20
10
0
15
11
0
12
12
0
9
12
0
7
13
0
5
13
0
3
11
0
7
11
0
7
12
0
7
12
0
12
10
0
17
7
0
17
8
0
14
11
0
11
6
0
10
3
4
10
7
6
11
4
4
9
1
2
8
4
4
4
4
8
4
4
4
8
7
4
8
5
5
8
2
4
8
3
3
4
4
4
4
5
7
5
7
4
4
8
4
7
9
5
8
7
5
8
4
5
7
5
5
6
5
5
5
5
7
6
4
7
5
4
4
4
4
1
3
4
3
3
3
6
4
3
5
5
3
2
5
4
4
5
4
8
7
4
5
5
4
4
7
4
7
8
3
8
8
2
8
8
2
7
8
2
4
8
3
4
7
4
5
6
4
5
7
4
6
8
4
7
8
4
7
7
4
5
7
3
4
7
2
5
8
3
8
10
4
4
8
4
1
10
4
255
255
255
255
255
255
12
3
2
9
1
1
7
4
4
7
4
4
7
3
4
8
4
4
7
5
4
5
5
3
7
5
2
7
7
3
7
5
2
7
4
1
4
5
1
5
7
2
8
4
1
5
3
3
5
5
4
7
7
3
4
5
3
4
6
4
7
7
4
7
8
5
7
8
4
5
5
2
4
3
3
5
5
4
7
5
4
7
5
2
8
5
3
8
4
3
7
4
3
7
3
3
5
5
4
5
7
4
5
5
2
5
7
2
5
8
3
5
5
2
7
4
2
7
5
4
5
4
4
4
4
2
6
4
3
4
4
4
5
4
3
7
4
3
4
2
2
4
3
3
6
3
2
4
3
1
4
5
4
4
5
2
5
4
2
5
4
1
4
1
2
5
3
4
4
4
2
4
4
0
4
4
1
5
4
4
7
4
3
7
4
4
5
3
3
4
5
3
4
6
4
5
7
4
4
7
1
3
5
0
4
4
0
4
5
2
5
5
1
5
7
1
4
8
2
4
7
3
22
22
27
255
210
255
255
241
220
75
29
24
68
57
123
41
26
62
11
6
6
21
10
10
11
5
50
246
146
255
255
211
255
105
66
68
9
7
3
9
6
4
7
6
4
5
6
4
4
7
4
4
7
3
3
5
1
2
4
0
4
4
0
4
4
0
4
4
0
5
5
1
7
6
2
8
6
1
8
7
0
7
8
0
5
8
0
5
7
0
6
5
0
7
5
0
7
7
0
8
7
0
8
5
1
8
5
2
8
7
1
9
8
2
10
8
0
10
7
0
7
5
0
5
5
0
5
7
0
5
7
0
4
6
0
3
6
1
1
5
2
0
4
1
0
4
1
0
4
3
0
4
4
0
4
4
0
4
3
0
4
1
4
4
3
4
4
3
3
3
4
4
1
4
4
0
4
4
2
3
4
2
2
4
2
4
2
2
1
1
2
3
3
2
3
4
0
0
3
2
3
4
2
4
5
3
4
5
2
4
4
1
1
4
2
0
2
3
0
3
4
0
5
7
2
7
8
0
7
8
2
7
8
0
7
7
0
6
7
1
8
10
4
10
11
6
10
10
4
8
11
1
8
11
1
7
9
3
5
8
4
4
9
4
3
10
3
2
9
2
3
8
2
4
8
1
7
8
1
9
8
4
8
8
4
9
8
4
11
8
4
11
8
4
11
9
4
12
11
4
10
12
4
11
12
5
11
12
7
9
11
7
7
9
4
5
8
2
4
8
2
4
8
1
4
8
1
5
9
3
7
10
4
8
10
4
8
11
3
8
12
1
7
11
4
5
9
1
5
8
2
10
9
3
11
11
2
12
11
0
12
10
3
10
8
3
10
8
4
12
8
4
12
8
4
9
8
3
8
7
1
9
6
1
13
8
5
18
12
6
20
14
5
16
14
4
10
14
3
8
13
2
8
12
3
9
12
4
11
13
3
13
15
3
14
16
2
13
16
3
11
15
0
10
14
0
10
14
1
8
13
4
6
12
3
6
12
3
5
12
2
5
11
0
6
10
0
5
11
1
4
10
3
5
7
4
8
8
4
11
12
4
12
15
4
12
16
4
11
16
4
10
15
4
11
13
4
12
13
3
12
16
1
12
19
0
12
18
0
11
15
0
255
228
143
255
255
255
255
255
244
9
0
0
2
6
0
0
4
0
3
0
0
2
0
0
1
1
0
1
3
0
2
4
0
2
4
0
7
5
0
3
3
0
3
9
0
2
4
0
22
3
0
23
5
0
183
136
63
255
255
255
255
255
255
102
70
54
5
5
4
5
5
5
4
3
7
5
0
8
7
4
7
7
3
5
194
138
75
255
255
255
255
255
255
255
121
131
10
8
8
12
110
5
24
135
8
43
76
6
50
40
1
45
17
4
31
6
6
97
87
43
145
114
45
255
255
180
255
255
255
255
255
255
255
255
255
171
171
140
40
46
43
8
9
10
7
10
8
8
10
5
6
8
4
2
8
5
6
12
5
7
14
6
7
13
5
7
12
7
7
12
13
4
11
15
4
10
13
4
10
7
4
8
7
4
7
8
5
7
8
8
10
8
11
12
8
12
12
7
12
14
6
12
17
8
8
15
6
5
14
8
3
12
9
1
5
13
0
5
17
0
14
15
0
24
10
0
34
9
0
40
10
0
41
8
0
37
7
0
32
6
0
28
6
0
26
8
0
25
9
0
20
10
0
13
9
0
9
7
0
6
5
0
6
5
0
9
7
0
6
9
0
6
10
0
10
10
0
15
11
0
18
13
0
19
15
0
12
16
0
7
15
0
2
13
0
3
13
0
2
12
0
3
9
0
5
10
0
7
11
0
6
10
0
8
11
0
11
10
0
11
7
0
12
8
0
13
11
0
11
11
0
11
12
3
12
10
5
10
10
7
8
10
5
8
11
5
7
14
8
5
15
7
7
12
8
9
9
8
11
8
9
13
8
10
14
8
10
13
8
12
11
9
12
7
10
10
8
10
8
10
7
7
8
6
7
7
8
7
7
10
5
7
9
7
7
8
7
7
8
5
5
7
3
4
5
2
5
4
6
7
4
6
7
2
3
8
3
4
9
4
7
8
4
4
7
3
4
9
1
8
9
1
8
8
4
8
8
4
7
7
4
4
7
4
5
7
4
7
5
5
4
8
6
5
8
5
8
7
3
7
8
1
4
7
0
4
7
1
7
9
3
5
10
5
2
8
6
5
10
5
255
255
255
255
255
255
11
4
1
8
0
1
8
2
5
8
1
5
7
2
4
8
4
3
7
4
4
4
3
4
5
4
2
5
6
2
7
5
2
8
4
2
4
4
0
5
7
0
8
4
0
5
1
1
5
4
3
7
4
4
3
2
1
2
3
2
6
6
6
6
5
3
6
7
4
4
7
3
1
2
1
5
4
2
7
3
3
5
4
2
5
4
1
7
4
4
5
4
4
5
0
1
4
1
2
4
4
4
5
5
4
4
4
3
6
6
2
4
4
1
4
3
3
7
4
4
8
4
3
7
4
3
7
1
2
5
0
3
5
4
4
7
4
2
4
2
3
4
4
4
5
2
1
2
0
0
2
3
3
5
4
3
5
4
3
4
5
3
4
4
1
5
5
4
4
6
4
4
5
1
5
4
2
7
4
3
8
5
2
8
7
4
8
7
3
8
5
4
8
4
3
9
5
1
10
7
0
8
8
0
7
8
1
7
8
1
9
8
0
10
9
2
11
11
2
13
12
2
84
64
66
255
230
239
255
220
175
50
17
82
84
66
124
36
21
68
7
2
70
12
4
85
50
22
145
255
170
255
255
187
255
60
40
37
17
13
13
13
9
7
12
7
4
9
5
4
8
4
4
8
4
4
8
5
4
7
7
4
6
8
4
7
8
4
8
8
4
8
8
4
8
7
3
7
5
1
5
4
0
5
4
0
7
5
0
7
7
0
5
8
0
5
7
0
7
6
0
7
6
0
5
5
0
4
5
1
5
7
2
6
7
1
7
5
0
8
5
0
10
7
0
9
6
0
8
6
0
8
5
0
5
4
0
4
5
0
4
6
0
4
6
0
4
6
0
4
6
0
4
6
0
4
5
1
4
4
3
3
4
3
4
5
2
4
7
2
5
7
2
7
5
3
8
4
3
8
5
1
9
7
1
10
8
4
8
7
4
5
6
4
5
7
4
5
8
4
4
8
4
5
7
4
8
7
3
7
9
1
6
9
0
7
8
0
8
9
0
8
10
1
8
9
1
9
9
1
10
10
1
10
10
0
10
10
0
9
9
0
8
9
3
8
10
2
10
10
2
10
11
2
9
12
1
9
11
0
10
9
0
9
9
0
8
11
0
8
11
1
7
9
2
6
8
1
8
9
2
12
11
4
14
12
0
14
12
1
15
13
3
16
15
4
17
16
4
18
16
4
18
16
4
17
16
4
15
15
4
13
13
4
12
12
4
12
12
4
11
11
4
9
10
4
8
11
4
9
13
4
11
15
3
12
16
1
11
15
0
9
13
0
9
12
3
9
12
2
7
11
1
7
9
3
9
8
3
11
9
3
13
12
2
13
12
2
12
12
1
13
12
2
15
12
2
16
11
0
16
9
0
16
8
0
16
8
1
15
9
3
16
10
5
19
10
7
17
11
8
16
11
8
16
9
8
16
8
7
16
9
5
15
10
4
13
9
1
12
8
4
12
8
1
11
8
1
10
9
2
8
11
2
5
12
1
4
12
2
5
13
3
7
14
3
7
12
2
5
9
3
4
8
4
4
7
4
4
6
4
4
7
3
4
9
3
4
11
1
5
12
3
7
12
4
8
12
4
7
12
4
5
11
4
4
9
3
4
8
1
4
8
1
255
255
213
255
255
255
255
255
179
4
5
0
0
5
0
3
3
0
4
0
0
5
1
0
5
4
0
4
4
0
3
3
0
3
4
0
5
2
0
1
3
0
5
7
0
4
2
0
22
0
0
19
5
0
255
255
169
255
255
255
255
255
232
22
15
15
4
4
7
6
7
9
5
5
10
5
0
9
4
4
7
1
4
5
25
19
6
255
250
146
255
255
255
255
255
255
164
55
77
6
14
6
4
105
12
17
109
11
58
94
5
82
81
4
66
35
8
217
182
82
255
255
131
255
255
183
71
34
45
255
255
227
255
255
255
255
255
255
255
255
250
106
111
92
10
18
20
7
14
11
8
19
13
11
23
13
12
23
13
11
20
13
10
16
9
8
12
9
6
8
11
6
5
9
4
6
12
4
5
9
7
9
12
4
11
13
4
9
10
7
9
10
7
7
13
6
7
12
4
9
8
2
8
5
3
12
3
4
17
7
4
24
10
4
30
9
4
33
8
4
34
6
4
32
4
4
28
7
4
24
4
3
20
4
1
17
6
0
15
8
0
12
7
0
8
7
0
5
4
0
4
4
0
4
5
0
4
7
0
8
8
0
11
9
0
11
11
0
8
12
0
8
12
0
13
12
0
17
12
0
12
12
0
11
10
0
5
10
0
1
9
0
5
8
0
7
9
0
9
10
0
12
10
0
17
10
0
22
9
0
24
9
0
25
12
0
26
16
0
26
19
0
26
20
0
27
18
0
26
14
0
23
13
1
23
14
3
20
15
5
17
14
7
17
13
9
16
12
12
14
13
14
12
15
13
13
15
12
13
13
10
10
12
10
8
12
8
10
12
5
10
12
6
5
11
6
7
9
7
10
7
5
8
6
4
8
8
5
11
10
4
11
9
6
9
8
7
8
7
6
5
5
3
5
4
3
8
5
7
11
6
5
12
5
4
12
4
5
11
3
5
10
2
4
12
3
5
13
4
7
8
4
7
7
4
8
8
2
5
8
3
4
9
3
7
8
2
8
7
4
5
9
4
5
8
4
8
8
4
7
11
3
3
8
1
4
8
4
8
9
4
4
7
5
3
5
4
7
7
4
255
255
255
255
255
255
13
4
0
10
0
2
9
2
6
8
3
5
6
2
2
7
3
1
7
4
4
4
3
4
5
4
1
7
6
3
7
6
3
8
4
1
4
2
0
5
5
0
8
4
0
5
2
0
4
4
0
5
2
4
2
3
3
3
4
2
6
4
4
5
4
2
6
6
5
4
7
4
3
5
2
6
5
3
5
2
2
5
4
1
5
4
2
4
3
3
3
4
2
4
1
1
4
0
2
4
3
4
6
5
3
4
5
4
5
7
4
7
7
3
7
7
4
8
5
4
9
5
4
8
5
5
7
3
4
5
1
4
5
3
5
7
4
4
7
2
4
9
4
4
10
4
3
9
4
1
9
5
1
10
6
2
9
5
2
8
5
4
8
7
4
8
7
4
8
5
5
8
4
4
8
5
5
7
7
6
5
8
5
5
8
5
7
7
5
8
6
2
9
7
0
10
8
0
9
9
0
10
10
0
10
9
2
9
8
0
9
8
0
10
8
3
9
7
3
8
6
4
125
94
94
255
255
216
255
199
120
118
84
73
255
168
228
255
179
255
255
187
255
255
190
255
255
193
255
255
195
255
215
130
155
27
22
15
31
25
22
39
28
28
42
29
31
43
32
34
43
33
37
35
29
34
24
23
26
19
20
23
17
17
20
11
11
12
9
8
6
10
8
6
9
7
5
7
5
4
5
4
4
5
4
4
6
3
3
5
2
1
5
3
1
6
4
2
5
4
1
4
5
0
4
7
0
2
6
0
3
6
0
4
5
0
5
4
0
7
5
0
8
7
0
8
8
1
8
7
2
10
7
2
7
6
3
6
6
3
7
7
2
8
8
3
7
8
4
5
8
4
4
8
3
4
8
2
4
7
4
4
5
4
5
4
4
4
4
1
5
5
0
7
7
0
9
8
0
11
8
0
11
7
0
10
6
1
10
7
3
7
7
4
7
5
3
7
4
1
6
5
0
7
7
0
9
9
0
10
10
0
10
10
0
10
10
0
9
9
0
8
8
2
8
8
0
8
8
2
9
9
0
11
11
0
12
12
0
10
11
1
6
9
4
5
8
2
5
8
2
5
8
2
7
8
2
6
9
2
7
10
3
8
9
4
9
9
4
11
11
4
12
12
4
12
12
4
12
12
3
12
12
2
12
12
2
12
13
1
11
14
2
10
13
0
12
12
1
13
13
3
15
14
4
15
13
4
15
12
4
15
13
2
14
15
2
15
15
4
16
14
4
15
14
4
13
13
3
13
12
1
14
13
0
13
14
0
11
12
0
9
10
0
9
11
1
11
12
2
11
12
2
9
12
3
8
11
4
8
10
4
10
11
3
12
13
1
12
14
1
11
13
2
10
11
1
11
10
1
12
12
3
12
13
4
10
10
4
7
8
4
8
8
4
11
8
4
14
8
4
16
8
4
16
8
4
15
8
4
13
8
4
11
7
3
11
5
2
10
4
4
9
5
4
8
6
4
10
5
4
11
5
1
9
6
1
9
5
3
10
4
4
9
5
4
8
7
4
8
8
4
8
9
4
8
11
4
8
11
3
7
9
2
5
8
4
3
8
4
2
7
4
3
6
4
4
7
4
4
7
4
4
5
4
3
4
4
1
4
4
14
17
12
255
255
255
255
255
255
247
162
99
4
4
0
4
2
0
4
1
0
4
2
0
3
3
0
2
5
0
8
3
0
5
3
0
11
6
0
5
1
0
4
3
0
5
3
0
13
1
0
23
2
0
66
38
12
255
255
255
255
255
255
228
166
113
8
8
8
4
2
6
5
7
7
6
7
6
3
4
8
2
5
10
1
7
9
2
7
7
76
52
27
255
255
209
255
255
255
255
255
252
110
29
49
12
21
5
21
66
15
17
78
14
78
94
3
116
90
10
255
151
80
255
255
143
255
236
132
255
255
255
255
255
255
147
71
15
255
255
254
255
255
255
255
255
255
165
159
120
21
32
23
11
21
12
8
17
11
4
10
10
5
8
9
6
7
11
3
7
8
5
8
6
7
6
3
4
5
8
5
5
11
7
9
10
3
9
7
3
11
5
7
16
7
8
20
9
12
24
11
15
28
10
16
32
8
16
36
5
16
38
5
16
37
7
16
35
5
15
32
4
13
28
4
11
23
4
9
18
5
8
15
1
7
14
2
5
13
1
1
9
4
0
5
6
0
2
5
0
2
4
0
5
6
0
8
9
0
10
10
0
13
10
0
14
10
0
13
10
0
13
10
0
16
12
0
20
14
0
21
13
0
17
11
0
16
10
0
16
12
0
19
14
0
23
12
0
25
8
0
27
7
0
29
10
0
31
12
0
31
12
0
29
12
0
28
15
0
28
18
0
26
19
0
24
15
0
23
11
0
23
10
0
23
10
0
26
10
0
28
8
1
26
6
3
21
6
5
17
5
6
14
5
5
8
8
7
8
8
7
10
9
3
11
11
7
14
11
8
15
9
7
11
7
7
8
5
5
10
4
7
10
4
6
8
4
4
10
4
4
11
4
5
10
3
6
7
4
7
4
4
6
4
4
2
5
5
4
7
5
8
8
4
4
8
4
4
8
4
7
10
4
4
11
4
4
11
4
7
10
5
7
8
5
5
8
2
7
11
0
5
11
1
5
9
3
8
7
4
7
8
4
6
9
2
7
7
3
8
7
5
5
8
5
2
7
4
5
7
4
7
7
2
4
5
5
5
5
5
7
5
6
255
255
255
255
255
255
6
4
1
4
1
1
5
1
5
5
4
7
4
3
4
5
1
3
7
4
4
3
5
4
4
5
3
6
5
5
5
5
4
7
7
0
5
5
0
4
4
0
7
4
0
5
4
0
4
5
0
5
4
3
4
4
4
5
4
2
7
4
3
7
5
4
8
7
7
5
7
5
5
7
2
7
8
4
5
5
4
7
5
1
7
5
1
6
4
3
5
5
4
5
4
4
5
2
2
7
3
4
8
5
4
7
5
2
9
5
3
11
7
4
13
10
5
13
8
4
13
9
4
15
10
5
17
8
4
15
5
4
14
5
5
14
7
5
14
5
4
14
5
3
14
7
4
15
8
4
14
7
3
11
5
1
10
5
1
9
6
3
9
5
4
10
4
4
9
5
5
7
6
6
5
5
5
4
4
4
4
4
5
4
4
4
4
5
4
4
7
4
4
7
1
4
5
0
5
4
0
7
4
0
8
5
1
7
7
2
5
6
2
5
6
3
5
5
3
3
4
1
126
96
96
255
255
251
255
193
123
255
240
158
255
255
240
255
192
255
255
193
255
255
193
255
255
182
238
218
137
160
94
61
65
11
10
19
7
1
11
4
4
3
8
5
1
11
7
5
12
9
5
19
15
11
30
25
20
45
33
30
58
41
39
62
46
45
46
36
36
21
17
15
5
7
4
5
7
3
7
7
4
5
6
4
4
6
4
5
5
4
7
4
4
7
5
3
5
5
3
2
3
1
4
4
2
2
4
2
2
3
2
2
4
1
3
6
0
4
8
0
5
8
0
5
7
2
5
6
0
8
7
0
8
5
3
8
4
3
7
4
3
5
4
2
4
4
3
3
4
3
0
4
3
0
4
1
1
4
4
2
3
3
3
0
3
2
0
2
0
1
1
0
3
3
1
4
4
3
4
4
4
4
4
7
4
4
8
4
4
8
5
3
7
4
1
7
4
0
5
4
0
3
4
0
2
4
0
4
5
0
6
7
0
5
7
0
4
5
1
3
3
1
1
2
1
1
3
1
4
5
0
6
7
0
7
9
0
10
10
2
9
9
3
8
9
2
8
11
2
8
12
2
8
11
0
7
10
2
7
11
2
10
12
3
12
12
4
12
12
3
12
12
2
12
12
3
12
12
4
11
11
3
10
10
2
11
11
2
11
12
1
9
11
0
9
9
2
10
8
3
10
9
2
11
10
1
13
10
0
15
11
2
16
12
2
16
12
0
17
12
0
19
13
0
19
15
1
17
15
2
15
13
1
12
11
1
10
10
3
10
11
4
9
12
3
8
11
1
8
10
1
9
11
2
10
12
1
10
12
1
10
12
3
10
12
4
10
12
4
10
11
4
11
10
1
11
11
3
9
12
4
8
11
4
7
9
4
7
8
4
7
9
3
8
10
1
9
10
0
11
10
1
11
9
3
9
8
4
7
8
4
7
8
3
8
8
1
8
8
1
8
8
3
7
8
3
7
8
1
10
7
1
11
5
2
12
4
1
11
4
0
9
4
1
8
5
2
8
7
1
8
8
0
8
9
0
7
9
0
7
6
1
9
4
2
9
4
1
8
4
2
7
4
1
5
4
3
5
4
4
7
5
3
7
6
2
5
6
3
59
51
34
255
255
255
255
255
255
94
55
29
2
1
0
6
2
0
10
1
0
5
4
0
3
1
0
7
6
0
11
6
0
2
5
0
17
6
0
3
2
0
2
4
0
2
3
0
19
3
0
21
5
0
232
169
81
255
255
255
255
255
255
79
59
42
12
13
7
5
6
4
5
8
5
7
12
5
6
12
7
5
12
7
3
11
5
3
8
4
4
5
4
141
98
54
255
255
253
255
255
255
255
255
214
69
19
31
13
14
7
34
20
8
17
47
10
85
93
4
203
11
42
255
255
147
255
255
250
220
185
125
255
255
242
255
255
255
255
255
204
255
255
130
255
255
255
255
255
255
237
213
154
41
42
34
3
7
5
3
9
4
7
8
3
7
7
7
5
9
7
7
9
4
5
4
3
2
4
7
5
7
10
8
13
8
11
22
6
13
28
7
16
31
8
19
32
6
20
32
8
20
32
10
19
31
8
17
28
5
15
25
7
13
23
8
12
20
8
11
16
7
9
14
6
7
13
5
5
9
2
3
8
1
5
8
3
6
7
4
2
8
4
0
5
4
0
5
4
0
4
4
0
5
5
0
10
7
0
12
8
0
15
8
0
18
7
0
21
6
0
24
6
0
27
8
0
28
8
0
29
12
0
29
16
0
27
19
0
25
19
0
25
16
0
26
15
0
31
15
0
34
16
0
32
15
0
27
15
0
22
18
0
20
17
0
22
12
0
26
9
0
26
11
0
26
10
0
26
10
0
26
16
0
25
17
0
23
12
0
21
10
0
17
9
0
13
9
0
13
10
2
13
8
4
13
7
8
11
4
7
10
3
4
10
3
8
9
1
7
8
3
7
5
4
8
7
4
7
8
4
7
9
4
7
10
4
5
11
3
5
9
3
6
7
3
6
5
2
6
2
4
6
4
3
3
7
4
4
10
4
7
10
3
4
8
1
4
8
0
8
9
1
4
9
2
4
7
2
8
5
4
7
5
3
4
7
3
5
8
0
7
8
2
7
7
3
8
5
2
5
7
1
5
5
3
8
4
2
8
5
4
4
5
4
3
6
3
7
4
1
5
4
3
4
5
7
7
5
5
7
4
4
255
255
255
255
255
255
10
5
3
8
4
0
8
1
3
8
3
5
8
4
4
8
4
4
11
4
4
8
7
2
9
8
3
11
8
6
10
8
4
10
8
0
10
10
0
8
8
0
10
7
0
10
5
1
9
5
2
8
7
1
8
7
4
9
7
3
10
7
3
10
7
3
11
7
4
10
8
6
10
7
3
10
8
1
8
8
4
10
7
3
8
7
0
7
5
0
7
5
1
7
5
4
6
4
4
7
4
2
10
5
4
8
5
4
7
4
1
6
4
1
8
7
4
11
7
3
10
8
1
11
8
4
13
10
4
15
8
2
16
7
4
16
7
6
15
7
4
13
7
1
12
5
1
12
4
3
11
4
4
9
5
4
8
6
3
8
5
1
5
4
0
5
4
1
7
4
3
5
4
4
4
4
3
2
3
2
3
1
4
4
1
2
3
3
1
0
4
4
0
4
3
1
2
0
3
2
0
4
2
1
5
3
2
5
5
1
4
4
0
4
4
0
5
5
0
4
4
0
88
70
74
255
255
255
255
234
143
255
255
255
255
255
211
62
41
24
25
12
11
19
10
8
12
9
5
7
5
4
5
5
6
9
8
11
17
12
18
24
14
24
25
16
27
25
20
30
26
21
33
20
17
29
12
10
20
12
8
19
6
8
15
8
3
7
30
23
24
25
19
20
3
3
3
1
3
0
4
4
0
4
4
1
3
5
1
5
7
2
5
7
3
5
5
2
8
4
4
5
4
4
5
5
3
4
6
2
4
5
2
4
4
3
1
4
1
0
4
2
3
4
1
4
4
1
2
2
1
4
4
1
5
4
2
6
4
2
5
4
2
4
4
2
5
4
3
5
3
3
3
1
3
2
1
1
2
4
1
3
5
0
2
4
2
1
4
1
3
4
4
3
4
4
1
4
4
0
4
4
1
4
4
4
4
4
7
4
4
10
5
4
8
7
4
9
7
1
9
5
0
7
4
1
6
4
3
5
4
4
4
4
4
5
5
4
6
7
4
6
8
4
7
8
4
7
8
1
5
7
0
4
5
0
5
6
0
9
10
1
13
11
3
15
11
4
17
13
3
17
13
2
16
13
2
16
14
2
16
14
2
16
14
3
16
13
0
15
12
0
13
12
0
12
11
0
11
11
0
10
13
1
10
13
2
9
12
1
8
13
0
8
14
0
9
13
1
11
11
4
11
10
4
10
11
4
11
12
4
13
12
3
15
12
1
16
12
0
15
11
0
14
10
0
16
11
2
17
12
0
15
12
2
15
11
2
14
11
2
15
12
0
15
11
2
13
11
2
12
11
2
12
9
0
12
9
2
12
11
0
12
11
0
10
9
0
10
9
1
10
11
4
11
13
4
11
13
4
9
10
3
7
8
0
7
8
0
7
8
0
9
9
0
11
11
0
12
12
0
12
12
2
11
11
3
9
9
3
7
8
4
7
8
4
7
8
4
8
8
4
10
8
4
10
7
4
9
7
4
9
9
4
10
10
4
9
10
3
8
9
1
8
8
0
9
8
0
11
8
0
12
8
0
11
8
0
9
8
0
8
7
0
8
5
2
8
4
0
8
4
2
8
4
3
8
4
4
8
4
4
8
4
4
9
4
4
11
5
4
130
105
68
255
255
255
255
255
255
14
5
0
5
3
0
11
1
0
14
5
0
5
4
0
8
0
0
8
6
0
8
7
0
10
7
0
15
6
0
2
3
0
3
4
0
3
4
0
19
3
0
23
7
0
255
255
190
255
255
255
255
255
198
19
16
11
14
15
5
8
14
6
8
14
5
8
14
4
7
13
1
8
11
3
5
10
4
5
9
5
8
12
7
8
11
7
203
141
78
255
255
255
255
255
255
255
243
194
64
19
25
7
18
11
26
31
15
15
53
14
87
89
11
200
16
39
255
255
164
255
255
255
255
255
205
255
255
146
255
255
255
255
255
255
163
113
34
255
255
255
255
255
255
255
255
222
94
89
68
7
13
8
8
8
4
5
8
4
4
11
4
8
15
4
11
20
4
13
24
4
16
28
2
19
30
3
19
28
5
17
24
7
15
20
6
13
17
3
11
14
4
8
11
6
5
7
8
3
5
5
3
5
9
4
4
10
5
7
8
8
9
8
8
11
8
8
12
8
8
13
7
8
15
5
8
18
6
5
18
9
1
16
8
0
13
6
0
13
7
0
20
8
0
30
8
0
37
8
0
42
9
0
44
11
0
44
12
0
43
12
0
41
12
0
38
13
0
33
13
0
31
14
0
29
17
0
24
18
0
21
14
0
21
10
0
20
8
0
16
13
0
12
17
0
9
17
0
7
17
0
8
18
0
7
16
0
9
11
0
12
10
0
10
13
0
10
17
0
13
18
0
13
17
0
13
15
0
16
13
0
21
12
0
20
12
0
15
12
0
14
12
1
13
10
4
12
6
8
12
4
6
12
3
4
9
1
7
7
2
7
6
2
5
5
6
5
7
7
6
8
4
7
12
3
7
16
6
7
15
8
5
10
7
5
7
5
7
8
3
7
8
4
5
10
3
4
12
4
4
15
4
5
13
4
5
11
4
4
12
4
7
11
4
5
8
4
4
7
4
7
7
4
8
7
3
4
7
4
4
7
1
8
8
2
8
7
3
7
5
3
4
5
3
5
4
4
8
5
1
8
7
3
5
5
3
4
7
4
7
5
4
4
5
5
4
7
7
8
4
3
7
2
1
255
255
255
255
255
255
12
5
4
12
5
1
12
4
1
12
2
4
11
3
4
10
4
5
11
4
4
8
5
2
8
7
4
10
8
5
11
7
4
11
7
2
12
8
2
12
8
1
12
8
0
12
7
2
13
7
1
13
8
3
10
8
4
8
7
4
8
7
4
10
8
4
10
7
3
10
8
5
11
8
4
12
8
1
12
10
4
13
8
3
12
8
0
12
8
0
10
7
0
9
7
1
9
7
4
8
5
3
10
5
1
9
5
4
7
6
4
5
5
1
3
5
3
7
6
4
8
5
1
5
4
1
5
5
4
7
7
4
8
5
4
8
4
5
8
3
5
8
4
4
8
3
1
5
0
0
4
1
1
4
3
3
5
4
4
7
4
3
4
3
0
4
4
0
5
4
0
5
4
3
5
4
4
4
4
3
2
4
4
4
1
2
3
0
0
0
0
3
0
3
4
0
3
4
0
4
4
2
4
4
4
4
4
3
5
4
3
3
1
4
2
0
4
4
0
3
4
0
43
37
44
255
255
255
255
255
207
255
255
255
255
255
251
78
53
29
12
7
3
11
8
3
9
10
2
9
8
2
10
8
1
9
8
1
8
7
2
7
6
2
5
7
2
4
8
1
3
7
1
5
5
7
19
10
16
35
20
26
47
29
35
50
34
41
37
27
33
16
13
15
4
3
0
4
4
2
4
4
1
5
3
2
4
2
0
4
3
2
4
4
0
4
4
1
7
5
3
7
7
3
9
7
2
9
5
2
7
5
2
7
6
4
5
4
3
4
1
2
4
1
2
5
4
2
4
4
4
5
5
4
7
7
3
8
8
1
8
8
2
8
8
1
8
8
4
8
8
4
8
8
0
8
7
4
8
6
4
8
7
4
8
8
4
7
8
4
5
8
4
4
8
1
4
8
0
3
7
0
1
5
0
0
4
0
1
5
0
5
7
1
7
7
4
9
5
4
10
4
4
10
5
4
10
6
4
8
5
4
6
4
4
7
5
4
8
7
3
9
9
2
11
10
4
11
9
4
8
7
4
6
5
3
7
4
1
9
5
0
10
7
1
10
8
2
11
8
2
13
8
3
15
9
3
17
11
1
18
12
2
16
12
3
13
12
3
11
12
3
10
12
1
11
12
0
11
12
0
10
12
0
11
12
0
11
12
0
10
12
0
11
13
0
11
14
0
10
13
1
11
12
2
12
13
1
12
14
0
12
14
0
12
14
0
12
13
0
12
13
0
12
13
0
13
11
1
14
11
2
14
12
1
16
12
1
18
12
3
18
12
4
18
12
3
17
12
1
16
12
1
16
12
2
15
12
1
13
11
0
13
10
0
12
10
1
10
9
2
8
9
2
8
11
4
8
11
5
8
9
2
8
9
0
8
11
0
8
11
0
8
9
0
9
9
0
9
10
1
6
9
1
5
8
3
7
8
3
7
8
1
7
9
3
9
11
5
11
11
7
12
9
7
12
8
5
12
8
4
11
8
4
8
8
4
5
8
4
5
8
4
7
8
4
8
8
3
8
8
1
8
8
1
8
8
3
9
9
4
9
10
4
7
9
4
7
8
3
6
8
1
7
7
3
8
5
4
8
4
4
8
4
3
9
5
0
11
7
4
218
171
109
255
255
255
255
255
255
3
4
0
2
4
0
10
6
0
11
7
0
3
3
0
12
3
0
11
6
0
2
6
0
14
8
0
7
6
0
7
2
0
7
5
0
7
5
0
17
4
0
90
57
24
255
255
255
255
255
255
187
133
88
13
12
5
13
13
4
8
11
4
7
9
3
5
8
1
5
8
0
10
9
1
10
12
3
10
12
5
10
12
7
8
11
7
15
10
4
247
172
93
255
255
255
255
255
255
255
233
189
74
27
20
19
17
9
34
39
25
8
50
14
80
83
10
203
15
43
255
255
169
255
255
255
255
255
255
234
171
66
255
255
255
255
255
255
234
224
178
255
255
157
255
255
255
255
255
255
202
181
128
38
41
28
12
17
6
14
22
7
14
24
8
14
23
7
11
20
5
6
15
4
3
8
5
3
5
6
3
7
6
5
9
7
7
8
7
8
11
6
11
12
7
13
12
11
12
17
9
12
18
12
12
18
10
13
18
7
15
17
6
13
19
9
11
23
13
9
24
13
7
22
12
4
17
11
1
12
8
0
8
5
0
8
5
0
15
12
0
29
17
0
38
18
0
40
15
0
37
14
0
29
14
0
20
14
0
17
14
0
17
15
0
15
17
0
14
17
0
14
13
0
11
11
0
8
8
0
12
8
0
11
11
0
5
12
0
0
10
0
3
9
0
4
11
0
5
13
0
10
11
0
14
13
0
17
16
0
18
14
0
18
12
0
18
12
0
19
11
0
18
10
0
17
13
0
17
16
0
21
14
0
17
13
0
10
13
0
11
12
0
12
13
3
11
12
7
14
9
7
15
7
5
8
6
6
7
6
8
8
5
7
11
4
5
15
4
7
17
4
8
18
5
8
18
7
7
12
7
4
7
6
5
8
5
8
11
4
7
11
3
3
12
4
4
14
4
5
15
4
4
11
4
6
11
5
5
11
7
5
10
8
6
10
8
5
10
7
7
10
4
7
10
4
4
9
4
5
8
4
7
11
5
7
8
6
6
7
7
5
7
7
7
7
6
8
9
3
7
10
3
6
8
4
5
10
5
5
8
7
4
7
7
5
5
7
8
2
4
7
5
4
255
255
255
255
255
255
8
5
4
9
4
3
10
4
0
10
4
2
8
1
4
10
0
5
11
1
4
8
3
2
7
4
4
7
5
4
8
5
4
12
5
4
12
5
3
10
5
3
11
7
0
12
7
1
11
5
2
11
5
3
11
7
2
8
5
4
7
5
4
7
7
0
7
5
0
8
5
4
10
7
4
10
8
3
10
10
4
12
10
1
12
10
1
13
11
2
13
10
1
10
10
0
10
9
4
9
7
4
8
7
0
8
6
1
7
5
4
8
5
4
4
4
2
2
4
4
5
6
4
5
4
1
4
2
1
4
4
4
4
7
5
4
5
5
5
3
5
5
4
5
7
4
4
6
1
1
4
0
0
2
0
0
3
3
3
5
4
4
4
1
1
4
1
0
5
3
0
7
4
1
7
4
4
5
4
5
5
5
5
4
4
3
3
4
0
3
4
1
1
4
3
0
3
4
0
2
4
2
2
3
3
2
2
2
4
4
1
4
4
3
1
1
4
1
0
2
3
1
11
13
20
255
255
255
255
255
255
255
212
206
255
255
255
151
100
58
13
7
3
12
7
4
12
8
4
12
10
1
12
9
0
11
7
1
8
5
2
5
4
1
4
5
1
5
7
3
7
7
4
6
5
3
7
5
2
5
7
2
3
8
2
6
8
3
8
8
4
8
8
4
8
8
4
8
8
4
7
7
4
7
5
4
6
4
3
5
3
1
4
3
0
4
5
0
5
5
0
6
4
0
6
4
1
7
4
2
8
2
2
8
3
3
8
4
3
8
4
2
7
3
3
7
3
4
7
6
4
7
8
1
5
8
1
5
7
3
7
6
4
8
7
1
8
8
1
8
8
2
9
8
2
10
7
4
10
6
1
10
7
1
10
7
1
10
5
1
8
4
1
6
4
0
7
4
0
7
4
0
5
5
0
4
7
0
4
7
0
4
5
0
4
4
1
4
5
3
5
7
4
7
8
3
9
8
1
11
8
0
11
7
0
9
5
0
9
5
0
10
6
0
9
5
1
9
4
3
11
5
4
12
7
4
12
7
4
11
5
4
10
5
4
10
6
4
9
6
4
9
7
4
11
8
4
12
7
4
11
5
3
9
5
1
8
7
2
8
8
2
8
8
2
8
9
0
8
9
0
8
7
1
8
7
3
8
8
4
9
7
4
10
6
4
9
7
3
8
9
1
9
11
1
10
12
2
9
12
1
8
12
0
8
11
0
8
10
0
9
11
0
10
12
1
8
12
2
6
12
1
7
12
0
9
13
0
11
13
0
11
11
0
10
11
0
11
11
0
8
10
0
7
10
0
7
9
0
7
8
0
8
8
0
10
8
2
10
8
1
8
7
3
5
5
4
5
5
4
7
7
4
6
9
4
7
10
4
5
8
4
3
5
4
1
4
3
2
4
1
2
4
0
2
4
1
4
3
4
4
3
3
2
2
0
1
4
1
4
7
4
7
7
4
7
6
4
5
5
1
5
2
0
6
2
1
4
2
1
1
6
2
4
8
4
7
8
4
7
8
4
5
7
4
4
5
4
4
4
4
5
5
4
7
7
4
9
8
4
11
9
4
12
11
2
11
11
2
9
9
4
8
9
3
8
11
3
9
12
5
255
255
167
255
255
255
255
255
215
1
1
0
1
4
0
12
8
0
8
6
0
4
4
0
14
4
0
11
5
0
5
5
0
12
7
0
3
5
0
3
2
0
7
5
0
8
5
0
18
3
0
255
196
103
255
255
255
255
255
255
63
44
25
11
8
4
9
7
4
7
5
1
6
5
0
4
5
0
5
7
0
7
9
0
8
10
0
7
9
2
5
7
3
4
5
3
4
4
4
25
15
6
255
188
103
255
255
255
255
255
255
255
212
181
73
4
14
16
10
7
46
51
31
15
67
29
72
84
2
205
4
48
255
255
172
255
255
255
255
255
255
44
35
42
255
255
220
255
255
255
255
255
255
107
95
70
255
255
225
255
255
255
255
255
226
116
109
83
14
21
16
4
8
5
5
4
4
8
5
2
9
10
4
11
13
6
12
14
6
12
14
8
13
13
11
12
10
11
11
11
8
10
9
6
8
8
10
5
9
10
4
6
10
3
5
5
3
7
5
5
10
6
4
14
5
4
18
5
4
17
8
3
17
11
1
17
12
0
13
11
0
7
10
0
10
10
0
19
18
0
21
16
0
18
13
0
15
13
0
14
16
0
18
16
0
17
13
0
15
13
0
13
14
0
7
12
0
7
14
0
9
17
0
10
16
0
14
9
0
17
29
0
16
34
0
14
35
0
16
40
0
19
40
0
19
32
0
17
20
0
17
9
0
17
10
0
12
15
0
11
13
0
13
9
0
11
9
0
11
10
0
12
12
0
14
14
0
16
17
0
20
16
0
15
12
0
10
8
0
11
6
0
13
7
2
14
9
6
19
9
8
17
8
7
10
7
7
10
8
8
12
7
7
16
4
6
18
3
7
15
6
7
12
7
6
8
5
5
7
4
5
5
2
7
6
4
8
6
8
8
8
9
7
9
9
7
9
5
7
9
2
5
7
4
5
6
6
6
6
5
5
7
4
6
8
4
6
7
4
7
7
4
6
8
4
4
9
6
7
10
7
5
11
5
5
8
5
7
8
7
7
8
5
8
8
4
8
9
3
7
8
1
7
8
3
7
8
4
5
5
5
5
3
6
7
2
5
8
5
4
7
8
4
255
255
255
255
255
255
10
6
4
8
4
4
9
4
1
11
5
2
10
4
4
10
1
3
11
0
4
11
0
4
12
1
4
12
4
4
10
5
2
11
5
2
13
5
2
12
5
4
10
5
1
10
7
0
10
5
1
8
3
4
10
5
3
11
7
3
11
7
4
10
8
3
8
5
1
8
4
4
8
4
4
7
5
4
7
7
4
7
7
0
7
7
3
8
8
3
11
8
4
8
7
1
7
5
3
5
5
4
5
5
1
7
2
0
7
4
2
8
5
3
7
4
2
4
4
2
4
5
4
7
7
4
5
5
1
5
4
1
5
7
4
5
7
4
7
7
5
8
7
7
8
7
5
7
5
4
7
4
4
7
3
3
6
2
2
7
4
4
5
4
3
5
4
0
7
3
0
8
2
0
8
3
1
5
4
4
8
5
6
10
7
4
8
7
4
5
5
3
4
4
2
4
4
3
4
4
4
5
4
4
7
4
4
7
4
4
5
5
5
5
6
4
7
5
4
7
4
4
8
8
15
255
247
215
255
255
255
119
98
125
255
255
255
242
156
96
11
5
3
9
5
2
10
7
1
9
8
1
8
8
0
8
7
3
8
7
2
7
7
3
7
8
2
9
7
3
10
5
3
9
4
4
8
5
4
10
7
1
8
8
0
8
8
0
7
8
1
7
8
3
7
8
3
7
7
2
7
7
3
7
7
4
7
8
4
5
7
3
4
5
1
5
5
0
6
6
0
5
5
0
4
4
0
4
5
0
4
4
0
5
4
0
7
4
1
5
4
2
5
4
2
7
4
2
7
4
1
5
4
0
4
4
0
3
4
0
2
4
3
3
4
3
5
4
4
7
4
4
8
4
2
7
5
2
6
6
4
7
5
3
8
4
1
8
4
2
8
4
0
8
4
0
8
4
0
8
5
0
8
6
0
8
6
1
8
6
2
7
5
1
6
5
1
6
7
2
5
7
1
5
6
0
6
6
0
6
5
0
7
4
0
8
4
0
8
4
0
8
4
0
8
5
1
9
7
3
12
8
3
14
8
2
12
8
3
9
8
4
9
8
3
11
8
2
11
7
2
9
5
1
8
4
0
7
4
1
5
4
2
5
3
2
6
1
3
7
1
3
5
3
1
4
4
0
5
4
0
5
5
3
4
4
4
4
4
4
2
4
4
3
3
4
3
1
4
3
3
3
4
4
2
4
4
0
4
5
2
3
6
1
4
6
3
4
7
4
4
8
4
4
9
4
4
10
4
2
9
4
2
7
3
1
6
1
1
7
0
4
7
0
5
4
0
7
4
0
6
5
0
1
5
0
4
4
0
4
2
0
4
4
0
5
5
2
5
4
3
7
4
3
3
4
3
2
2
2
4
2
2
3
1
2
4
2
3
4
5
4
4
4
4
4
1
4
3
0
2
1
3
0
3
4
1
4
1
3
3
2
3
2
2
1
2
2
3
2
1
2
3
4
1
6
4
3
7
4
3
6
4
0
5
3
2
4
5
1
7
7
2
8
7
2
9
5
3
11
5
5
12
7
6
11
7
4
9
5
1
9
5
0
11
7
1
12
8
3
11
8
4
10
9
4
10
11
4
9
11
4
8
9
4
8
8
4
12
12
7
255
255
252
255
255
255
255
216
137
3
3
0
7
8
0
16
8
0
4
2
0
8
4
0
13
2
0
9
3
0
8
4
0
10
7
0
3
2
0
7
4
0
8
8
0
13
4
0
23
5
0
255
255
209
255
255
255
255
255
171
17
11
2
8
8
1
7
4
4
7
5
4
7
7
4
6
7
3
5
8
1
4
7
0
5
7
0
5
7
2
3
5
4
4
3
2
7
4
0
4
4
0
28
18
7
255
192
106
255
255
255
255
255
255
255
231
193
76
8
14
23
29
19
70
67
33
56
89
38
39
84
5
203
4
45
255
255
168
255
255
255
255
255
255
154
140
111
255
200
101
255
255
255
255
255
255
255
255
229
246
187
60
255
255
255
255
255
255
247
218
162
44
46
41
7
6
7
5
7
3
4
9
4
4
11
2
4
12
2
4
12
5
4
12
7
4
12
8
2
12
10
4
13
9
8
15
8
10
19
7
10
24
4
11
26
1
13
26
4
14
27
9
12
29
9
8
32
5
5
29
5
3
22
5
2
15
7
0
13
11
0
12
15
0
13
15
0
14
15
0
17
8
0
18
6
0
15
9
0
7
10
0
10
10
0
20
10
0
27
11
0
25
13
0
21
12
0
22
2
0
26
13
0
28
28
0
27
48
0
20
42
0
16
32
0
16
31
0
14
27
0
11
26
0
8
26
0
10
25
0
17
21
0
18
14
0
12
12
0
11
12
0
16
10
0
15
11
0
12
12
0
12
12
0
17
8
0
18
7
0
17
10
0
15
11
0
11
9
0
14
5
0
17
3
2
18
3
6
20
5
8
14
7
7
5
10
7
4
11
9
9
9
10
13
8
12
14
8
14
16
8
16
17
7
19
19
5
19
19
5
18
16
1
19
13
5
20
12
5
16
11
8
10
14
5
7
10
4
8
8
2
6
8
4
4
7
2
6
7
2
6
8
3
6
8
4
6
7
3
8
7
4
7
8
4
4
10
7
7
10
8
4
10
6
4
10
4
8
9
5
8
7
4
8
8
5
8
8
5
7
7
4
7
7
4
5
4
4
4
1
5
5
1
4
7
5
3
7
8
1
6
7
1
255
255
255
255
255
255
11
7
4
9
6
4
8
5
4
10
5
2
11
5
4
11
4
4
10
1
2
11
0
4
13
0
4
15
1
4
12
4
3
9
4
0
10
4
1
10
5
4
7
7
4
7
8
1
9
10
0
8
7
4
7
6
4
8
7
1
10
7
3
12
8
4
11
7
4
10
7
5
9
5
4
7
4
3
7
5
4
7
5
1
5
5
4
5
5
2
6
5
4
5
6
2
7
4
1
5
4
4
5
6
3
5
2
0
7
3
2
10
5
2
10
5
2
8
5
2
8
7
1
8
8
4
8
8
3
9
8
0
10
8
3
8
7
2
7
7
2
9
7
5
11
8
5
8
8
4
9
7
4
10
5
4
9
4
3
9
5
3
10
6
4
8
5
3
5
4
1
7
4
0
9
3
0
8
2
3
9
3
5
11
4
7
12
4
7
10
4
5
10
5
4
10
7
4
11
8
5
13
9
8
13
10
9
12
8
7
10
6
5
9
7
4
9
8
5
10
8
5
11
12
14
255
212
187
255
255
255
72
32
75
255
255
255
255
227
150
18
12
10
7
4
4
8
4
4
8
4
4
7
4
1
7
5
3
8
7
2
10
8
3
9
7
1
8
5
4
9
5
4
10
7
1
10
8
4
12
8
2
13
7
1
10
6
2
8
7
1
8
8
0
7
7
0
5
5
1
5
5
2
6
7
2
5
8
3
5
9
4
7
10
4
7
9
4
5
8
4
5
8
3
7
7
2
8
7
3
7
7
3
6
8
2
7
7
2
5
5
1
5
5
0
7
6
0
8
5
0
8
4
0
8
4
0
7
4
0
5
3
1
4
1
2
5
0
2
6
1
3
5
3
4
4
4
3
4
4
1
5
4
1
7
5
2
8
7
1
9
8
0
11
8
0
12
8
0
12
7
0
12
5
0
12
4
2
11
5
0
10
7
2
11
8
3
11
7
3
10
5
4
8
4
4
7
4
3
5
4
2
5
5
2
7
7
2
8
7
2
8
6
1
63
53
46
141
114
91
142
113
86
69
53
35
7
5
0
5
5
0
4
7
0
4
7
0
5
5
0
5
4
0
3
4
0
4
4
0
5
4
0
4
4
0
4
4
0
7
3
0
4
1
0
0
0
0
4
2
0
4
4
4
4
2
4
4
0
0
2
3
0
3
4
0
2
4
3
1
4
4
0
3
2
3
2
0
4
3
2
3
3
3
1
2
2
0
3
3
0
4
4
2
4
3
4
3
2
0
1
2
0
2
3
2
2
2
1
1
0
5
4
0
7
5
0
5
1
0
5
2
0
2
4
0
4
4
0
5
3
0
4
1
0
4
4
3
5
4
4
7
2
1
3
4
0
2
3
0
3
2
2
4
2
0
4
1
2
4
4
0
5
7
0
7
8
1
8
8
4
8
9
4
8
11
4
8
11
3
9
10
1
10
11
2
8
11
3
5
8
3
5
6
4
8
7
3
11
9
3
11
10
1
10
9
1
12
8
3
15
7
2
14
5
3
11
4
4
11
4
4
12
5
5
12
7
6
12
8
5
12
8
4
11
8
4
9
8
4
7
7
4
5
5
5
5
5
6
5
7
5
4
6
3
4
2
2
34
28
23
255
255
255
255
255
255
172
104
57
5
8
0
7
7
0
12
4
0
2
1
0
10
3
0
13
2
0
8
2
0
10
5
0
9
5
0
2
4
0
7
8
0
5
6
0
17
2
0
115
71
31
255
255
255
255
255
255
161
111
74
8
7
0
5
8
0
5
7
1
7
8
3
5
8
4
4
7
4
3
5
3
1
4
0
4
4
0
7
4
2
4
6
4
4
4
2
7
4
0
4
5
0
4
7
1
22
14
7
255
181
99
255
255
255
255
255
255
255
241
203
62
32
5
38
35
30
53
63
23
49
77
18
60
66
11
203
13
48
255
255
168
255
255
255
255
255
255
249
215
145
58
28
7
255
226
124
255
255
255
255
255
255
108
94
108
255
255
250
255
255
255
255
255
243
144
131
103
31
35
30
14
21
6
15
24
1
16
27
0
15
29
6
14
28
6
14
28
1
13
28
3
11
28
4
10
27
5
10
24
5
9
21
6
7
20
6
5
18
8
5
13
7
9
11
8
8
14
10
7
13
9
4
8
7
1
13
5
0
15
10
0
13
14
0
13
16
0
15
12
0
27
11
0
41
17
0
38
21
0
33
21
0
32
20
0
33
20
0
29
19
0
21
17
0
19
15
0
22
14
0
20
18
0
14
28
0
8
27
0
2
5
0
4
10
0
5
19
0
8
40
0
11
56
0
12
56
0
15
42
0
17
27
0
13
13
0
9
10
0
7
12
0
15
11
0
19
9
0
13
7
0
12
4
0
20
2
0
22
3
0
21
5
0
24
10
0
24
13
0
22
13
0
21
10
1
21
8
5
22
10
10
24
12
12
29
13
16
36
14
20
42
15
23
44
14
24
38
14
24
29
12
23
22
10
19
17
10
15
15
11
9
13
5
6
9
3
10
12
4
15
18
5
13
19
2
8
15
3
8
14
5
7
13
1
7
11
1
8
11
2
7
11
4
5
9
3
6
8
3
8
7
3
8
7
4
4
8
5
5
5
4
5
5
4
5
8
3
7
7
6
7
8
4
8
8
5
9
7
7
8
7
7
7
5
5
5
2
4
5
3
4
8
5
2
8
9
3
7
8
4
5
7
4
255
255
255
255
255
255
8
9
4
10
8
2
9
7
4
8
7
3
8
7
1
9
7
4
8
5
3
8
3
4
9
1
4
12
0
3
13
4
4
10
4
1
8
1
0
7
3
1
7
4
4
7
5
3
8
8
0
10
7
3
8
5
4
8
5
1
7
7
0
8
7
1
10
6
4
11
7
7
11
7
4
8
5
1
8
5
4
8
5
4
5
5
2
7
5
2
7
7
4
5
8
1
8
8
1
8
7
4
7
7
2
6
6
2
6
5
2
8
5
2
10
5
2
8
6
2
8
5
1
8
5
3
8
7
4
8
6
3
8
7
2
8
8
2
7
7
3
7
5
3
10
7
4
11
8
4
11
7
4
10
7
5
8
7
5
8
7
1
8
5
3
8
4
4
7
4
4
7
4
2
10
4
2
9
4
2
8
4
3
9
4
4
12
5
4
12
7
5
12
7
6
12
6
5
31
23
19
61
48
42
65
51
43
41
34
26
17
12
7
18
9
8
17
10
9
12
9
6
58
49
50
255
255
255
255
255
255
189
112
105
255
255
255
255
255
209
42
31
18
6
4
6
6
4
3
6
4
4
7
3
4
7
2
2
9
3
2
10
4
1
10
5
0
10
7
1
10
8
4
11
8
4
12
8
4
12
8
1
12
7
2
12
5
0
12
5
2
12
7
0
9
8
1
8
8
4
8
8
3
8
8
3
8
8
0
8
9
1
7
11
3
5
10
4
5
7
4
7
7
4
8
9
4
8
10
4
8
9
4
8
8
4
9
9
4
11
11
4
11
11
4
9
9
3
9
8
1
10
8
0
9
8
0
9
8
0
11
7
0
12
5
0
11
4
0
9
3
0
8
2
2
8
2
5
8
2
5
8
3
3
8
4
1
9
4
0
11
4
0
12
4
0
12
4
0
13
4
0
15
5
0
15
5
1
13
4
2
13
6
1
14
8
3
14
8
2
15
8
1
15
7
1
13
6
3
12
7
4
12
8
4
11
8
4
9
8
4
8
8
4
144
117
104
212
157
116
205
158
127
151
113
77
4
4
3
4
4
1
1
4
0
0
4
1
1
4
3
4
3
4
4
4
3
2
4
1
4
4
0
4
4
0
5
4
0
7
4
0
4
4
0
1
3
0
4
3
1
5
4
4
4
2
3
3
0
0
1
1
0
3
3
1
4
5
4
4
6
6
4
5
5
5
4
4
6
4
4
5
4
3
4
4
1
4
4
3
3
4
3
3
4
4
3
4
3
2
3
3
1
1
3
2
3
3
2
4
4
6
5
4
5
8
4
4
7
4
5
5
3
2
5
1
4
5
0
7
5
0
4
4
1
3
4
4
5
5
3
5
4
0
4
5
0
5
7
0
7
9
1
9
11
3
11
12
4
12
11
3
12
10
1
12
11
1
12
13
4
12
14
6
13
14
5
15
15
4
15
16
4
12
15
2
9
13
2
7
11
2
5
9
0
5
8
1
8
8
1
10
8
1
11
8
3
11
7
4
8
5
2
5
5
2
5
7
3
7
7
5
7
5
4
5
5
2
4
7
4
3
7
4
3
5
4
4
4
4
4
4
4
2
4
4
3
4
4
4
5
4
1
7
4
0
5
4
91
76
54
255
255
255
255
255
255
50
28
9
4
7
0
7
3
0
8
0
0
4
4
0
8
3
0
14
1
0
7
2
0
12
2
0
6
1
0
0
2
0
6
10
0
2
6
0
18
5
0
255
223
115
255
255
255
255
255
255
44
29
22
7
8
0
7
10
0
5
10
0
7
9
0
5
8
0
5
7
3
5
5
4
3
5
4
5
5
4
7
5
3
4
7
3
4
7
1
5
9
3
7
11
4
9
13
3
10
13
1
16
11
5
231
161
87
255
255
255
255
255
255
255
248
210
40
34
20
39
35
24
55
65
15
66
94
30
30
75
6
195
12
48
255
255
159
255
255
255
255
255
255
255
255
171
45
45
41
134
100
48
255
255
211
255
255
255
255
255
210
255
255
171
255
255
255
255
255
255
255
255
232
147
134
106
28
32
34
5
8
10
8
10
8
7
5
5
7
5
1
5
4
0
3
2
1
1
7
4
3
11
7
4
12
8
4
12
9
4
13
10
8
9
6
13
9
5
8
15
6
4
15
7
1
12
10
0
15
9
0
17
15
1
14
13
15
4
29
21
27
41
14
50
31
0
35
21
0
15
17
0
5
18
0
7
22
0
10
24
0
11
24
0
7
20
0
7
14
0
9
20
0
7
29
0
8
32
0
8
28
0
3
10
0
1
12
0
3
17
0
5
26
0
3
25
0
4
21
0
11
17
0
15
21
0
17
23
0
18
19
0
25
36
0
36
56
0
46
62
0
49
58
0
54
51
0
59
34
0
62
16
0
58
7
0
54
9
0
52
12
0
53
15
0
53
20
0
53
21
1
53
22
4
49
23
7
42
17
8
32
9
8
21
7
7
18
5
6
20
3
7
20
2
8
20
2
14
25
1
16
27
9
17
27
4
18
26
4
21
25
4
18
21
3
8
18
4
6
14
6
8
11
5
6
10
4
7
10
2
5
9
4
4
8
1
5
7
2
5
5
4
7
4
1
8
5
4
4
8
3
4
5
0
7
5
1
7
8
2
5
7
5
6
6
4
9
4
1
10
4
3
8
4
4
5
1
4
6
3
3
7
5
1
8
8
3
5
9
4
4
7
4
5
7
3
255
255
255
255
255
255
9
7
4
10
10
3
10
8
4
10
7
4
10
7
0
12
7
3
12
5
4
11
4
4
9
4
4
8
3
4
11
4
5
11
4
4
13
3
3
12
1
1
10
0
3
8
1
4
8
4
1
10
5
1
8
5
4
10
5
4
8
8
3
7
8
1
7
5
3
9
5
7
11
5
5
8
4
1
8
4
1
8
5
2
5
5
2
7
5
2
10
7
1
11
8
0
10
10
3
11
10
4
10
8
1
8
7
0
7
5
2
7
5
1
8
4
2
8
4
3
6
2
2
7
3
1
8
5
3
7
4
4
7
2
3
8
5
1
10
8
4
8
5
4
9
5
2
11
7
3
11
8
3
11
8
6
9
9
5
33
28
16
78
64
41
121
100
73
133
109
86
105
84
67
72
55
41
56
44
30
43
36
23
31
31
20
24
27
19
20
19
15
17
13
9
15
11
8
85
67
56
169
127
97
200
144
104
185
132
94
135
95
69
117
82
65
104
73
59
89
63
50
104
83
80
255
255
255
255
255
216
131
77
42
255
255
255
255
255
255
81
64
35
9
9
9
7
8
7
5
7
6
5
5
7
7
4
7
8
5
5
9
6
4
10
6
3
10
7
2
10
8
2
9
7
1
8
5
2
8
4
0
9
5
1
11
6
2
12
6
1
13
6
0
12
6
2
12
7
3
9
8
2
9
8
3
11
8
0
11
8
0
9
7
0
8
7
0
8
7
0
8
8
1
8
9
2
7
11
1
7
11
1
7
9
2
9
9
2
11
11
3
11
11
4
10
10
4
10
10
4
10
9
4
11
8
4
13
9
4
14
10
4
13
9
3
12
8
2
14
8
3
17
7
4
16
5
3
13
4
2
12
4
3
12
4
3
12
4
1
11
4
1
9
3
2
8
1
2
9
1
2
11
3
1
12
4
0
12
4
0
12
4
0
11
4
1
11
5
3
13
7
4
13
8
4
13
9
3
14
10
2
13
9
2
12
8
2
11
8
2
10
8
0
193
152
133
198
141
96
196
155
131
200
144
96
4
6
5
5
4
4
3
1
2
0
3
4
0
4
4
1
4
4
4
3
4
4
2
4
2
3
4
4
4
4
7
4
4
7
2
4
5
3
4
4
4
4
4
5
4
5
5
4
5
4
1
4
4
1
4
4
2
4
4
2
5
4
2
8
4
3
10
5
3
9
6
2
8
5
1
8
5
1
8
7
2
8
8
3
8
8
3
9
8
3
10
8
4
9
8
5
7
8
7
5
8
7
4
7
5
7
6
4
5
7
4
5
8
4
8
8
4
5
8
4
5
9
4
10
11
4
10
11
3
9
8
3
9
7
2
11
7
0
12
9
0
12
11
0
12
12
0
12
12
2
11
11
3
9
9
3
8
8
4
7
8
3
5
7
1
4
6
1
5
6
2
6
6
1
5
7
1
7
8
3
7
8
4
5
9
4
4
10
3
2
9
2
4
7
3
4
7
5
3
6
6
2
4
5
2
2
4
4
3
3
3
4
2
5
4
4
7
4
3
5
4
2
1
4
3
3
4
3
4
4
1
3
4
1
3
5
3
2
7
4
2
7
5
4
5
6
3
5
5
0
7
3
185
145
99
255
255
255
255
255
255
7
8
0
3
7
0
13
2
0
5
2
0
7
4
0
5
2
0
12
2
0
5
2
0
10
3
0
4
4
0
7
3
0
8
9
0
10
6
0
25
4
0
255
255
221
255
255
255
255
222
157
4
6
2
5
8
0
8
8
1
7
8
3
8
9
3
8
10
1
9
10
1
11
11
3
11
12
4
11
12
4
8
12
4
7
12
3
7
13
1
7
14
2
8
13
0
8
11
1
7
10
2
7
10
2
14
9
6
220
151
80
255
255
255
255
255
255
255
255
227
73
15
32
77
51
38
131
109
50
144
140
64
8
87
10
169
4
42
255
253
143
255
255
255
255
255
255
255
255
206
86
73
60
93
68
27
255
255
182
255
255
255
255
255
255
255
175
56
255
255
255
255
255
255
255
255
255
255
255
255
223
203
159
72
74
70
12
17
23
12
10
6
11
9
5
8
6
7
5
3
7
3
3
5
2
4
5
5
8
6
8
14
5
10
8
5
10
7
6
6
13
5
2
14
4
0
13
7
1
17
15
52
34
49
219
202
126
255
255
236
255
255
231
164
219
134
1
27
10
0
29
2
0
27
7
0
22
7
0
17
8
0
15
7
0
12
8
0
10
14
0
10
13
0
6
18
0
6
29
0
11
44
0
12
58
0
14
74
0
19
102
0
27
137
0
34
166
0
37
184
0
44
206
0
55
230
0
63
245
0
70
255
0
76
255
0
82
255
0
90
255
0
93
246
0
88
217
0
82
179
0
80
130
0
75
82
0
67
36
0
59
7
0
50
13
0
41
15
0
33
13
0
24
11
0
17
10
1
19
8
5
36
5
12
50
5
17
52
7
21
47
9
21
39
7
22
34
7
21
31
6
18
28
5
14
24
2
11
20
5
11
15
8
7
14
7
2
12
7
7
8
4
8
7
4
5
8
5
8
8
3
4
7
4
4
7
3
7
8
4
5
8
5
5
8
7
7
10
7
5
11
5
4
8
4
7
8
4
8
9
4
5
7
4
7
4
3
10
4
0
9
4
0
8
4
0
4
3
0
5
5
1
8
7
3
8
7
4
4
7
3
4
5
0
7
5
1
255
255
255
255
255
255
5
2
3
5
5
4
7
7
4
7
5
4
9
5
1
10
7
1
10
5
4
9
2
4
7
3
3
7
4
4
9
5
5
10
4
4
10
4
4
11
4
4
11
1
2
8
0
4
7
1
4
7
4
1
5
5
1
7
4
3
5
5
4
4
7
3
5
5
2
7
5
5
9
6
5
9
4
4
10
5
3
9
7
3
8
7
4
7
6
2
6
5
0
7
5
0
8
8
4
10
10
4
12
10
1
11
10
2
10
7
1
8
5
0
8
4
2
9
5
4
5
4
2
4
3
0
5
4
0
5
4
3
7
4
4
7
4
3
8
7
2
11
6
4
11
5
4
9
4
3
8
5
4
11
7
5
14
11
8
144
99
69
255
223
160
255
255
220
255
255
243
255
255
255
255
255
250
255
255
226
255
255
211
255
255
206
255
255
205
255
255
196
255
255
188
255
255
187
255
253
182
255
251
162
255
236
143
255
255
162
255
244
155
255
209
137
255
179
123
255
164
120
247
152
115
255
255
219
255
255
182
156
108
88
255
255
205
255
255
244
225
148
115
204
134
110
185
123
103
165
109
92
149
97
82
135
89
75
121
83
68
109
75
61
97
65
55
84
58
50
74
54
46
65
48
41
56
40
36
47
33
32
36
28
27
25
23
21
18
17
15
14
12
9
12
8
3
13
6
1
12
7
0
11
8
2
10
8
1
11
7
0
13
6
0
14
8
0
13
10
0
11
9
0
9
8
0
8
8
0
8
8
0
8
8
0
8
8
0
8
8
0
8
8
0
8
8
1
8
8
3
9
8
4
11
7
4
12
6
4
12
8
4
11
10
4
10
9
4
11
9
4
12
10
3
13
9
2
15
9
3
16
11
4
15
11
4
13
9
4
12
8
4
11
7
4
9
5
4
8
4
4
8
4
4
8
5
3
8
6
1
7
4
0
5
2
0
4
3
0
4
4
0
5
4
1
5
5
3
7
7
4
8
7
4
8
5
4
8
4
4
8
4
4
205
161
140
194
139
96
209
164
134
201
143
94
5
5
5
7
4
5
5
4
4
4
5
4
3
6
1
1
5
0
1
4
1
4
4
3
3
4
4
1
5
4
5
7
4
7
5
4
5
4
4
7
5
4
7
7
3
7
7
1
8
7
0
8
8
2
8
8
0
8
8
1
9
7
3
10
6
4
9
7
1
8
8
0
8
7
1
8
5
2
8
5
1
8
6
1
9
5
4
10
4
3
9
5
1
8
7
3
9
8
4
10
8
4
9
7
4
10
5
4
8
5
3
6
7
2
8
9
3
8
10
4
9
10
4
11
11
4
12
11
2
12
11
1
9
11
3
9
12
0
11
11
0
12
9
0
12
8
0
11
8
1
10
8
4
8
8
3
8
8
1
7
8
1
5
7
2
4
6
3
3
6
0
3
5
1
3
4
2
4
5
2
5
7
3
5
9
3
5
11
2
4
11
3
4
10
3
4
10
1
2
8
2
4
6
0
4
6
2
1
5
0
1
4
2
4
4
4
5
4
1
2
4
3
0
4
4
3
5
4
4
6
4
2
5
4
2
4
4
3
4
4
3
4
4
4
4
4
3
4
4
0
5
4
255
247
169
255
255
255
255
255
212
3
7
0
5
5
0
15
3
0
2
0
0
9
4
0
2
5
0
10
1
0
6
2
0
7
1
0
8
1
0
14
3
0
3
9
0
17
6
0
134
80
39
255
255
255
255
255
255
131
88
66
4
4
0
2
5
0
5
7
3
7
7
4
7
6
4
7
7
3
9
9
0
10
10
0
10
10
0
12
8
0
9
9
0
7
11
0
7
11
1
5
9
3
4
9
4
4
11
3
5
12
1
10
12
4
11
12
3
9
5
5
202
137
79
255
255
255
255
255
255
255
255
235
51
43
22
80
55
36
140
117
55
160
151
74
16
94
21
135
24
32
255
188
116
255
255
255
255
255
255
255
255
243
157
132
93
52
31
14
255
255
166
255
255
255
255
255
255
125
129
114
255
255
125
255
255
255
255
255
255
255
255
255
255
255
255
255
255
255
255
253
167
137
142
97
51
68
53
11
24
23
4
7
7
7
7
6
8
10
4
8
11
1
6
6
4
8
7
7
7
14
9
8
11
17
79
68
56
255
241
148
255
255
255
255
255
255
255
255
255
255
255
255
255
255
255
35
62
42
0
14
5
0
13
6
0
19
8
0
22
38
0
27
78
0
32
121
0
39
165
0
49
213
0
58
255
0
65
255
0
66
255
0
64
255
0
68
255
0
75
255
0
79
255
0
80
255
0
80
255
0
80
255
0
80
255
0
79
255
0
73
255
0
58
255
0
39
184
0
26
126
0
18
79
0
19
69
0
25
74
0
35
72
0
42
61
0
44
34
0
47
21
0
53
7
0
58
6
0
61
5
1
63
6
4
60
11
8
57
13
14
53
4
17
44
2
17
33
5
14
25
7
12
18
7
12
14
4
10
14
2
8
12
3
5
11
5
6
10
4
10
8
5
7
8
3
2
7
4
8
7
4
8
8
5
4
8
7
8
7
7
4
7
5
4
9
4
9
11
4
7
10
5
5
8
6
5
10
5
6
11
4
5
8
4
7
8
5
8
8
7
8
5
6
10
5
2
10
7
1
7
8
3
7
8
4
5
8
4
5
8
4
8
8
4
7
7
3
4
8
1
5
7
0
7
7
4
255
255
255
255
255
255
3
1
2
3
3
4
5
5
5
4
5
5
4
5
4
5
7
1
5
7
3
5
4
4
5
1
3
4
1
2
6
4
4
7
3
4
4
1
2
6
4
3
8
4
3
6
1
2
6
0
3
6
2
2
4
4
0
6
2
1
4
3
4
1
5
3
4
5
2
4
7
4
5
7
3
8
4
3
9
4
4
10
5
4
8
5
4
7
4
4
4
5
1
4
6
0
5
7
4
5
7
4
5
7
0
7
9
0
10
10
0
8
8
1
8
8
2
11
8
3
7
7
3
4
4
2
4
4
1
5
4
1
7
4
3
7
4
4
7
5
4
8
4
2
8
4
3
7
4
4
7
4
6
9
5
4
11
9
11
167
112
76
255
195
138
155
112
86
119
70
43
255
165
106
255
239
158
255
255
161
255
255
156
255
255
139
255
233
112
255
228
110
255
234
113
255
245
124
255
247
133
255
216
115
255
184
108
255
215
138
255
236
146
255
231
134
255
232
136
255
251
161
255
255
184
255
250
166
255
163
89
43
47
49
255
177
116
255
221
151
255
244
174
255
248
179
255
236
173
255
224
167
255
208
160
255
189
151
255
171
141
245
155
131
231
144
122
222
136
116
214
130
111
208
127
106
204
123
103
201
118
101
203
118
101
209
123
103
215
130
106
221
138
111
221
141
112
204
130
99
168
106
75
120
76
54
79
54
42
55
42
33
34
28
18
16
11
2
11
8
0
12
8
0
11
7
0
10
5
0
10
5
0
9
7
0
8
8
0
7
7
0
7
7
0
6
6
0
6
6
0
7
7
0
7
8
0
5
7
0
5
6
0
7
7
2
8
8
4
7
8
2
6
8
0
7
8
1
8
9
2
8
10
1
8
9
1
7
7
3
6
5
3
7
5
2
8
7
2
8
8
2
7
7
3
5
5
4
5
4
4
5
4
1
5
4
0
3
4
1
2
4
2
4
4
1
3
4
0
2
2
0
3
4
0
4
4
0
5
4
0
6
3
1
211
167
148
183
132
94
216
169
141
191
135
88
5
5
2
8
7
5
8
7
6
7
5
4
5
4
1
4
4
1
3
4
2
4
4
1
4
4
0
1
4
1
3
5
3
5
7
4
7
8
3
8
7
1
8
7
0
5
7
0
5
8
0
7
7
1
8
6
2
8
7
2
8
7
2
7
5
1
6
4
0
7
4
0
7
4
2
7
4
0
7
4
2
8
4
0
8
4
4
7
3
4
7
2
0
6
3
0
6
4
0
7
4
1
8
5
3
10
7
4
11
5
4
9
4
4
8
5
4
8
7
4
8
8
3
7
8
1
7
8
3
8
10
2
10
11
3
9
12
0
8
12
0
8
12
0
7
12
0
7
11
0
8
10
1
10
10
3
8
9
4
7
8
3
7
9
1
7
9
4
5
7
2
5
7
5
4
7
5
4
5
4
5
4
3
7
4
1
7
5
1
7
7
2
7
9
1
7
11
0
7
13
1
5
14
3
4
13
4
4
12
3
5
12
2
7
12
4
7
12
3
5
11
1
3
8
0
2
6
1
4
7
3
4
7
3
3
5
1
3
4
0
4
5
0
4
6
1
2
5
3
14
15
11
255
255
255
255
255
255
255
208
124
5
5
0
7
0
0
10
2
0
4
2
0
5
1
0
2
5
0
11
2
0
9
2
0
4
3
0
8
1
0
18
4
0
7
8
0
21
5
0
255
236
131
255
255
255
255
255
255
31
21
20
8
1
2
8
2
4
9
5
4
11
5
3
13
4
4
15
5
4
15
7
0
13
8
1
13
10
2
16
11
1
18
13
1
21
15
2
22
16
2
21
16
3
21
16
4
22
17
3
22
18
2
23
17
4
23
17
4
22
20
3
12
15
5
179
123
76
255
255
252
255
255
255
255
255
242
13
47
15
73
55
35
131
109
57
255
192
116
213
194
103
14
126
27
255
106
89
255
255
227
255
255
255
255
255
255
251
203
130
14
20
0
255
251
143
255
255
255
255
255
255
255
255
242
9
43
52
255
255
109
255
255
215
255
255
255
255
255
255
255
255
255
255
255
255
255
255
255
255
255
255
255
255
225
239
227
155
155
157
112
93
107
81
51
71
59
62
73
62
177
166
111
255
255
214
255
255
255
255
255
255
255
255
255
255
255
223
204
124
27
255
255
229
255
255
255
60
91
61
0
45
16
0
50
40
0
50
84
0
48
131
0
50
168
0
52
204
0
54
234
0
54
247
0
51
249
0
48
241
0
45
228
0
42
213
0
40
191
0
36
166
0
29
135
0
20
104
0
12
76
0
3
37
0
7
18
0
20
64
0
33
118
0
45
170
0
55
217
0
63
255
0
71
255
0
77
247
0
79
201
0
79
151
0
78
98
0
74
50
0
69
19
0
62
5
0
55
6
0
49
3
2
40
3
5
29
6
7
22
10
9
17
4
9
13
2
8
12
4
6
11
6
8
8
5
8
7
4
6
9
4
8
10
4
4
9
4
4
8
2
10
8
4
8
8
4
2
8
5
8
8
5
8
7
5
4
7
6
8
8
5
5
9
3
5
11
2
10
9
4
7
7
6
4
7
5
5
9
4
7
9
4
7
7
4
7
7
4
8
5
3
8
4
3
8
5
2
8
5
3
7
8
4
5
10
4
6
9
4
7
8
3
8
8
1
5
8
0
4
9
0
7
7
1
5
8
6
255
255
255
255
255
255
5
4
4
5
2
2
7
4
4
5
4
4
2
4
4
4
6
4
5
5
2
5
5
3
7
3
4
4
0
3
7
4
4
8
4
6
4
0
3
7
1
2
7
4
3
5
4
2
6
1
2
6
2
2
4
3
0
6
2
2
4
2
4
0
4
2
3
4
1
4
5
4
5
7
3
5
3
0
5
1
3
8
4
4
8
5
2
7
4
4
7
4
4
7
4
1
7
5
4
5
5
4
4
5
0
4
8
0
7
10
0
7
11
3
8
11
4
11
10
3
11
10
4
10
8
2
8
7
2
7
5
3
7
4
4
7
4
3
5
5
3
4
4
2
5
4
1
5
4
3
5
4
4
8
5
4
2
4
5
108
70
52
255
210
152
255
255
219
255
255
246
255
255
251
255
255
204
255
180
122
112
74
42
32
25
29
81
48
25
86
50
21
91
47
9
96
40
16
99
49
36
68
46
35
27
29
22
58
57
29
152
124
90
232
187
143
255
211
158
255
214
154
255
205
141
229
165
105
137
101
61
101
78
55
199
140
94
255
192
123
255
216
130
255
223
131
255
229
137
255
238
148
255
249
159
255
255
168
255
255
174
255
255
178
255
255
183
255
255
187
255
255
189
255
255
192
255
255
196
255
255
198
255
255
197
255
255
194
255
255
191
255
254
190
255
247
188
255
243
183
255
237
173
255
225
163
255
207
154
255
192
144
251
167
127
183
121
94
113
75
60
54
38
29
20
12
7
12
5
0
12
7
0
12
8
0
11
7
0
9
6
0
9
7
0
10
8
0
9
8
0
8
7
0
8
6
0
7
6
0
5
5
0
5
5
2
6
6
0
5
5
1
4
4
2
4
5
1
4
6
0
3
4
0
2
4
0
4
4
0
4
4
0
5
5
1
6
6
2
5
5
1
4
4
0
5
4
1
5
4
4
5
5
4
5
6
4
4
5
4
5
4
4
7
4
4
7
3
3
5
2
2
4
4
3
4
6
3
4
5
1
4
4
1
219
173
154
173
125
88
225
175
149
180
126
82
7
6
3
8
5
1
7
4
1
4
4
2
5
5
2
4
6
4
4
5
3
4
4
2
4
4
3
4
4
4
5
5
4
7
6
4
7
5
4
7
4
4
8
5
2
7
4
2
7
4
1
8
4
0
8
4
1
8
4
3
7
4
3
5
4
1
4
4
1
4
4
2
5
5
3
7
7
4
8
7
2
8
6
0
7
6
4
7
5
4
7
4
0
5
4
0
4
4
0
5
4
0
7
4
0
7
5
0
8
4
1
8
4
2
8
4
1
8
5
1
8
7
3
8
8
4
8
9
2
9
10
2
11
9
1
12
8
1
12
9
3
11
11
3
8
11
1
7
9
0
6
8
0
7
8
0
8
8
0
9
9
0
10
10
1
9
9
4
8
8
5
8
8
2
5
8
1
5
8
3
7
7
4
8
5
4
8
3
4
9
3
4
11
6
5
12
9
6
13
12
5
14
14
4
13
13
1
12
12
2
11
12
1
10
12
3
10
11
4
9
9
3
8
8
0
7
8
0
5
9
1
5
10
2
5
9
1
4
8
0
5
7
0
5
5
0
4
5
0
68
57
37
255
255
255
255
255
255
131
77
42
8
2
0
7
1
0
2
1
0
4
2
0
3
1
0
3
4
0
11
3
0
11
2
0
3
2
0
9
1
0
14
1
0
6
4
0
28
8
1
255
255
237
255
255
255
255
199
140
16
12
8
14
9
5
15
8
4
16
8
3
17
9
1
19
11
3
19
11
4
17
9
4
17
9
4
19
12
3
20
14
3
21
13
2
23
12
0
25
13
1
26
15
2
25
15
1
23
13
0
20
12
0
16
12
2
13
12
2
11
11
1
11
9
2
0
2
2
159
107
58
255
255
229
255
255
255
255
255
243
41
35
18
255
157
110
255
255
236
255
255
255
255
255
235
87
178
48
205
44
65
255
255
174
255
255
255
255
255
255
255
255
170
31
26
27
255
191
96
255
255
254
255
255
255
255
255
255
255
255
241
206
211
138
123
56
14
255
255
106
255
255
191
255
255
254
255
255
255
255
255
255
255
255
255
255
255
255
255
255
255
255
255
255
255
255
255
255
255
255
255
255
255
255
255
255
255
255
255
255
255
173
38
76
37
255
255
225
255
255
255
255
255
255
255
255
169
51
85
43
0
20
30
0
16
41
0
16
46
0
22
66
0
28
96
0
32
123
0
39
150
0
46
183
0
52
201
0
55
200
0
51
187
0
46
171
0
44
163
0
44
166
0
44
173
0
44
175
0
43
172
0
42
172
0
45
181
0
49
193
0
50
199
0
47
193
0
44
183
0
41
173
0
38
133
0
36
84
0
32
46
0
27
22
0
26
8
0
22
11
0
20
7
0
23
11
0
22
10
0
21
6
1
17
7
5
11
8
8
12
8
8
13
5
8
13
6
8
13
8
7
10
7
8
8
5
8
10
2
7
11
4
8
12
6
4
12
4
5
11
2
10
11
3
7
11
5
3
9
7
8
7
5
7
7
3
4
9
2
8
11
4
7
11
3
7
11
4
9
8
7
6
7
8
5
9
7
7
11
5
7
8
4
7
5
4
7
5
3
8
4
1
8
5
3
7
7
2
7
7
3
7
8
4
4
7
0
6
8
0
9
10
1
7
9
3
4
8
3
5
10
2
7
8
4
4
10
5
255
255
255
255
255
255
7
4
4
7
4
2
7
5
4
7
4
4
4
3
1
2
5
4
4
5
3
6
7
0
7
5
4
5
3
4
7
4
3
8
4
5
7
1
5
8
0
4
8
1
2
8
4
3
8
4
4
7
2
4
5
3
1
7
4
1
5
3
4
6
3
4
6
4
1
7
4
3
8
7
4
7
5
1
5
4
2
7
4
4
8
5
2
7
4
1
8
4
4
8
2
3
9
4
3
7
5
4
7
6
1
8
7
0
8
7
1
8
8
3
8
8
3
10
8
1
12
8
4
13
10
1
9
10
3
8
7
4
8
6
4
8
5
4
7
5
4
6
6
4
7
5
4
7
4
3
6
4
1
7
4
3
7
4
2
5
3
2
35
22
18
104
71
56
216
148
107
255
237
167
255
255
192
255
255
188
255
255
149
235
131
43
83
29
45
59
71
98
114
99
108
100
74
68
43
24
9
15
25
36
27
34
52
53
39
59
53
48
58
76
75
55
131
131
101
162
158
134
157
150
130
139
137
123
126
127
122
130
126
124
159
141
132
199
160
143
232
174
149
247
179
144
248
175
133
255
184
138
255
212
159
255
237
178
255
248
181
255
252
178
255
254
177
255
253
172
255
252
168
255
252
170
255
254
172
255
255
171
255
255
166
255
248
159
255
239
153
255
230
146
255
226
143
255
234
153
255
255
171
255
255
188
255
255
195
255
255
203
255
255
221
255
255
233
255
255
213
255
217
146
124
94
66
53
45
34
31
25
14
13
8
0
11
5
0
10
5
0
11
7
0
12
8
0
12
7
1
10
5
2
7
4
1
7
5
0
8
7
0
7
8
1
5
7
1
4
5
2
4
5
5
5
7
6
6
7
5
5
5
4
4
5
4
4
7
4
4
8
4
4
8
4
4
7
4
4
5
4
5
5
4
7
6
4
7
5
4
7
4
4
7
4
4
7
5
4
7
6
4
5
5
4
5
4
4
7
4
4
8
4
4
7
4
4
5
4
4
4
5
5
230
179
157
164
119
80
235
180
154
170
120
79
5
5
3
7
4
3
8
4
3
8
4
2
8
5
1
7
6
4
7
7
2
7
7
4
6
7
6
6
5
5
5
4
3
4
4
1
4
4
1
5
5
4
8
7
4
8
8
4
8
7
4
8
6
4
8
6
4
8
5
4
7
5
4
5
6
4
4
6
4
4
7
4
5
7
4
6
5
3
6
4
2
6
4
3
5
4
4
5
5
3
7
7
0
7
7
0
7
5
0
8
4
0
8
4
0
8
5
0
9
7
0
11
8
0
12
8
2
12
8
1
12
8
2
14
8
3
17
8
2
17
8
1
17
8
3
18
8
4
16
8
4
13
8
4
13
7
4
12
7
4
11
7
4
10
8
4
8
8
3
9
8
2
10
8
3
10
9
4
10
10
4
11
9
2
10
9
2
9
11
2
8
11
0
8
9
3
8
7
4
8
5
4
8
4
4
9
5
4
11
7
4
13
9
5
14
10
4
13
9
4
11
8
4
9
8
4
8
8
4
8
8
3
8
9
0
8
10
1
8
8
4
7
7
4
7
9
4
7
9
3
7
8
2
7
8
3
8
8
4
169
130
90
255
255
255
255
255
255
23
9
1
2
1
0
3
1
0
3
2
0
3
3
0
3
3
0
3
4
0
8
6
0
13
3
0
1
2
0
16
1
0
11
2
0
7
2
0
140
92
48
255
255
255
255
255
255
111
76
57
14
13
5
12
12
2
11
10
2
9
7
1
8
7
0
8
8
1
8
8
2
8
8
1
8
7
2
8
5
2
9
4
4
5
3
1
4
0
2
4
0
2
5
0
3
4
1
4
5
2
3
6
4
1
6
4
2
6
3
2
4
3
3
7
3
4
8
4
3
3
2
1
134
90
48
255
255
216
255
255
255
255
255
255
255
255
255
255
255
255
255
255
248
255
255
255
255
255
255
146
209
66
131
11
38
255
255
131
255
255
255
255
255
255
255
255
212
101
77
63
131
90
42
255
255
172
255
255
255
255
255
255
255
255
255
255
255
255
255
255
255
255
255
244
255
255
187
75
140
111
153
72
29
255
232
84
255
255
168
255
255
221
255
255
244
255
255
224
255
255
146
217
144
41
134
132
99
255
255
204
255
255
255
255
255
255
255
255
255
255
255
246
255
252
135
107
81
54
15
56
17
0
64
16
0
65
47
0
63
83
0
62
127
0
61
169
0
58
205
0
56
227
0
53
221
0
48
196
0
43
169
0
38
149
0
31
124
0
24
96
0
18
70
0
13
46
0
7
20
0
3
17
0
5
36
0
12
51
0
17
66
0
20
84
0
19
97
0
20
102
0
21
105
0
22
75
0
25
25
0
25
15
0
22
12
0
22
6
0
21
10
0
20
5
0
24
7
0
24
10
0
22
4
0
19
5
5
15
10
9
17
9
8
18
4
7
17
7
8
15
8
8
12
9
8
11
8
8
14
4
7
15
4
8
14
4
5
12
4
7
11
3
10
11
1
5
11
2
4
10
3
8
10
2
6
13
1
5
13
3
7
11
4
7
11
4
9
11
5
8
8
8
6
8
6
7
11
5
5
9
3
5
5
1
7
3
3
7
4
3
8
4
2
8
5
3
5
7
4
5
7
4
8
7
5
5
7
3
7
8
2
10
8
4
7
8
4
7
8
4
8
10
4
7
8
5
7
10
7
255
255
255
255
255
255
7
4
4
5
5
1
7
7
4
7
5
4
5
4
0
4
5
4
4
4
4
5
7
0
7
8
3
8
5
4
10
5
2
11
5
4
11
4
4
12
3
4
14
1
4
14
1
1
14
4
1
14
3
4
11
0
3
10
3
0
10
4
1
9
2
4
8
4
4
8
5
4
10
8
5
8
8
3
8
6
2
8
4
3
8
4
2
8
2
1
8
4
4
8
4
4
11
2
1
8
3
4
8
4
3
8
5
0
8
4
2
8
4
1
8
7
2
7
7
3
5
5
3
10
7
2
11
10
2
12
7
2
12
5
1
10
5
0
10
6
3
8
5
4
7
5
3
7
4
2
5
4
2
5
4
3
6
3
1
5
2
2
5
3
3
7
4
0
5
2
0
24
18
12
90
62
45
222
154
116
255
255
195
255
255
217
255
255
216
255
255
173
255
163
91
75
41
10
42
37
48
37
35
37
21
19
17
43
32
40
72
69
82
82
88
107
59
65
96
35
48
57
43
66
14
50
76
6
57
80
16
66
80
25
67
69
28
55
50
19
55
40
20
70
53
39
75
59
40
59
34
14
31
4
20
11
13
41
15
18
49
18
24
51
9
12
46
45
39
23
107
102
75
151
144
118
176
160
137
194
168
144
207
176
148
221
186
154
239
199
161
255
212
166
255
222
174
255
226
185
255
228
192
255
236
197
255
243
199
255
243
192
255
249
184
255
255
185
255
255
211
255
255
222
255
255
188
255
255
181
255
208
146
127
102
83
43
38
33
14
10
7
9
3
4
9
3
4
10
4
4
10
5
3
8
7
3
8
7
0
8
6
0
7
6
0
7
7
3
6
7
5
6
8
5
6
7
7
5
5
8
4
5
7
3
7
5
4
8
4
4
8
4
3
7
3
2
7
2
3
7
3
4
7
4
5
5
4
7
4
4
7
4
4
7
4
3
5
4
1
4
5
1
4
7
3
5
8
5
7
7
6
8
5
5
8
5
5
8
7
7
8
8
7
240
184
160
156
112
72
244
185
160
163
115
75
5
5
1
6
6
2
9
5
3
9
4
2
9
4
0
10
4
4
8
5
2
7
4
5
5
4
5
4
4
3
3
1
1
0
1
1
1
3
2
3
4
3
5
5
4
7
7
3
8
8
3
7
8
4
5
8
3
4
7
1
4
5
1
5
4
3
7
4
3
8
4
2
8
4
2
7
4
2
5
4
3
4
4
4
5
5
4
7
7
3
8
7
1
8
5
0
8
4
0
7
4
0
7
5
0
7
7
0
9
8
0
11
7
0
13
6
1
14
6
3
13
5
2
13
4
3
15
4
0
16
5
5
15
7
7
13
8
7
12
7
4
10
5
3
12
5
5
12
7
6
10
7
6
11
7
5
10
7
5
7
7
7
6
6
8
7
7
7
8
9
5
10
10
3
10
9
0
9
8
3
8
9
4
9
11
4
10
12
4
9
11
4
8
9
4
9
8
5
11
8
7
12
8
7
12
9
4
9
11
4
8
12
3
8
12
4
8
12
3
8
12
1
7
12
0
7
11
2
8
9
3
10
9
2
10
11
1
10
11
2
10
9
4
11
8
3
12
9
3
255
242
165
255
255
255
255
255
211
10
5
0
8
4
0
4
4
0
7
1
0
4
3
0
2
4
0
3
4
0
5
6
0
12
2
0
4
3
0
19
1
0
9
5
0
12
4
0
255
247
142
255
255
255
255
255
244
28
18
14
8
7
4
5
7
4
6
8
4
5
7
4
4
5
4
3
4
4
2
5
4
4
6
3
3
5
3
4
3
2
7
3
4
4
4
0
1
3
0
3
1
1
4
0
2
3
0
1
5
2
2
5
3
2
7
3
2
7
4
2
5
5
3
7
7
4
8
8
3
7
8
0
4
7
2
121
80
46
255
255
182
255
255
255
255
255
255
255
224
148
155
100
54
255
255
209
255
255
255
255
255
255
216
246
102
52
68
13
255
188
97
255
255
249
255
255
255
255
255
254
192
146
101
1
9
12
121
81
42
255
231
120
255
255
228
255
255
255
255
255
255
255
255
255
255
255
255
255
255
255
255
255
255
255
255
255
255
255
255
255
255
255
255
255
255
255
255
255
255
255
255
255
255
255
255
255
255
255
255
255
255
255
255
255
255
209
227
167
97
59
54
30
2
47
14
0
44
8
0
43
5
0
41
4
0
38
4
0
32
9
0
30
14
0
28
22
0
22
34
0
18
46
0
16
84
0
18
91
0
20
79
0
20
79
0
20
74
0
14
64
0
11
55
0
10
53
0
11
56
0
12
60
0
12
68
0
15
73
0
18
76
0
22
83
0
21
93
0
21
100
0
23
110
0
24
91
0
27
38
0
29
8
0
28
11
0
27
6
0
30
10
0
32
6
0
33
7
0
32
8
0
26
1
1
21
0
7
19
9
12
21
9
10
19
4
7
15
5
8
14
4
8
14
8
8
14
8
8
15
4
7
15
2
8
14
1
8
14
3
10
14
4
8
13
3
4
11
2
5
11
1
7
13
3
6
14
5
7
12
6
7
10
5
7
11
3
10
11
7
8
8
7
7
8
1
7
9
6
4
7
4
5
4
4
8
4
5
8
5
5
8
7
4
7
7
2
4
8
4
5
7
7
8
7
8
8
9
8
10
10
8
10
8
6
8
8
3
8
8
5
7
10
8
7
10
6
9
11
7
255
255
255
255
255
255
13
5
2
10
4
3
12
5
4
13
7
3
12
7
1
10
8
4
8
6
3
8
6
0
8
8
2
8
7
4
8
5
2
10
5
3
10
4
4
10
4
2
11
2
4
15
2
3
17
4
0
17
4
4
17
1
4
13
1
0
11
4
0
9
4
1
7
4
2
7
4
3
8
5
5
7
7
4
8
5
2
12
5
3
12
5
4
9
4
3
8
2
3
9
4
4
12
4
3
10
1
4
8
1
4
7
4
3
7
3
2
6
1
2
8
5
2
7
7
4
5
4
2
7
5
3
8
8
4
8
5
4
10
5
3
8
6
0
8
5
3
9
5
4
7
5
1
7
4
0
7
4
0
7
4
1
7
4
3
7
4
3
7
3
1
8
2
0
7
3
0
5
4
3
4
4
4
17
15
17
106
79
64
214
150
119
255
227
175
255
255
225
255
255
213
255
254
152
128
100
98
91
106
134
50
68
68
10
22
11
33
27
33
84
82
85
132
132
142
151
151
181
137
128
178
111
95
156
97
77
144
87
66
137
70
50
122
62
45
113
70
50
120
80
69
127
80
83
126
86
95
135
103
108
154
108
112
162
99
98
146
77
73
121
52
50
101
63
68
109
56
59
106
43
42
96
36
44
90
21
29
69
15
15
33
44
35
4
57
51
12
66
62
23
79
77
38
93
97
54
104
114
71
101
108
73
86
83
64
70
66
64
50
54
62
31
33
47
137
101
102
255
143
90
255
209
100
255
255
167
255
255
231
255
255
255
255
255
230
217
165
121
56
43
31
8
5
5
5
4
3
7
4
3
7
4
4
8
4
0
8
4
0
9
4
0
10
5
4
8
4
7
5
4
4
4
4
2
7
4
3
5
5
4
3
6
3
2
6
0
3
6
0
4
5
0
4
5
1
4
7
3
4
7
4
4
7
3
5
5
3
5
7
5
7
8
5
5
7
3
5
6
2
6
6
3
5
5
4
5
4
4
6
4
4
7
4
4
7
4
4
7
5
3
248
190
166
149
104
66
252
192
168
156
108
69
8
6
3
5
5
0
4
5
2
5
6
0
4
4
2
7
2
3
7
4
3
5
3
4
5
2
2
4
4
2
4
4
2
3
4
2
1
4
2
0
4
3
1
4
4
3
4
4
4
4
3
4
4
2
4
4
3
4
4
4
5
4
4
7
5
4
7
6
3
5
5
1
4
5
0
5
7
2
6
8
5
6
8
5
7
8
4
7
7
3
7
5
3
7
5
0
8
7
0
7
8
0
7
7
0
7
5
1
8
4
3
7
4
3
6
4
1
7
4
3
8
4
4
7
4
3
6
4
4
6
4
7
5
4
4
5
4
3
8
4
4
8
4
4
8
5
4
9
6
4
7
5
4
8
5
4
12
7
5
11
8
6
9
8
5
8
8
4
9
9
4
11
11
4
12
11
4
12
9
1
12
9
1
13
11
2
14
13
1
14
14
1
15
13
3
16
11
4
15
9
4
13
8
2
13
9
4
12
11
8
10
12
5
10
12
1
10
12
0
10
13
0
10
14
0
10
13
1
10
13
3
11
13
4
11
12
4
10
13
3
11
13
2
12
12
4
28
26
10
255
255
255
255
255
255
255
197
120
11
5
0
12
4
0
5
5
0
11
3
0
1
1
0
4
3
0
5
3
0
8
3
0
10
0
0
7
3
0
18
4
0
5
6
0
28
11
1
255
255
244
255
255
255
255
180
131
9
10
1
11
8
1
8
8
2
8
9
2
8
11
3
7
11
4
5
9
4
4
7
3
4
5
1
4
7
3
4
7
2
5
6
3
5
7
0
4
8
0
5
7
0
5
5
0
5
4
0
7
5
1
8
6
3
10
5
3
10
5
1
10
7
1
11
8
3
12
8
3
12
8
3
11
9
2
6
9
0
32
18
14
95
58
42
105
64
49
57
32
27
8
11
4
100
63
38
255
255
178
255
255
255
255
255
255
255
255
142
21
117
11
208
123
68
255
255
209
255
255
255
255
255
255
255
206
139
53
48
29
8
13
1
15
8
7
75
48
28
158
110
61
255
187
101
255
255
160
255
255
225
255
255
255
255
255
255
255
255
255
255
255
255
255
255
255
255
255
255
255
255
202
255
255
135
255
216
108
218
162
83
108
82
41
22
25
9
0
24
7
0
27
9
0
29
9
0
30
4
0
28
4
0
27
2
0
26
3
0
26
12
0
28
14
0
29
4
0
28
11
0
25
42
0
20
97
0
21
108
0
24
89
0
25
84
0
21
79
0
13
61
0
11
50
0
10
43
0
8
38
0
8
32
0
8
39
0
13
49
0
15
63
0
23
80
0
26
92
0
23
106
0
24
127
0
27
98
0
31
32
0
31
5
0
29
13
0
29
7
0
31
8
0
31
10
0
28
7
0
24
6
0
17
2
4
15
2
10
18
8
12
20
5
8
16
5
7
14
5
10
15
3
10
18
7
10
18
8
10
17
3
9
17
2
11
15
3
11
14
2
9
14
3
7
13
5
7
12
5
8
11
6
8
11
5
8
11
5
8
10
3
8
10
7
9
11
8
11
11
7
10
8
1
9
7
2
10
7
3
8
5
5
10
5
4
11
8
2
11
10
4
11
11
2
10
12
4
8
12
7
10
10
7
11
12
5
11
13
5
11
11
6
11
10
5
9
10
5
7
12
8
7
14
8
9
15
6
9
13
3
255
255
255
255
255
255
16
8
3
15
7
4
14
5
3
15
4
1
17
5
3
17
8
4
15
7
1
14
6
1
14
8
5
13
9
7
10
7
5
10
7
3
11
5
3
11
5
3
9
4
4
9
4
3
11
5
0
12
5
4
14
4
4
13
3
0
10
2
0
10
3
0
10
4
3
7
4
4
8
2
2
8
4
4
6
4
3
7
4
0
10
5
3
8
5
4
7
4
2
6
2
3
9
4
4
10
3
4
7
1
3
7
4
4
7
3
3
5
0
0
8
3
1
8
5
4
5
5
4
4
5
1
3
8
0
1
7
3
5
7
4
7
7
1
7
7
1
9
7
4
8
7
2
9
6
3
10
5
3
9
4
1
8
4
4
8
4
4
8
4
0
8
4
0
9
4
0
10
4
3
9
4
4
7
3
1
5
1
1
4
1
2
11
10
8
78
58
46
238
154
108
255
255
255
255
255
183
56
73
129
116
119
143
80
92
87
29
38
34
9
7
2
52
52
31
90
98
69
113
126
99
112
122
104
94
90
86
79
57
71
58
25
51
42
27
39
67
63
72
101
84
109
112
85
115
89
52
87
48
12
44
10
27
10
10
46
13
27
68
27
39
85
41
25
54
29
64
29
81
113
84
137
131
104
160
147
129
182
180
183
223
204
228
255
197
231
255
175
209
238
154
175
209
129
131
181
103
90
160
93
89
154
108
120
169
130
141
181
132
140
170
124
129
155
130
134
151
78
81
93
57
74
77
79
46
40
255
145
60
255
253
121
255
255
200
255
255
202
255
195
107
70
52
26
10
7
0
8
5
3
8
4
4
9
5
4
10
5
4
10
3
4
10
4
4
11
4
6
7
4
4
5
4
2
7
5
3
7
7
4
8
7
3
7
5
0
5
4
1
4
5
3
4
6
4
4
5
4
4
5
4
4
8
4
5
8
4
6
7
3
7
5
4
7
4
6
8
4
7
7
4
5
5
4
4
4
4
3
3
3
1
4
2
0
3
3
0
4
4
0
255
198
173
143
98
63
255
200
174
148
101
64
8
6
3
5
7
2
4
6
2
5
5
2
4
4
2
7
5
2
8
7
4
8
7
3
10
5
0
8
5
1
8
7
3
8
8
3
7
8
2
5
8
2
4
7
2
4
6
3
4
6
4
5
5
4
6
4
4
6
5
4
7
7
4
8
8
4
7
8
4
5
8
4
4
8
4
5
8
4
7
7
4
8
5
4
8
4
3
7
4
2
7
5
4
7
7
4
8
8
4
9
8
4
10
7
4
9
5
4
8
4
4
7
5
4
5
6
3
4
6
1
4
6
3
4
5
4
4
4
4
4
4
4
5
4
2
7
4
3
8
5
2
8
7
0
9
8
1
13
7
2
12
7
2
12
7
3
12
8
3
12
7
1
12
6
0
12
7
0
12
7
0
12
6
0
13
7
3
14
8
3
13
8
4
12
8
4
12
8
4
12
9
4
11
10
4
9
9
3
8
8
5
9
8
5
12
8
3
13
8
4
12
8
5
12
8
4
12
8
1
12
8
0
13
8
0
14
9
0
13
11
0
12
12
0
12
12
1
10
12
3
11
13
4
12
15
3
89
73
46
255
255
255
255
255
255
117
68
38
12
3
0
9
0
0
5
6
0
11
4
0
5
1
0
7
3
0
12
3
0
15
3
0
5
1
0
13
4
0
17
4
0
3
5
0
151
94
49
255
255
255
255
255
255
94
65
52
13
13
0
14
12
0
11
11
0
10
9
0
11
9
0
11
11
0
10
11
0
10
9
0
10
9
1
10
11
3
10
12
3
10
12
1
10
11
1
11
10
2
12
11
1
12
12
0
11
11
0
9
9
0
8
8
0
10
8
0
10
7
0
10
5
0
12
4
0
12
5
1
11
7
4
13
8
4
12
7
1
10
7
2
8
8
2
9
11
2
12
12
6
12
12
8
11
12
6
60
38
24
255
230
140
255
255
255
255
255
255
255
255
189
79
157
41
151
63
49
255
255
167
255
255
255
255
255
255
255
255
174
87
66
48
8
13
2
7
13
4
8
10
4
9
10
4
7
11
0
7
11
0
6
9
3
4
4
4
14
6
0
23
14
4
24
16
6
15
13
5
8
14
4
8
15
7
8
17
5
10
20
4
11
21
5
8
22
1
4
24
2
1
26
6
0
30
7
0
35
4
0
36
3
0
36
5
0
36
7
0
36
10
0
37
12
0
38
8
0
35
13
0
34
35
0
27
98
0
22
124
0
27
107
0
30
93
0
24
83
0
16
64
0
13
51
0
10
41
0
8
34
0
7
34
0
7
39
0
12
49
0
16
69
0
23
91
0
28
103
0
26
114
0
25
132
0
28
106
0
33
31
0
32
10
0
31
14
0
30
6
0
31
5
0
28
12
0
23
10
0
17
8
1
14
3
7
18
2
10
20
7
9
17
5
8
13
5
7
12
1
8
15
1
8
18
5
8
16
7
8
15
4
8
17
4
10
14
5
10
11
4
7
11
6
7
11
8
9
12
5
8
13
4
8
13
3
9
11
3
10
11
3
11
10
4
11
10
6
11
9
3
11
7
3
11
6
0
10
7
4
8
7
6
10
7
4
11
10
4
11
10
4
11
10
3
10
11
7
10
12
5
11
12
3
11
13
1
11
12
0
11
10
0
9
10
2
7
11
5
7
13
5
9
14
1
9
13
4
7
12
1
255
255
255
255
255
255
10
8
4
11
8
4
10
7
0
8
4
0
10
2
3
13
4
4
14
4
1
12
3
3
12
5
7
14
9
5
15
8
4
14
7
4
14
7
4
13
7
5
12
5
4
9
3
1
10
4
1
13
5
4
14
6
3
14
5
0
12
4
0
12
1
0
14
2
4
10
4
4
8
2
0
10
3
3
7
4
4
5
2
1
7
4
2
5
4
4
4
4
2
4
4
1
5
4
4
7
4
3
7
3
0
7
3
3
7
2
4
7
1
3
7
1
1
8
3
2
5
4
4
5
5
2
5
7
0
3
7
2
2
5
4
4
5
2
4
7
0
5
7
3
7
7
3
9
5
3
10
4
3
9
3
2
8
4
3
8
4
4
8
5
1
8
6
0
9
5
0
10
4
1
10
4
4
10
4
4
9
4
1
8
4
2
29
25
28
151
126
126
255
255
255
255
255
255
255
255
214
100
80
86
94
99
153
124
138
182
106
127
165
78
94
129
38
51
89
10
28
76
23
31
78
35
38
72
35
39
59
32
33
56
24
21
46
26
41
37
97
128
98
112
133
102
105
113
91
90
93
77
68
71
56
52
60
45
55
70
56
72
92
74
74
93
67
53
66
27
42
51
17
38
37
14
44
30
4
72
71
52
136
140
122
184
186
170
210
216
197
219
230
211
224
241
219
219
240
213
189
199
183
143
131
144
121
111
129
114
101
131
109
106
144
116
119
144
106
107
114
68
71
71
96
113
104
102
118
114
85
98
103
67
94
119
157
118
130
255
196
99
255
255
142
255
219
139
124
97
69
27
24
14
11
5
3
11
4
4
9
4
4
8
4
4
8
5
3
11
7
1
10
7
5
9
5
5
8
4
4
8
4
3
8
4
1
8
4
1
8
4
4
7
4
4
5
4
3
4
4
1
3
5
0
2
7
1
3
7
2
4
6
2
5
6
3
4
5
4
4
4
4
5
5
3
5
6
2
3
6
3
2
7
4
4
7
1
4
6
1
5
6
3
255
205
176
135
93
60
255
207
177
139
94
61
8
8
1
8
8
3
5
7
3
5
7
1
6
7
0
7
8
3
7
7
4
8
7
1
10
7
0
11
7
0
11
6
0
10
6
1
10
5
2
9
4
2
9
4
2
10
4
2
9
5
3
8
7
3
8
8
1
8
8
0
8
8
0
9
8
1
11
8
4
12
8
7
12
8
7
12
8
4
12
8
1
11
8
1
8
7
2
7
6
2
7
7
3
7
7
4
5
5
4
5
4
4
7
5
4
8
7
3
7
8
1
7
8
3
7
8
4
8
7
3
7
5
1
5
4
1
4
5
1
5
7
2
6
8
3
5
8
3
5
7
2
7
5
0
9
4
2
12
5
0
12
7
1
12
8
2
12
8
2
12
7
2
10
5
2
11
4
3
12
4
4
11
4
4
10
5
5
11
7
6
11
7
5
9
5
3
9
4
1
10
5
1
9
7
4
7
8
4
6
8
4
6
7
5
7
5
5
8
4
6
11
4
3
12
4
2
12
4
4
12
4
1
12
5
0
12
6
0
12
6
0
12
8
1
13
10
4
12
10
4
11
11
4
9
13
4
205
154
107
255
255
255
255
255
255
20
8
0
7
2
0
4
0
0
5
5
0
9
4
0
2
2
0
4
4
0
14
4
0
16
4
0
3
2
0
14
3
0
14
4
0
4
3
0
255
248
144
255
255
255
255
255
241
19
14
12
10
13
0
12
12
1
10
12
3
8
11
4
8
9
3
9
9
1
11
10
0
12
10
0
12
11
0
12
11
0
12
10
0
12
11
0
12
12
2
11
11
0
10
10
2
10
10
0
9
9
0
9
8
0
10
8
1
10
8
3
10
8
4
10
8
3
8
8
1
10
7
1
10
5
2
10
4
3
11
4
2
11
5
2
8
7
2
8
7
2
8
6
1
8
7
3
8
8
5
8
8
5
35
21
12
255
181
107
255
255
255
255
255
255
255
255
239
135
196
65
100
12
38
255
255
136
255
255
255
255
255
255
255
255
200
118
86
65
11
17
4
7
13
6
8
12
4
8
13
0
11
14
0
12
16
3
10
17
4
10
17
2
11
19
1
11
19
1
10
17
1
8
17
4
10
18
7
11
18
5
10
19
4
10
21
5
9
21
2
7
22
1
3
20
4
0
20
7
0
24
6
0
27
3
0
28
4
0
28
10
0
25
10
0
25
15
0
29
17
0
28
10
0
31
34
0
30
105
0
25
138
0
30
130
0
36
120
0
30
116
0
25
107
0
24
99
0
22
93
0
23
92
0
23
94
0
22
96
0
23
96
0
25
103
0
29
118
0
35
134
0
35
141
0
30
150
0
30
138
0
35
62
0
36
4
0
33
15
0
31
8
0
28
5
0
25
10
0
21
10
0
15
8
3
16
6
8
19
5
9
17
7
8
13
4
8
11
3
8
14
6
9
15
1
9
17
3
8
14
5
7
12
5
8
12
5
11
10
5
8
10
6
5
11
9
7
11
7
8
11
2
7
13
0
8
12
1
10
10
2
9
11
3
11
8
2
9
8
0
10
8
4
11
5
3
11
5
4
8
8
2
8
10
3
11
10
6
11
11
4
11
8
7
9
8
8
7
11
5
8
11
1
9
10
0
10
10
1
11
8
3
9
8
4
8
11
4
10
12
4
11
13
1
11
13
2
10
11
3
10
10
3
255
255
255
255
255
255
5
4
3
7
6
4
7
5
3
5
5
1
6
4
1
7
4
4
8
4
3
7
3
3
8
2
7
10
5
5
10
7
1
8
5
1
8
5
2
10
5
2
10
7
2
8
5
2
7
2
4
8
3
4
11
4
1
13
4
0
12
4
0
12
4
0
15
3
3
13
3
4
10
2
3
10
2
2
10
4
4
10
3
4
8
3
3
5
4
4
4
4
2
5
5
2
5
5
4
4
5
2
5
5
0
7
4
1
7
4
3
8
4
4
7
4
4
7
4
3
7
4
3
8
5
2
8
5
1
7
7
2
5
5
4
4
5
2
4
7
0
5
7
1
6
7
1
5
8
2
5
7
4
7
5
1
7
5
1
7
7
4
7
7
4
5
5
1
4
4
0
5
3
0
5
2
1
5
3
4
5
4
2
28
25
29
206
164
161
255
255
255
255
255
237
181
121
67
231
177
172
255
255
213
255
223
151
202
142
72
176
121
73
213
139
82
202
119
43
144
79
55
97
86
134
101
102
171
82
72
148
45
33
109
44
29
100
65
55
121
131
146
169
101
109
140
39
40
112
36
38
109
48
52
127
36
46
131
25
27
109
7
22
59
41
70
33
45
70
53
5
17
61
33
16
78
32
14
71
54
56
97
104
115
139
93
104
118
25
32
38
55
45
38
76
77
65
89
112
86
85
115
75
28
34
18
24
40
36
51
77
62
67
93
69
67
81
55
45
51
38
18
11
9
64
65
54
111
116
101
120
124
106
91
100
79
76
90
62
73
29
9
255
153
100
255
255
199
255
255
195
111
90
64
7
5
3
5
4
1
5
5
0
7
7
0
9
8
0
12
7
3
12
5
3
12
5
4
12
6
1
11
4
0
9
2
1
8
3
4
8
4
4
8
4
1
8
5
0
7
7
0
5
7
0
4
5
0
3
4
0
2
5
1
4
7
2
4
7
1
4
6
0
5
6
2
7
6
0
7
6
1
6
6
4
7
7
4
8
7
4
8
5
4
255
211
177
124
87
56
255
212
179
128
87
59
8
6
1
10
7
0
8
8
0
8
9
0
7
10
1
7
9
3
7
7
3
8
7
1
8
7
0
9
7
0
11
5
0
12
5
0
13
7
0
15
8
2
16
9
0
16
9
0
16
7
0
16
8
2
16
10
0
15
9
0
12
8
0
9
8
2
9
7
3
11
6
3
11
6
4
9
5
3
8
5
1
7
6
2
7
6
1
5
7
2
6
7
0
5
5
0
4
4
0
4
4
0
4
5
0
4
7
1
4
8
2
5
8
2
7
7
3
9
5
4
10
5
4
9
7
4
8
8
4
7
8
4
5
8
5
4
7
3
5
5
2
7
5
2
7
6
1
7
6
0
7
7
2
9
8
0
10
8
0
11
8
0
11
7
1
11
5
4
10
5
4
11
7
4
11
8
4
10
8
4
10
7
4
9
5
4
9
5
4
10
6
4
10
5
4
10
4
3
9
4
2
7
4
4
7
4
4
7
4
4
8
4
4
8
4
3
9
5
3
10
6
2
9
5
0
9
4
0
10
4
1
10
4
4
12
4
5
14
5
3
13
7
1
17
13
4
255
255
203
255
255
255
255
255
180
8
7
0
5
3
0
2
1
0
7
3
0
8
3
0
6
0
0
7
4
0
12
6
0
13
4
0
2
1
0
14
4
0
10
1
0
15
11
1
255
255
242
255
255
255
249
168
131
8
8
1
8
10
0
11
10
3
9
10
2
5
10
2
4
9
2
2
7
2
3
7
3
5
7
3
7
7
1
7
7
0
7
7
0
7
8
1
7
8
3
5
8
3
5
8
1
5
7
0
5
7
0
4
7
0
5
7
3
5
5
4
5
5
4
8
7
4
7
8
4
7
7
4
8
5
4
7
4
3
7
5
1
9
6
1
8
5
3
7
4
3
7
4
0
7
4
3
8
4
4
7
5
4
5
7
2
17
11
5
201
130
76
255
255
240
255
255
255
255
255
255
192
236
92
56
22
24
255
248
114
255
255
243
255
255
255
255
255
216
141
101
70
15
17
4
10
12
4
8
13
1
10
13
0
11
13
1
8
13
3
8
12
4
8
14
3
8
15
0
7
14
2
4
14
4
5
15
6
8
14
7
7
11
4
7
11
4
9
13
4
8
16
4
4
14
3
0
11
8
0
14
8
0
17
2
0
20
5
0
23
10
0
23
9
0
27
20
0
33
17
0
35
21
0
37
94
0
38
162
0
41
187
0
48
185
0
49
178
0
43
167
0
39
151
0
36
138
0
31
130
0
30
126
0
31
127
0
32
132
0
34
136
0
38
142
0
40
153
0
45
170
0
48
181
0
45
188
0
41
188
0
42
134
0
43
36
0
39
17
0
36
17
0
31
11
0
27
11
0
23
12
0
16
6
4
17
3
8
18
4
8
15
7
8
11
0
9
13
1
9
16
7
10
17
3
10
17
3
8
12
5
7
12
6
10
12
7
12
11
5
7
11
5
5
11
5
7
11
4
8
11
4
8
11
4
9
10
4
11
10
3
11
10
1
11
7
2
10
7
0
11
7
2
12
7
5
9
8
3
8
10
2
11
11
4
11
10
1
10
10
6
11
10
8
8
10
6
8
12
1
11
12
2
11
10
1
11
10
3
11
10
4
10
12
4
11
14
3
12
13
1
10
13
0
10
13
1
11
12
3
13
10
4
255
255
255
255
255
255
4
5
2
6
5
3
5
4
4
4
5
3
4
5
0
6
4
3
5
3
4
4
4
2
4
3
5
5
3
7
7
5
4
5
5
3
2
5
1
5
4
2
7
4
3
6
5
5
4
4
4
5
1
1
5
4
0
5
4
0
7
1
0
7
4
1
10
4
1
11
3
2
11
4
4
8
3
3
8
3
1
11
4
4
11
2
5
8
3
5
7
4
3
7
5
1
7
7
4
5
7
4
4
7
1
5
5
0
4
2
0
5
3
1
8
3
4
7
1
4
7
2
3
8
3
4
8
3
4
8
5
4
10
5
5
8
6
4
8
7
3
7
7
1
5
8
2
4
10
3
4
10
2
5
9
1
5
8
0
7
7
1
7
5
4
5
5
3
4
4
1
5
4
2
5
4
1
5
4
3
7
7
7
151
122
123
255
255
255
255
241
162
179
149
173
255
255
255
255
255
255
255
255
255
255
255
255
255
255
255
255
255
255
255
255
255
255
255
239
255
255
248
255
255
254
255
229
161
146
87
51
50
29
22
76
61
78
85
72
116
166
168
198
222
231
251
246
255
255
244
248
255
229
233
255
212
219
246
207
222
254
210
230
255
194
210
230
173
182
204
165
170
183
164
166
179
151
154
178
148
162
198
181
208
245
223
251
255
208
228
247
154
173
192
137
158
177
144
165
188
118
135
153
59
55
102
54
46
106
75
77
129
96
108
142
105
123
154
117
143
172
115
143
168
120
145
173
115
142
180
108
132
181
123
150
202
164
205
242
142
203
232
152
194
218
255
247
197
255
255
255
236
178
125
8
8
5
7
8
4
7
7
4
8
5
4
8
4
3
9
4
4
11
5
4
12
7
2
12
7
1
12
5
2
12
4
1
13
4
4
14
5
2
13
7
0
12
7
1
8
5
2
7
4
1
7
5
0
8
7
0
8
7
0
8
6
0
8
7
0
8
7
0
9
6
1
11
8
2
11
9
1
9
6
2
8
5
6
8
6
7
8
5
5
255
217
179
114
82
51
255
218
181
118
82
55
9
4
4
12
6
4
13
7
4
14
9
4
13
9
3
12
8
0
12
9
2
12
11
3
12
12
0
12
12
0
13
11
0
15
10
1
17
11
2
18
12
2
16
12
2
14
12
2
15
11
3
16
10
3
16
11
2
16
12
2
15
11
2
11
8
3
7
5
5
6
4
4
5
4
2
4
4
4
4
4
4
5
4
3
8
5
2
10
7
2
10
8
1
11
9
0
12
10
0
11
9
0
9
8
1
8
8
4
9
8
4
10
8
4
9
8
1
8
9
1
9
10
3
10
9
4
9
8
5
7
7
5
7
5
4
7
4
3
8
5
4
8
7
1
7
8
0
7
8
0
7
8
1
7
8
2
7
8
2
8
8
2
11
8
2
12
8
4
12
8
2
13
8
2
14
8
1
13
8
0
12
8
1
12
8
3
12
8
4
12
8
4
12
7
4
10
5
4
8
4
1
9
5
1
11
7
2
11
8
1
9
8
1
9
8
3
11
8
4
13
7
4
14
5
4
13
5
4
12
6
4
12
5
4
13
4
3
14
4
0
14
4
2
69
51
32
255
255
255
255
255
255
211
128
82
8
5
0
4
3
0
4
2
0
5
1
0
7
2
0
3
3
0
5
4
0
10
4
0
10
4
0
4
4
0
15
2
0
4
5
0
137
92
48
255
255
255
255
255
255
95
62
53
10
10
4
10
10
3
9
10
4
11
10
2
10
10
2
7
8
2
4
7
1
1
7
2
1
7
2
4
7
2
5
7
0
7
6
0
7
6
3
5
7
3
5
8
4
5
8
1
5
8
0
5
8
0
4
7
0
4
7
3
4
7
4
4
7
1
7
5
2
8
4
5
7
5
5
7
7
3
8
8
1
7
8
0
7
7
0
7
5
0
7
4
0
7
4
3
7
4
4
8
4
3
8
4
1
7
4
1
6
4
3
3
2
2
137
90
48
255
255
201
255
255
255
255
255
255
255
255
130
17
49
5
246
219
103
255
255
229
255
255
255
255
255
222
147
104
72
14
14
5
3
10
2
4
10
0
8
10
0
8
10
0
8
8
3
8
11
4
8
14
1
8
14
1
5
14
4
5
15
7
8
14
8
5
11
5
8
12
5
11
14
4
8
16
1
4
16
3
0
13
8
0
13
7
0
16
2
0
21
10
0
25
12
0
26
15
0
34
28
0
41
7
0
42
75
0
43
157
0
47
198
0
53
203
0
53
192
0
46
175
0
41
157
0
38
142
0
32
126
0
27
114
0
25
109
0
25
109
0
27
114
0
30
124
0
33
134
0
38
146
0
43
163
0
48
176
0
50
184
0
48
193
0
45
185
0
45
99
0
45
13
0
41
27
0
35
18
0
30
13
0
24
15
0
20
8
4
20
6
8
19
7
9
16
8
8
15
3
10
18
3
11
19
5
9
21
5
10
16
6
9
12
6
8
15
4
11
15
6
10
14
4
7
13
4
8
12
2
9
11
4
9
11
7
10
11
8
11
10
7
11
7
6
11
5
6
11
5
5
11
5
4
11
7
5
11
10
5
9
12
5
10
13
4
9
13
1
8
10
3
9
10
4
11
11
3
10
12
0
13
14
4
14
14
1
14
13
4
14
15
4
13
16
3
13
17
0
13
16
0
11
13
0
10
12
0
13
11
0
13
10
0
11
10
1
255
255
255
255
255
255
5
7
4
7
5
1
7
4
4
5
5
4
4
6
0
5
4
1
5
1
4
6
4
3
4
4
4
2
1
5
5
4
4
7
4
4
3
4
2
4
5
2
7
3
4
5
4
5
5
7
4
7
5
0
5
4
0
2
4
0
4
3
1
6
4
2
5
4
1
8
3
1
11
4
3
10
4
2
10
4
4
13
5
4
14
4
5
10
1
6
8
1
4
8
2
3
8
4
2
8
4
4
5
5
4
7
7
3
7
4
1
8
4
0
10
4
3
11
3
4
11
2
1
10
2
1
10
0
2
8
3
3
10
3
3
12
3
3
8
4
4
5
3
4
5
5
2
6
7
3
5
7
4
5
7
4
6
7
4
5
5
3
5
5
4
7
5
4
8
4
4
8
4
3
9
5
3
11
6
1
40
33
35
255
255
251
255
255
252
163
133
162
255
255
255
255
211
150
128
96
65
139
101
76
210
155
119
255
223
169
255
230
170
255
197
142
248
186
136
255
242
192
255
255
255
255
255
255
255
255
255
255
255
255
255
255
255
255
255
251
255
190
162
115
59
49
68
69
66
113
106
93
108
98
76
97
79
52
100
85
69
119
113
105
142
138
134
139
129
127
113
99
91
102
89
87
103
98
97
101
100
99
114
116
118
165
176
193
229
243
255
223
239
255
118
151
181
78
9
58
216
116
49
255
200
111
255
233
130
255
221
110
220
117
28
84
90
150
141
153
190
177
112
108
255
118
31
255
136
50
255
132
60
254
125
61
207
83
8
228
97
29
255
150
86
255
223
162
255
255
255
255
191
132
8
4
4
7
4
3
7
4
4
5
4
4
4
4
4
5
4
5
7
4
6
9
4
5
11
4
4
12
5
4
12
7
3
12
7
2
12
5
2
13
4
2
15
4
2
17
4
1
16
5
2
15
7
0
14
8
0
15
8
0
16
8
0
16
9
1
15
10
2
13
9
1
12
7
0
12
6
0
10
7
2
11
7
2
12
6
1
12
7
2
255
222
183
109
76
46
255
225
184
112
77
49
10
4
3
11
4
4
13
5
4
15
6
4
17
6
3
18
7
2
16
8
2
14
9
3
15
11
0
16
13
0
15
15
0
13
15
2
12
12
0
11
9
2
9
7
0
8
7
0
8
9
2
8
9
0
8
8
1
8
8
2
9
9
1
12
10
0
12
10
2
12
10
5
12
10
4
12
11
1
13
12
1
15
12
2
16
11
1
16
10
2
16
11
2
16
12
1
16
12
2
15
11
1
14
9
2
15
9
3
16
10
2
15
9
3
12
8
1
9
9
3
9
11
4
11
11
4
11
9
4
10
8
4
11
7
3
12
6
2
11
7
4
9
7
4
9
6
3
11
7
1
12
8
1
12
8
3
12
8
3
12
9
2
12
10
1
12
9
2
12
8
3
11
8
2
10
7
2
11
5
1
13
5
0
15
7
0
16
8
0
15
7
1
14
7
1
13
7
2
12
8
4
12
8
4
12
8
4
12
8
3
13
8
2
15
8
3
15
8
4
14
9
4
15
10
4
15
9
4
14
8
3
15
8
1
15
8
1
13
7
2
12
6
1
198
154
101
255
255
255
255
255
255
65
28
18
2
2
0
6
1
0
4
0
0
4
2
0
7
3
0
5
3
0
5
4
0
5
3
0
5
4
0
7
3
0
15
4
0
1
5
0
255
238
142
255
255
255
255
255
242
18
13
12
8
10
2
11
10
3
10
10
3
10
8
2
11
10
2
10
8
2
8
8
2
5
8
3
3
8
3
2
8
1
3
8
0
5
8
0
8
7
3
7
6
3
7
7
2
7
8
4
7
8
1
7
8
0
7
8
0
8
8
1
8
8
4
7
7
3
7
6
2
8
7
0
10
9
0
8
10
0
10
9
2
9
8
1
7
8
3
7
8
4
7
7
4
7
5
4
8
5
4
8
7
2
10
7
2
8
5
4
7
4
4
7
4
4
4
3
5
87
57
27
255
255
162
255
255
255
255
255
255
255
255
176
22
88
15
227
183
96
255
255
222
255
255
255
255
255
232
161
114
75
14
17
5
2
12
0
5
13
0
10
13
1
10
10
2
8
12
3
8
14
3
8
14
2
7
15
0
7
18
6
8
16
8
4
14
6
8
14
6
11
14
4
8
16
2
5
16
4
0
16
8
0
15
7
0
17
5
0
24
14
0
28
14
0
32
18
0
41
25
0
48
35
0
47
142
0
47
199
0
53
202
0
54
187
0
46
167
0
39
145
0
35
127
0
28
111
0
22
95
0
20
83
0
19
76
0
18
74
0
19
78
0
21
87
0
23
97
0
29
111
0
35
132
0
39
150
0
44
164
0
49
178
0
44
197
0
41
148
0
46
36
0
44
24
0
40
22
0
34
13
0
26
15
0
25
8
4
24
6
8
20
10
11
20
8
9
21
3
9
22
2
12
21
4
8
19
2
10
14
3
12
11
4
11
14
6
10
12
5
7
11
1
7
11
2
10
12
2
10
13
1
8
13
1
11
10
3
11
7
5
8
4
7
10
5
7
11
8
5
11
8
4
10
10
2
11
11
3
12
11
6
10
13
4
8
12
4
9
12
4
11
13
3
11
13
1
11
14
2
12
16
1
12
16
5
12
15
4
12
15
0
13
15
3
13
15
3
12
13
1
11
13
0
13
14
0
14
12
0
13
9
0
12
8
2
255
255
255
255
255
255
8
7
4
8
7
4
7
5
4
8
7
4
8
7
1
8
7
0
8
5
3
10
5
4
7
5
5
3
1
4
4
3
3
7
4
4
5
4
1
4
5
4
5
5
4
7
6
3
7
7
4
7
8
1
7
5
0
4
3
0
5
4
3
7
5
1
7
4
3
8
4
1
10
5
1
8
4
3
8
4
3
10
4
3
14
4
5
13
4
5
10
4
4
8
4
4
7
4
3
8
2
1
8
4
3
9
5
4
11
4
3
11
4
0
10
5
1
11
5
4
11
4
3
10
4
0
10
1
2
9
1
3
11
2
2
13
3
1
13
4
1
10
0
4
11
1
2
11
4
2
10
5
2
7
6
3
5
5
4
4
5
4
5
7
5
7
7
4
8
7
3
9
8
2
11
8
4
13
8
2
94
78
84
255
255
255
208
144
79
255
255
255
255
235
171
34
26
11
45
33
32
20
11
9
44
37
35
23
16
12
5
1
2
8
3
3
10
2
4
6
7
3
66
53
52
255
208
160
255
196
149
255
255
252
255
255
255
255
255
255
255
255
255
255
255
255
255
255
255
255
255
255
255
255
255
255
240
207
198
150
129
84
68
51
13
8
4
17
8
5
17
7
3
24
9
7
35
24
15
49
44
47
147
122
118
255
201
175
255
236
191
255
255
213
255
255
248
255
255
255
255
255
255
255
255
255
255
255
255
255
255
255
255
255
255
255
255
230
156
97
99
255
255
251
255
255
202
255
255
255
255
255
255
255
255
255
255
255
255
255
255
255
255
255
255
255
255
255
255
250
182
163
125
86
8
3
4
8
3
3
7
2
1
5
3
0
5
4
1
6
4
3
6
4
4
7
4
4
8
5
3
8
7
2
9
7
3
10
5
3
9
4
1
10
4
0
15
5
1
19
7
1
20
8
1
20
8
1
20
8
1
20
8
3
20
7
4
20
6
3
20
7
1
20
7
2
20
5
0
20
5
0
20
7
2
20
8
5
19
8
6
17
8
6
255
225
192
103
69
44
255
229
190
108
72
45
13
5
0
12
5
0
11
6
0
9
6
0
9
6
1
11
5
4
12
4
5
12
4
2
12
5
1
12
8
2
12
11
2
12
11
3
12
9
3
12
8
1
13
8
0
14
8
0
13
9
1
12
10
2
12
9
2
12
8
2
12
9
2
14
12
2
17
14
1
17
13
1
16
12
4
16
12
4
16
13
3
16
14
2
15
13
3
14
11
3
13
9
1
11
8
2
11
9
0
13
11
2
14
11
1
13
9
3
12
8
4
12
8
3
13
8
2
12
8
4
12
9
4
12
10
4
12
9
3
12
9
2
12
11
2
12
12
1
11
11
1
9
9
3
9
8
4
11
8
4
12
8
4
12
7
4
12
5
4
12
5
4
11
7
4
9
8
3
8
8
2
7
7
1
7
5
1
7
4
3
9
5
0
10
7
0
9
8
0
10
7
3
13
7
3
13
7
2
15
8
2
15
8
4
13
8
4
13
7
4
14
5
4
13
5
4
11
6
3
9
6
1
9
7
0
12
8
1
15
8
3
15
8
4
13
8
3
13
8
1
29
21
11
255
255
202
255
255
255
255
244
168
86
15
36
24
1
9
8
1
0
1
2
0
3
3
0
7
4
0
4
0
0
10
4
0
12
4
0
9
4
0
7
3
0
11
4
0
14
8
1
255
255
242
255
255
255
251
165
131
7
8
4
7
8
4
9
8
4
9
10
2
8
8
1
8
10
1
8
8
1
10
8
0
8
8
0
5
8
0
4
9
0
3
10
0
2
10
0
5
10
1
7
9
4
9
8
3
10
8
3
10
9
1
8
10
3
6
10
4
7
10
4
8
9
4
8
9
2
8
10
3
7
10
3
8
10
2
8
9
2
10
8
1
11
8
2
8
8
3
8
8
4
8
9
7
8
10
6
10
9
2
11
8
0
13
8
1
12
8
4
10
8
1
9
7
1
7
5
3
7
5
4
48
31
17
255
199
123
255
255
255
255
255
255
255
255
217
66
133
34
209
141
83
255
255
215
255
255
255
255
255
241
166
121
77
12
17
7
2
11
0
7
13
2
11
12
3
9
10
2
8
13
4
8
14
3
8
15
4
7
18
7
8
18
8
5
16
4
8
16
4
9
13
5
8
14
6
7
17
4
0
17
8
0
16
7
0
20
7
0
28
15
0
32
16
0
39
23
0
47
3
0
51
99
0
50
195
0
52
210
0
54
189
0
48
169
0
41
149
0
35
127
0
28
106
0
21
84
0
17
68
0
16
59
0
16
56
0
15
56
0
13
59
0
14
67
0
16
77
0
23
93
0
29
115
0
36
138
0
42
158
0
50
179
0
47
200
0
41
178
0
46
70
0
49
17
0
44
23
0
36
15
0
30
18
0
28
12
4
22
6
8
19
10
12
20
10
11
19
4
8
20
2
12
18
3
9
17
0
10
11
2
14
10
3
10
14
7
7
14
4
7
14
3
8
13
2
10
11
2
8
11
2
10
8
2
12
5
4
9
7
2
9
7
1
12
8
2
12
11
3
11
12
3
11
13
3
12
13
3
12
11
2
10
11
6
10
10
7
11
13
4
11
14
1
11
15
0
11
17
1
12
17
4
12
16
2
11
13
2
11
12
4
11
11
3
10
12
3
8
12
2
10
12
0
11
10
0
11
10
0
11
9
0
12
8
1
255
255
255
255
255
255
7
5
2
8
5
4
8
5
4
9
7
4
10
7
3
11
8
0
12
8
2
14
7
4
15
8
5
12
5
4
10
4
4
10
5
5
12
5
4
12
7
5
10
7
5
8
5
2
8
5
4
10
8
3
10
7
0
11
4
0
12
4
3
12
5
2
8
4
3
7
2
1
10
4
2
8
3
1
7
3
3
7
4
4
10
5
2
12
7
4
11
7
3
9
7
4
7
5
3
8
4
2
10
5
1
9
5
4
8
4
4
8
1
0
8
3
0
7
4
4
7
4
4
8
5
0
10
4
1
10
3
3
10
1
4
12
3
4
16
4
1
15
3
3
13
1
3
12
1
3
13
3
3
11
4
0
8
5
0
10
6
1
11
7
4
9
7
4
8
8
1
8
9
1
7
9
4
6
8
2
151
124
131
255
255
255
20
17
54
255
255
255
154
118
77
7
3
6
31
23
23
26
23
26
38
29
25
7
2
2
10
6
0
9
5
0
8
4
2
8
4
2
5
5
10
180
149
121
7
2
11
169
140
115
72
55
39
154
120
87
255
204
157
255
255
249
255
255
255
255
255
255
255
255
255
255
255
255
255
255
255
255
255
255
255
255
255
255
255
255
255
255
255
255
255
255
255
255
255
255
255
255
255
255
255
255
255
255
255
255
255
255
255
255
255
255
255
255
255
188
250
183
132
192
138
98
147
108
72
145
112
81
255
237
193
255
255
255
255
214
148
255
255
255
255
255
200
64
48
35
102
77
53
158
118
86
201
149
111
195
146
105
136
101
65
67
49
29
55
45
30
73
63
45
10
4
3
9
4
4
9
4
4
11
4
4
12
4
4
11
5
3
9
7
2
8
8
3
8
8
4
8
7
3
8
5
1
9
5
1
11
7
2
12
8
2
12
8
2
13
8
1
15
8
0
16
8
2
16
8
2
16
7
2
16
5
0
16
4
1
16
4
2
16
5
1
16
7
0
18
8
0
21
8
2
20
8
0
17
7
2
16
5
0
255
230
202
96
64
43
255
233
198
102
67
43
15
8
1
13
8
3
11
8
3
9
8
1
8
7
0
9
5
2
12
5
0
14
6
1
13
5
2
12
4
2
13
4
2
14
4
1
13
5
2
13
7
0
15
9
0
16
9
0
16
8
0
15
9
0
14
10
1
15
11
2
15
11
1
14
10
1
14
10
3
13
9
3
12
8
1
12
8
0
11
8
3
9
9
2
8
11
3
8
10
0
8
7
0
8
7
1
8
8
2
9
9
1
11
11
0
11
11
0
8
9
0
7
8
0
8
9
3
11
9
4
11
6
1
9
5
0
9
7
0
10
8
0
9
9
1
7
10
2
7
10
2
9
10
2
9
9
2
8
8
3
7
8
3
6
8
1
7
8
1
8
7
2
8
6
2
9
7
3
10
8
3
10
7
2
11
7
2
11
7
3
9
8
0
8
8
0
7
8
0
7
9
3
10
10
3
10
9
2
11
8
4
12
8
1
12
7
0
12
6
1
12
7
2
12
8
2
12
7
3
12
5
4
9
5
4
9
7
4
11
8
4
11
8
4
10
8
4
12
9
4
119
92
62
255
255
255
255
255
255
136
95
61
111
26
49
79
5
35
20
1
8
4
1
0
6
2
0
5
1
0
1
2
0
3
2
0
7
3
0
5
2
0
7
3
0
9
4
0
130
85
48
255
255
255
255
255
255
99
64
57
7
7
2
7
7
2
7
7
1
9
8
2
11
10
1
10
11
2
8
10
1
10
10
0
10
10
0
8
9
0
7
9
0
5
10
0
4
9
0
2
9
0
3
10
1
5
9
3
7
7
3
8
6
1
8
7
3
4
5
3
1
5
4
3
5
3
5
5
1
8
6
0
7
5
2
7
4
0
7
5
0
8
7
0
11
8
2
10
9
4
10
10
4
8
10
3
8
10
2
8
9
2
6
7
2
8
7
2
10
7
4
10
7
1
11
7
0
8
7
0
7
5
0
5
3
0
27
17
10
235
153
87
255
255
254
255
255
255
255
255
253
117
177
59
181
91
63
255
255
206
255
255
255
255
255
254
171
137
89
14
20
8
5
12
1
12
13
4
12
12
3
8
13
4
8
14
4
8
15
6
7
15
7
9
16
7
8
16
2
8
15
2
7
12
6
7
12
8
8
18
5
1
20
7
0
18
8
0
23
8
0
31
16
0
36
20
0
43
27
0
48
30
0
48
137
0
48
193
0
49
184
0
47
158
0
39
139
0
32
120
0
25
95
0
17
73
0
12
53
0
8
39
0
7
33
0
7
32
0
8
34
0
9
41
0
10
50
0
12
62
0
20
83
0
26
106
0
34
128
0
41
149
0
49
175
0
50
197
0
43
197
0
47
114
0
52
7
0
48
21
0
38
17
0
33
18
0
31
15
3
23
9
8
21
8
13
21
8
12
19
7
9
19
4
12
17
3
10
15
1
11
11
1
13
13
2
9
16
3
7
16
5
7
15
5
10
12
3
11
8
2
10
7
4
11
4
3
10
5
5
10
9
1
14
10
3
14
12
3
12
14
4
11
13
4
11
13
2
11
13
2
11
12
4
11
11
4
12
11
4
13
14
4
14
15
3
13
15
1
12
14
2
15
14
4
13
13
0
10
12
3
11
12
3
11
12
4
10
11
5
8
10
3
11
8
1
12
5
0
11
5
0
12
8
1
13
10
3
255
255
255
255
255
255
7
5
3
7
5
4
8
5
4
7
5
4
7
6
4
8
7
0
8
8
2
10
7
3
13
8
4
14
8
4
13
5
4
10
5
4
12
6
3
15
6
5
16
5
7
13
4
3
12
4
3
15
8
4
15
8
1
13
6
0
12
6
1
13
7
1
10
5
1
8
4
2
10
4
2
11
4
1
10
5
4
10
6
4
10
5
0
11
4
4
11
4
4
13
7
4
12
5
1
11
4
2
10
5
3
10
5
3
9
7
4
8
5
1
8
4
0
7
4
4
7
4
4
8
5
0
10
6
0
9
5
0
8
4
1
8
2
4
10
3
3
11
4
1
9
4
2
8
3
2
10
1
4
13
1
2
14
3
2
13
4
1
12
5
1
11
4
4
9
4
3
7
4
0
5
4
3
4
4
2
199
160
162
255
255
255
93
77
108
255
255
255
113
88
55
3
3
2
11
7
10
15
11
11
10
8
5
9
4
0
9
5
0
8
7
0
8
8
2
7
6
3
6
3
4
174
144
127
8
10
4
178
147
127
18
14
8
8
3
3
3
1
1
12
9
7
41
31
23
91
70
53
169
129
97
255
207
160
255
255
247
255
255
255
255
255
255
255
255
255
255
255
255
255
255
255
255
255
255
255
255
255
255
255
246
255
231
172
212
156
111
123
91
60
51
37
18
9
8
2
5
4
1
7
3
1
7
5
4
7
5
5
49
43
37
255
238
214
255
255
255
209
168
174
255
255
255
85
61
30
12
5
3
11
4
2
9
3
2
23
26
23
45
43
38
31
32
29
51
48
39
42
36
26
9
4
0
11
5
1
12
7
3
12
7
4
12
5
4
12
4
3
12
4
2
11
4
3
10
4
4
10
4
4
9
5
2
8
7
3
9
8
4
10
8
4
9
7
4
8
5
4
9
5
4
10
6
4
9
5
5
8
4
6
9
5
6
10
6
5
9
6
2
8
7
0
8
7
0
9
6
0
11
6
1
12
5
2
12
4
2
12
4
2
255
238
208
80
59
39
255
239
205
87
60
39
15
7
3
17
5
4
19
4
4
20
4
2
20
5
3
19
7
4
17
8
3
17
8
1
19
7
1
19
5
2
16
4
1
13
4
2
11
5
2
10
6
0
10
5
1
9
4
2
8
4
1
8
4
1
8
4
2
8
4
1
8
4
0
7
4
3
6
5
3
8
7
4
11
8
4
12
8
4
12
7
4
11
5
1
10
4
4
8
6
0
9
9
0
11
9
1
11
8
3
9
8
4
9
9
3
10
11
1
10
12
0
9
12
0
10
11
1
9
9
4
8
8
4
9
9
4
10
11
3
10
11
1
11
9
2
12
8
0
12
8
0
12
8
1
12
8
3
12
8
4
11
8
3
10
9
1
10
10
0
9
9
0
9
8
0
10
8
1
9
7
3
9
7
5
11
7
6
12
8
5
11
8
3
10
8
1
11
8
0
11
8
1
10
8
4
11
8
3
11
8
3
10
8
2
11
8
0
11
9
0
10
10
0
10
8
3
10
6
4
12
7
4
11
8
4
9
8
4
7
8
4
7
7
4
7
6
5
24
20
15
255
239
154
255
255
255
255
255
203
33
18
20
58
20
24
106
18
46
74
8
31
19
4
8
3
2
0
3
2
0
3
2
0
5
2
0
5
3
0
2
3
0
6
3
0
6
4
0
255
227
138
255
255
255
255
255
245
23
15
17
7
5
0
8
7
0
7
7
0
8
7
1
11
8
3
10
10
2
11
11
4
13
12
4
13
12
3
12
12
1
10
11
0
8
10
0
8
8
1
7
8
3
5
7
3
4
7
1
5
7
0
7
8
1
10
9
4
11
10
4
9
10
3
7
10
1
6
9
1
8
9
2
8
10
2
8
10
3
8
11
3
8
11
1
10
9
3
10
9
5
11
10
4
8
8
2
7
7
1
8
7
2
5
7
4
4
7
2
5
7
2
7
7
4
10
7
3
8
7
2
7
5
3
7
4
4
6
4
4
8
5
5
167
108
59
255
255
218
255
255
255
255
255
255
171
226
89
152
38
42
255
255
192
255
255
255
255
255
255
222
180
118
32
31
22
11
7
4
13
5
4
8
7
7
8
10
9
11
14
8
14
16
8
17
21
12
17
27
17
14
24
20
10
21
17
7
20
12
6
22
11
2
25
13
0
22
11
0
22
12
0
32
17
0
39
21
0
45
23
0
47
51
0
44
147
0
45
181
0
48
174
0
44
147
0
35
131
0
31
115
0
23
94
0
18
73
0
13
53
0
9
39
0
8
29
0
5
26
0
7
31
0
11
44
0
13
54
0
12
60
0
18
78
0
24
102
0
31
122
0
37
139
0
45
160
0
49
180
0
42
194
0
47
143
0
52
31
0
49
22
0
40
19
0
35
18
0
32
13
2
26
12
9
26
8
14
25
7
12
23
6
11
23
5
12
20
4
10
15
2
12
14
1
12
16
3
8
18
1
8
17
0
10
12
3
13
8
2
12
7
2
11
7
4
11
8
5
10
12
1
13
14
2
14
13
1
12
13
0
12
14
4
11
13
3
11
13
4
11
14
2
11
14
2
11
15
0
11
17
2
13
18
1
14
17
2
13
13
2
14
13
1
15
13
4
11
11
2
12
10
3
13
10
4
11
10
3
11
8
3
12
5
0
14
5
2
14
7
0
13
8
0
15
10
3
14
12
4
255
255
255
255
255
255
8
4
4
7
4
4
7
5
4
7
6
3
7
5
4
7
5
1
7
7
1
4
5
3
5
5
4
9
7
3
11
5
3
10
6
4
9
5
1
8
4
4
12
4
7
13
4
4
12
4
4
12
7
5
13
8
4
11
4
1
10
2
0
11
5
2
10
5
1
9
7
3
8
7
4
10
6
4
12
5
4
12
4
3
11
4
1
11
1
4
10
1
4
12
5
4
13
7
2
14
7
2
14
7
4
14
6
2
12
7
3
10
7
2
8
5
0
8
4
3
8
2
4
7
3
3
7
4
2
7
5
2
7
5
1
5
4
3
5
3
4
8
2
1
10
3
0
10
4
1
8
4
4
9
3
4
10
1
3
9
1
3
9
4
0
11
4
3
11
1
4
10
0
3
11
1
2
12
2
3
231
183
183
255
255
255
127
102
133
255
255
255
109
85
53
5
7
3
4
5
0
5
5
0
7
7
0
7
6
0
6
3
0
7
4
0
8
7
1
8
7
4
8
5
3
148
124
117
29
26
18
150
126
114
35
29
17
8
4
4
8
4
3
8
4
1
9
4
0
10
4
0
9
3
0
6
0
0
16
15
12
75
59
45
124
93
70
135
100
73
128
94
70
118
86
65
88
64
46
50
38
24
20
17
8
6
5
3
7
4
4
7
4
4
8
4
4
8
5
3
9
7
0
11
5
1
13
5
2
13
6
2
10
4
2
155
130
128
255
255
255
37
47
78
255
255
255
131
96
52
13
8
4
10
7
4
8
5
4
5
2
2
22
25
21
38
35
29
35
29
24
13
8
5
10
7
0
11
5
0
11
4
0
9
4
0
8
4
0
9
4
1
11
4
2
12
4
1
11
3
0
10
2
3
8
3
3
8
4
4
8
4
4
8
4
4
8
4
4
8
4
4
7
4
4
6
4
4
7
4
4
7
4
4
5
4
4
4
4
3
5
4
3
7
4
0
7
4
0
5
4
1
4
4
2
5
4
1
7
3
2
8
6
5
255
245
210
61
54
33
255
245
210
66
54
34
13
5
3
15
4
4
17
4
4
19
4
1
19
5
2
17
7
2
16
8
2
17
7
1
18
5
2
16
4
2
13
4
2
12
4
1
12
4
2
11
4
0
9
4
2
7
5
1
5
6
3
5
4
4
7
1
4
7
0
4
7
0
2
6
0
4
6
1
2
7
3
3
9
4
4
11
4
4
12
4
3
12
4
2
13
4
4
12
5
4
13
7
4
15
8
4
15
8
4
13
8
4
12
8
4
12
8
4
13
8
4
15
8
3
16
9
2
15
11
1
14
12
2
14
12
3
13
12
3
13
12
2
14
12
1
14
12
2
14
11
2
14
10
2
14
11
1
12
11
0
11
9
2
12
8
2
11
8
0
11
9
0
11
11
1
9
11
4
8
9
4
8
9
4
7
10
4
6
9
4
7
8
4
8
8
4
9
8
2
11
8
2
12
9
2
12
10
3
12
9
3
12
8
1
12
9
0
11
9
0
9
6
0
8
4
3
9
6
4
11
9
1
12
9
1
11
8
4
9
8
5
9
8
7
11
8
8
119
85
55
255
255
223
255
255
255
210
166
126
97
16
35
42
6
21
46
12
21
94
15
39
72
8
29
21
4
8
4
3
0
3
2
0
2
2
0
1
3
0
1
2
0
6
6
0
3
8
0
255
255
231
255
255
255
255
174
138
10
5
7
7
6
3
8
7
1
8
7
0
8
8
0
11
9
3
11
10
2
11
10
1
11
10
0
12
10
2
13
11
2
13
12
0
12
13
0
12
12
2
12
11
2
11
10
2
9
11
2
9
13
1
10
14
2
10
14
0
12
14
3
12
14
4
12
15
4
11
16
3
10
15
2
8
13
4
7
12
4
7
12
4
8
11
4
8
8
4
7
5
6
10
5
4
8
8
3
5
8
2
7
8
3
7
8
4
4
8
4
4
7
3
5
7
0
9
7
2
9
7
5
6
5
3
7
5
3
5
5
3
7
4
1
4
2
1
117
76
36
255
255
184
255
255
255
255
255
255
252
255
129
107
8
10
255
255
164
255
255
255
255
255
255
255
243
160
51
45
36
13
4
6
8
7
10
8
13
11
12
16
8
11
14
7
7
18
10
10
27
10
10
24
4
7
21
5
5
20
5
5
21
6
2
24
9
0
20
4
0
21
10
0
33
16
0
41
18
0
44
20
0
45
51
0
42
142
0
41
171
0
47
165
0
44
143
0
35
129
0
32
116
0
24
98
0
19
81
0
17
70
0
24
82
0
36
102
0
43
116
0
47
124
0
47
128
0
43
127
0
31
110
0
24
97
0
26
107
0
31
126
0
37
140
0
44
156
0
48
178
0
45
202
0
48
155
0
53
37
0
50
19
0
43
20
0
38
21
0
35
16
4
34
16
12
33
8
13
28
5
13
26
6
13
25
3
13
19
2
13
16
2
14
17
2
14
17
3
11
18
0
12
15
2
15
12
1
15
9
0
12
9
3
11
12
2
11
13
2
12
13
3
17
14
3
16
13
2
15
13
3
14
14
4
12
14
1
12
15
4
14
16
2
14
15
0
14
18
2
14
20
2
14
17
1
14
14
2
13
13
0
14
15
3
14
13
4
11
12
2
13
10
3
13
10
3
13
9
1
14
7
1
14
6
2
16
7
1
17
10
0
18
12
0
17
12
4
17
11
3
255
255
255
255
255
255
7
4
4
8
4
5
8
4
4
7
4
1
7
5
4
7
5
4
8
7
1
5
5
0
5
5
4
8
7
4
10
4
1
10
4
5
7
4
3
4
4
2
8
5
5
8
4
4
7
4
4
7
5
5
8
7
5
8
7
4
10
5
3
11
5
2
8
4
3
8
5
3
8
5
2
9
4
3
10
4
3
11
2
2
11
4
4
13
4
4
12
1
4
10
1
4
11
3
3
13
5
5
14
7
5
13
5
4
13
5
3
11
5
1
10
5
0
10
5
1
8
4
3
8
4
4
8
4
3
7
5
1
5
5
2
5
6
1
6
5
4
6
4
4
7
3
1
10
2
0
8
3
1
8
4
2
8
4
2
8
4
4
8
4
3
8
5
2
8
4
3
9
4
4
11
4
4
11
4
4
251
200
198
255
255
255
158
123
154
255
255
255
102
79
48
10
5
5
8
5
4
8
7
4
7
7
3
5
5
1
4
4
0
4
4
0
5
4
0
7
5
3
8
6
4
106
91
93
63
51
36
111
96
90
69
57
34
8
5
1
11
6
3
11
5
4
9
4
4
8
4
4
8
4
4
7
4
3
7
5
2
7
6
3
7
5
4
7
4
4
7
4
4
8
4
4
7
4
4
7
4
4
5
2
4
5
4
4
7
6
4
9
6
4
10
6
3
9
5
1
9
5
0
11
6
2
12
6
3
11
7
2
9
7
1
135
116
119
255
255
255
29
20
47
255
255
255
159
118
70
7
7
1
7
6
2
7
7
2
9
8
3
9
6
3
7
4
2
8
5
4
10
5
3
10
4
2
10
4
2
10
4
1
10
5
0
9
6
0
8
5
0
7
4
0
6
4
0
7
4
1
10
4
3
10
1
3
9
0
1
8
0
0
8
0
0
8
1
0
9
3
1
10
3
2
9
2
1
7
3
0
6
4
1
6
4
2
6
3
2
7
2
4
8
3
4
7
5
4
5
5
3
4
3
2
4
4
3
5
4
4
6
4
4
255
252
211
49
47
29
255
252
214
51
49
32
8
5
1
7
6
3
6
6
3
7
6
2
8
5
3
9
4
3
11
4
1
12
4
1
11
4
2
11
4
1
12
3
1
12
3
2
12
5
1
12
5
0
12
4
1
13
5
2
14
6
1
13
5
1
11
4
2
9
4
3
9
4
1
10
4
4
9
4
1
8
3
0
8
1
0
8
0
0
8
0
0
8
1
1
10
4
3
11
5
4
12
4
4
12
6
3
13
8
1
14
7
0
13
5
1
13
4
3
15
4
4
15
4
4
14
5
4
15
7
3
15
8
2
13
8
4
13
8
4
15
9
1
15
11
0
12
11
0
10
10
0
11
11
1
11
12
3
10
11
4
9
10
3
10
10
1
10
10
0
11
11
0
11
12
2
10
11
4
10
10
2
9
11
0
8
12
0
7
12
0
6
12
1
7
11
4
8
9
4
8
8
4
8
9
4
8
11
3
8
11
1
8
9
1
8
7
3
8
5
4
8
5
4
9
7
3
11
8
3
12
8
2
12
8
3
12
8
5
12
8
5
12
9
4
28
23
14
255
223
136
255
255
237
255
255
196
99
129
129
72
19
17
110
21
43
49
8
20
36
6
15
94
10
38
80
9
32
31
1
11
5
2
0
2
1
0
2
1
0
5
2
0
8
8
0
99
73
36
255
255
255
255
255
255
108
73
63
11
4
8
10
4
7
10
5
5
8
7
4
8
7
3
10
6
2
10
7
3
10
8
4
10
8
4
9
8
3
11
8
1
11
8
0
8
10
0
8
11
1
8
12
3
8
12
3
8
12
0
8
11
2
8
9
2
8
8
3
7
9
4
6
10
3
6
10
1
7
10
2
10
10
5
10
11
4
8
11
1
7
9
1
7
8
3
8
9
3
7
5
4
8
4
4
8
5
0
5
7
2
7
7
1
7
7
0
4
7
1
2
5
3
4
5
4
10
7
4
10
8
5
6
7
3
5
7
2
5
7
0
8
5
0
7
4
0
5
4
2
70
48
23
255
246
148
255
255
255
255
255
255
255
255
171
36
49
26
255
255
111
255
255
255
255
255
255
255
255
172
70
60
35
20
18
7
21
23
9
24
29
9
27
33
6
28
38
8
28
46
14
27
53
16
24
54
15
19
51
10
14
49
5
7
50
9
1
47
9
0
42
11
0
43
16
0
46
16
0
49
21
0
49
45
0
45
147
0
43
176
0
47
163
0
45
152
0
39
145
0
36
136
0
29
124
0
30
123
0
42
145
0
57
163
0
57
152
0
49
129
0
46
119
0
48
127
0
57
157
0
61
186
0
51
177
0
37
148
0
36
147
0
41
156
0
47
169
0
51
196
0
48
216
0
51
140
0
56
22
0
51
23
0
43
19
0
40
20
0
39
18
7
35
16
13
30
11
13
25
6
16
24
3
14
20
2
13
17
1
13
18
4
13
17
1
13
15
3
12
14
4
14
12
1
14
12
1
12
12
3
11
12
5
12
13
5
14
13
5
17
13
2
19
14
2
17
14
4
14
16
3
12
17
1
12
17
1
14
17
3
15
17
2
14
17
0
14
16
1
15
15
3
16
13
4
14
13
4
13
13
4
14
12
4
14
10
3
13
10
2
14
10
2
14
10
3
16
9
2
17
9
0
19
12
0
21
14
0
22
13
0
21
14
0
20
15
4
21
17
2
255
255
255
255
255
255
7
4
4
7
4
7
7
3
5
5
1
1
7
4
1
7
5
4
8
7
4
8
7
3
7
8
4
7
9
4
7
5
1
8
4
6
7
4
4
5
2
1
8
4
4
8
4
3
7
2
1
7
4
4
7
5
4
7
5
3
8
7
4
11
7
3
10
4
3
10
5
4
10
5
3
9
2
1
8
4
0
11
4
3
10
2
4
12
4
1
13
4
4
12
3
4
11
1
2
9
1
3
8
4
2
8
5
1
10
7
0
12
7
0
12
7
0
11
7
0
10
7
1
9
7
2
8
5
2
8
5
2
7
4
1
6
4
0
5
4
1
4
3
4
4
4
4
7
2
1
7
2
0
9
2
0
10
3
1
9
4
3
8
4
4
7
5
4
7
7
1
7
8
1
8
7
3
7
5
4
255
218
210
255
255
255
192
153
174
255
255
255
88
68
40
12
3
5
12
3
4
11
4
4
9
4
4
7
5
4
5
5
4
4
6
4
5
4
3
7
2
3
8
3
6
58
56
61
106
85
58
68
63
62
113
91
60
7
7
0
5
5
1
5
4
3
6
4
4
6
4
4
7
5
4
8
6
4
8
5
4
8
4
4
8
4
4
8
4
3
8
4
1
8
4
2
7
3
1
8
4
0
7
3
0
9
4
0
10
4
0
9
4
0
8
4
0
8
4
0
8
5
0
7
6
1
5
5
4
5
4
4
7
4
1
141
120
124
255
255
255
32
10
38
255
255
255
175
129
82
5
7
0
7
6
0
8
7
0
8
8
0
9
8
0
11
7
1
11
5
3
10
4
4
10
5
4
9
7
4
9
8
4
10
7
3
9
5
1
8
4
0
8
4
1
7
4
3
6
5
4
8
7
4
10
5
4
9
4
3
8
4
1
8
4
1
7
3
2
6
1
1
8
1
0
10
2
0
10
1
0
7
1
0
9
3
0
10
4
1
10
4
3
9
4
4
9
4
4
10
4
3
9
4
2
8
5
3
8
6
3
7
5
1
255
255
218
38
41
29
255
255
221
38
43
30
6
3
4
5
4
4
4
4
3
4
4
2
5
4
3
7
4
4
8
4
4
8
5
4
8
7
4
10
7
4
11
5
3
13
5
1
14
6
0
13
5
1
13
4
2
16
4
2
19
4
3
19
5
4
16
7
4
13
7
3
12
6
3
11
6
4
9
5
0
8
4
0
8
4
0
8
4
0
7
4
0
7
4
1
7
4
2
8
4
1
7
4
0
5
4
0
5
4
0
7
4
0
8
4
0
8
2
0
8
4
0
8
7
1
8
7
2
9
5
2
10
4
3
10
4
4
11
4
1
11
4
0
10
4
0
12
5
0
11
7
0
9
5
0
8
4
0
10
5
0
7
7
0
6
8
0
7
8
0
7
8
0
7
8
1
7
8
4
8
8
2
8
9
2
9
11
1
10
12
0
9
12
0
8
11
1
7
9
2
5
7
2
4
5
3
5
6
4
5
10
4
5
10
4
6
7
4
7
5
4
7
7
5
8
8
7
7
7
7
7
6
5
9
7
4
10
9
6
11
10
4
11
9
2
115
88
57
255
255
232
255
255
214
191
113
68
118
131
132
45
69
80
90
15
25
107
17
38
55
10
23
28
5
8
90
11
37
89
7
38
36
2
15
3
1
1
3
1
0
7
4
0
7
7
0
247
167
93
255
255
255
255
255
255
28
18
22
13
7
5
12
6
4
11
7
4
10
7
4
10
5
4
10
4
3
8
5
0
8
6
0
10
7
0
9
7
0
10
8
0
11
7
0
8
7
0
8
7
0
8
9
0
8
10
0
8
9
2
7
8
2
7
8
1
8
8
3
8
9
4
7
10
4
5
9
4
2
8
3
5
9
5
8
11
4
8
11
0
8
9
0
7
9
0
7
13
0
7
12
1
8
11
4
9
8
4
10
6
4
11
7
4
10
9
3
10
10
2
9
10
3
8
10
4
12
10
3
14
12
3
15
14
1
16
14
3
17
15
4
17
15
3
17
12
1
17
10
3
18
11
2
32
23
14
255
186
111
255
255
255
255
255
255
255
255
197
28
87
56
255
207
75
255
255
255
255
255
255
255
255
162
56
47
21
22
22
8
21
25
10
20
26
8
17
23
6
14
21
7
14
22
5
15
26
6
16
28
12
16
30
8
14
34
5
7
38
12
1
45
10
0
51
13
0
52
18
0
60
22
0
63
31
0
58
140
0
54
191
0
53
180
0
50
166
0
43
154
0
36
138
0
30
132
0
45
162
0
62
181
0
51
137
0
26
74
0
10
32
0
5
19
0
7
27
0
23
64
0
51
147
0
73
233
0
64
235
0
47
197
0
47
185
0
51
187
0
52
202
0
48
210
0
53
119
0
56
7
0
50
30
0
43
18
0
42
19
1
42
16
9
33
11
15
30
15
16
27
10
17
22
0
14
19
3
11
19
6
13
18
7
13
14
1
13
12
1
14
11
4
12
11
4
12
11
3
12
12
2
12
14
3
15
13
3
17
14
4
18
16
5
18
17
3
15
17
2
14
17
4
14
17
4
14
17
4
16
18
3
15
18
1
14
15
0
14
15
0
15
14
0
14
13
1
13
13
3
14
12
3
16
10
1
16
10
0
16
9
3
17
8
3
17
8
4
17
9
1
17
11
0
18
13
0
18
13
0
17
14
0
17
16
0
18
17
3
17
20
2
255
255
255
255
255
255
8
4
1
8
4
5
7
4
7
4
2
4
5
3
3
7
5
2
7
4
3
7
4
4
5
5
5
5
7
3
5
8
2
8
7
5
8
5
5
8
4
2
8
4
3
8
5
4
7
3
1
7
1
3
8
4
4
8
4
1
7
4
4
7
5
4
7
4
1
8
5
3
8
8
4
7
5
3
7
4
0
9
5
3
8
4
4
8
4
1
10
4
4
8
4
4
8
4
1
7
3
4
8
2
3
7
3
0
8
5
0
10
5
0
11
5
0
10
7
1
10
5
4
10
4
4
8
5
3
10
5
1
8
4
0
8
4
0
8
4
0
8
1
1
8
3
4
8
3
3
8
4
0
7
4
0
7
4
0
7
3
0
7
2
1
7
3
4
7
4
4
8
4
1
7
4
0
7
4
3
255
237
226
255
255
255
232
186
198
255
255
255
71
56
31
8
0
4
11
2
4
11
1
3
9
1
2
9
4
3
11
5
4
11
6
3
9
5
2
8
5
3
7
5
3
22
26
33
145
120
86
36
35
40
150
122
91
5
5
3
4
4
1
5
5
0
7
7
0
8
7
0
7
5
0
7
4
1
7
4
2
7
4
1
7
5
3
7
7
4
8
8
3
8
8
2
8
7
2
10
7
1
11
6
0
12
5
0
11
4
0
9
3
0
8
2
0
8
3
0
8
4
0
8
4
0
7
4
1
6
3
4
7
3
2
144
124
128
255
255
255
44
18
32
255
255
255
192
141
93
9
7
0
7
5
0
6
3
0
7
4
0
8
6
0
9
5
0
10
5
0
10
7
2
10
8
4
10
8
3
10
8
3
10
7
4
11
7
4
12
9
4
12
9
4
12
7
4
12
5
3
11
5
2
10
7
3
11
8
4
12
8
4
11
8
4
9
7
4
8
5
4
8
4
4
9
4
4
13
4
3
11
4
2
10
4
2
11
5
1
12
6
0
11
5
0
10
4
0
10
4
1
9
4
2
8
4
1
8
4
0
9
4
1
255
255
229
27
37
26
255
255
230
23
38
26
7
4
4
7
4
4
6
4
4
6
4
4
6
4
3
5
4
2
4
4
2
4
4
1
5
4
1
7
4
3
9
5
4
11
6
3
13
5
0
15
5
2
13
7
1
12
7
4
13
5
4
14
4
3
14
4
1
13
4
0
9
4
3
9
4
4
11
4
1
11
5
0
9
6
0
8
5
0
7
5
1
7
6
4
7
5
4
7
4
4
5
3
1
4
1
1
4
0
2
4
1
1
4
4
0
4
4
1
4
4
2
5
4
1
7
4
1
8
4
4
8
4
5
8
4
2
7
3
0
6
2
1
7
2
2
9
2
1
10
4
0
9
4
0
8
4
0
9
4
0
5
3
0
4
2
0
4
4
0
4
6
0
5
5
0
6
5
4
7
7
1
7
8
2
8
8
2
8
8
2
8
8
1
7
8
0
5
8
0
7
8
0
4
7
0
4
7
1
5
7
3
6
10
3
5
10
1
5
8
1
7
8
4
7
8
4
5
8
4
4
8
4
5
9
4
7
11
7
9
12
5
27
28
18
255
222
138
255
255
255
255
233
149
45
28
47
104
113
104
94
107
122
14
12
21
87
13
24
110
15
37
75
11
30
7
3
2
82
5
31
93
7
38
40
4
18
4
3
2
8
4
0
7
5
0
255
196
115
255
255
255
255
255
233
25
17
15
16
10
7
15
9
4
15
8
1
15
8
0
13
8
3
12
8
4
13
8
4
12
7
4
12
7
3
12
7
1
12
7
0
15
7
0
16
9
0
15
9
0
13
8
0
12
9
0
11
10
1
10
10
2
10
11
3
10
11
2
8
9
0
8
9
0
10
10
0
7
10
1
6
10
4
7
9
3
8
9
0
10
11
0
11
13
0
11
15
1
12
16
2
13
17
3
15
18
5
17
17
5
18
16
4
18
15
4
17
13
6
15
12
4
14
12
4
16
13
3
17
14
0
18
14
3
18
15
4
19
16
4
22
16
4
22
15
3
22
14
3
21
15
3
22
15
3
12
9
10
213
141
82
255
255
243
255
255
255
255
255
210
61
105
62
255
195
83
255
255
255
255
255
255
235
181
120
22
18
5
14
13
7
14
17
4
14
18
2
12
17
4
11
17
4
12
20
1
15
24
9
16
29
7
16
34
7
14
37
13
7
44
9
1
55
12
0
60
20
0
66
24
0
75
6
0
80
100
0
80
213
0
79
255
0
77
255
0
73
254
0
62
224
0
53
201
0
68
206
0
55
144
0
17
46
0
1
7
0
0
0
0
0
0
0
0
0
0
1
2
0
15
41
0
58
166
0
79
255
0
59
228
0
50
198
0
55
203
0
55
215
0
52
212
0
59
116
0
58
7
0
52
28
0
47
20
0
47
24
4
43
16
13
35
9
17
34
11
17
29
12
17
24
4
14
22
4
12
20
2
15
15
8
15
14
3
15
14
2
15
14
2
14
14
3
15
14
4
15
13
7
15
13
6
16
15
4
18
17
0
18
17
4
17
17
0
15
17
0
14
17
1
14
17
1
14
16
1
14
14
1
14
13
0
15
13
0
17
15
0
17
13
0
16
12
0
16
11
0
17
10
0
17
10
0
17
10
0
17
10
1
16
10
2
16
10
1
17
11
0
17
12
0
17
13
0
15
14
0
14
15
0
15
17
0
14
17
1
13
14
3
255
255
255
255
255
255
7
7
0
8
7
3
8
7
5
5
5
4
4
3
4
5
6
3
5
2
1
5
3
4
5
5
5
5
4
2
5
7
2
7
7
3
7
5
4
7
4
4
7
4
2
7
6
4
5
4
4
4
3
2
5
2
4
7
4
3
7
5
3
5
5
4
4
4
1
5
2
1
5
5
3
5
5
3
5
4
1
8
5
1
8
4
4
7
4
3
8
4
3
8
2
4
7
3
3
7
4
4
9
4
4
8
1
3
7
3
1
7
4
0
11
4
0
10
5
2
8
4
4
10
2
2
8
4
0
10
4
0
8
4
1
7
5
3
9
7
4
9
5
4
8
5
4
8
6
3
8
5
1
7
4
2
7
4
1
6
4
0
5
4
0
5
4
1
7
3
4
7
1
4
5
1
4
6
5
7
255
255
245
255
255
255
255
217
226
255
255
255
54
44
21
8
4
3
7
3
4
7
2
4
7
2
4
9
3
3
10
5
1
9
5
2
8
5
1
8
7
2
8
7
1
4
5
15
168
143
113
17
14
22
173
144
115
8
5
5
7
3
4
8
4
4
7
4
3
5
4
1
4
4
0
5
5
0
6
7
0
5
7
0
5
6
1
7
6
3
7
5
4
5
4
4
5
5
3
7
7
3
7
7
0
5
5
0
6
4
1
9
4
2
10
4
1
10
4
0
9
4
0
9
4
0
11
4
0
11
4
3
10
4
2
146
127
130
255
255
255
75
40
20
255
255
255
222
165
111
12
7
0
10
7
0
10
5
0
9
4
0
8
4
0
8
5
0
8
7
0
8
7
2
9
5
0
11
4
1
11
4
2
10
5
2
11
7
3
12
8
4
12
8
3
13
7
1
15
6
0
15
7
0
14
8
0
15
8
1
15
8
3
13
7
3
13
7
2
14
7
3
13
7
4
12
5
4
13
5
4
13
7
4
11
8
3
10
7
3
9
5
0
8
4
1
8
4
3
9
4
3
11
4
2
11
4
2
9
4
1
9
4
3
255
255
237
23
34
20
255
255
237
17
34
23
8
4
0
8
4
0
8
4
1
8
4
2
8
4
1
7
4
0
5
4
0
4
4
0
5
3
2
7
2
0
7
3
3
5
3
4
5
2
4
8
3
5
10
4
6
9
4
5
7
4
4
7
4
4
9
4
4
11
5
4
10
6
3
10
6
3
11
6
2
12
5
0
11
4
0
9
4
1
8
4
2
8
4
2
8
4
2
8
4
3
9
4
1
11
4
4
11
3
3
8
1
2
5
1
2
5
2
2
6
1
3
5
0
4
4
0
3
4
2
2
5
5
2
7
6
2
7
6
3
6
5
3
6
4
1
6
4
2
7
5
0
8
7
1
8
7
2
11
5
1
10
4
0
8
4
0
5
4
0
5
4
1
6
4
3
5
5
4
5
7
2
6
7
2
5
6
1
5
6
0
7
5
2
8
5
0
8
7
0
10
7
0
10
10
0
9
11
0
8
8
0
7
8
0
7
8
1
6
11
4
5
12
2
4
12
1
5
12
1
6
12
1
6
12
5
7
12
8
9
13
7
120
107
80
255
255
208
255
255
255
169
106
69
17
81
89
72
71
50
111
120
129
49
55
72
28
3
4
72
9
18
110
13
34
88
12
35
14
8
13
77
1
24
104
8
39
53
7
19
16
5
2
10
11
8
198
138
95
255
255
255
255
255
255
110
80
69
17
10
8
17
10
4
18
9
1
18
8
0
16
8
1
13
8
4
13
8
7
14
8
7
13
8
5
13
7
4
12
5
4
13
5
4
14
7
4
15
8
4
15
8
4
13
8
4
12
8
3
12
8
1
12
9
4
13
10
2
12
9
0
10
9
1
12
11
3
12
11
4
12
9
4
13
8
2
14
9
3
13
11
4
13
12
4
15
13
4
16
15
1
17
16
0
18
17
1
18
18
3
17
16
2
15
13
4
15
13
6
15
14
4
14
14
3
15
14
1
16
13
2
16
13
1
15
14
3
14
13
4
15
13
4
17
16
3
20
18
1
20
16
2
20
14
3
21
14
4
9
7
2
173
116
66
255
255
223
255
255
255
255
255
220
49
77
47
255
255
122
255
255
255
255
255
246
90
69
45
16
12
6
17
14
4
17
17
4
15
17
4
14
18
3
14
21
3
14
22
8
15
23
5
16
28
4
17
32
14
12
37
12
5
43
10
1
53
15
0
60
19
0
63
23
0
72
7
0
80
95
0
82
210
0
82
255
0
85
255
0
84
255
0
92
255
0
98
255
0
44
117
0
2
7
0
0
0
0
0
0
0
0
0
0
0
0
0
0
0
0
1
2
0
36
96
0
90
255
0
84
255
0
65
241
0
67
250
0
66
255
0
66
208
0
69
85
0
65
10
0
57
22
0
53
24
1
50
28
8
44
15
16
38
8
17
33
5
17
28
8
17
23
5
15
20
3
15
15
6
16
14
5
18
15
3
18
15
1
18
17
2
18
17
1
17
16
2
17
13
1
17
13
1
18
16
5
19
17
3
17
17
3
15
17
1
15
17
3
14
17
4
14
17
3
14
15
1
14
13
2
15
14
0
18
15
0
18
13
0
17
12
0
17
12
0
17
13
0
16
12
0
16
11
0
16
10
0
16
11
0
16
12
0
17
13
0
18
15
0
19
17
0
19
18
0
18
18
0
17
18
0
17
18
0
16
15
0
16
12
0
255
255
255
255
255
255
8
7
1
7
5
1
7
5
4
7
5
3
5
4
3
5
5
4
7
4
3
7
4
3
7
2
4
7
4
4
7
7
2
7
7
2
4
5
2
4
4
4
7
4
4
7
5
2
7
6
4
5
5
3
5
4
4
7
2
4
7
4
1
7
5
4
7
5
4
7
4
3
7
4
1
7
4
2
6
2
3
7
4
0
8
4
3
7
2
4
8
4
2
10
4
3
10
1
4
7
1
4
8
4
3
8
3
4
8
1
3
8
3
0
10
4
0
10
5
1
8
5
4
10
4
4
8
5
1
10
5
0
10
4
3
8
5
4
8
7
4
8
8
4
7
7
3
7
5
1
7
4
2
8
4
0
8
1
2
7
1
0
7
3
0
6
4
0
6
4
1
8
5
5
34
27
31
70
57
62
255
255
252
255
255
255
255
246
251
255
255
255
41
34
14
7
6
0
5
4
0
5
3
2
7
4
1
8
4
3
7
4
4
7
2
4
7
3
4
7
3
3
6
4
2
6
4
5
172
149
126
5
4
5
177
152
126
14
8
7
9
3
4
8
1
4
8
0
4
7
1
4
6
4
3
7
7
2
7
8
3
7
7
3
7
5
1
8
4
0
8
4
1
7
4
2
6
5
2
7
6
4
8
5
4
7
4
4
7
5
4
9
6
4
10
6
4
10
6
3
9
5
1
8
4
0
9
4
0
10
5
1
9
6
2
150
128
129
255
255
255
104
64
9
255
255
255
254
191
131
12
5
0
12
5
0
12
7
0
11
7
0
9
5
0
8
4
0
8
4
0
8
4
1
8
4
2
8
4
1
8
4
0
8
5
2
8
5
0
8
4
0
9
5
0
11
7
0
12
7
0
12
8
1
12
8
3
12
8
3
12
8
2
12
7
2
12
7
2
12
7
2
12
8
1
12
8
0
12
8
1
12
7
2
10
6
2
10
6
4
9
5
4
8
4
4
8
4
4
9
5
4
11
7
2
11
7
3
10
6
4
10
7
5
255
255
243
27
31
17
255
255
243
21
32
21
9
4
2
10
4
2
9
3
1
7
2
0
6
3
1
7
4
2
8
4
2
8
4
2
8
4
1
7
4
0
5
4
1
4
4
3
4
4
4
4
4
4
4
3
3
4
1
1
4
1
0
5
3
1
8
4
3
10
4
4
11
4
4
11
4
3
9
4
1
8
4
0
8
5
0
8
7
2
8
7
1
8
6
3
8
6
4
9
5
3
11
4
1
11
4
4
9
4
1
10
4
3
10
4
4
9
4
3
7
4
2
5
4
3
4
4
3
4
4
1
4
4
1
4
4
3
5
5
4
5
6
3
4
5
3
3
5
1
5
6
2
7
5
1
7
4
0
8
5
1
10
7
2
11
8
1
10
6
0
8
3
2
5
3
3
5
4
2
6
4
2
5
5
2
4
6
2
5
5
2
7
4
1
8
5
0
8
7
0
9
8
0
11
8
0
11
7
0
9
6
0
9
8
1
10
9
4
9
11
4
8
12
1
8
12
0
9
12
3
11
13
5
12
14
9
13
13
10
65
43
41
255
255
204
255
255
228
255
253
153
75
68
67
18
93
90
31
16
31
102
108
110
86
94
111
3
7
8
17
2
2
53
5
13
91
7
27
96
13
35
36
12
20
63
4
19
106
11
38
59
2
19
46
34
30
127
100
93
255
255
171
255
255
255
255
251
188
52
38
35
15
10
5
16
9
4
17
8
4
18
8
3
18
8
1
17
8
3
15
8
3
14
8
5
13
7
7
12
7
8
11
6
8
10
6
7
12
7
6
13
7
7
15
5
7
14
5
5
15
7
4
15
8
4
15
9
1
15
10
0
16
9
2
16
9
2
16
11
2
15
11
2
13
9
3
12
8
4
13
8
4
12
7
3
12
7
4
12
10
2
11
12
2
10
12
2
13
12
3
15
13
4
15
13
1
15
16
4
17
18
6
16
17
5
16
15
4
15
14
3
14
15
2
15
15
4
14
14
4
14
14
3
14
14
1
15
14
0
15
13
0
13
12
3
14
12
4
16
12
3
9
7
4
155
103
62
255
255
230
255
255
255
255
255
202
33
7
19
255
255
209
255
255
255
255
206
136
17
14
9
14
12
5
14
14
4
14
16
3
14
17
4
15
17
5
14
18
6
12
20
5
15
22
4
17
27
8
14
32
15
10
34
11
4
39
13
0
50
17
0
50
17
0
52
14
0
59
12
0
59
66
0
54
141
0
55
194
0
66
240
0
117
255
0
121
255
0
39
105
0
0
0
0
0
0
0
0
0
0
0
0
0
0
0
0
0
0
0
0
0
0
32
83
0
115
255
0
126
255
0
95
255
0
94
255
0
91
244
0
88
122
0
82
21
0
75
26
0
67
28
1
60
31
7
56
27
15
48
14
21
38
7
22
31
7
22
25
10
21
20
7
19
17
3
19
16
4
21
17
4
24
17
1
23
17
2
21
18
2
20
17
2
18
15
2
20
15
4
20
19
3
21
21
2
20
21
3
15
21
2
17
21
4
18
20
3
17
18
2
17
16
1
17
14
3
17
14
1
20
14
0
20
12
0
17
10
0
17
12
0
17
13
1
17
15
2
17
13
1
19
12
0
21
12
0
21
12
0
22
15
0
23
19
1
22
20
3
22
20
4
21
19
3
20
17
1
20
16
0
19
13
0
21
12
0
22
12
0
255
255
255
255
255
255
11
6
4
9
4
1
7
2
4
7
4
4
7
5
1
7
5
4
8
6
5
8
4
4
8
4
4
8
5
4
8
8
3
10
9
4
7
7
4
5
7
2
7
7
4
7
6
3
7
5
3
7
5
4
8
5
4
9
4
4
7
2
1
5
4
1
7
5
4
8
5
4
7
5
2
7
5
2
8
4
4
8
4
3
10
5
2
8
4
4
7
2
3
7
4
0
9
4
3
8
1
4
9
3
1
10
4
3
10
3
4
9
1
1
9
1
0
8
4
0
7
5
1
8
4
4
10
5
4
11
7
1
12
8
3
10
7
4
7
5
1
7
5
0
7
4
0
7
3
0
6
1
1
7
4
2
8
4
1
8
3
0
8
1
0
8
1
0
8
4
0
38
30
32
136
110
120
214
170
178
255
255
255
255
255
193
255
255
255
255
255
255
31
27
10
7
4
2
7
5
1
7
6
2
8
5
0
8
4
1
9
3
3
10
1
4
9
0
4
7
0
3
5
1
3
5
3
1
163
143
127
11
9
7
165
147
126
21
15
8
11
6
4
9
5
3
8
4
2
8
4
3
8
4
4
7
4
4
7
4
4
7
5
4
8
6
4
7
6
4
6
7
4
7
8
3
8
7
2
8
5
3
9
5
4
11
7
4
10
7
3
7
5
2
7
4
3
9
4
4
11
4
4
11
5
4
9
7
3
9
8
2
10
7
3
151
129
128
255
255
255
128
81
19
255
255
255
255
212
146
10
5
4
8
4
3
9
4
1
11
4
0
11
4
0
9
4
0
9
4
0
11
5
0
12
7
0
11
7
1
10
5
2
11
4
1
11
4
0
9
4
0
8
4
0
8
5
0
8
5
0
9
4
3
10
6
4
8
7
4
7
5
1
9
5
1
9
7
3
8
8
4
8
8
4
9
9
4
10
9
3
11
6
1
11
5
1
11
7
3
10
8
4
11
8
3
12
8
1
11
8
3
9
8
2
8
7
2
9
6
3
11
7
5
255
255
247
26
29
13
255
255
247
24
31
19
9
7
4
10
5
4
9
4
4
8
4
2
7
4
2
6
4
1
7
3
1
8
1
3
8
1
4
7
3
4
7
4
4
6
4
4
5
4
4
4
4
4
4
4
4
4
4
4
4
4
3
4
4
1
5
3
0
7
1
0
9
1
0
10
3
0
9
5
0
8
7
0
8
7
0
8
5
1
9
4
2
10
4
1
9
4
0
8
4
0
8
4
2
7
3
4
7
3
1
7
5
2
8
5
2
8
4
2
8
4
1
8
4
0
8
4
1
8
3
2
7
2
2
5
2
2
5
2
1
7
3
1
8
4
4
7
4
4
6
4
4
7
4
3
7
5
2
7
7
3
9
8
4
12
7
4
12
5
4
10
4
3
8
4
3
8
4
2
8
4
0
8
4
0
8
4
0
8
5
0
8
7
0
7
7
0
7
6
0
7
6
0
8
6
0
9
6
0
11
6
0
12
8
3
12
10
4
13
9
1
14
8
1
14
8
3
15
8
7
16
9
9
16
11
11
63
44
35
255
165
165
255
255
255
255
255
158
198
97
38
81
115
110
24
63
57
9
79
91
75
74
70
109
119
131
26
39
44
9
1
0
14
4
0
40
3
7
91
5
22
123
11
36
83
9
29
46
4
18
86
5
21
87
47
45
93
93
80
168
114
63
255
255
203
255
255
255
207
158
133
17
14
14
12
10
6
14
10
5
13
10
4
16
9
1
18
8
4
18
8
1
17
8
3
16
8
4
14
8
4
14
8
4
14
8
4
14
7
4
14
5
3
15
5
3
15
7
3
14
8
2
15
8
1
17
8
0
17
8
0
18
8
1
18
8
3
18
9
4
17
11
4
13
12
5
12
11
5
13
9
3
12
8
1
12
8
3
12
7
3
12
7
4
12
9
4
13
10
2
15
12
3
17
15
1
16
16
1
17
16
3
16
16
4
16
17
3
16
18
1
13
17
4
13
16
4
14
15
0
14
13
0
14
12
1
13
12
2
13
13
1
11
14
1
10
13
3
12
12
4
14
13
4
5
10
5
171
113
72
255
255
251
255
255
255
255
255
159
255
181
78
255
255
255
255
255
232
92
70
43
13
7
5
10
8
1
8
10
3
8
11
5
13
12
8
14
14
5
11
16
4
13
17
1
17
17
4
13
26
14
10
28
13
6
29
13
0
39
18
0
41
15
0
44
7
0
53
32
0
58
70
0
60
87
0
68
134
0
80
236
0
141
255
0
152
255
0
50
138
0
0
0
0
0
0
0
0
0
0
0
0
0
0
0
0
0
0
0
0
0
0
53
139
0
165
255
0
170
255
0
124
255
0
118
240
0
112
111
0
104
15
0
95
31
1
86
35
5
77
38
13
68
28
21
60
18
27
48
13
30
36
10
30
29
11
27
23
7
24
20
1
24
21
2
25
21
5
27
22
2
27
21
3
25
21
3
24
20
3
22
19
1
23
19
4
26
22
4
26
24
1
25
22
2
22
21
4
21
20
4
21
18
2
20
17
2
17
15
4
19
13
3
21
12
3
21
12
0
21
13
0
19
13
0
17
14
0
18
15
0
19
15
2
21
12
0
22
10
2
24
12
0
24
15
0
23
17
1
24
19
2
23
19
3
22
17
2
21
15
0
21
14
2
31
22
5
38
26
7
35
21
5
29
16
1
26
16
1
255
255
255
255
255
255
11
5
4
12
5
3
11
4
3
12
4
4
12
5
1
11
7
1
10
7
4
8
5
3
8
6
3
8
4
4
7
4
1
8
7
2
8
7
4
8
7
2
7
7
4
5
5
4
5
5
1
7
5
4
8
5
5
11
5
5
9
4
3
6
2
0
7
4
4
10
5
4
8
7
0
7
7
1
6
6
2
7
5
3
10
5
2
8
7
4
5
5
4
5
2
0
7
4
1
7
4
4
8
2
3
8
3
1
7
4
4
7
2
3
9
2
0
9
2
0
7
4
0
7
4
1
8
2
4
10
3
3
8
5
1
8
6
4
7
7
3
7
5
0
7
5
1
7
5
2
7
4
1
6
4
0
7
4
0
9
4
0
10
4
0
10
4
1
9
4
3
82
66
77
216
176
192
234
186
180
255
225
190
220
151
79
255
255
255
255
255
250
23
21
7
7
5
2
7
6
2
8
6
2
8
6
2
7
5
1
6
4
0
7
4
1
8
4
2
9
4
2
10
3
4
9
1
4
143
128
120
28
26
14
144
131
118
36
29
14
8
4
4
8
5
4
7
4
4
7
4
2
7
4
4
8
4
6
8
3
4
8
2
2
8
4
3
8
6
4
7
5
4
6
4
4
7
4
2
8
4
2
8
3
2
9
4
3
9
4
3
7
5
1
7
6
0
9
6
1
11
7
3
11
8
4
9
8
4
9
8
4
11
7
4
150
130
129
255
255
255
143
87
29
255
255
255
255
222
157
12
7
4
8
4
2
8
4
2
8
4
2
8
4
2
8
5
2
9
6
2
11
5
1
11
4
0
9
4
0
9
4
0
10
3
0
9
2
0
8
3
1
8
4
3
8
4
3
8
4
1
8
4
4
8
4
3
8
4
4
8
4
1
8
5
3
8
6
1
8
6
0
8
6
2
7
5
4
7
4
4
8
5
2
9
6
3
7
6
3
7
7
2
8
8
3
8
7
4
8
5
5
8
5
6
9
7
5
9
7
3
8
7
4
255
255
252
25
27
14
255
255
252
25
28
17
8
7
2
8
7
2
8
7
4
8
8
4
9
8
4
10
7
4
9
5
4
7
4
4
5
2
4
5
3
4
7
4
4
8
4
4
7
3
4
6
1
4
7
1
4
7
3
4
5
4
4
4
4
4
5
4
1
7
4
0
7
4
1
7
4
2
7
4
2
9
4
2
10
4
1
10
4
1
11
4
3
12
3
3
12
2
1
12
3
1
12
4
4
12
4
4
12
4
1
11
4
0
10
4
1
10
4
3
10
4
3
11
3
1
11
2
0
9
2
0
9
1
0
10
0
0
9
1
0
9
3
1
11
5
1
11
6
1
9
6
2
8
7
3
8
7
4
8
5
3
9
4
2
10
4
3
11
5
4
12
6
4
12
6
3
11
6
1
10
5
0
11
3
0
12
3
1
12
6
3
11
7
3
10
6
2
11
6
3
11
6
3
9
7
1
10
8
1
13
8
3
13
8
4
13
8
3
14
8
0
13
8
0
13
8
3
14
8
7
15
8
10
101
77
60
255
219
178
255
255
255
255
255
250
133
130
67
136
15
27
93
133
122
27
17
10
12
105
110
35
13
7
106
114
120
75
87
92
11
31
27
20
24
21
14
15
11
30
5
2
74
2
14
113
8
29
98
9
29
25
5
10
63
41
38
28
81
54
35
52
44
255
165
102
255
255
255
255
255
255
117
86
75
10
11
5
11
11
4
8
10
4
9
8
3
12
8
4
14
8
1
17
8
0
20
9
1
19
11
2
17
11
1
16
9
1
17
8
2
17
8
1
15
8
3
15
8
3
15
8
4
14
7
4
15
6
4
16
7
4
16
8
4
15
8
3
14
8
0
16
9
2
16
10
4
17
9
4
18
8
4
15
9
3
15
10
1
16
8
0
16
5
1
15
5
3
13
7
4
13
9
4
15
11
4
14
12
4
15
13
3
13
14
1
13
14
2
17
15
2
18
15
3
15
14
4
14
15
3
13
14
1
12
15
2
11
16
1
13
16
3
14
16
3
12
16
1
10
13
1
11
12
1
11
11
3
2
4
9
228
153
91
255
255
255
255
255
255
115
114
69
255
255
190
255
255
255
255
217
127
17
11
2
10
8
2
8
8
4
8
10
3
12
11
6
15
11
7
15
15
4
17
21
3
20
23
2
19
31
10
17
39
15
14
45
17
9
56
21
4
66
25
1
77
23
0
92
22
0
105
46
0
114
98
0
120
172
0
125
255
0
172
255
0
212
255
0
105
255
0
7
19
0
0
0
0
0
0
0
0
0
0
0
0
0
0
0
0
9
24
0
120
255
0
230
255
0
181
255
0
118
183
0
103
47
0
93
13
1
86
27
4
80
24
10
72
24
18
63
22
26
53
13
30
43
11
32
33
10
31
26
6
28
22
5
24
20
0
24
21
3
27
22
7
28
21
7
27
22
3
24
22
3
24
23
3
25
22
2
25
22
4
26
22
8
27
23
7
25
21
5
22
17
4
21
16
2
21
13
2
21
13
4
20
13
2
21
12
0
22
13
1
23
14
1
23
14
0
22
16
0
22
18
0
23
18
0
22
16
0
23
12
1
25
11
1
25
15
2
24
18
4
22
18
3
24
24
4
28
27
3
29
23
6
51
38
18
89
62
32
120
84
40
210
138
62
255
179
81
255
183
86
255
176
85
255
180
85
255
255
255
255
255
255
10
5
3
11
5
4
10
6
2
10
5
4
8
4
3
8
5
0
10
7
3
10
4
4
8
3
2
8
5
4
7
3
3
7
4
2
7
5
4
7
4
2
8
4
4
7
5
3
6
5
2
5
5
2
5
5
4
8
4
6
9
5
4
7
5
1
5
2
4
7
3
4
7
5
0
7
5
1
3
4
2
1
5
3
5
6
2
8
7
3
7
8
4
5
5
2
5
4
2
6
5
4
5
4
4
5
3
1
5
4
3
5
3
4
8
4
3
11
4
1
10
2
0
8
4
0
7
3
3
8
0
4
7
0
1
8
1
3
8
5
4
9
7
4
10
8
4
10
7
3
9
6
3
7
5
0
4
4
0
5
5
0
7
6
0
7
4
2
5
2
2
119
99
119
249
208
235
157
127
106
209
140
94
121
78
21
255
255
255
255
255
224
18
17
6
5
4
2
6
4
2
5
4
3
5
5
1
6
5
2
5
3
1
5
3
0
6
4
0
6
4
1
7
4
3
8
4
5
109
100
100
59
53
29
111
101
99
64
53
29
7
2
0
7
4
1
9
4
4
10
3
4
9
1
4
9
3
4
10
3
4
9
4
4
8
4
3
9
3
1
11
3
0
12
0
3
11
3
3
9
4
4
8
2
4
7
2
4
7
3
4
7
6
4
8
8
4
7
7
3
5
5
2
5
4
2
7
4
2
8
4
2
7
5
1
151
130
131
255
255
255
148
89
34
255
255
255
255
225
165
14
8
5
8
5
1
8
7
3
8
7
4
8
5
3
9
4
2
10
4
3
9
4
4
8
4
2
8
5
3
8
6
3
8
5
2
8
4
2
8
4
1
8
4
2
7
4
2
6
5
1
7
6
3
8
5
1
9
5
2
10
6
3
9
5
4
8
4
1
8
4
1
8
4
4
7
4
4
7
6
5
8
11
9
16
20
19
34
35
33
58
54
50
74
67
60
73
65
58
67
59
53
66
59
52
63
57
49
53
48
42
40
39
37
255
255
255
59
47
47
255
255
255
36
33
22
5
8
5
5
7
4
7
8
4
8
8
4
8
7
4
8
5
4
8
5
3
8
7
1
7
5
0
6
4
0
7
5
0
9
6
0
11
5
0
11
4
0
9
4
0
8
4
0
9
4
1
10
4
4
9
5
4
8
6
4
7
4
4
7
1
4
7
1
4
8
2
4
9
2
4
10
3
4
9
4
4
9
4
4
11
4
4
12
4
4
12
4
4
12
5
1
12
6
0
13
6
0
14
6
3
13
6
2
13
6
3
14
5
2
13
4
0
11
4
0
10
4
0
11
4
0
11
4
1
9
4
4
9
4
3
10
4
3
9
4
0
8
4
0
8
4
0
8
4
0
8
4
0
8
5
0
10
6
0
11
6
0
12
6
0
12
5
0
12
4
1
13
4
3
15
4
4
16
4
4
16
4
4
17
5
4
19
7
4
19
8
4
16
7
4
13
6
4
12
7
5
12
8
5
12
8
3
12
8
3
12
8
4
11
8
5
9
8
8
38
29
25
255
255
183
255
255
255
255
225
240
124
154
79
24
71
70
117
10
44
104
122
104
29
33
37
18
107
108
8
44
48
77
75
82
108
94
100
25
46
35
17
28
20
10
16
15
8
3
2
11
2
0
35
0
2
69
4
7
100
11
20
96
33
37
9
60
29
26
60
35
95
97
67
255
255
193
255
255
255
255
183
153
14
10
4
14
10
4
12
11
5
11
10
5
10
9
3
12
9
2
13
10
1
15
10
2
17
10
0
17
10
2
17
10
1
15
10
2
15
11
1
17
12
2
17
11
0
18
9
0
17
8
2
13
8
6
12
8
8
12
8
8
13
8
8
13
8
8
15
8
7
15
8
4
14
8
1
16
8
2
17
8
1
16
7
2
15
7
2
13
6
2
13
6
1
12
7
1
10
8
2
12
8
1
12
8
1
13
9
3
13
10
5
12
9
5
12
9
2
14
10
1
15
10
2
14
12
3
15
15
2
14
15
1
13
14
2
13
14
1
14
14
2
15
16
2
14
16
0
14
13
3
14
12
4
14
12
4
20
15
14
255
239
137
255
255
255
255
255
158
238
195
92
255
255
255
255
255
210
46
35
19
21
16
1
20
15
2
19
14
3
19
14
1
20
15
8
21
18
7
23
24
8
29
29
10
33
36
11
32
48
15
29
60
20
24
72
27
18
82
31
12
90
27
5
96
10
1
99
13
0
99
31
0
100
32
0
109
60
0
156
255
0
249
255
0
219
255
0
74
199
0
7
19
0
0
0
0
0
0
0
0
0
0
8
22
0
86
223
0
239
255
0
255
255
0
154
255
0
103
13
1
87
27
4
79
26
10
71
23
17
63
17
25
53
13
29
44
12
29
34
11
28
27
13
27
23
10
25
20
4
24
21
3
24
22
3
27
23
8
28
22
9
27
22
7
24
24
6
24
22
4
27
21
1
26
21
2
25
21
5
25
19
8
23
18
5
20
15
4
21
14
4
22
13
3
23
12
2
23
13
2
25
13
2
26
13
2
24
16
3
23
17
6
21
19
7
22
20
5
26
18
4
28
16
4
29
16
4
29
17
3
28
22
2
38
35
2
59
48
13
89
68
27
195
131
57
255
181
78
255
199
88
255
227
98
255
255
103
255
255
104
255
255
108
255
251
101
255
254
103
255
255
107
255
255
107
255
255
249
255
255
255
8
5
1
8
4
4
8
4
3
10
7
3
8
5
4
5
4
1
5
5
2
8
3
4
8
2
2
8
5
4
8
4
4
8
4
1
9
7
4
7
5
4
8
4
4
8
5
3
7
5
3
5
5
3
5
7
3
8
4
5
10
2
5
7
5
3
5
4
3
5
3
4
5
4
3
8
4
3
7
4
1
5
4
2
5
4
3
8
4
1
9
5
4
7
5
3
6
4
1
5
5
3
5
4
4
7
4
4
8
5
4
8
3
4
8
2
4
10
4
3
8
3
1
8
3
2
7
4
2
8
4
4
10
3
4
10
1
2
8
1
3
8
3
4
8
7
3
7
7
2
7
5
4
8
5
1
8
7
0
7
7
1
5
5
2
5
4
2
8
5
5
153
128
155
253
218
255
87
77
51
213
131
64
120
73
19
255
255
255
255
255
205
14
15
5
6
0
2
6
1
2
6
2
4
5
2
1
5
4
1
7
4
2
7
1
1
5
0
0
4
0
0
5
1
0
7
3
3
65
62
70
95
82
52
67
65
69
100
84
53
7
5
4
8
6
3
8
5
2
8
4
2
8
3
1
7
3
0
7
1
1
7
3
3
8
3
4
8
2
4
9
4
4
11
1
4
12
1
3
11
4
2
9
4
2
8
4
1
8
4
1
7
4
3
6
4
4
6
4
4
5
4
4
5
4
3
7
4
2
7
4
3
5
5
4
155
131
132
255
255
255
147
92
36
255
255
255
255
228
168
14
11
7
10
5
3
9
4
2
9
4
3
11
5
4
12
6
3
11
5
2
9
5
4
9
7
5
10
7
6
9
5
5
9
5
4
10
7
4
9
7
3
8
6
1
8
7
1
8
7
3
9
6
3
12
9
5
25
25
21
60
55
46
107
91
72
153
123
93
193
153
112
236
183
131
255
213
147
255
240
164
255
255
181
255
255
195
255
255
206
255
255
212
255
255
216
255
255
220
255
255
233
255
255
248
255
255
247
255
255
247
255
255
255
255
255
255
255
228
174
255
255
255
255
255
225
255
251
187
255
213
158
212
158
114
147
104
71
102
73
49
65
51
35
34
30
19
15
16
7
11
10
4
11
9
4
9
8
3
8
7
1
9
7
0
10
7
0
9
8
0
9
8
0
11
7
0
11
5
1
9
4
3
8
4
4
9
4
3
10
4
2
9
4
2
8
4
2
9
4
3
10
3
3
10
2
1
10
3
1
9
3
3
8
2
3
8
3
1
8
4
0
8
4
0
9
4
0
11
4
3
12
4
3
12
4
4
12
5
1
13
6
0
14
6
0
13
7
1
12
7
2
12
4
3
11
1
4
8
0
1
7
0
4
7
0
1
9
1
0
10
3
0
9
4
0
8
5
0
9
6
0
10
5
0
10
5
0
10
6
0
10
6
0
11
7
3
12
8
4
12
7
3
12
5
1
13
5
1
15
6
2
16
6
2
17
7
4
18
8
6
15
8
5
11
8
5
11
8
5
12
8
7
13
8
8
14
8
9
17
12
16
98
74
62
255
227
159
255
255
255
255
255
231
121
116
51
100
105
16
26
84
38
102
22
52
115
95
68
33
85
81
22
92
93
19
86
91
60
51
64
105
64
78
40
34
37
13
38
30
5
15
12
10
4
1
13
0
0
10
1
0
5
6
0
68
7
11
133
24
38
41
37
23
60
42
25
39
63
40
255
238
138
255
255
255
255
237
194
20
13
8
18
11
6
18
13
9
16
13
9
14
9
7
14
9
5
12
10
4
10
9
5
10
8
6
12
9
5
15
10
4
13
9
1
13
9
0
15
11
2
13
11
0
12
9
0
14
9
4
15
9
4
12
7
1
10
7
3
10
8
5
11
8
7
12
8
7
13
8
5
11
8
4
12
8
4
13
8
4
13
7
4
13
7
4
15
7
2
15
8
2
15
8
4
15
7
4
13
5
1
12
4
1
13
5
2
15
7
1
13
8
0
12
8
2
12
9
0
13
11
2
13
12
4
13
12
2
16
11
0
17
10
1
16
11
4
15
13
6
15
16
5
17
20
3
18
20
2
20
20
4
21
20
4
20
19
3
176
133
71
255
255
255
255
255
205
69
65
39
255
255
222
255
255
239
88
61
42
31
20
7
30
20
7
29
21
5
29
21
4
29
22
7
28
20
7
27
18
5
29
20
4
30
21
6
30
25
7
31
30
10
32
36
13
32
43
16
29
50
20
22
57
25
15
65
27
9
74
30
4
81
34
1
94
37
0
123
51
0
212
255
0
255
255
0
255
255
0
140
255
0
61
141
0
40
92
0
70
158
0
154
255
0
255
255
0
255
255
0
207
255
1
119
42
5
94
32
13
81
28
21
70
26
27
60
19
31
51
11
34
41
10
33
33
11
31
27
8
30
24
7
28
23
5
27
22
6
29
23
5
30
24
5
30
25
7
29
25
0
27
26
0
26
23
0
27
18
6
27
17
1
23
17
5
22
16
5
24
14
4
22
13
2
23
13
1
25
14
0
26
14
1
25
15
4
25
17
4
25
18
4
24
18
1
24
18
0
26
17
4
26
17
2
29
17
1
31
17
3
38
26
4
82
61
20
167
118
46
253
171
69
255
206
87
255
231
99
255
251
103
255
255
109
255
255
101
255
255
99
255
250
92
255
219
77
255
192
70
255
150
54
205
96
28
192
91
22
208
97
24
202
91
26
255
245
202
255
255
255
10
4
0
8
4
3
9
2
4
12
5
2
13
8
4
10
7
3
5
5
2
5
4
3
7
2
2
8
4
4
8
4
4
7
2
1
9
5
1
8
5
4
8
4
5
8
5
3
7
5
3
7
5
4
6
7
1
7
7
4
10
4
6
8
4
4
7
4
2
7
4
3
7
4
4
8
3
4
10
4
2
9
4
3
7
4
4
7
4
0
9
5
1
8
5
2
7
2
3
7
4
2
4
3
1
5
1
2
7
4
3
7
4
2
7
3
3
8
4
4
8
4
4
10
4
3
8
4
3
9
4
1
10
4
4
11
4
4
10
3
3
8
1
1
7
2
0
7
5
1
7
6
4
8
7
4
11
7
4
11
5
3
10
5
1
6
4
2
8
5
6
193
160
189
255
243
255
83
57
46
194
112
36
126
76
28
255
255
255
255
255
191
13
12
3
8
4
0
8
4
2
8
4
4
8
4
0
8
4
2
8
5
2
7
4
2
7
4
1
7
4
3
8
4
4
7
4
4
24
31
39
130
110
76
36
37
39
134
113
78
6
4
3
6
4
2
7
4
2
8
5
2
8
7
3
8
6
3
9
2
1
10
0
0
9
0
1
8
1
3
7
4
4
5
2
4
5
3
4
7
5
4
8
6
4
9
5
4
10
3
3
10
1
1
8
1
0
8
3
1
8
4
2
8
5
2
8
7
3
7
8
4
7
8
4
161
132
133
255
255
255
141
92
35
255
255
255
255
229
168
13
13
8
7
5
4
8
6
4
7
6
4
6
7
4
7
8
4
8
8
4
9
9
6
12
13
10
20
21
15
34
33
24
49
47
34
67
61
43
87
74
53
101
83
61
115
91
69
144
109
83
200
147
111
255
206
151
255
255
185
255
255
200
255
255
214
255
255
241
255
255
255
255
255
255
255
255
255
255
255
255
255
255
255
255
255
255
255
255
255
255
255
255
255
255
255
255
255
255
255
255
255
255
255
255
255
255
255
255
255
255
255
255
255
255
255
255
255
255
184
255
255
255
255
255
255
255
255
255
255
255
255
255
255
255
255
255
255
255
255
255
255
255
236
255
255
203
255
229
157
229
161
106
151
109
65
95
69
37
53
40
22
26
22
12
13
13
6
10
9
4
9
8
4
8
8
3
9
7
1
10
5
0
9
5
0
9
7
0
11
8
1
12
7
2
11
5
1
9
4
0
9
4
0
11
4
1
11
4
2
9
4
1
8
4
1
8
4
2
9
4
2
10
3
2
9
1
1
9
2
2
10
5
4
9
5
2
9
4
0
11
4
0
12
4
0
12
4
2
11
4
0
10
4
3
10
3
4
10
2
3
9
3
3
10
4
2
10
4
0
11
4
0
12
4
0
11
4
0
10
4
0
11
5
1
11
3
3
10
2
4
11
3
4
11
5
4
9
6
4
9
6
3
10
7
4
9
8
4
8
8
4
8
8
4
8
8
5
10
8
8
13
8
11
14
8
11
27
19
19
73
52
46
148
106
89
251
183
150
255
255
235
255
255
255
255
255
255
255
255
217
179
83
74
156
157
40
83
119
5
49
101
18
97
33
49
120
54
35
47
112
95
35
32
39
33
104
103
55
63
74
80
54
68
38
33
28
23
30
19
11
13
11
5
4
2
0
2
0
11
1
0
7
6
0
34
8
5
133
17
34
93
20
32
58
21
30
67
25
36
255
255
163
255
255
255
255
225
179
16
13
8
38
32
24
59
46
32
47
38
25
15
12
4
13
11
2
13
10
3
13
10
4
12
10
4
11
10
4
12
9
5
13
8
6
13
8
5
13
8
5
12
8
6
10
8
5
12
8
2
13
9
2
15
11
4
17
12
4
16
11
4
15
9
4
13
8
2
13
7
2
14
7
4
14
7
4
14
8
4
14
9
3
15
10
2
17
9
2
17
8
2
17
8
2
18
7
3
18
5
3
16
4
2
16
4
1
16
5
1
14
7
2
15
8
0
15
9
3
14
11
3
15
12
3
14
11
2
15
10
0
17
11
0
20
13
2
20
14
2
17
14
0
18
16
2
19
18
1
20
18
2
22
19
3
22
19
2
113
86
49
255
255
255
255
255
244
71
60
42
255
255
213
255
255
241
103
72
54
29
17
9
28
17
8
29
20
7
29
20
5
31
20
5
32
20
5
31
20
2
28
20
3
28
20
4
28
20
6
28
20
4
30
22
2
32
26
5
33
31
8
32
39
13
31
46
18
26
56
21
18
67
20
12
76
24
8
91
31
4
132
78
1
229
255
0
255
255
0
255
255
0
255
255
0
255
255
0
255
255
0
255
255
1
255
255
4
227
255
8
131
65
13
93
20
22
74
14
29
59
12
33
48
10
34
40
7
33
34
11
32
29
12
30
26
8
30
26
7
31
28
5
31
27
3
33
26
0
32
28
1
32
29
4
31
29
4
29
26
2
29
21
2
28
17
2
28
16
3
26
17
5
22
17
5
23
15
3
25
13
2
26
14
0
27
15
0
25
14
0
24
15
1
23
19
4
23
22
6
24
22
4
25
19
2
29
21
3
50
37
13
112
76
36
169
111
52
202
132
62
255
180
79
255
241
99
255
255
106
255
255
103
255
251
100
255
236
92
255
215
78
255
165
55
204
98
26
163
76
15
132
59
11
61
24
5
26
9
4
19
8
3
13
10
1
11
7
0
14
2
3
17
1
4
255
212
193
255
255
255
11
2
0
11
4
1
11
3
4
10
1
3
11
5
3
11
8
4
11
7
4
10
5
4
7
4
4
7
2
4
8
4
4
8
4
4
10
4
1
8
4
1
8
2
4
8
4
3
5
5
3
7
5
4
5
5
1
5
7
3
8
7
5
8
5
5
5
4
4
7
4
3
7
4
4
6
1
4
7
1
1
7
4
3
7
5
4
7
4
1
8
5
0
8
8
1
8
5
4
10
5
4
7
5
3
5
4
3
4
4
4
5
4
2
5
4
1
7
5
3
8
4
3
10
4
2
8
4
4
7
3
1
7
2
1
8
3
2
10
4
3
11
4
2
9
4
0
11
4
0
12
4
1
9
4
3
8
4
4
8
5
2
11
5
3
9
4
1
6
3
6
205
170
191
255
255
255
82
48
55
125
61
27
132
90
46
255
255
255
255
243
176
10
9
1
8
4
1
8
4
2
8
4
2
8
4
3
8
4
3
8
5
3
8
6
2
8
5
2
7
4
2
5
4
1
4
4
2
4
11
17
157
134
101
20
21
21
159
137
101
9
2
2
8
1
1
8
3
3
8
4
4
8
4
4
9
4
4
11
4
4
11
4
3
9
4
1
7
3
0
5
4
0
4
3
1
4
4
3
5
4
4
7
4
4
7
4
4
7
4
4
8
4
3
10
4
0
10
4
0
10
4
0
9
4
1
8
4
3
8
4
3
8
4
2
164
133
136
255
255
255
127
83
30
255
255
255
255
217
161
30
31
24
59
58
43
97
88
64
136
117
85
177
149
109
224
184
133
255
220
153
255
253
169
255
255
179
255
255
188
255
255
200
255
255
203
255
255
190
255
255
188
255
255
206
255
255
218
255
255
245
255
255
255
255
255
255
255
255
255
255
255
255
255
255
255
255
255
255
255
255
253
255
255
230
255
246
209
255
219
193
255
195
177
217
172
163
170
150
152
141
134
146
133
126
141
133
125
136
128
120
123
112
109
108
104
107
109
114
112
110
122
110
96
104
87
69
90
67
48
152
103
83
240
165
137
255
209
173
255
252
204
255
255
254
255
255
255
255
255
255
255
255
255
255
255
255
255
255
255
255
255
255
255
255
255
255
255
255
255
255
255
255
255
211
255
212
144
185
126
81
101
70
43
43
34
18
17
16
7
12
11
4
12
9
4
11
7
4
11
6
4
13
6
4
13
5
4
12
4
4
11
5
4
9
6
4
9
6
4
10
6
4
9
5
4
8
4
4
9
4
4
11
5
4
11
6
4
9
5
4
8
4
3
8
4
2
8
4
3
7
4
3
7
4
2
7
4
2
9
4
2
11
4
3
12
4
5
13
4
7
14
4
7
13
4
4
12
3
2
12
2
2
12
3
2
12
3
3
12
2
4
13
4
4
14
4
4
14
4
5
15
4
8
16
4
10
16
4
9
15
4
8
13
4
8
12
5
8
12
7
9
15
11
12
39
32
29
101
78
65
194
143
118
255
233
188
255
255
255
255
255
255
255
255
255
255
255
255
255
255
255
255
255
255
255
255
158
213
113
69
83
166
34
121
128
46
96
123
43
87
107
42
71
41
47
104
31
35
68
87
64
48
50
34
39
55
49
40
66
56
47
42
42
28
15
12
32
17
4
40
28
16
38
26
21
27
13
18
16
4
10
24
16
17
30
29
25
93
13
11
117
11
36
37
5
14
61
43
32
255
255
213
255
255
255
255
174
137
12
5
5
89
67
50
84
61
36
98
76
53
14
13
5
11
12
1
12
12
0
15
12
0
16
12
0
15
11
0
14
10
2
14
9
6
14
10
7
15
9
5
17
9
4
16
10
4
16
9
4
16
9
4
17
11
3
19
12
0
20
11
2
19
9
1
18
8
2
18
9
3
17
10
2
16
9
2
16
8
2
16
9
3
15
10
1
15
9
4
17
8
7
17
8
7
16
9
4
17
11
3
16
12
1
16
10
2
18
7
0
18
6
2
18
6
1
18
7
2
15
8
0
16
9
1
18
11
3
17
12
3
16
12
1
17
12
1
20
12
3
20
11
4
20
10
3
19
11
1
18
12
3
17
12
4
19
13
1
37
28
19
255
255
179
255
255
255
252
196
106
255
255
209
255
255
240
94
67
50
25
18
4
25
18
5
23
19
7
23
20
7
24
20
7
24
20
8
26
20
7
26
20
5
27
20
6
29
21
5
29
22
4
28
22
4
28
21
5
29
22
8
30
26
8
32
29
12
34
35
17
33
46
15
31
56
15
26
67
15
27
83
24
32
119
28
33
195
202
31
255
255
28
255
255
24
255
255
19
255
255
15
255
255
16
178
179
22
110
19
29
80
28
35
63
19
38
48
15
38
38
12
34
33
6
32
31
7
33
29
10
33
25
9
32
26
8
32
29
8
33
30
7
34
29
5
33
29
4
31
29
4
30
27
4
29
23
2
29
18
3
29
15
4
27
14
4
25
15
5
25
17
6
24
16
3
26
14
2
30
19
5
55
42
14
66
50
20
54
43
16
53
44
14
53
44
13
38
28
4
36
24
4
55
39
11
143
99
40
255
191
77
255
252
98
255
255
98
255
255
100
255
255
102
255
232
87
255
171
59
240
114
34
168
75
21
110
48
11
59
27
5
31
15
4
19
10
4
17
8
4
17
5
4
12
3
4
9
3
1
10
7
1
13
8
3
13
5
4
14
3
4
12
2
3
255
212
192
255
255
255
10
3
0
10
4
1
9
4
4
10
0
3
11
2
2
8
5
1
8
5
2
11
5
3
10
7
3
9
5
4
11
4
2
12
5
4
11
5
4
10
5
3
11
4
4
10
2
4
6
4
2
7
5
4
7
5
3
5
5
2
7
5
4
8
4
3
6
4
2
7
4
3
7
4
3
7
4
4
7
1
4
7
1
2
8
4
4
8
3
3
7
1
0
7
5
0
7
5
1
8
5
3
8
7
4
8
5
4
7
4
4
7
3
3
7
1
0
7
4
0
7
4
0
7
2
1
7
3
4
7
4
4
7
4
1
7
1
2
8
1
4
11
3
1
11
4
3
13
4
4
14
4
3
10
1
1
7
1
1
7
4
3
8
5
2
11
7
3
11
5
1
187
161
173
255
255
255
55
43
78
80
28
34
148
102
60
255
255
255
255
224
161
8
7
0
8
4
2
8
3
1
9
2
3
9
2
2
7
2
0
6
3
3
7
4
2
9
4
1
8
4
2
5
4
4
5
4
4
6
2
8
166
146
119
9
9
10
166
150
118
11
9
1
8
4
2
7
3
2
7
1
2
6
0
1
5
1
2
4
3
1
5
4
3
7
4
4
5
4
1
6
5
1
9
6
3
9
5
3
8
4
1
7
3
0
5
3
0
5
6
3
7
7
4
8
4
2
9
2
2
10
4
2
9
5
2
9
4
4
17
13
10
37
29
23
177
141
138
255
255
255
125
84
66
255
255
255
255
252
165
255
255
178
255
255
188
255
255
190
255
255
192
255
255
197
255
255
205
255
255
207
255
255
199
255
255
183
255
255
172
255
255
176
255
255
194
255
255
232
255
255
255
255
255
255
255
255
255
255
255
255
255
255
255
255
250
215
237
185
176
161
144
158
125
127
145
102
107
118
76
77
77
47
46
35
20
17
10
9
1
2
5
3
0
5
5
0
6
8
0
5
8
0
4
7
0
8
7
0
11
5
0
10
3
0
7
1
0
5
3
0
5
4
0
5
5
0
5
1
0
7
3
0
9
5
0
15
4
1
26
14
5
46
36
23
79
67
57
117
99
93
155
132
125
219
177
161
255
242
207
255
255
255
255
255
255
255
255
255
255
255
255
255
255
255
255
255
255
255
255
255
255
255
255
255
255
234
255
224
159
197
136
93
103
71
45
42
29
16
15
10
7
12
7
6
12
7
6
12
8
6
12
11
7
11
11
6
10
9
4
10
7
5
9
5
4
8
4
2
8
4
2
9
5
2
10
7
3
8
6
2
7
3
2
9
4
2
9
7
4
8
7
4
8
5
4
8
4
4
9
4
4
11
4
4
13
5
4
14
6
4
13
5
4
12
4
4
12
4
4
12
3
4
12
1
5
13
0
7
15
0
8
15
1
6
14
3
3
15
4
5
16
4
8
17
3
9
19
2
10
23
8
12
52
34
31
122
85
70
226
160
129
255
255
210
255
255
255
255
255
255
255
255
255
255
255
255
255
255
255
255
255
255
255
255
240
255
249
142
255
126
41
150
16
51
47
43
38
32
26
35
102
161
66
113
151
67
104
103
57
97
96
43
32
35
44
80
49
51
105
43
36
48
68
45
49
13
11
42
36
26
31
41
24
4
33
19
12
20
18
26
1
10
38
20
4
43
30
12
47
28
18
66
36
35
60
29
30
39
38
28
105
4
27
14
9
11
129
143
69
255
255
255
255
255
255
155
100
78
20
8
7
126
92
65
41
24
12
133
97
70
18
12
8
15
8
4
16
8
3
16
9
1
16
11
0
16
11
0
15
11
2
14
11
2
15
11
3
17
9
2
19
9
2
20
12
3
20
15
4
19
15
4
17
13
4
16
11
4
16
10
4
17
11
4
19
11
3
19
10
3
18
11
0
16
12
1
17
11
2
18
9
4
18
9
2
18
11
3
17
11
0
16
9
2
16
9
2
18
11
1
19
12
1
20
11
2
20
9
4
20
8
4
20
8
3
21
8
0
20
8
3
20
8
4
19
9
4
18
10
4
18
9
4
18
8
2
19
9
3
20
10
4
20
9
4
18
9
4
20
11
4
19
12
3
17
12
0
15
11
0
226
167
94
255
255
255
255
255
161
255
255
187
255
255
253
123
84
67
23
19
3
26
20
4
25
20
4
25
20
4
25
21
5
22
22
7
22
22
8
24
22
9
26
21
5
28
20
4
29
20
4
29
21
4
31
22
4
32
24
8
30
25
10
30
25
13
34
27
17
36
31
16
38
37
18
41
45
18
48
55
19
54
67
24
55
81
31
52
93
33
48
102
32
45
105
36
42
98
36
38
83
32
37
67
21
40
53
10
41
42
7
40
36
10
39
33
15
37
32
14
35
32
12
37
32
12
38
30
7
37
28
3
37
31
2
37
32
4
37
31
3
34
28
4
32
25
5
33
21
6
33
16
4
30
13
2
29
13
4
28
14
4
26
14
4
26
16
3
26
16
1
31
20
6
79
59
24
151
117
46
253
179
69
255
196
76
255
190
77
255
204
84
255
200
89
255
168
80
255
175
78
255
220
92
255
255
106
255
255
103
255
210
75
255
162
53
255
140
43
219
106
33
109
50
14
28
14
5
15
10
4
17
10
4
17
10
2
19
8
3
18
8
4
16
7
4
13
5
4
12
4
3
10
4
2
8
4
2
11
7
2
13
5
4
14
4
4
10
4
3
7
3
1
255
211
192
255
255
255
7
4
1
8
4
2
8
4
2
10
4
2
12
4
3
9
4
1
6
4
2
8
6
3
10
7
1
10
7
4
9
5
3
10
4
1
12
4
2
12
4
2
15
4
4
14
4
5
8
2
4
7
4
4
7
5
4
5
5
4
7
6
5
8
4
2
8
5
2
8
5
4
8
5
2
8
7
1
8
5
4
7
3
3
7
4
3
8
4
4
7
4
4
7
5
3
8
5
1
8
5
0
7
7
3
6
5
4
7
4
4
7
5
4
5
5
1
5
4
0
8
5
0
7
4
0
6
3
2
7
2
4
7
4
2
7
4
1
7
1
4
8
0
4
8
0
4
8
1
3
11
4
3
12
4
2
11
4
2
10
4
1
10
4
2
10
5
3
11
6
2
213
183
196
255
255
255
103
80
105
86
33
42
148
100
59
255
255
255
255
205
148
12
8
1
10
5
1
10
4
2
9
4
1
8
4
2
8
4
0
8
3
1
9
2
3
10
3
4
11
5
4
10
6
2
9
5
2
7
4
5
159
141
127
11
11
2
159
144
124
17
17
3
5
5
2
5
4
1
7
4
0
7
4
0
5
4
2
4
4
1
5
4
2
7
4
2
7
5
3
9
6
4
9
5
4
8
4
4
8
4
4
8
4
4
8
5
4
12
13
8
31
29
21
70
62
46
121
103
73
171
140
96
217
172
117
255
208
139
255
243
159
255
255
170
255
255
171
255
255
182
113
70
65
241
160
112
255
251
143
255
255
174
255
255
165
255
255
152
255
248
134
255
214
113
255
159
81
197
98
49
144
64
47
127
70
86
134
97
135
136
113
152
129
118
156
134
130
172
138
139
175
121
129
151
112
123
138
97
106
116
62
68
69
24
32
25
5
11
4
13
2
0
16
3
0
23
3
0
24
1
0
18
3
0
11
4
0
10
5
0
10
4
0
10
1
0
6
2
0
10
2
0
5
2
0
9
1
0
11
2
0
8
2
0
7
0
0
14
1
0
26
2
0
26
3
0
17
1
0
11
3
0
9
5
0
12
4
0
15
5
0
14
6
0
11
6
0
9
7
0
4
8
0
3
6
0
3
2
0
13
3
1
40
24
15
84
67
54
135
112
99
225
173
155
255
255
225
255
255
255
255
255
255
255
255
255
255
255
255
255
255
255
255
255
255
255
255
233
255
227
159
189
134
93
88
60
38
30
18
8
11
9
4
10
8
4
9
7
4
9
7
4
11
9
4
11
9
4
9
8
4
8
7
4
9
6
3
11
7
3
10
8
2
10
8
4
9
7
2
9
5
1
11
4
2
12
4
1
12
5
1
11
7
2
10
8
1
10
7
0
10
5
0
11
4
1
12
4
2
14
5
3
16
6
4
14
5
4
12
4
3
12
4
4
13
4
5
16
6
11
38
26
24
102
73
57
207
151
113
255
255
196
255
255
255
255
255
255
255
255
255
255
255
255
255
255
255
255
255
255
255
255
235
255
220
141
234
89
29
93
29
67
25
74
103
9
86
104
5
80
93
24
55
65
31
65
53
31
65
65
65
97
25
86
138
29
67
42
31
97
79
20
84
44
29
38
41
40
103
47
45
87
42
33
20
26
15
33
8
1
33
8
2
27
18
2
30
26
7
31
31
16
20
25
22
3
12
18
24
7
5
53
30
30
29
6
8
17
47
38
73
4
15
52
18
28
255
251
148
255
255
255
255
240
190
50
32
24
23
15
9
122
91
61
11
6
6
132
94
67
23
15
10
18
9
4
17
8
4
16
8
4
16
8
4
16
9
3
17
12
0
16
13
3
16
11
3
16
11
1
16
12
0
16
13
0
17
16
0
19
18
0
19
17
1
18
16
4
18
16
6
18
16
5
18
15
4
18
13
3
20
13
2
22
14
1
22
13
1
22
12
3
21
12
1
20
12
4
20
12
4
20
12
3
20
11
1
21
9
0
22
8
3
22
9
4
22
11
3
19
13
2
18
13
3
20
10
4
21
8
4
20
8
4
18
7
4
19
7
3
19
7
3
17
8
4
16
8
2
17
9
0
20
11
0
20
11
1
20
10
2
20
11
1
20
12
0
20
12
0
223
170
98
255
255
255
255
255
176
255
255
132
255
255
255
255
183
146
26
17
7
22
14
2
23
14
0
23
15
1
25
16
4
26
17
4
25
20
3
25
23
4
25
24
6
25
23
3
25
22
5
26
21
7
28
21
4
31
23
4
31
25
5
30
23
6
30
22
8
31
24
2
34
28
8
38
32
13
37
33
13
31
31
9
28
29
5
29
27
5
31
28
7
33
32
11
37
36
13
41
37
12
40
33
8
37
30
5
34
30
7
33
30
7
34
29
5
35
30
6
36
32
9
38
32
9
37
31
8
36
31
8
36
32
7
36
29
4
37
25
2
36
20
3
34
17
4
33
17
4
31
15
4
29
15
3
31
17
2
30
20
2
31
24
2
42
33
7
77
59
21
191
136
52
255
233
88
255
255
94
255
255
90
255
229
83
255
235
87
255
239
89
255
234
91
255
247
101
255
254
104
255
239
99
255
192
76
245
114
41
93
40
12
31
15
8
23
12
8
21
12
7
17
9
6
17
10
7
20
11
7
19
9
5
16
7
4
17
7
4
15
6
3
13
5
2
12
4
3
14
5
4
13
7
4
13
7
4
17
7
4
15
4
4
11
2
2
10
3
3
10
3
4
255
209
191
255
255
255
7
4
4
8
5
3
8
4
1
8
4
2
11
5
3
12
5
3
9
4
3
8
4
1
8
4
0
7
4
3
7
6
4
7
4
1
8
4
2
8
4
2
12
3
1
15
5
4
14
5
5
10
2
4
9
4
3
10
7
5
10
7
7
8
6
4
8
7
4
8
7
5
8
5
3
8
5
0
8
5
3
7
4
4
7
5
2
8
6
3
8
5
4
8
5
4
8
5
3
10
4
0
8
5
1
7
8
4
7
6
5
5
6
5
4
5
4
4
4
3
7
4
1
7
3
0
7
4
2
7
3
4
7
1
2
8
4
0
8
4
1
8
4
2
7
3
1
5
1
2
7
1
4
10
3
2
12
4
1
12
4
2
12
4
1
12
5
3
12
7
8
255
229
244
255
255
254
172
133
155
112
68
80
133
89
49
255
255
255
241
187
137
12
8
4
11
5
1
10
5
0
9
5
0
7
4
1
7
5
2
9
5
2
10
4
2
10
4
2
12
4
3
12
4
4
10
4
2
10
3
2
138
122
121
26
26
13
139
124
118
31
27
12
7
4
3
5
4
4
5
4
4
7
4
3
8
4
1
8
4
3
8
4
3
9
4
3
10
4
2
8
4
2
6
4
1
13
13
8
52
48
35
120
104
75
200
164
113
255
213
143
255
247
162
255
255
172
255
255
178
255
255
188
255
255
197
255
255
194
255
255
185
255
255
176
255
243
140
225
149
67
82
49
14
63
35
8
101
63
28
87
56
33
49
26
19
25
1
2
22
13
13
49
22
55
71
48
101
88
72
137
98
91
153
119
121
174
135
143
177
130
139
159
104
119
131
64
85
87
20
42
38
31
9
7
55
8
0
61
8
0
58
7
0
55
5
0
50
4
0
40
2
0
27
2
0
11
3
0
20
4
0
19
3
0
16
5
0
17
8
0
16
8
0
17
7
0
18
8
0
16
9
0
14
9
0
17
7
0
18
5
0
21
2
0
33
2
0
38
4
0
35
2
0
25
1
0
13
1
0
7
0
0
12
2
0
17
3
0
16
1
0
10
0
0
7
2
0
10
0
0
10
1
0
10
2
0
14
4
0
12
8
0
10
8
0
9
7
0
8
9
0
5
7
0
8
5
1
31
25
19
90
75
66
199
155
134
255
249
208
255
255
255
255
255
255
255
255
255
255
255
255
255
255
255
255
255
255
255
255
194
238
156
103
118
75
44
46
30
14
13
8
4
11
7
6
11
8
7
9
8
5
8
8
5
9
8
6
12
9
7
13
10
6
11
8
4
11
5
2
11
5
3
10
7
4
11
7
4
12
6
4
12
7
4
12
7
4
12
5
4
12
4
4
13
5
4
15
6
4
15
6
4
13
8
3
13
11
1
20
17
8
61
49
32
150
113
83
255
213
160
255
255
243
255
255
255
255
255
255
255
255
255
255
255
255
255
255
255
255
255
230
255
203
144
167
80
36
58
24
49
17
69
88
11
87
105
13
86
101
13
75
91
9
60
67
7
28
27
12
2
10
20
18
25
27
63
64
22
77
73
33
34
18
79
134
15
44
50
17
37
79
8
88
78
8
65
31
11
33
20
13
97
13
11
97
11
5
60
21
4
24
15
0
27
3
0
38
7
0
41
15
1
40
24
5
38
29
12
46
27
20
57
34
32
26
37
31
12
40
28
51
12
10
78
25
37
255
255
200
255
255
255
235
165
127
10
8
1
25
21
13
102
78
50
17
14
11
112
79
56
24
15
10
18
10
4
18
10
5
17
9
6
16
8
5
17
9
5
19
10
6
20
9
5
19
9
4
17
11
4
16
12
4
16
11
4
16
9
4
17
9
4
19
11
4
20
13
4
20
14
3
19
14
2
18
15
3
20
16
4
23
15
4
23
13
4
21
12
4
20
12
5
20
12
6
21
12
5
23
12
3
24
12
1
24
12
0
23
12
0
20
11
3
18
11
4
20
13
4
20
13
4
20
12
4
20
12
3
20
11
0
20
9
3
21
8
4
22
8
4
22
8
3
20
8
2
17
8
3
16
9
4
17
10
4
19
9
4
20
8
4
20
8
1
21
9
0
23
11
0
255
234
139
255
255
228
255
228
137
54
106
8
255
255
254
255
255
249
83
53
48
17
12
2
17
13
0
18
14
0
21
13
3
24
13
4
24
14
2
22
15
4
21
18
4
22
21
2
23
24
3
23
25
7
23
26
8
24
25
7
24
25
5
26
24
8
25
22
8
24
24
2
25
27
4
26
29
5
24
31
7
21
30
8
21
26
8
24
25
8
28
27
8
31
28
9
34
29
11
38
32
12
38
34
13
34
34
15
34
34
13
36
32
6
37
30
1
38
31
4
37
31
5
37
29
5
36
29
6
36
27
10
36
24
10
36
18
7
35
17
8
33
16
10
33
16
7
34
19
1
38
27
4
67
51
14
131
96
38
205
146
61
255
191
80
255
228
93
255
255
100
255
255
106
255
255
93
255
176
60
254
114
39
188
80
28
201
86
27
190
78
22
174
75
19
231
105
31
227
101
32
148
60
19
78
31
9
41
21
7
24
14
6
22
10
7
22
8
7
21
8
5
18
9
4
18
11
4
17
8
4
14
6
4
13
6
4
14
5
4
11
4
4
12
4
4
15
4
4
16
5
4
12
4
3
11
5
2
14
5
2
10
3
2
6
3
3
9
3
4
13
3
5
255
208
189
255
255
255
5
4
4
4
5
1
6
4
3
5
1
3
8
3
1
11
4
3
8
3
4
7
4
1
7
4
0
7
4
1
7
5
4
5
5
3
5
5
1
7
5
2
8
3
1
10
2
2
14
5
5
13
4
4
9
4
1
8
7
3
10
7
5
8
7
6
5
7
5
5
5
6
4
4
4
5
4
3
7
4
2
7
2
4
5
3
3
5
4
0
7
3
0
5
3
3
5
4
4
8
1
1
8
2
0
7
4
1
8
4
4
7
4
4
7
4
3
7
4
4
7
4
4
6
3
3
7
4
2
7
4
4
8
4
4
8
4
1
8
4
0
9
4
0
10
4
0
9
4
1
8
2
4
7
2
4
7
1
1
7
1
0
9
3
1
10
4
3
13
10
16
255
255
255
255
255
208
229
179
191
145
102
116
114
74
38
255
255
255
221
169
127
9
5
4
10
7
4
9
7
4
9
5
3
10
5
1
12
8
4
16
12
8
15
13
7
11
9
2
11
5
0
13
4
3
12
4
3
12
4
4
109
98
103
46
42
25
114
101
103
52
43
26
7
3
2
8
4
2
8
4
1
8
4
1
8
4
3
8
4
2
8
5
2
13
12
8
31
29
21
74
64
47
151
128
89
255
209
139
255
255
166
255
255
162
255
251
151
255
248
152
255
253
159
255
250
158
255
222
137
255
173
103
217
133
74
177
107
55
137
81
40
90
53
22
61
38
16
51
36
23
63
57
53
86
73
77
72
47
62
34
6
25
12
22
24
29
7
71
65
46
121
91
84
149
98
98
152
119
118
154
128
121
142
90
93
97
24
48
43
27
12
7
41
2
0
45
3
0
47
7
0
44
4
0
42
3
0
39
1
0
29
0
0
16
3
0
9
5
0
21
3
0
26
1
0
33
6
0
32
2
0
20
4
0
12
3
0
12
3
0
10
4
0
9
1
0
11
0
0
12
2
0
9
1
0
21
3
0
44
6
0
43
4
0
41
5
0
41
4
0
34
5
0
40
6
0
18
4
0
5
2
0
1
4
0
8
5
0
11
4
0
18
5
0
17
5
0
18
4
0
15
4
0
11
2
0
3
5
0
7
1
0
13
6
0
17
2
0
14
6
0
12
7
0
14
5
0
10
6
0
7
9
0
2
7
0
11
3
1
31
24
17
92
78
65
204
153
133
255
245
203
255
255
255
255
255
255
255
255
255
255
255
255
255
255
255
255
255
230
255
193
132
143
98
63
65
47
31
26
19
14
11
8
4
9
7
4
9
5
5
10
4
3
10
4
2
11
5
4
12
7
6
12
8
5
11
8
4
9
7
3
9
5
2
11
5
4
13
7
7
14
8
8
13
8
8
12
9
8
29
23
18
91
71
52
203
149
111
255
255
200
255
255
255
255
255
255
255
255
255
255
255
255
255
255
255
255
255
244
255
218
166
166
94
69
58
8
21
22
50
69
15
72
94
12
86
108
12
84
102
7
76
89
8
58
64
2
25
24
5
7
14
10
20
24
14
34
36
14
45
51
12
59
72
14
69
83
13
61
68
18
20
26
72
115
15
78
122
10
34
32
12
45
73
0
86
68
0
94
24
0
39
5
2
54
4
4
107
8
2
98
18
1
49
19
2
12
10
1
13
3
0
21
6
0
15
6
0
34
8
7
56
22
18
11
30
20
3
19
11
48
7
5
71
23
31
255
255
195
255
255
255
255
200
146
15
8
1
34
25
19
93
69
41
26
19
14
98
69
45
24
14
11
18
8
5
19
9
4
20
10
4
20
9
4
20
8
5
20
7
7
20
7
8
20
7
8
20
8
8
20
8
7
20
8
5
19
7
4
18
6
5
19
6
5
19
5
2
18
5
2
18
7
1
18
9
3
19
11
4
19
12
4
18
12
3
19
13
1
20
14
1
21
14
2
22
15
1
21
16
2
20
15
2
21
14
0
22
15
0
22
16
1
20
15
2
21
13
1
22
12
1
21
12
3
20
12
4
20
12
4
21
11
4
23
10
4
24
10
4
25
10
4
25
10
4
26
9
3
24
8
1
21
8
0
21
8
1
22
8
4
21
8
4
18
8
3
18
9
1
255
209
128
255
255
189
255
255
208
255
234
165
255
208
142
255
255
255
255
161
137
22
15
7
20
12
0
20
12
0
20
12
1
21
12
4
22
12
5
22
11
5
22
10
4
23
12
4
25
16
3
25
20
2
25
22
4
26
22
4
25
24
7
27
27
10
30
28
13
33
28
13
35
28
9
36
29
5
35
30
5
34
29
8
34
29
11
34
31
11
35
32
10
36
32
11
36
32
11
36
32
9
37
33
8
38
33
4
38
31
1
37
31
3
36
31
9
35
29
12
35
26
8
36
23
5
34
22
5
32
19
6
32
16
7
31
14
5
27
16
7
28
18
1
57
42
15
144
106
42
255
182
72
255
239
94
255
255
102
255
255
100
255
255
99
255
249
96
255
225
84
255
166
60
186
79
28
75
20
8
41
10
3
31
7
1
28
8
0
23
10
2
19
9
4
17
12
4
16
12
3
16
11
1
17
11
3
14
10
2
14
8
2
15
8
3
14
7
3
12
7
2
12
7
2
13
7
2
12
4
2
11
4
1
13
5
3
11
5
4
10
3
4
13
3
3
16
4
1
15
5
1
13
3
2
10
1
1
11
2
2
8
1
3
8
2
4
10
2
4
10
4
4
255
207
187
255
255
255
4
4
4
4
4
3
5
4
0
4
4
0
5
2
0
8
3
1
8
4
4
8
4
4
8
4
4
8
5
3
8
7
4
7
7
4
7
7
1
8
7
2
8
4
2
5
2
1
10
4
4
12
4
5
10
4
3
7
4
1
8
2
2
9
4
3
7
5
6
5
5
5
4
5
3
4
5
4
5
5
3
7
4
4
5
1
4
5
3
0
7
4
0
7
2
1
6
4
4
7
4
4
8
4
1
7
2
0
8
2
3
8
4
4
7
4
1
7
5
1
9
6
3
8
5
4
7
5
4
7
4
2
7
4
4
5
4
4
5
4
4
7
1
3
9
2
2
36
28
24
76
60
45
75
58
45
36
26
19
7
1
2
7
0
2
11
8
8
59
52
55
255
255
255
255
216
153
229
166
167
204
144
150
122
83
50
255
255
255
255
205
147
205
146
98
183
131
89
161
116
78
141
101
68
121
86
60
143
107
86
181
138
115
153
120
100
74
63
50
28
23
17
14
5
4
11
2
2
10
4
1
81
74
82
71
64
40
89
79
84
79
65
43
8
4
2
11
7
4
27
24
17
56
52
36
94
82
58
141
117
85
203
167
117
255
231
157
255
255
189
255
255
194
255
255
176
255
255
148
255
203
110
255
153
82
217
133
75
187
125
71
135
96
53
73
53
22
36
23
3
32
20
3
38
34
11
51
44
19
56
45
21
41
31
14
24
14
4
34
14
26
63
48
68
72
40
73
59
41
91
74
62
121
91
89
146
110
123
172
117
135
165
87
110
123
49
62
60
29
24
11
20
13
1
36
5
0
47
2
0
43
1
0
40
1
0
23
4
0
6
3
0
15
3
0
17
2
0
17
1
0
29
3
0
19
5
0
6
5
0
35
3
0
20
4
0
11
3
0
15
5
0
19
1
0
23
1
0
24
2
0
23
1
0
18
2
0
11
2
0
10
3
0
15
3
0
43
4
0
55
8
0
28
4
0
16
5
0
18
5
0
26
4
0
39
2
0
30
2
0
38
4
0
36
6
0
29
8
0
25
8
0
28
7
0
18
5
0
9
5
0
6
5
0
6
2
0
7
4
0
2
5
0
2
7
0
3
5
0
5
4
0
8
3
0
11
1
0
14
2
0
15
2
0
12
4
0
17
2
0
15
3
0
12
5
0
5
2
0
16
2
1
37
32
25
112
102
87
244
204
175
255
255
255
255
255
255
255
255
255
255
255
255
255
255
255
255
255
255
255
225
165
149
99
63
56
35
19
16
8
5
12
4
4
12
5
5
11
7
6
10
8
5
11
8
4
13
9
4
14
9
4
13
6
4
12
5
4
18
12
10
55
44
32
137
106
78
255
198
152
255
255
243
255
255
255
255
255
255
255
255
255
255
255
255
255
255
255
255
255
207
226
152
116
91
45
25
41
16
37
43
46
70
37
67
91
31
76
104
23
76
101
22
68
86
19
48
55
16
17
15
17
10
12
15
24
24
12
36
37
11
48
52
10
65
77
5
75
89
1
77
88
1
70
82
5
54
66
7
31
38
2
12
11
35
45
7
86
121
8
88
124
7
65
78
0
67
48
0
85
31
0
101
17
0
74
4
0
11
8
0
92
1
2
105
11
1
68
20
3
29
17
3
14
5
1
9
7
0
18
4
1
65
8
2
44
10
1
36
3
1
35
2
2
61
12
15
244
190
134
255
255
255
255
255
226
55
36
25
42
28
22
95
67
39
38
23
15
100
69
41
29
15
11
18
8
3
28
17
7
39
25
11
32
20
10
17
9
3
16
9
2
16
10
3
17
9
4
19
8
4
21
8
4
22
8
4
21
8
2
20
8
4
20
8
4
21
8
4
21
8
4
19
7
4
18
6
1
17
7
0
16
9
1
17
10
3
18
10
4
18
11
4
19
12
4
19
12
4
18
13
4
18
15
4
18
15
4
19
13
4
22
14
3
22
16
3
21
15
2
20
15
2
20
15
1
20
13
3
20
13
3
20
14
1
20
13
0
20
12
0
21
12
0
21
12
0
23
11
2
25
9
2
25
9
0
22
11
1
21
11
1
24
9
1
22
8
3
18
8
2
127
98
63
242
177
126
255
247
213
255
255
255
61
30
28
255
255
255
255
255
239
66
42
35
22
12
1
21
10
1
18
11
2
18
12
0
21
12
4
24
12
7
25
12
5
26
12
4
27
12
4
29
12
4
31
13
5
32
16
6
32
20
2
32
24
5
33
27
8
36
28
8
38
28
7
37
27
5
35
25
4
33
25
3
32
27
1
32
28
3
32
28
4
32
28
4
32
28
4
32
27
5
33
26
7
34
26
5
34
26
8
34
26
10
33
24
8
39
26
2
77
55
19
140
102
46
190
139
64
178
132
63
112
91
42
54
50
22
59
53
21
145
108
50
255
196
85
255
255
102
255
255
99
255
242
87
255
195
67
255
138
43
193
90
25
131
54
13
83
29
5
52
13
3
33
7
1
28
10
0
25
11
2
23
12
0
21
12
3
15
10
3
14
10
4
13
11
3
11
9
0
11
7
1
11
7
4
11
7
2
12
5
2
11
7
1
10
7
0
9
5
0
8
4
0
8
4
3
8
4
2
8
3
2
10
4
4
10
3
3
13
4
0
15
4
0
13
3
0
9
3
2
9
0
1
11
1
3
14
3
4
13
3
4
12
1
4
12
1
4
8
4
3
255
205
185
255
255
255
5
4
3
5
4
4
7
1
1
5
4
0
5
4
0
7
1
0
7
4
1
8
4
3
9
1
4
10
2
4
9
4
4
7
4
4
5
5
4
7
8
4
8
7
2
7
6
2
8
5
3
11
4
5
11
4
4
10
4
1
10
3
2
11
4
4
9
3
5
7
4
4
7
5
3
8
5
4
8
5
4
10
5
4
10
4
4
9
3
1
8
5
0
8
5
0
5
2
1
5
3
4
7
5
3
7
5
0
8
4
1
8
4
4
8
4
4
8
4
3
8
4
1
10
4
1
8
4
4
7
4
4
5
1
2
5
1
2
4
4
2
4
4
3
25
22
21
181
133
108
255
185
141
254
172
132
122
84
62
5
3
4
5
3
4
17
18
18
183
149
141
255
255
255
255
167
93
201
124
97
243
176
177
155
116
96
255
255
255
255
255
255
255
255
253
255
255
243
255
255
232
255
255
222
255
255
220
255
255
249
255
255
255
255
255
255
255
255
235
255
195
157
138
102
74
63
46
31
17
13
7
57
52
63
98
87
56
67
57
64
99
82
54
86
74
55
175
143
103
255
214
148
255
255
172
255
255
181
255
255
187
255
255
195
255
255
190
255
255
157
255
191
107
204
116
55
121
56
24
81
45
28
92
75
56
112
96
66
82
65
35
28
16
3
2
8
14
13
9
8
29
30
18
40
43
28
52
48
39
40
36
38
45
38
38
20
10
31
45
30
79
75
60
102
66
52
90
51
64
100
83
104
131
106
113
126
81
82
79
43
39
26
9
11
1
22
4
0
47
3
0
25
1
0
36
4
0
62
4
0
30
3
0
13
4
0
26
2
0
33
1
0
24
1
0
21
1
0
4
2
0
16
1
0
24
2
0
15
5
0
44
4
0
24
1
0
23
0
0
27
4
0
32
4
0
32
2
0
30
2
0
31
6
0
29
7
0
16
5
0
24
3
0
44
3
0
61
7
0
45
8
0
11
5
0
8
4
0
28
4
0
37
4
0
13
4
0
20
1
0
30
5
0
41
8
0
47
7
0
47
7
0
54
9
0
60
8
0
59
7
0
58
10
0
57
11
0
52
9
0
48
7
0
48
7
0
47
5
0
43
2
0
21
7
0
10
7
0
15
6
0
12
5
0
7
2
0
1
1
0
2
3
0
13
4
0
31
2
0
26
3
0
10
3
0
12
2
0
5
3
0
20
14
9
88
72
57
223
168
141
255
255
232
255
255
255
255
255
255
255
255
255
255
255
255
255
255
233
255
189
131
129
88
59
53
34
22
21
12
8
13
5
4
13
4
6
16
5
8
32
19
17
89
65
50
193
142
108
255
253
191
255
255
255
255
255
255
255
255
255
255
255
255
255
255
255
255
255
245
255
211
167
154
101
68
47
10
22
24
40
72
21
69
100
19
82
111
18
83
106
16
77
96
21
60
79
22
32
44
14
6
10
11
16
19
15
29
36
18
44
47
16
54
58
12
69
76
6
80
89
2
79
90
2
72
85
4
62
69
3
46
49
2
25
26
7
10
7
4
3
0
5
4
1
5
3
3
17
26
2
49
69
1
63
83
1
53
61
0
37
17
0
46
29
0
79
39
0
98
14
0
50
7
1
48
7
2
96
7
3
78
20
6
33
16
8
17
13
7
21
6
6
62
11
5
60
12
4
21
2
2
39
18
11
58
29
13
103
56
52
255
255
255
255
255
255
166
127
92
42
27
17
94
66
39
30
17
11
104
73
44
32
16
11
22
8
4
52
32
18
54
33
14
57
37
18
16
9
0
17
9
1
18
11
2
18
11
1
17
9
0
16
8
1
17
8
4
19
8
4
19
8
4
18
8
2
20
9
3
22
10
4
22
9
5
20
8
7
19
7
7
18
5
5
18
5
4
16
6
3
14
6
2
14
6
2
14
6
1
16
7
2
18
9
3
17
11
2
16
12
1
17
11
2
18
10
3
18
11
3
19
12
3
21
13
1
22
14
3
22
14
3
22
15
4
20
16
4
18
17
4
20
17
4
19
15
4
17
15
3
17
15
1
20
13
0
20
13
2
21
14
0
24
12
1
25
9
4
24
8
1
14
6
5
8
10
13
255
201
144
255
255
255
255
169
154
255
255
230
255
255
255
174
107
96
25
15
3
26
13
2
25
12
0
24
12
1
24
12
3
25
13
4
26
14
3
26
13
1
27
12
3
28
12
5
29
12
7
31
12
2
33
12
4
34
13
3
33
15
4
32
17
4
31
19
4
29
19
4
29
18
1
30
19
2
30
20
2
31
20
1
33
20
3
35
20
3
36
20
2
37
20
4
38
19
5
38
18
6
40
19
7
50
31
6
109
77
33
216
153
68
255
223
96
255
255
106
255
255
105
255
255
106
255
251
104
255
229
97
255
233
94
255
255
103
255
255
97
255
204
69
220
117
35
113
51
15
54
20
7
34
12
5
30
10
4
31
11
3
31
10
1
22
8
0
17
8
0
19
11
0
21
11
2
22
13
5
19
12
5
17
12
4
18
14
3
17
12
2
17
9
3
16
8
4
13
7
4
11
7
1
11
5
0
11
5
0
12
7
0
12
7
0
10
5
0
10
5
4
10
5
1
8
4
3
11
4
4
14
4
1
15
4
1
14
2
2
8
0
1
6
1
2
7
2
3
10
0
4
11
3
5
8
3
3
7
1
4
8
1
4
8
4
3
255
203
183
255
255
255
5
5
1
4
5
4
5
3
3
7
2
0
7
4
0
7
3
0
7
3
0
7
4
0
6
1
0
8
2
4
9
3
4
8
2
2
5
2
2
5
5
3
7
7
3
7
5
2
7
5
4
9
5
2
10
5
4
8
5
3
10
5
2
11
7
4
13
5
3
12
4
3
10
5
4
11
7
5
12
7
5
10
5
5
8
5
5
7
4
4
7
4
1
8
7
0
7
4
0
7
1
3
7
1
4
7
4
1
8
5
0
8
6
1
6
5
3
6
4
4
6
4
2
8
4
2
8
2
2
7
4
4
7
4
4
5
2
3
4
3
0
4
4
1
52
43
41
255
206
161
255
173
123
255
237
180
241
159
118
7
2
5
15
12
11
91
76
75
255
255
255
255
255
255
215
162
138
130
110
114
107
99
119
47
38
39
145
119
137
196
146
154
255
204
202
255
249
236
255
255
255
255
255
255
255
255
255
255
255
243
255
236
205
255
255
229
255
255
255
255
255
255
255
255
255
255
255
198
183
131
96
46
39
44
158
132
88
159
122
85
255
209
145
255
255
173
255
255
182
255
255
181
255
255
165
255
238
141
255
202
110
208
129
62
89
32
4
8
38
39
34
42
36
18
13
13
91
79
67
122
101
76
89
69
46
17
3
4
40
45
38
36
36
24
18
16
25
53
45
54
26
19
38
27
29
7
64
58
54
37
18
81
76
72
130
112
93
140
129
84
100
128
63
62
92
65
69
46
57
62
29
31
27
28
11
4
24
5
0
17
2
0
29
1
0
32
3
0
39
4
0
44
5
0
10
2
0
47
2
0
50
0
0
47
3
0
49
6
0
34
4
0
24
2
0
32
4
0
32
5
0
20
3
0
25
2
0
35
1
0
32
2
0
6
3
0
9
3
0
12
2
0
12
2
0
10
4
0
9
4
0
10
5
0
25
3
0
40
2
0
57
3
0
61
4
0
51
7
0
25
3
0
10
4
0
26
4
0
34
6
0
21
2
0
12
3
0
12
6
0
3
3
0
5
1
0
7
1
0
2
1
0
10
1
0
20
4
0
30
2
0
35
4
0
38
3
0
40
6
0
33
7
0
21
5
0
15
2
0
17
5
0
25
3
0
6
2
0
21
0
0
27
0
0
11
1
0
15
3
0
33
4
0
47
3
0
45
2
0
35
2
0
17
1
0
18
1
0
25
3
0
17
4
0
3
4
0
4
3
0
10
5
5
57
36
28
182
129
105
255
255
215
255
255
255
255
255
255
255
255
255
255
255
255
255
255
220
235
168
121
111
76
52
134
94
73
254
184
142
255
255
232
255
255
255
255
255
255
255
255
255
255
255
255
255
255
255
255
255
207
233
164
123
94
55
27
34
13
40
30
42
78
23
65
101
15
82
110
13
83
105
13
72
93
15
50
62
14
20
20
11
9
13
14
23
28
16
36
38
15
50
54
10
64
72
5
74
83
2
77
85
5
74
83
8
68
79
10
57
65
9
39
43
5
21
21
2
10
5
2
1
0
2
1
0
9
1
0
5
1
0
7
1
0
12
1
0
16
8
3
7
3
2
8
15
3
25
34
1
42
56
2
41
37
1
26
26
0
49
53
0
94
31
0
88
5
1
30
13
5
50
7
10
61
32
19
67
38
25
52
26
18
26
19
10
54
13
6
55
3
1
38
40
23
158
132
86
255
244
172
196
178
134
255
255
250
255
255
193
52
36
23
81
56
31
10
4
7
106
76
45
28
16
10
22
8
4
66
43
26
36
16
5
78
48
27
20
8
1
17
4
1
19
5
0
19
7
2
17
8
1
13
8
3
13
8
3
15
7
2
16
5
2
15
4
2
13
4
2
14
5
0
18
7
3
18
7
4
19
5
4
20
4
4
20
5
3
20
6
4
19
5
4
16
4
4
14
4
3
14
4
2
14
4
4
15
5
4
16
7
4
16
8
3
17
9
2
19
10
3
20
9
4
20
9
3
21
11
3
22
12
2
22
13
0
22
15
1
22
16
3
27
18
3
36
22
1
37
23
1
27
20
2
20
17
1
21
15
1
21
14
1
20
15
3
22
13
3
23
12
1
24
12
3
24
12
4
184
122
81
255
255
255
255
255
242
255
203
147
255
255
255
255
205
180
31
13
10
28
11
1
29
12
1
30
12
2
29
13
4
29
14
3
30
13
1
29
12
2
28
13
2
28
15
2
29
16
7
32
15
8
35
13
6
37
12
2
39
12
1
40
12
4
40
12
5
40
13
5
49
24
8
72
46
18
85
58
23
84
58
22
81
56
20
87
61
21
116
84
37
129
94
46
124
90
44
152
111
51
220
157
74
255
206
94
255
249
105
255
255
104
255
239
87
255
185
58
255
138
34
255
143
39
255
193
60
255
229
80
255
231
83
255
190
64
209
111
33
90
43
10
36
13
6
34
6
8
31
4
5
28
5
2
28
7
0
28
7
0
25
7
0
21
8
1
21
10
2
23
11
2
21
9
4
17
7
4
13
7
3
15
8
1
16
8
0
13
4
3
13
5
4
13
7
3
11
7
1
11
7
0
12
7
0
11
5
0
11
4
1
12
4
3
13
5
4
16
7
4
15
5
2
14
4
2
16
4
1
15
5
0
12
3
2
10
3
1
9
0
3
11
0
4
11
0
4
8
2
3
7
1
0
5
2
1
4
3
4
4
3
3
5
4
3
255
201
182
255
255
255
5
5
0
4
5
4
4
4
4
5
3
0
5
3
0
4
4
0
5
4
0
7
5
0
5
4
0
7
4
3
8
4
4
10
4
3
11
4
3
8
2
2
6
4
4
5
4
4
5
4
1
7
5
0
8
5
3
7
5
4
8
4
3
10
5
3
12
7
2
15
5
1
12
4
1
9
5
4
10
7
4
9
7
4
7
7
4
7
5
4
8
4
4
10
5
1
8
5
0
8
4
1
8
3
4
5
2
4
5
3
3
8
4
1
5
5
0
5
5
3
6
5
3
7
5
4
7
4
4
8
4
2
9
5
4
7
4
4
7
4
5
8
4
4
51
42
43
255
222
173
255
171
112
255
223
168
255
223
162
28
7
9
61
47
48
255
216
200
255
255
255
255
255
201
62
60
59
151
94
67
151
94
92
85
55
54
154
128
140
180
131
126
199
139
118
209
143
111
255
192
151
255
213
164
230
146
106
120
88
91
46
45
43
77
65
58
174
134
119
255
237
216
255
255
255
255
255
255
255
255
228
255
197
129
255
239
147
255
196
115
255
200
126
255
203
124
237
154
89
154
98
54
86
55
22
39
24
5
13
17
15
55
56
35
53
55
34
8
3
7
82
70
51
106
88
60
66
52
36
23
14
8
13
16
7
42
39
19
34
27
25
10
11
29
36
36
40
69
60
66
32
21
82
74
55
115
103
86
133
107
89
125
105
101
126
123
109
110
110
66
62
66
17
60
35
74
113
38
40
56
16
4
0
37
5
0
4
1
0
32
3
0
26
1
0
29
1
0
39
4
0
27
3
0
8
2
0
14
5
0
37
6
0
46
7
0
34
6
0
25
5
0
27
5
0
28
5
0
37
3
0
40
3
0
35
4
0
24
3
0
4
1
0
12
2
0
13
5
0
9
2
0
6
1
0
4
1
0
0
1
0
9
3
0
29
1
0
54
4
0
57
4
0
38
4
0
19
3
0
11
4
0
20
6
0
31
4
0
16
4
0
10
5
0
13
1
0
26
8
0
23
8
0
15
7
0
7
6
0
5
6
0
7
5
0
11
2
0
17
1
0
22
4
0
25
5
0
30
8
0
48
11
0
55
9
0
49
6
0
37
4
0
17
1
0
14
4
0
24
4
0
22
3
0
11
4
0
50
8
0
48
10
0
30
9
0
14
6
0
34
3
0
31
4
0
17
3
0
12
0
0
9
2
0
4
1
0
3
1
0
10
4
0
6
6
0
4
5
0
18
9
7
90
57
52
226
162
139
255
255
227
255
255
255
255
255
255
255
255
255
255
255
255
255
255
255
255
255
255
255
255
255
255
255
255
255
255
252
255
212
171
148
102
81
53
21
4
38
20
45
37
48
80
31
70
104
23
77
106
18
74
97
15
66
81
15
40
41
16
8
8
15
18
28
15
31
41
12
41
47
7
53
59
1
67
75
4
76
85
10
76
87
11
72
82
11
64
72
14
50
56
12
32
37
8
18
19
2
8
5
7
1
0
8
2
0
5
4
0
3
4
0
1
1
0
11
3
0
10
3
0
5
2
0
4
1
0
8
2
3
13
9
2
15
10
3
14
2
2
8
28
0
42
64
2
40
59
0
8
8
0
7
42
0
52
34
0
82
7
2
52
22
17
38
22
15
62
6
5
54
25
15
21
29
19
31
26
8
74
25
6
66
33
20
255
227
154
255
255
237
255
255
191
131
93
56
255
255
249
151
119
91
64
40
17
14
6
6
106
74
44
26
17
11
19
9
4
67
45
27
18
8
3
81
52
29
23
11
3
18
6
0
18
5
0
17
5
1
18
7
4
18
7
4
18
6
4
18
6
4
17
5
4
16
5
4
15
6
3
14
6
3
16
7
1
18
8
3
18
8
4
18
8
3
18
8
0
19
7
2
20
5
2
19
6
1
21
8
2
21
6
3
21
5
1
26
8
2
39
13
2
60
21
3
83
31
4
99
38
4
103
39
4
99
37
4
96
36
4
94
35
3
84
32
1
74
29
2
80
30
2
101
37
3
119
45
2
122
46
2
103
41
2
65
29
1
35
18
1
22
14
4
20
15
4
20
16
1
21
16
2
23
16
2
25
15
0
75
51
36
255
255
255
255
255
255
123
82
30
255
255
255
255
255
255
61
33
34
25
11
0
25
12
2
27
12
3
29
12
3
28
12
3
29
13
2
30
15
2
30
16
1
32
16
0
34
17
2
34
19
2
35
19
0
37
17
0
39
16
0
45
22
3
79
52
19
139
98
42
228
160
71
255
216
94
255
237
101
255
239
104
255
236
105
255
232
103
255
242
105
255
248
103
255
249
101
255
254
102
255
255
105
255
247
98
255
208
75
255
137
42
149
70
16
76
32
4
46
19
2
45
20
1
70
33
3
105
50
7
103
46
10
63
26
7
31
10
5
28
4
4
30
1
3
33
1
4
29
4
2
28
7
3
27
7
0
24
7
0
24
9
1
25
11
4
23
9
4
19
7
4
15
7
4
14
5
1
15
5
1
17
7
3
15
7
4
10
4
4
8
4
3
8
4
0
7
4
0
11
5
1
12
5
2
10
3
2
11
1
4
12
1
4
14
4
4
14
4
3
12
2
1
12
3
1
14
4
3
11
2
4
8
3
3
8
3
2
8
1
4
8
3
5
8
4
3
7
3
2
7
2
2
7
2
2
5
3
3
5
4
1
7
4
4
255
200
183
255
255
255
7
4
0
6
4
3
5
4
4
5
4
1
5
2
0
4
3
0
4
4
0
5
4
0
5
3
1
5
4
2
5
4
3
8
4
4
13
5
4
13
4
2
8
5
4
7
5
4
7
4
0
7
5
0
8
4
2
8
4
4
8
4
3
8
2
3
8
4
4
10
5
4
10
4
1
9
4
4
10
4
3
13
5
4
12
7
5
9
5
2
8
5
4
10
5
4
8
5
1
8
4
0
10
4
1
7
4
3
6
1
4
8
1
3
8
4
0
8
5
1
8
5
2
8
5
2
8
4
4
8
4
4
11
5
4
10
3
3
9
2
4
7
3
4
23
21
23
255
183
152
255
225
158
161
132
108
255
255
188
103
52
42
132
110
100
255
255
255
255
255
253
72
58
37
189
133
114
163
107
77
125
95
98
37
29
26
143
124
130
66
63
57
27
24
14
131
99
106
255
202
187
255
221
198
255
249
224
255
255
238
249
180
155
106
76
63
14
5
18
44
46
51
75
72
75
226
163
150
255
201
153
255
209
124
255
175
94
129
71
33
79
37
17
77
51
23
44
29
8
22
13
14
13
24
30
38
39
30
50
47
23
39
35
16
39
39
45
99
91
83
73
62
62
12
10
23
32
34
15
31
28
25
19
15
35
18
23
69
79
76
125
116
102
152
119
100
144
134
110
139
104
84
115
102
78
104
81
67
67
58
51
43
46
34
33
18
16
45
7
68
99
15
65
89
38
69
108
32
43
57
29
5
0
27
4
0
7
2
0
23
3
0
38
3
0
45
2
0
36
5
0
30
3
0
27
5
0
26
5
0
27
6
0
20
3
0
8
0
0
8
3
0
9
5
0
9
1
0
5
2
0
17
3
0
12
5
0
11
5
0
11
2
0
8
2
0
9
2
0
13
1
0
21
3
0
14
3
0
8
1
0
17
1
0
34
6
0
28
2
0
10
2
0
1
3
0
13
3
0
32
5
0
30
3
0
21
5
0
7
3
0
3
3
0
7
5
0
8
0
0
23
5
0
36
7
0
36
9
0
24
8
0
12
6
0
20
6
0
33
5
0
40
5
0
46
9
0
52
12
0
49
9
0
19
4
0
25
4
0
41
4
0
39
6
0
12
4
0
23
1
0
26
2
0
27
5
0
46
5
0
1
2
0
21
0
0
48
6
0
55
6
0
30
1
0
9
3
0
3
0
0
5
2
0
8
1
0
11
2
0
3
1
0
3
2
0
1
7
5
3
27
27
8
46
56
12
60
76
16
56
71
83
65
53
234
158
125
255
255
227
255
255
255
255
255
255
255
255
216
231
168
131
90
61
41
22
15
33
30
40
70
41
55
91
41
69
102
35
76
100
25
73
90
24
56
66
21
29
27
15
2
15
12
26
40
17
37
49
17
43
55
11
56
71
3
67
82
7
69
82
12
67
79
14
65
75
18
60
65
17
44
48
10
23
27
2
8
10
1
0
1
2
1
0
1
0
0
1
2
0
7
3
0
6
5
0
1
3
0
2
5
0
5
4
0
15
1
0
10
1
0
4
1
0
2
1
0
3
3
1
7
7
2
10
13
1
16
13
1
20
11
2
4
12
0
30
52
2
43
67
1
19
31
0
8
19
0
4
34
0
44
8
9
96
27
23
33
31
25
66
16
10
48
11
12
31
29
18
54
39
20
73
7
2
255
247
163
255
255
255
144
135
70
231
218
156
255
255
188
255
255
194
46
22
14
19
12
10
103
71
44
27
17
12
18
9
4
72
48
27
28
16
5
85
56
29
24
13
4
17
6
1
15
6
1
15
6
2
18
6
3
20
5
2
19
4
0
18
6
0
18
9
1
18
9
2
18
8
2
17
8
4
17
8
4
18
9
4
17
10
3
16
9
1
16
8
0
16
8
2
18
9
2
28
13
2
49
20
1
73
28
4
96
35
6
112
41
5
123
45
4
128
45
5
128
43
6
126
42
5
127
43
4
128
44
4
128
44
4
128
44
4
129
44
4
128
44
5
128
45
7
126
44
7
115
39
5
114
37
5
129
43
6
128
44
5
105
40
5
68
29
7
38
20
4
25
18
1
23
17
1
21
15
3
22
13
4
17
11
8
255
255
217
255
255
255
140
65
89
255
255
255
255
255
255
169
96
75
66
31
2
43
20
1
30
13
2
29
12
4
30
13
4
29
14
5
29
13
4
31
12
1
33
12
1
34
13
2
34
16
2
35
19
3
38
22
5
48
31
10
139
99
43
255
199
91
255
244
110
255
249
108
255
227
91
255
206
78
255
207
79
255
210
83
255
205
83
255
186
70
255
173
57
255
175
57
255
158
50
225
117
34
154
70
14
96
37
3
59
22
1
43
17
3
35
13
4
30
10
3
28
10
2
28
11
2
26
8
3
25
5
1
28
3
3
30
1
4
27
0
1
27
1
0
28
5
1
28
10
2
27
10
1
24
10
0
21
10
1
21
10
2
21
8
3
15
5
1
13
6
2
14
8
2
15
5
2
15
4
2
16
7
4
13
7
4
9
5
3
8
3
1
11
2
1
12
3
2
11
4
2
9
3
3
8
0
4
12
1
4
15
4
1
13
4
0
10
2
1
10
4
3
10
4
4
10
3
3
7
2
1
8
3
1
9
1
2
7
2
4
5
4
3
4
4
3
4
4
2
5
5
3
7
6
4
7
5
4
8
4
3
8
4
1
255
200
184
255
255
255
8
4
1
5
4
1
5
4
4
5
4
2
5
4
2
4
1
1
4
3
0
5
4
1
5
1
2
5
1
2
6
3
2
5
4
4
7
4
4
9
3
1
9
5
4
7
5
4
7
4
0
8
7
0
7
5
2
7
2
4
8
4
2
8
4
0
5
2
1
5
4
4
7
4
3
8
4
3
8
4
2
10
2
2
11
4
6
8
4
3
5
4
1
8
5
4
8
5
4
7
3
1
8
1
0
10
4
0
8
4
3
7
3
4
7
2
3
8
4
1
8
5
0
8
5
0
7
4
2
7
2
4
8
4
3
8
4
2
8
4
1
8
3
3
4
3
2
167
124
111
255
240
181
75
53
48
255
255
214
255
193
152
255
241
208
255
255
255
232
177
142
141
89
65
114
70
49
105
83
93
203
147
131
88
70
66
119
109
120
201
165
175
255
202
192
255
239
215
255
253
208
255
238
197
179
137
100
105
78
96
255
230
214
255
193
176
180
140
151
183
148
167
202
162
181
161
125
141
46
31
51
63
31
5
24
18
13
24
25
22
44
36
20
31
31
11
14
10
7
5
0
1
13
4
17
12
9
30
20
17
41
25
21
46
45
45
64
67
60
71
12
14
65
42
45
103
107
100
151
133
118
154
120
104
137
118
100
135
125
102
129
108
91
115
91
80
106
47
40
61
45
37
20
93
83
69
89
82
68
79
71
59
58
44
52
15
10
28
11
42
73
28
62
93
28
49
71
11
21
26
7
2
0
12
4
0
5
3
0
8
0
0
11
4
0
5
4
0
3
9
0
17
10
0
18
5
0
17
2
0
10
2
0
17
3
0
17
0
0
12
4
0
10
4
0
18
5
0
21
5
0
23
5
0
8
3
0
12
0
0
18
3
0
27
5
0
32
5
0
32
4
0
26
1
0
21
6
0
20
3
0
23
2
0
33
7
0
17
4
0
4
2
0
20
1
0
43
6
0
44
5
0
22
4
0
2
4
0
7
0
0
5
1
0
6
2
0
7
5
0
8
4
0
4
5
0
6
5
0
17
2
0
11
2
0
13
4
0
11
1
0
14
2
0
21
5
0
28
4
0
8
2
0
52
5
0
57
8
0
42
6
0
41
6
0
43
4
0
29
4
0
15
4
0
49
5
0
28
2
0
13
3
0
37
5
0
49
8
0
29
4
0
3
2
0
4
0
0
2
2
0
3
3
0
5
3
0
14
10
11
8
28
37
11
49
60
12
61
70
28
60
65
37
47
47
39
35
27
36
15
5
27
20
35
8
52
64
20
65
76
38
55
61
35
16
5
28
28
59
24
58
100
21
78
122
24
84
122
27
77
108
27
67
91
24
47
61
20
17
21
16
9
10
17
26
30
18
36
45
18
50
63
13
65
77
7
71
83
4
71
81
8
67
79
8
60
72
13
45
58
14
28
40
10
15
20
8
9
5
6
4
0
2
5
0
0
2
0
3
1
0
4
2
0
4
1
0
3
2
0
5
1
0
8
4
0
5
5
0
3
2
0
10
4
0
17
3
0
4
2
0
3
2
0
2
2
0
1
3
0
1
2
0
4
4
0
7
6
0
14
9
0
18
11
2
9
1
0
14
25
2
39
51
0
35
45
0
18
24
0
17
19
0
119
6
4
75
28
22
69
4
5
52
3
4
18
9
14
27
32
20
57
25
25
190
131
76
255
255
255
181
163
143
255
255
251
104
73
40
255
255
255
81
69
61
21
13
8
98
69
42
30
17
13
17
5
7
88
56
33
37
17
12
98
63
34
25
15
4
16
3
2
14
3
2
15
4
2
16
4
3
16
5
4
15
6
4
14
7
4
18
10
3
28
14
2
34
17
2
31
16
1
27
13
1
29
12
3
27
12
4
20
10
3
21
9
2
32
14
3
62
26
4
100
41
3
118
45
2
124
47
3
124
47
4
118
44
4
105
39
3
84
32
3
62
24
2
47
18
1
43
17
3
47
18
4
50
19
3
52
21
2
62
23
3
71
26
4
67
26
4
48
19
3
30
11
2
31
10
2
57
19
2
91
29
3
121
40
4
130
44
3
121
41
1
107
39
3
92
36
4
85
33
3
89
34
1
101
39
2
255
197
134
255
255
255
255
184
184
255
255
205
255
255
255
255
152
132
133
56
2
119
51
2
96
43
3
76
36
1
61
30
2
56
28
2
66
32
5
85
40
3
97
47
2
127
77
25
189
127
58
220
154
74
229
163
77
255
188
89
255
234
107
255
242
107
255
174
70
217
116
41
129
60
17
76
27
3
72
25
5
78
28
1
85
32
2
71
27
3
56
19
0
56
19
0
50
18
1
46
18
4
44
18
2
38
16
1
31
13
3
28
10
1
27
8
0
26
8
0
28
7
1
29
5
3
24
3
2
24
0
1
29
1
2
27
3
2
25
4
1
26
5
0
27
9
0
24
9
0
16
7
0
16
8
1
22
10
4
22
8
3
18
7
1
14
7
2
13
7
1
13
8
2
12
5
2
12
4
2
11
7
3
8
4
0
8
3
0
8
4
0
11
4
2
10
4
0
7
3
2
9
1
3
12
1
2
15
4
1
14
4
0
7
1
0
5
2
3
7
3
2
5
3
0
5
4
3
7
4
3
9
1
4
8
1
4
5
2
4
5
3
2
4
1
2
4
3
1
5
4
2
8
5
3
7
6
2
8
5
3
8
5
0
252
199
184
255
255
255
8
4
3
7
4
0
7
4
4
7
4
2
5
5
0
4
4
2
2
4
1
4
5
2
5
4
1
6
1
2
5
0
2
4
3
3
5
4
4
7
1
4
9
4
5
8
4
5
8
1
1
9
5
0
7
7
1
6
4
4
7
2
3
8
4
0
7
4
1
6
4
4
5
4
3
5
4
1
7
5
2
7
4
3
8
4
5
9
4
4
7
4
1
7
5
1
8
7
4
7
5
2
6
3
2
7
2
1
8
3
1
7
4
3
6
4
4
5
2
3
4
4
0
5
5
0
5
5
2
5
4
3
7
4
2
7
5
1
6
6
0
7
5
1
25
20
20
114
93
81
255
217
171
217
138
96
233
171
127
255
229
174
255
255
255
255
255
219
76
51
35
144
98
71
69
59
57
148
122
113
145
114
92
28
16
14
25
27
22
70
38
29
20
28
43
139
112
118
160
103
81
158
99
54
204
147
104
208
152
95
160
108
73
130
100
112
150
134
149
132
117
128
94
79
87
11
12
24
17
11
1
10
5
14
43
55
61
59
55
53
10
14
25
24
25
30
14
10
45
3
2
55
6
13
70
56
57
105
108
102
144
140
127
161
144
119
147
119
93
120
79
63
93
62
53
74
65
50
62
34
24
43
41
31
52
16
4
29
46
49
32
105
94
69
136
114
79
137
111
72
113
88
59
57
37
16
62
72
45
94
90
75
51
37
49
11
9
1
12
8
2
75
48
31
112
75
62
120
87
73
88
67
54
44
33
25
8
2
1
6
3
0
2
5
0
11
4
0
10
5
0
22
6
0
15
5
0
4
4
0
2
4
0
13
5
0
18
4
0
11
4
0
9
2
0
0
3
0
15
6
0
29
8
0
17
5
0
9
6
0
4
5
0
11
7
0
14
5
0
20
3
0
10
1
0
34
2
0
28
5
0
27
2
0
32
4
0
12
2
0
7
3
0
31
3
0
42
5
0
24
1
0
24
5
0
21
2
0
9
2
0
6
1
0
10
2
0
17
3
0
14
1
0
5
4
0
4
5
0
7
3
0
16
2
0
13
2
0
7
3
0
18
2
0
31
5
0
7
5
0
48
7
0
65
5
0
29
5
0
7
2
0
10
0
0
37
5
0
40
7
0
44
1
0
36
6
0
22
2
0
51
2
0
53
4
0
35
7
0
8
4
0
1
6
0
5
6
2
6
14
21
4
38
47
8
56
66
29
57
67
24
47
52
26
32
27
28
21
10
25
4
12
10
33
46
4
53
72
19
60
74
27
41
41
27
7
15
30
33
63
24
60
90
17
78
106
22
85
116
27
80
110
29
67
91
29
41
50
25
10
2
18
17
30
12
32
43
5
43
52
2
53
63
7
61
76
7
67
84
1
69
82
9
63
72
9
55
61
12
47
49
7
29
30
5
10
11
6
1
1
2
1
0
5
4
0
5
5
0
4
6
0
4
3
0
1
0
0
4
1
0
5
3
0
4
4
0
5
1
0
5
2
0
4
1
0
7
5
0
6
5
0
16
5
0
16
5
0
4
4
0
4
5
0
2
1
0
5
2
0
4
5
0
4
5
0
2
4
0
5
2
0
13
5
1
18
10
2
19
9
1
3
6
0
20
26
0
31
39
0
26
31
0
116
18
0
111
33
15
51
14
18
90
15
14
36
5
8
18
10
13
34
33
31
98
18
10
255
255
255
255
255
255
255
255
206
209
202
148
255
255
244
231
214
156
46
30
20
97
69
40
40
23
15
17
5
4
91
61
35
11
8
0
98
63
36
28
19
5
18
5
3
17
3
1
18
5
2
17
6
2
20
9
3
38
17
5
65
28
6
88
36
5
104
43
2
110
46
4
109
45
4
110
45
4
114
46
4
113
45
4
107
44
4
107
45
3
116
48
1
127
51
1
123
49
2
101
40
1
76
32
1
52
25
1
36
19
2
26
14
4
21
11
2
20
10
2
19
11
4
17
12
4
17
12
3
18
12
1
17
12
0
16
11
0
13
9
0
12
8
0
13
9
0
15
10
0
17
9
0
20
8
0
27
9
0
51
15
1
85
28
2
111
37
2
122
40
3
123
40
4
125
41
4
127
43
4
127
43
3
199
124
80
255
255
255
255
254
243
255
201
136
255
255
255
255
197
194
96
39
4
117
50
2
127
52
4
128
53
4
125
54
4
125
54
4
128
56
5
151
79
18
217
133
50
255
204
96
255
235
111
255
231
104
255
228
102
255
229
102
255
191
81
197
110
43
69
29
8
45
15
2
42
13
0
41
13
1
43
14
4
43
13
1
42
12
0
42
13
2
42
15
0
42
16
0
40
15
1
35
13
4
30
10
1
25
10
0
23
9
4
25
8
0
24
8
0
22
6
0
27
3
2
29
4
2
27
4
2
28
4
1
27
4
3
25
5
4
26
7
3
26
7
0
23
8
0
17
7
1
10
5
2
12
5
2
15
4
4
13
4
2
13
7
2
12
5
1
11
4
2
10
5
2
11
5
1
11
6
2
8
5
1
7
4
0
7
4
0
7
4
0
7
3
1
6
1
1
5
1
3
11
3
3
14
4
0
12
4
0
8
1
0
4
0
0
4
1
4
5
3
2
5
4
2
5
4
1
7
3
3
8
1
7
5
2
4
3
2
0
4
3
2
5
4
0
7
4
2
7
3
1
8
4
4
5
3
1
5
4
4
7
4
2
249
197
184
255
255
255
7
4
4
5
5
0
5
6
3
7
5
3
5
5
1
5
4
1
4
4
2
4
4
1
5
4
2
6
4
3
7
3
2
4
2
1
5
4
3
7
4
3
8
4
4
8
4
5
7
3
4
9
4
1
8
5
0
7
5
4
7
3
4
7
1
0
7
4
3
5
4
3
5
3
1
4
4
1
5
5
1
8
5
4
8
5
4
10
6
4
10
5
3
8
5
0
10
7
3
10
7
3
8
7
3
7
5
3
8
3
0
8
2
0
7
4
4
5
4
4
5
2
0
7
4
0
7
5
1
6
4
3
7
4
4
7
4
4
7
4
3
6
5
2
72
57
55
98
75
56
185
132
105
255
209
161
17
21
15
218
168
152
255
232
183
96
50
10
20
19
38
177
124
104
255
215
200
255
217
209
255
212
176
38
46
57
84
95
119
143
137
164
220
187
204
226
181
191
150
111
118
79
60
70
36
29
38
91
50
28
103
59
25
45
28
31
4
9
24
11
3
1
30
24
26
64
52
55
54
53
70
45
40
68
85
73
87
45
35
76
58
58
107
111
99
153
139
114
168
143
115
158
124
97
128
100
82
102
86
73
88
85
78
85
78
75
81
50
46
61
37
25
43
27
27
22
71
67
54
105
96
71
104
92
58
112
90
67
113
85
68
89
63
47
59
40
27
36
21
13
17
15
28
55
55
58
105
103
82
63
53
41
44
45
29
119
98
85
125
96
78
213
158
128
255
249
215
255
255
255
255
255
255
255
255
255
255
255
255
255
226
192
157
129
102
38
42
28
7
6
0
19
5
0
14
2
0
11
1
0
11
2
0
10
3
0
11
0
0
3
1
0
10
2
0
14
2
0
9
3
0
12
6
0
15
2
0
14
4
0
10
3
0
14
3
0
16
4
0
1
4
0
23
1
0
33
3
0
25
1
0
26
4
0
26
6
0
3
3
0
9
1
0
48
4
0
51
5
0
29
4
0
27
4
0
31
2
0
24
1
0
16
0
0
8
0
0
16
3
0
13
2
0
25
4
0
25
4
0
18
1
0
13
2
0
15
3
0
27
1
0
33
3
0
17
2
0
16
3
0
47
4
0
37
0
0
41
4
0
45
4
0
35
4
0
19
1
0
17
7
0
18
4
0
28
3
0
62
6
0
52
8
0
31
7
0
11
2
5
3
20
30
12
45
61
17
61
79
18
63
72
27
52
48
36
36
25
35
18
8
16
13
28
13
40
56
7
56
69
19
54
59
30
28
20
38
13
39
40
48
82
36
71
107
34
83
118
29
80
113
20
71
101
16
56
76
22
29
39
21
4
17
20
21
39
14
34
55
6
46
67
2
60
77
6
71
86
13
72
89
17
68
88
18
62
79
18
52
64
19
38
44
19
21
23
12
8
7
7
0
0
5
3
0
5
3
0
5
4
0
3
4
0
7
1
0
5
2
0
4
3
0
7
3
0
5
3
0
2
1
0
5
1
0
5
2
0
6
5
0
7
4
0
4
7
0
3
3
0
2
4
0
16
3
0
12
2
0
8
5
0
5
2
0
8
3
0
4
3
0
3
2
0
4
1
0
2
1
0
5
5
0
8
4
0
8
5
0
11
5
0
14
7
0
14
8
0
15
8
0
59
4
0
76
8
1
118
34
5
63
42
26
112
5
23
90
22
12
12
17
13
21
27
16
46
46
46
255
255
194
255
255
255
99
82
29
255
255
255
196
155
96
255
255
243
121
106
75
96
72
44
42
29
20
13
4
7
95
66
39
24
17
7
99
66
38
27
20
7
16
7
4
19
7
0
28
10
0
47
18
0
77
32
0
102
43
2
110
44
0
109
43
5
103
41
2
100
39
4
107
40
3
110
43
3
108
44
1
112
45
0
118
47
1
117
47
2
108
43
2
84
33
3
49
20
4
25
13
4
18
12
4
17
12
4
19
12
4
20
11
4
20
9
4
20
8
4
20
8
3
19
8
1
17
9
2
16
10
2
17
10
0
17
11
0
17
12
0
15
11
0
14
10
0
14
10
0
16
10
1
18
9
3
19
10
4
18
9
4
20
9
4
28
12
4
42
16
1
55
20
0
61
23
1
59
22
3
49
16
4
134
94
64
255
255
255
255
255
255
185
112
66
255
255
255
255
255
252
33
16
13
37
17
2
58
24
0
79
32
2
93
38
1
98
40
0
112
56
15
202
132
66
255
198
107
255
192
102
230
133
61
191
98
35
182
92
34
146
75
26
94
46
13
54
25
7
31
12
4
29
12
3
28
11
1
28
10
3
28
11
4
29
12
2
30
12
2
29
12
1
26
9
0
23
9
0
24
10
3
26
9
4
25
8
2
25
8
2
28
8
3
29
7
0
28
4
0
29
1
0
30
1
1
27
5
3
23
4
3
22
4
1
23
4
1
26
7
4
24
7
4
20
7
2
17
7
1
14
7
2
12
5
1
12
4
2
13
4
3
11
5
0
12
5
1
14
5
3
14
7
3
13
7
2
13
5
2
10
5
1
7
3
0
8
4
0
8
4
1
8
2
3
7
1
3
8
0
2
9
3
4
11
4
1
12
3
0
8
1
0
5
0
0
4
0
0
4
0
4
7
0
3
8
0
3
7
0
4
7
0
4
7
3
5
3
2
0
1
1
2
5
5
3
5
3
1
2
1
2
4
2
1
7
4
3
5
2
2
5
2
2
8
1
3
247
196
183
255
255
255
6
2
4
4
3
1
5
4
1
7
4
4
5
4
4
5
3
4
6
3
4
5
4
2
1
2
1
1
3
3
5
4
2
4
3
0
2
1
0
4
4
2
5
5
4
5
4
3
5
4
4
7
4
4
7
4
3
7
6
4
8
4
4
8
3
3
8
4
4
7
4
3
5
1
3
4
1
4
3
4
2
7
5
3
8
4
4
7
4
4
8
4
4
11
4
0
12
5
1
10
4
2
10
4
2
8
4
4
7
4
1
7
4
0
8
4
3
8
5
4
8
4
4
8
4
3
8
5
1
7
4
0
7
5
1
6
5
3
7
3
4
7
4
4
112
87
78
33
24
12
89
65
52
255
221
175
249
194
161
201
170
167
118
92
73
45
52
64
34
42
54
249
176
157
255
255
222
191
145
161
255
218
191
146
129
170
178
153
181
146
118
139
107
78
88
21
21
23
81
75
78
80
64
63
27
24
23
12
13
11
24
29
28
37
33
29
28
26
57
41
36
63
38
36
72
106
98
132
139
129
165
171
148
171
158
128
148
135
106
130
134
113
131
111
100
112
62
54
66
38
33
47
33
20
23
16
31
14
62
70
49
82
75
55
69
53
32
36
20
9
28
22
24
49
41
52
27
32
47
9
23
41
19
17
23
29
20
31
16
34
45
45
57
65
55
63
58
45
55
48
39
56
46
32
7
12
137
93
72
170
130
98
255
254
224
255
255
232
255
217
182
218
173
161
255
251
230
255
225
203
255
255
255
255
255
255
255
255
255
255
255
255
255
255
255
255
255
255
255
255
220
198
162
126
69
59
39
9
7
0
11
6
0
10
4
0
8
2
0
7
2
0
9
1
0
9
1
0
10
1
0
4
3
0
5
5
0
14
3
0
17
1
0
16
1
0
11
2
0
10
1
0
21
0
0
22
3
0
26
3
0
32
5
0
24
7
0
5
2
0
13
5
0
55
2
0
43
3
0
13
3
0
20
4
0
22
2
0
13
1
0
2
1
0
7
0
0
15
4
0
14
1
0
2
4
0
9
2
0
8
2
0
5
1
0
7
1
0
14
3
0
8
3
0
13
2
0
14
1
0
22
1
0
47
2
0
62
4
0
61
7
0
51
8
0
43
9
0
48
9
0
57
8
0
56
8
0
33
7
8
11
30
33
8
51
59
17
60
69
23
57
62
30
41
43
35
24
19
38
10
11
32
20
36
12
47
60
14
54
66
25
36
40
26
5
17
22
40
67
26
65
98
31
83
118
31
86
124
27
83
115
24
74
96
25
47
58
22
12
17
24
13
8
28
28
24
20
43
46
5
57
72
5
67
91
13
74
98
18
75
93
18
72
81
17
61
71
15
43
57
12
24
35
8
11
14
7
2
2
8
0
0
8
1
0
4
4
0
4
4
0
4
3
0
4
1
0
8
3
0
10
4
0
7
1
0
3
2
0
3
7
0
4
5
0
7
4
0
2
0
0
2
3
0
6
5
0
13
5
0
10
1
0
8
7
0
8
5
0
8
1
0
15
2
0
9
2
0
8
3
0
1
4
0
4
3
0
5
7
0
3
0
0
4
4
0
4
4
0
4
2
0
4
4
0
7
4
0
4
2
0
8
1
0
12
3
0
22
10
0
66
13
0
25
13
2
83
14
0
153
43
14
34
36
40
140
4
15
62
4
2
17
20
27
13
56
51
225
127
56
255
255
255
230
200
174
255
255
244
111
127
94
255
255
220
255
255
183
134
103
70
42
33
22
14
5
3
99
72
45
11
7
5
100
72
43
25
16
8
43
20
3
75
34
0
94
40
0
102
43
0
104
43
0
92
36
1
67
24
2
46
15
1
30
8
4
25
7
4
28
9
2
27
8
2
22
6
2
24
8
2
30
11
3
32
11
5
25
9
6
17
8
4
14
8
2
14
8
3
14
7
4
14
5
3
13
4
1
13
5
0
14
7
1
14
8
3
15
8
4
17
8
4
16
8
3
16
7
1
17
5
0
17
5
0
17
7
0
15
8
0
13
8
0
13
9
0
15
12
2
16
12
3
17
12
3
17
11
4
18
9
3
18
8
1
20
9
0
23
11
0
23
11
0
21
10
0
20
11
0
124
91
65
255
255
255
255
255
255
84
44
20
255
255
255
255
255
255
50
27
34
20
7
4
20
8
4
20
7
4
22
7
3
46
27
12
159
111
66
255
193
117
232
152
89
111
64
34
46
21
10
34
13
5
39
15
7
32
13
5
25
9
4
24
11
4
22
12
4
19
11
4
21
9
4
26
7
4
26
5
3
23
5
0
22
7
0
21
7
1
19
7
3
18
9
4
21
8
4
23
6
3
25
7
1
28
5
2
28
3
1
27
1
0
29
1
1
30
4
2
27
6
1
20
5
0
17
2
1
17
2
2
18
2
2
20
7
4
17
5
4
17
5
3
16
7
4
13
7
2
13
7
2
16
8
3
18
10
2
18
8
3
15
7
4
13
7
3
11
5
2
10
4
2
10
4
1
10
3
1
10
4
2
11
4
2
10
3
2
9
1
2
11
2
3
13
2
3
11
4
3
9
3
0
11
0
0
10
1
1
7
2
2
5
1
1
5
0
4
8
0
4
7
1
0
7
3
1
8
4
2
7
4
3
4
2
2
4
3
1
7
5
3
4
1
2
2
0
3
5
5
3
7
4
1
5
1
2
5
0
1
8
0
3
245
196
182
255
255
255
7
5
5
6
1
4
7
3
1
8
4
1
7
4
3
7
4
4
7
2
4
8
4
5
4
4
2
2
1
1
4
3
2
5
4
1
4
1
0
2
1
1
4
4
4
5
3
3
5
3
1
5
4
3
7
5
4
7
7
5
5
4
4
7
4
3
8
5
3
8
5
2
8
4
2
8
4
6
7
4
2
6
5
2
8
4
3
7
4
3
6
4
4
6
2
3
8
4
1
8
5
0
8
3
1
10
2
4
8
2
3
7
3
0
7
4
1
7
5
3
7
4
4
7
4
4
7
5
3
7
4
0
7
4
0
8
4
0
8
4
3
7
2
5
123
98
81
3
2
8
86
68
50
255
204
177
255
255
255
218
179
155
34
26
23
40
37
43
1
8
4
247
180
178
255
238
191
185
131
100
166
116
101
72
59
85
20
19
25
68
60
55
93
75
76
103
91
102
69
54
52
53
44
58
36
27
23
40
34
65
80
75
118
129
115
161
163
138
170
150
121
142
130
99
122
138
113
130
94
75
89
84
72
78
79
65
65
44
31
36
26
10
15
18
22
11
60
56
43
86
73
56
74
56
33
25
17
19
11
21
36
6
11
29
30
28
30
22
16
13
21
11
8
23
29
37
49
57
66
59
63
63
62
55
58
50
33
45
53
57
61
69
83
66
82
101
70
86
100
61
80
96
53
97
90
84
51
20
27
139
109
113
255
255
255
215
177
168
255
255
255
162
136
158
255
255
255
174
140
109
98
91
83
22
29
34
79
80
79
191
167
156
255
255
255
255
255
255
255
255
255
255
255
255
255
255
227
110
95
77
10
17
11
7
11
5
7
1
0
8
2
0
7
1
0
5
0
0
4
1
0
4
2
0
2
1
0
4
3
0
2
2
0
7
0
0
10
4
0
7
6
0
22
4
0
28
1
0
39
3
0
45
4
0
23
3
0
6
3
0
17
4
0
53
2
0
31
2
0
14
0
0
13
4
0
7
2
0
7
2
0
17
2
0
21
4
0
24
5
0
23
4
0
20
5
0
20
6
0
22
6
0
24
7
0
24
8
0
9
15
8
62
59
40
91
85
58
65
65
43
23
19
11
20
2
0
15
2
0
16
3
0
27
3
0
34
1
0
34
5
11
22
28
42
3
57
74
25
74
85
35
70
68
36
49
37
31
31
14
23
5
12
18
30
49
7
51
74
2
54
68
15
28
23
31
17
40
36
53
90
37
74
118
34
86
127
30
83
118
30
78
105
28
60
81
21
26
37
17
4
8
14
21
32
7
35
48
1
48
62
5
60
76
10
69
89
16
74
97
18
71
95
19
64
86
17
55
69
13
41
46
9
22
24
7
2
8
5
5
1
4
2
0
3
2
0
7
1
0
5
0
0
3
0
0
3
1
0
4
1
0
7
0
0
4
3
0
11
7
0
6
5
0
6
4
0
5
1
0
4
6
0
4
3
0
9
6
0
8
4
0
4
7
0
12
8
0
7
3
0
1
3
0
1
2
0
4
5
0
14
4
0
12
2
0
4
3
0
10
3
0
7
4
0
8
2
0
3
6
0
7
2
0
4
5
0
5
0
0
5
2
0
8
1
0
4
2
0
4
1
0
7
2
0
4
1
0
18
11
0
55
10
0
12
23
2
21
3
1
164
27
1
116
38
24
103
25
35
142
5
17
44
32
45
13
32
22
64
31
55
255
255
219
255
255
255
149
127
70
255
255
220
108
96
60
255
255
255
238
199
142
46
37
23
20
10
5
83
61
38
9
11
11
75
54
37
74
34
9
99
43
2
104
43
0
94
38
0
78
30
0
55
18
1
33
8
3
22
4
3
19
3
2
17
2
3
15
4
3
13
4
1
12
4
1
12
4
3
12
4
4
12
5
4
13
7
4
13
7
4
11
5
3
11
4
1
13
4
3
14
4
4
12
4
4
9
3
3
8
2
1
8
3
0
7
4
0
7
5
0
8
6
0
11
5
0
12
4
0
13
4
0
14
4
0
15
3
0
14
2
0
12
3
0
13
5
0
14
7
1
14
8
4
16
9
4
18
11
3
18
12
1
18
11
0
17
10
0
16
10
0
17
9
0
16
9
1
15
11
2
136
100
71
255
255
255
255
255
255
31
10
8
255
255
255
255
255
255
87
53
63
21
7
1
20
5
1
20
4
2
41
25
14
147
104
63
255
188
114
235
152
92
85
48
28
30
5
4
28
4
4
26
3
3
26
4
3
30
7
2
30
5
0
29
7
1
30
7
2
29
5
2
28
5
3
29
4
4
29
3
3
27
2
1
27
4
0
28
5
2
29
7
2
30
7
0
27
5
1
23
3
2
22
3
1
22
0
1
22
0
2
25
1
2
25
4
2
20
4
1
16
3
2
15
2
1
20
4
4
19
5
4
17
6
3
19
8
3
16
5
4
14
5
3
14
7
3
14
7
4
16
9
3
16
10
3
15
7
2
14
6
3
10
7
2
7
4
1
7
2
0
8
4
2
9
4
0
11
4
3
10
5
3
10
5
4
10
3
3
10
2
1
12
3
1
13
4
2
11
4
1
8
1
0
10
1
0
8
4
2
7
4
0
8
4
1
9
1
3
7
0
3
7
3
1
8
4
2
5
4
1
4
3
3
4
1
4
4
3
3
5
4
2
4
2
4
7
3
3
8
5
4
7
3
0
5
0
1
4
0
2
7
0
3
244
196
182
255
255
255
34
22
15
7
5
5
5
2
4
8
4
1
8
4
0
5
4
0
5
4
3
9
2
5
8
4
4
5
4
4
4
2
4
4
4
3
4
4
0
4
1
0
4
3
4
5
4
4
5
2
0
4
3
1
5
5
2
8
7
3
5
4
4
5
4
3
7
5
2
7
5
1
8
4
1
8
3
5
7
3
6
5
3
3
7
4
1
7
5
2
7
5
2
5
4
1
7
5
2
8
7
1
8
6
0
10
5
3
10
4
4
10
3
1
7
2
0
4
4
0
4
4
0
5
4
3
7
5
4
8
4
4
7
3
3
6
2
1
7
4
1
6
3
4
119
98
80
5
5
8
113
90
72
200
152
146
255
255
255
255
231
185
21
10
15
70
50
62
75
51
63
130
101
109
220
166
144
192
136
127
123
85
90
59
45
64
54
39
69
62
48
86
44
43
73
36
44
67
39
29
43
61
61
96
117
100
132
150
124
142
146
121
134
126
100
107
79
57
59
49
40
41
27
10
15
50
51
53
55
56
46
36
34
22
26
22
9
25
17
6
14
4
15
33
31
33
60
61
58
86
89
82
106
106
94
91
96
85
51
65
59
36
50
48
33
36
28
15
16
10
27
26
21
32
24
15
73
76
99
192
175
197
255
250
255
255
255
255
255
255
255
223
202
198
47
44
37
35
62
29
37
58
23
123
114
90
129
116
79
182
175
174
255
255
255
227
198
228
255
255
255
134
109
133
255
255
255
255
242
202
122
105
87
8
5
0
10
5
0
12
6
1
10
12
15
48
50
54
142
126
125
255
239
222
255
255
255
255
229
211
237
197
177
138
117
96
2
11
7
8
4
1
12
1
0
10
2
0
4
3
0
2
4
0
4
1
0
5
4
0
4
4
0
4
2
0
11
3
0
8
1
0
7
4
0
5
0
0
33
3
0
55
4
0
38
1
0
28
2
0
51
3
0
67
4
0
43
4
0
35
3
0
37
4
0
40
3
0
41
0
0
38
0
0
32
7
0
24
5
0
17
2
0
9
1
0
8
2
0
6
1
0
7
2
0
5
2
1
62
55
26
119
105
70
102
91
59
124
111
76
91
76
41
39
32
19
70
62
50
120
106
90
127
123
111
89
108
108
45
85
92
26
60
67
31
42
38
36
27
15
37
3
21
23
38
52
5
56
65
19
45
44
25
5
13
30
39
67
34
67
104
37
83
125
36
85
128
27
82
120
24
74
104
26
46
64
25
12
17
21
15
16
13
32
38
4
44
61
2
56
80
8
69
95
17
74
100
20
72
99
19
68
95
18
62
85
17
47
65
14
27
39
9
13
17
5
6
4
2
4
0
3
4
0
5
4
0
5
3
0
7
1
0
8
3
0
12
4
0
7
3
0
5
2
0
6
2
0
7
3
0
13
6
0
15
8
0
8
5
0
4
2
0
4
4
0
3
1
0
5
5
0
5
3
0
7
4
0
12
8
0
3
4
0
16
10
0
5
2
0
0
1
0
2
4
0
9
2
0
13
5
0
7
4
0
4
3
0
5
2
0
6
3
0
5
4
0
6
2
0
9
4
0
3
3
0
4
1
0
3
3
0
10
3
0
5
3
0
7
4
0
7
4
0
6
4
0
26
14
0
41
7
0
27
25
2
34
16
3
91
15
2
207
29
3
50
30
24
137
17
30
120
34
52
31
26
45
4
71
61
220
116
54
255
255
255
217
198
163
255
255
214
207
217
154
255
255
240
255
255
229
112
96
64
89
71
45
106
71
42
84
43
20
101
53
31
102
46
18
81
32
7
49
17
4
27
7
4
21
4
4
18
3
4
14
1
4
11
0
4
9
0
3
9
3
2
10
4
2
9
2
2
8
3
2
9
4
2
11
4
2
12
4
1
12
4
0
12
4
3
12
4
4
11
1
4
10
0
4
10
1
4
11
3
4
8
4
4
7
4
4
7
4
4
7
4
3
7
4
1
6
4
0
5
4
0
5
3
0
8
5
0
12
5
0
13
4
1
17
4
3
19
4
4
19
4
3
18
5
1
18
7
1
18
7
3
18
6
4
17
7
4
16
8
4
14
8
3
11
8
1
12
9
0
15
10
2
15
9
0
159
115
84
255
255
255
255
235
235
15
11
4
255
255
229
255
255
255
127
81
92
18
10
4
19
11
4
31
21
12
125
94
58
255
182
109
234
154
90
87
53
28
20
6
5
22
4
4
25
5
1
26
6
1
26
7
3
29
9
4
32
7
4
29
5
4
26
3
4
27
1
4
27
4
3
23
4
3
20
4
1
24
5
2
30
7
1
31
5
2
30
4
5
31
1
5
31
1
4
29
2
4
27
2
4
24
2
4
24
2
3
23
4
1
18
4
1
16
1
2
15
0
1
16
3
3
22
5
4
21
7
3
22
10
5
21
12
4
15
9
3
12
8
4
12
8
0
14
8
1
13
9
2
11
5
1
11
1
2
9
3
4
7
4
2
7
3
1
9
5
2
11
5
1
9
3
0
8
3
3
7
2
3
8
1
1
11
3
2
13
3
2
12
2
1
10
2
0
9
1
0
10
1
1
10
4
3
8
4
2
7
1
1
7
4
2
6
2
2
6
1
1
8
4
2
5
3
1
2
1
1
4
3
0
4
4
3
4
4
2
5
3
2
7
1
2
8
4
4
7
4
3
7
1
0
5
0
3
4
0
4
5
0
3
243
196
181
255
255
255
103
62
39
31
21
11
16
7
4
14
7
4
11
5
1
5
2
0
4
4
2
7
3
4
7
1
2
4
4
1
4
3
3
4
1
3
4
4
1
4
3
0
4
1
4
5
4
4
5
4
0
4
1
2
4
3
3
7
5
2
5
4
2
5
4
3
5
5
4
4
5
3
5
4
0
7
3
4
7
3
7
7
2
4
7
2
3
6
4
3
7
5
2
5
4
1
5
5
2
7
7
3
8
5
0
8
5
1
9
7
4
13
8
4
17
8
1
24
10
0
34
15
0
44
19
1
48
21
3
47
22
3
45
21
3
45
20
1
47
21
2
46
21
0
96
79
71
28
20
17
114
86
72
79
58
67
255
255
255
255
255
249
50
31
7
68
58
71
55
37
43
98
73
92
174
138
163
174
132
162
153
115
139
140
114
135
81
80
117
44
52
82
43
55
83
76
94
127
122
116
134
136
120
127
125
103
97
49
31
24
48
55
54
92
92
86
83
81
66
51
46
21
7
10
28
37
47
50
55
56
55
64
57
54
71
65
60
74
73
56
76
73
45
74
70
38
69
69
41
77
74
50
86
74
48
73
59
32
53
47
19
42
47
17
29
35
36
73
70
98
180
163
190
255
255
255
255
255
255
255
255
255
255
255
255
255
252
231
255
255
255
255
255
255
255
255
255
255
255
238
201
200
184
81
97
91
47
7
7
255
255
255
255
245
212
255
255
255
255
255
241
67
55
81
255
226
223
255
255
255
169
141
114
5
5
0
2
3
0
3
5
0
4
5
0
7
4
0
31
35
36
187
163
151
237
179
144
255
225
208
255
255
255
255
255
253
255
246
223
228
192
169
90
79
66
7
10
2
13
6
0
11
5
0
7
6
0
7
3
0
7
4
0
8
4
0
5
6
0
4
8
0
2
5
0
4
2
0
18
2
0
46
3
0
60
3
0
67
1
0
68
5
0
48
4
0
20
4
0
16
3
0
19
2
0
17
2
0
13
3
0
12
2
0
4
5
1
22
13
4
80
51
28
187
125
78
255
189
115
255
170
98
135
84
41
58
42
19
123
98
47
98
84
54
38
27
26
90
71
56
172
136
106
250
210
189
255
237
217
206
181
166
124
107
93
80
56
43
35
25
17
11
22
35
15
44
67
17
61
77
32
43
38
45
7
33
41
51
89
34
76
118
33
86
125
32
80
115
26
75
100
24
56
73
20
22
32
13
8
13
10
28
38
6
41
57
3
52
69
10
64
83
13
73
96
17
75
101
19
73
98
20
67
89
18
55
75
10
40
55
4
25
32
4
10
13
6
1
2
0
2
0
2
3
0
1
1
0
1
2
0
8
4
0
10
2
0
7
3
0
8
4
0
11
4
0
8
4
0
4
4
0
8
5
0
7
5
0
3
5
0
6
7
0
4
5
0
4
4
0
5
10
0
8
2
0
7
4
0
3
2
0
5
3
0
4
2
0
8
7
0
2
8
0
12
7
0
8
1
0
5
1
0
2
2
0
11
2
0
14
3
0
3
2
0
8
3
0
7
4
0
5
3
0
5
0
0
4
2
0
10
3
0
3
3
0
4
2
0
6
2
0
7
4
0
4
3
0
4
3
0
2
1
0
18
7
0
31
17
0
21
7
0
48
23
1
38
19
5
33
5
2
195
19
5
182
30
5
27
21
18
151
26
38
103
53
77
38
26
4
48
48
60
255
255
175
255
255
255
118
102
43
255
255
255
164
123
77
255
255
255
255
255
198
255
228
146
255
182
111
238
155
100
240
154
111
181
116
92
68
43
34
18
10
7
12
4
4
11
4
4
9
4
3
9
4
1
10
4
1
9
4
2
8
4
1
8
3
0
8
0
0
8
0
0
8
0
0
9
1
0
11
2
0
12
2
0
12
3
1
12
5
3
11
4
3
8
4
1
7
4
0
9
4
0
8
5
1
8
6
3
8
5
4
9
5
4
10
5
4
9
3
2
8
4
3
8
4
3
8
4
1
8
4
0
9
3
2
12
5
2
15
5
0
16
4
1
17
4
3
19
4
4
19
4
4
18
4
3
18
4
0
18
5
2
18
6
3
17
6
2
15
7
0
13
8
1
12
7
2
163
116
89
255
255
255
255
222
228
19
17
2
255
239
198
255
255
255
164
104
117
19
9
3
23
13
5
97
72
42
242
173
102
243
160
94
101
58
33
19
7
2
13
6
7
15
8
7
16
7
4
18
7
4
19
8
4
19
8
4
18
5
3
19
5
2
18
3
3
19
3
4
21
5
4
22
6
5
22
6
6
24
6
4
23
5
3
21
3
2
20
1
0
21
0
2
23
0
0
23
1
1
22
4
3
23
4
2
23
4
2
21
5
2
20
4
2
23
4
3
20
4
1
19
5
4
22
8
4
17
9
3
14
10
2
13
8
2
13
8
2
13
7
3
11
7
0
12
7
0
11
5
0
11
2
1
13
3
4
12
4
4
9
3
1
7
2
0
10
4
0
10
2
0
5
1
0
5
3
1
6
4
4
7
4
4
9
3
1
8
0
0
7
0
0
7
0
0
5
0
0
5
3
2
8
4
2
10
1
2
8
3
2
5
4
4
4
0
3
5
4
2
5
4
1
2
1
0
4
3
3
5
4
2
5
3
4
5
1
2
5
2
2
7
3
3
5
3
2
4
1
1
4
1
1
4
1
3
7
3
4
7
4
1
240
195
180
255
255
255
145
84
53
81
46
28
43
17
7
41
14
7
40
13
5
37
11
3
35
10
3
33
10
3
33
9
3
34
8
4
31
8
4
23
6
4
13
5
2
5
4
2
4
3
5
5
2
3
5
4
2
6
4
3
5
2
3
7
4
2
5
4
1
5
4
0
5
5
4
5
5
4
7
7
0
8
7
4
8
4
4
8
4
5
8
4
5
7
2
5
8
4
6
8
4
4
14
6
2
23
10
4
31
14
3
36
17
1
41
18
2
46
19
5
50
20
5
54
20
4
55
20
3
53
21
1
52
23
0
52
23
2
53
22
4
55
23
0
56
24
1
56
23
2
47
36
41
65
55
53
84
51
37
86
49
23
255
239
228
255
255
255
214
173
156
86
74
63
15
27
8
11
29
27
18
16
12
41
25
40
42
30
41
75
54
43
42
31
34
47
58
69
75
86
86
91
107
108
108
98
92
94
92
93
86
88
82
86
76
55
58
48
22
19
19
39
74
75
81
102
96
90
114
101
87
111
97
82
49
41
27
48
43
57
81
74
81
41
41
45
19
19
11
17
14
1
12
11
7
12
18
37
64
68
88
137
125
143
189
177
196
255
239
253
255
255
255
255
255
255
255
255
255
255
255
255
255
255
233
197
154
127
85
64
49
22
17
9
83
71
69
238
218
205
255
255
255
255
255
255
255
255
255
255
255
255
174
152
128
255
255
255
151
104
73
255
255
255
202
163
127
116
101
112
234
204
205
255
250
227
210
170
139
7
5
0
5
4
0
5
3
0
4
3
0
2
1
0
18
21
22
160
142
135
184
155
132
202
171
144
248
209
192
255
255
254
255
255
255
255
255
255
255
255
255
255
255
255
249
206
182
89
82
67
10
8
2
9
9
4
11
5
2
12
0
0
9
3
0
9
1
0
13
5
0
15
5
0
15
5
0
25
4
0
36
5
0
40
6
0
27
7
0
8
4
0
6
1
1
22
12
5
67
40
21
133
85
51
210
140
88
255
196
127
255
243
161
255
255
188
255
255
199
255
255
175
255
193
109
255
169
105
177
103
52
91
76
47
119
99
59
39
36
25
15
16
26
24
25
11
16
22
45
61
59
73
35
32
33
131
107
101
158
136
130
97
109
114
41
67
76
18
15
11
19
38
66
31
67
106
42
79
123
36
82
124
22
80
112
15
71
93
16
43
52
20
7
4
20
25
41
13
46
68
5
55
77
3
61
85
10
71
98
15
76
104
18
76
101
18
70
95
18
60
85
21
47
64
18
31
39
8
14
17
3
3
4
3
3
0
2
3
0
4
2
0
5
3
0
4
1
0
3
2
0
2
0
0
5
2
0
8
3
0
5
2
0
2
2
0
6
4
0
11
1
0
5
1
0
2
3
0
7
1
0
8
0
0
11
0
0
13
4
0
8
6
0
7
4
0
12
15
0
4
2
0
8
5
0
8
2
0
2
5
0
7
7
0
5
8
0
5
2
0
11
4
0
10
2
0
2
2
0
7
2
0
10
2
0
14
3
0
3
1
0
13
3
0
4
3
0
8
4
0
5
4
0
3
1
0
8
3
0
4
3
0
0
2
0
3
2
0
2
4
0
6
2
0
9
5
0
4
3
0
33
21
4
38
30
7
21
25
6
60
31
4
27
26
5
91
20
4
100
4
7
232
29
4
135
26
4
77
18
19
161
45
70
100
22
48
29
79
71
157
66
20
255
255
255
243
218
194
255
255
224
111
179
135
210
241
169
219
238
161
226
149
99
255
180
126
255
192
143
206
155
120
201
146
119
167
125
100
110
83
67
43
30
22
11
4
1
9
3
0
10
4
0
9
4
0
8
4
0
8
3
0
7
1
0
7
0
1
7
0
2
7
0
1
5
1
0
4
2
0
4
2
0
5
3
0
7
5
0
7
4
0
8
4
0
7
4
0
7
4
0
5
4
0
5
4
0
7
4
0
6
3
1
7
1
4
7
2
4
7
1
4
8
2
4
7
2
4
7
4
4
7
4
3
8
4
1
8
4
0
8
4
1
8
4
3
9
4
4
11
4
4
13
5
4
15
6
4
16
5
4
16
4
4
17
4
1
15
4
0
13
4
0
12
4
0
133
94
74
255
255
255
255
243
247
15
13
2
255
224
187
255
255
255
183
117
129
16
4
0
47
31
17
199
142
85
255
175
106
124
73
44
27
11
5
15
4
0
16
4
4
17
5
7
18
6
5
18
7
3
17
7
2
13
3
3
12
3
4
14
3
3
16
4
0
16
4
0
16
4
1
18
4
3
22
4
2
22
3
3
18
2
3
17
2
1
19
2
2
20
3
1
20
4
0
20
4
0
18
4
0
14
2
2
13
3
2
15
5
2
20
5
4
22
7
1
21
8
3
18
7
4
17
8
3
11
8
3
10
7
2
11
5
0
12
5
2
11
6
1
11
5
0
10
4
0
9
1
0
10
3
2
9
4
4
7
3
2
5
1
1
4
2
2
8
4
1
7
2
0
1
2
0
5
0
1
7
3
1
7
3
2
9
3
4
8
1
1
6
0
0
4
0
0
3
1
0
4
3
2
6
2
5
7
3
4
5
3
1
3
4
3
4
3
4
4
4
1
1
1
0
3
0
0
4
3
3
4
4
2
4
1
3
4
0
3
4
3
4
5
4
3
5
1
1
4
1
0
3
4
2
5
3
1
7
2
4
4
3
4
237
193
181
255
255
240
110
65
42
106
65
43
72
41
30
67
36
28
69
36
27
67
35
24
66
34
22
68
35
23
70
34
23
70
31
22
70
31
22
69
31
21
64
29
20
54
28
20
47
27
20
41
24
20
37
22
19
35
22
17
34
21
17
36
21
19
38
22
19
38
21
16
39
21
14
41
23
15
42
25
16
43
26
17
46
25
18
49
25
17
50
27
16
50
28
16
52
28
16
55
28
15
56
28
14
55
28
14
53
28
13
52
28
12
52
27
12
51
25
12
46
24
12
38
23
12
29
18
11
19
11
9
14
8
7
16
9
7
19
11
9
19
12
8
17
11
5
18
10
5
13
7
6
64
58
56
40
33
32
60
53
44
152
136
135
255
230
202
167
133
108
100
66
46
137
88
40
140
97
56
108
86
65
83
67
45
114
93
87
140
125
112
110
113
102
78
86
71
49
58
49
76
83
78
70
60
39
26
21
3
1
5
27
40
45
69
67
90
108
81
110
109
69
85
64
43
45
21
23
11
20
29
34
41
90
82
95
237
211
207
255
255
252
255
255
225
152
129
104
168
150
146
190
189
192
207
214
222
255
255
255
255
255
255
255
255
255
255
255
255
255
255
255
255
250
216
187
151
122
93
73
52
31
22
12
4
2
3
4
0
4
3
1
4
1
2
2
22
17
15
68
56
54
129
112
101
191
168
154
255
255
255
250
198
161
255
255
248
52
59
92
255
255
255
89
68
34
185
170
175
242
210
208
220
185
163
208
169
138
5
2
0
5
2
0
4
2
0
5
4
0
4
4
0
4
2
0
63
56
55
102
88
78
98
82
70
116
96
86
166
135
112
115
91
74
184
149
139
255
255
255
255
255
255
255
255
255
255
251
216
57
44
32
53
32
27
54
30
27
19
11
9
4
4
0
5
4
0
5
7
0
12
4
4
32
15
9
50
27
14
89
54
27
115
69
36
131
81
47
213
142
93
255
218
141
255
255
172
255
255
197
255
255
216
255
255
222
255
255
224
255
255
209
255
255
154
172
110
61
100
77
63
255
194
132
255
171
87
89
42
54
92
90
76
59
47
35
12
5
13
55
49
24
117
89
65
175
140
115
238
201
180
255
223
209
211
156
143
111
51
31
40
44
69
20
84
120
23
94
136
27
87
122
28
78
106
23
58
77
12
21
28
9
13
15
11
33
44
9
48
65
3
58
78
4
67
84
8
72
87
15
71
91
18
69
95
18
64
90
18
52
74
14
37
52
8
22
28
7
8
10
9
1
1
1
2
0
8
0
0
4
2
0
4
1
0
4
4
0
5
5
0
7
4
0
5
5
0
4
6
0
3
5
0
7
2
0
3
2
0
4
2
0
4
1
0
3
3
0
5
2
0
2
3
0
4
5
0
9
4
0
14
5
0
10
5
0
5
7
0
14
12
0
9
10
0
12
13
0
1
3
0
3
5
0
4
5
0
10
5
0
0
5
0
5
5
0
11
2
0
14
1
0
5
4
0
4
2
0
10
5
0
11
4
0
11
6
0
4
5
0
12
5
0
5
3
0
7
2
0
4
5
0
7
1
0
7
2
0
4
5
0
1
4
0
3
3
0
2
5
0
1
4
0
6
5
0
8
7
0
55
44
10
52
41
12
45
42
17
55
53
20
18
55
12
96
46
2
21
36
4
181
17
8
244
35
2
96
29
12
119
39
63
157
42
75
68
45
33
15
68
84
255
204
132
255
255
255
137
109
66
234
255
234
64
52
46
76
209
150
38
60
40
104
50
28
113
55
22
148
99
65
162
117
79
216
162
125
184
144
116
82
68
53
25
18
12
5
0
1
4
0
2
5
1
1
7
3
0
5
3
0
4
1
0
5
0
3
4
0
2
4
0
3
4
3
1
3
3
2
1
3
2
1
2
3
4
4
4
5
4
4
7
4
4
8
4
3
8
3
1
5
1
0
5
1
0
7
3
0
7
3
0
7
2
1
5
3
2
5
4
1
10
7
4
17
13
12
18
14
13
11
9
7
7
5
4
6
5
4
6
6
3
5
5
1
4
5
0
18
16
12
28
23
18
22
15
14
7
4
2
9
4
1
12
3
0
13
2
0
13
2
0
12
3
0
91
65
50
255
255
255
255
255
255
4
2
4
255
226
191
255
255
255
187
119
129
11
5
1
108
78
46
255
178
106
178
115
71
31
17
10
11
6
0
10
5
0
11
4
1
13
4
4
14
4
3
13
4
0
12
2
0
12
3
1
12
4
4
10
2
3
10
2
0
9
1
0
8
0
0
11
0
1
13
0
4
14
0
4
15
3
1
18
3
0
20
4
0
19
4
0
17
4
0
15
3
0
12
1
0
9
1
2
12
5
3
17
7
2
15
5
3
10
3
2
6
2
1
8
2
2
9
5
1
8
8
2
8
7
3
10
4
2
8
4
1
7
4
0
7
3
0
5
2
0
5
3
0
4
4
1
5
3
4
5
0
4
3
0
1
4
2
0
7
4
2
5
2
0
1
2
1
7
4
2
10
2
1
8
1
1
7
2
4
7
3
4
5
0
4
4
0
4
6
2
4
4
1
4
5
3
4
7
4
4
4
3
3
1
3
2
4
3
4
4
4
4
0
1
2
4
0
2
4
1
2
3
4
2
4
2
1
5
1
4
4
3
4
4
3
1
6
1
2
4
3
2
2
3
3
5
0
3
7
1
2
4
2
4
237
193
183
255
248
231
49
29
26
75
48
44
90
59
59
94
62
63
92
62
62
95
65
65
97
67
67
96
65
64
100
66
63
108
69
64
119
74
67
132
81
72
140
83
72
141
81
70
141
79
70
137
76
67
131
71
62
129
69
62
133
73
65
133
73
63
130
69
60
132
69
61
134
70
63
134
69
64
134
69
63
131
72
62
125
72
60
127
71
60
132
72
62
129
69
59
130
67
58
136
70
62
132
69
62
117
62
58
106
57
57
106
58
59
106
60
59
101
58
57
93
54
55
84
51
53
81
51
53
83
52
54
84
52
53
85
53
51
87
54
49
88
53
49
90
54
52
93
57
54
92
55
53
67
36
34
76
60
59
136
107
106
255
255
250
255
255
255
225
183
163
127
103
93
82
73
54
27
20
23
66
53
50
13
25
27
73
61
75
58
80
113
66
94
131
45
78
120
62
96
129
115
128
136
94
105
108
70
86
93
44
66
75
49
22
43
61
28
25
58
31
3
51
11
18
29
17
25
25
24
20
24
24
26
158
140
146
255
255
255
213
186
175
255
255
255
135
128
125
191
207
219
193
217
222
195
212
210
196
186
169
185
157
129
153
127
103
87
75
56
32
24
21
50
29
35
61
36
40
61
36
40
61
37
41
60
37
40
56
35
35
57
36
33
61
38
36
58
36
38
52
33
36
52
32
34
110
93
90
255
232
218
158
118
86
255
222
205
95
103
134
255
255
255
130
106
62
204
188
191
244
219
213
175
153
134
179
144
117
51
31
31
49
29
29
48
28
28
48
29
28
47
29
28
45
26
28
42
23
25
38
21
21
38
22
23
38
24
24
58
51
47
57
48
34
48
44
41
34
28
17
69
64
57
255
255
249
255
255
255
152
126
97
97
68
63
165
136
129
201
163
148
104
82
73
140
94
68
254
169
114
255
218
140
255
252
163
255
255
187
255
255
206
255
255
210
255
255
200
255
255
189
255
255
175
255
255
180
255
255
185
255
255
165
255
213
125
186
114
54
137
107
84
255
255
184
255
255
192
255
229
123
255
132
45
100
14
49
37
59
69
6
12
40
51
40
30
61
48
36
91
73
51
108
71
39
66
35
26
45
11
34
36
52
86
39
75
116
31
77
115
19
71
103
18
65
93
20
40
53
23
7
3
22
26
36
15
44
60
9
55
76
3
63
87
3
71
96
10
78
100
16
75
94
21
63
81
22
49
65
19
36
52
15
26
37
9
13
18
7
3
4
5
2
0
4
0
0
4
3
0
3
2
0
2
3
0
5
1
0
8
3
0
4
4
0
5
3
0
10
3
0
8
3
0
4
3
0
4
2
0
4
2
0
5
3
0
1
1
0
4
2
0
6
1
0
2
2
0
6
2
0
7
2
0
5
4
0
8
5
0
8
2
0
3
3
0
3
3
0
8
7
0
12
9
0
1
5
0
6
2
0
2
2
0
3
5
0
10
5
0
15
5
0
14
5
0
8
5
0
7
3
0
5
4
0
5
1
0
14
7
0
10
2
0
5
0
0
2
2
0
9
5
0
3
4
0
4
4
0
1
5
0
5
1
0
5
2
0
4
5
0
4
4
0
7
7
0
7
2
0
8
5
0
6
7
0
25
22
2
68
53
14
51
34
14
39
29
21
32
40
24
21
49
24
74
59
8
68
67
4
64
8
11
231
31
14
233
43
2
21
47
50
152
53
89
122
11
26
24
73
71
77
7
30
255
255
227
241
234
200
206
236
165
76
89
65
129
212
161
87
143
106
55
7
24
41
41
55
115
40
21
150
64
33
193
110
68
225
156
117
156
120
94
83
62
50
9
5
3
7
4
0
6
4
2
7
4
1
8
4
3
9
4
4
10
4
4
9
4
2
8
4
4
9
4
4
10
2
4
9
2
4
8
1
4
8
1
4
8
4
4
8
6
4
10
5
4
14
4
4
13
4
4
11
4
4
10
4
4
10
4
4
11
5
4
12
9
5
47
39
31
89
70
57
117
91
72
130
101
82
118
94
78
97
80
67
77
64
53
42
34
27
24
23
15
59
52
39
78
63
51
55
43
33
34
24
22
13
7
4
12
6
3
8
4
3
12
7
5
17
10
5
14
7
3
59
43
31
255
255
255
255
255
255
14
13
21
255
229
191
255
255
255
192
121
130
39
27
18
163
114
68
239
162
97
93
57
37
3
12
10
5
15
12
3
16
11
2
15
10
4
14
11
7
14
12
5
15
12
3
16
12
3
14
11
3
13
10
3
15
11
3
16
12
1
16
13
2
17
16
8
18
17
10
17
15
7
16
14
5
16
13
4
15
12
4
14
12
5
15
12
7
16
12
8
15
11
7
14
10
4
14
11
11
15
12
11
15
12
7
17
12
10
19
13
12
19
14
11
16
13
10
14
13
10
17
15
13
20
16
14
20
16
13
21
16
12
23
16
14
23
16
15
21
16
13
20
16
12
21
16
12
23
16
13
24
16
12
23
16
12
22
16
13
23
17
12
24
18
12
24
17
14
24
17
15
25
18
15
25
17
13
23
17
13
23
19
15
24
20
17
25
20
20
28
21
22
29
21
22
26
19
23
25
19
24
27
20
24
28
20
23
28
20
21
28
21
19
28
23
19
29
24
22
30
24
25
30
23
26
31
21
27
32
21
29
33
23
29
34
23
29
33
22
31
33
24
32
36
27
33
38
29
35
37
29
37
37
28
248
205
191
255
255
227
28
19
8
6
5
16
30
16
29
48
30
36
54
32
36
48
27
32
43
24
30
47
26
33
56
34
39
59
38
42
59
37
41
59
34
39
62
34
38
68
36
38
74
36
36
75
34
34
77
33
34
82
36
37
84
39
38
83
39
38
81
37
37
78
35
37
75
33
39
74
32
40
76
34
41
82
40
44
85
44
46
82
43
45
76
39
43
67
33
40
57
24
35
61
28
37
69
34
42
73
36
45
75
35
46
76
34
45
76
36
45
76
39
47
77
40
48
75
39
48
73
38
48
73
40
48
72
41
47
71
40
45
79
43
46
88
46
49
91
47
52
94
51
55
95
53
55
89
47
53
65
35
41
180
161
159
255
243
227
194
156
128
107
75
55
105
74
54
176
127
86
116
91
65
74
64
50
29
42
25
80
68
45
79
84
78
111
106
94
105
61
46
117
80
62
135
109
69
76
63
30
46
39
10
58
37
10
95
47
5
73
38
10
83
29
14
66
12
6
42
17
18
34
34
32
34
31
29
221
196
199
255
255
255
34
17
59
255
255
239
45
52
72
194
197
177
121
112
82
123
102
63
100
80
39
104
69
39
81
54
44
59
30
40
75
41
53
79
43
55
76
43
51
79
46
49
88
49
52
89
48
53
82
43
49
77
41
46
75
41
46
72
40
46
75
43
47
82
52
57
130
107
104
234
201
189
62
40
29
227
191
181
33
53
95
255
255
255
199
172
123
136
130
142
255
237
226
202
179
155
141
108
90
61
32
43
59
28
42
63
30
44
73
37
47
76
39
46
70
37
42
66
36
41
63
33
42
60
29
43
62
29
45
47
18
32
29
27
13
10
23
14
50
25
32
65
32
44
122
108
103
255
255
255
255
255
235
147
140
125
184
165
142
198
169
151
143
117
104
255
248
173
255
255
222
255
255
230
255
255
212
255
255
215
255
255
213
255
255
198
255
255
175
255
215
121
195
134
68
131
91
48
89
61
26
8
8
29
164
122
97
255
250
159
255
255
175
255
241
116
228
89
20
56
19
41
28
37
40
47
25
20
71
69
63
81
87
85
46
41
25
44
29
28
87
58
42
104
65
57
25
56
85
29
62
89
28
56
86
25
45
73
23
13
31
23
14
8
19
36
41
11
52
66
4
63
85
5
72
96
12
76
100
14
75
100
14
71
96
14
64
86
17
51
69
18
32
47
17
16
26
9
7
10
1
3
2
4
4
0
1
2
0
5
0
0
4
1
0
6
4
0
4
5
0
2
3
0
4
4
0
4
2
0
5
5
0
9
7
0
13
3
0
14
6
0
8
4
0
4
4
0
5
2
0
7
2
0
4
2
0
2
4
0
2
1
0
5
3
0
5
4
0
6
4
0
7
5
0
7
4
0
5
2
0
4
1
0
3
1
0
5
4
0
7
5
0
7
5
0
7
2
0
7
4
0
7
3
0
6
1
0
6
2
0
4
4
0
0
2
0
2
5
0
4
1
0
5
4
0
7
4
0
19
6
0
11
1
0
4
3
0
2
3
0
7
1
0
1
4
0
2
2
0
4
3
0
7
1
0
6
4
0
3
2
0
1
3
0
3
7
0
6
4
0
15
0
0
3
4
0
46
30
5
63
44
13
45
33
20
36
30
21
21
18
12
24
15
21
52
38
16
76
84
4
25
40
10
116
15
16
255
37
13
178
48
19
61
64
79
159
48
79
57
19
19
16
77
82
99
46
39
185
213
192
151
113
88
66
135
102
100
106
86
8
187
154
24
67
70
13
24
25
12
29
33
25
53
57
161
114
82
162
126
82
113
93
68
104
66
59
69
15
18
69
13
18
69
13
15
69
11
12
71
11
13
72
13
14
74
15
15
77
17
17
79
18
19
81
17
19
82
14
18
80
10
18
77
8
17
76
8
16
73
5
15
67
1
12
65
1
10
69
3
12
79
9
17
93
20
24
100
28
30
101
30
34
107
33
37
125
49
44
207
123
106
255
160
132
255
170
138
255
176
145
255
185
158
255
180
159
255
180
157
255
182
156
255
200
174
255
181
161
189
102
91
113
61
51
79
16
17
90
11
14
86
10
13
85
5
13
93
15
16
98
14
17
97
13
16
95
29
23
255
255
255
255
255
255
31
29
40
255
226
189
255
255
255
207
121
127
103
13
8
133
86
50
168
145
87
134
152
92
146
159
99
135
150
93
126
146
87
128
151
87
134
154
90
141
154
94
144
155
97
146
159
99
154
166
104
161
169
107
155
162
101
146
154
95
148
155
95
157
160
97
160
158
96
162
155
96
169
158
99
169
158
98
169
158
97
171
161
98
171
163
98
170
162
98
167
160
100
167
161
103
163
160
102
162
163
102
167
168
104
165
166
103
166
166
105
171
167
110
172
165
111
174
166
110
174
170
111
168
170
110
165
168
108
170
171
109
172
173
109
174
175
110
181
179
112
177
175
109
167
169
106
160
164
102
155
159
97
157
160
99
159
161
102
161
163
105
169
170
111
177
177
116
178
177
116
174
170
111
175
167
107
180
169
106
181
170
105
178
170
103
181
174
105
191
181
109
198
184
110
201
183
110
197
177
107
194
172
105
197
172
107
191
166
106
186
162
106
191
168
109
193
171
108
189
167
104
184
163
102
186
165
104
192
169
107
195
170
109
199
171
110
203
174
110
204
177
111
201
174
110
196
169
107
192
166
105
191
163
104
255
255
234
255
255
229
38
28
12
33
27
12
48
34
21
53
34
24
47
32
25
48
38
27
44
37
25
36
30
17
34
27
14
26
20
8
32
20
9
56
37
23
60
42
27
56
40
27
59
42
29
58
41
25
44
30
17
30
20
10
35
26
13
45
34
17
42
33
14
44
33
15
48
33
19
46
31
18
41
28
14
35
26
12
36
28
14
45
31
18
52
34
21
50
34
20
44
27
16
50
31
19
51
30
18
46
26
15
44
26
15
48
30
15
47
31
13
38
27
11
27
21
8
22
20
7
30
27
12
40
34
14
42
34
12
40
32
9
40
30
5
31
25
1
31
26
5
35
29
9
30
24
5
28
23
7
27
25
6
165
153
146
255
255
255
200
176
141
41
34
24
11
5
0
53
38
24
135
85
49
53
39
22
44
22
5
84
48
9
59
41
20
121
82
50
192
127
56
114
119
68
155
126
58
103
36
7
65
29
5
73
34
8
119
53
12
117
39
10
63
1
31
18
22
34
27
25
29
8
6
5
3
2
2
255
230
221
255
255
255
92
93
136
255
220
180
133
134
141
243
203
149
165
108
47
161
105
46
147
96
45
98
58
21
17
7
24
55
57
62
98
92
89
136
121
113
165
147
135
177
164
149
181
171
154
180
169
150
173
157
140
155
134
119
130
107
92
103
82
67
76
58
48
79
72
75
189
176
164
255
234
211
148
126
121
253
217
215
157
140
137
172
159
165
236
218
181
73
77
92
255
254
235
215
191
153
97
74
60
10
8
17
12
5
19
20
12
22
26
11
23
22
10
18
17
15
10
12
16
7
7
13
10
4
8
14
7
9
15
15
17
14
6
19
8
14
15
12
8
5
18
16
1
21
24
22
21
211
189
159
255
255
255
255
255
255
255
222
165
223
206
171
164
155
133
255
255
198
255
255
166
207
157
101
131
99
49
74
56
34
52
33
14
18
18
8
27
21
31
24
31
38
61
50
38
31
22
13
143
95
59
255
220
119
255
255
147
255
255
128
255
171
69
103
50
27
11
8
4
8
25
40
20
49
61
39
42
38
50
11
14
51
24
68
58
52
89
82
56
69
85
63
58
126
67
54
14
29
42
15
17
24
12
30
38
6
43
55
3
53
66
3
59
75
5
69
92
10
77
105
14
77
104
17
73
94
17
61
79
17
45
58
13
27
33
7
10
13
9
3
2
8
3
0
3
1
0
5
1
0
5
2
0
4
1
0
1
0
0
6
1
0
3
2
0
1
5
0
1
1
0
7
0
0
10
5
0
9
9
0
11
9
0
11
7
0
4
6
0
9
10
0
6
5
0
5
8
0
3
2
0
4
1
0
4
3
0
2
2
0
2
4
0
5
2
0
4
3
0
1
0
0
3
1
0
2
3
0
2
2
0
8
4
0
7
3
0
3
2
0
1
3
0
1
5
0
5
5
0
10
5
0
5
2
0
4
2
0
4
2
0
6
2
0
7
5
0
4
4
0
9
2
0
5
2
0
5
4
0
21
7
0
15
2
0
2
3
0
7
0
0
4
2
0
1
2
0
1
3
0
5
3
0
7
1
0
5
5
0
3
1
0
5
2
0
5
2
0
7
4
0
15
5
0
7
6
0
51
31
4
60
43
14
54
47
28
42
40
23
31
28
14
31
20
22
33
4
16
48
77
4
56
68
15
12
2
5
176
23
20
255
39
7
100
57
42
120
69
92
124
24
40
19
34
47
17
65
59
24
46
64
78
119
120
81
124
71
50
78
45
78
204
166
126
177
144
189
146
80
205
158
88
229
171
100
255
203
121
216
189
122
112
123
85
29
53
34
44
13
5
55
7
10
62
1
12
64
1
10
60
2
6
49
10
3
41
16
4
46
14
6
59
5
8
72
8
12
76
10
13
71
10
10
62
9
7
55
14
5
50
18
4
52
15
4
65
7
9
69
5
11
66
11
10
70
16
11
69
9
5
62
15
1
61
17
4
69
30
13
129
105
83
72
87
67
22
81
63
28
90
72
52
89
71
4
77
61
26
61
49
51
36
20
65
45
33
43
70
46
136
139
107
73
70
55
61
20
8
57
23
6
54
29
8
62
23
8
69
23
7
70
19
7
76
15
5
88
27
18
255
255
255
255
255
255
41
43
53
255
231
199
255
255
255
175
117
118
72
26
15
36
67
39
97
134
79
148
173
101
152
172
101
147
166
98
155
171
101
158
175
103
149
171
99
152
172
99
170
180
106
184
186
110
179
184
106
166
177
103
166
175
105
169
172
101
177
174
97
195
186
101
211
194
105
226
201
111
239
209
121
246
213
126
246
210
122
240
201
112
225
190
102
211
184
101
208
187
108
205
190
112
211
197
115
224
207
120
220
205
120
205
196
116
198
191
113
200
193
113
195
191
111
184
182
105
181
180
103
187
186
107
199
194
112
208
198
114
205
195
113
201
194
112
215
205
116
227
212
120
216
202
116
199
189
110
186
180
106
180
176
104
178
174
102
180
174
100
191
181
105
200
188
112
202
189
112
195
180
105
183
169
98
185
171
99
200
180
106
202
179
107
191
169
101
189
166
99
200
176
103
206
183
106
197
175
102
185
165
96
176
156
91
171
150
89
169
150
91
167
150
90
171
154
89
177
158
90
181
160
91
190
165
94
200
171
98
199
171
99
190
163
96
192
161
96
205
170
99
214
178
100
212
175
97
203
166
91
190
157
86
255
255
255
255
255
236
60
39
18
56
39
19
66
46
24
80
56
30
81
55
29
67
43
20
58
36
16
61
39
19
62
40
23
46
32
20
22
15
4
42
27
22
41
25
15
51
33
18
53
35
17
52
32
15
58
34
19
65
37
22
63
39
22
62
40
21
62
38
19
44
27
9
27
17
4
39
25
12
57
35
20
65
40
23
70
44
25
68
43
24
60
38
20
44
27
13
33
20
8
44
27
12
64
38
18
73
42
21
75
41
21
81
43
20
89
49
23
84
49
25
69
44
21
63
42
19
69
43
22
67
41
21
64
41
19
68
44
18
83
51
22
100
58
27
100
58
27
87
54
25
83
54
24
84
52
23
73
40
19
122
103
100
255
255
254
255
227
182
44
35
28
14
8
0
1
0
0
80
45
22
87
52
28
50
26
15
72
40
7
36
32
19
77
48
32
224
142
78
224
135
73
107
70
30
91
11
8
50
7
6
8
4
1
10
9
8
20
22
24
22
25
32
8
11
8
25
29
34
18
13
11
2
2
5
255
236
218
255
255
255
134
121
145
222
179
126
233
209
197
219
174
122
81
38
1
32
33
51
142
146
134
209
194
168
189
173
150
149
146
126
185
174
151
237
214
186
248
219
191
244
217
190
255
249
216
255
255
240
255
255
232
234
215
187
172
160
143
182
173
156
248
232
208
255
255
254
255
255
254
255
209
172
151
131
112
251
216
195
255
255
227
166
146
113
186
171
155
39
51
79
255
255
254
195
164
125
75
55
40
21
15
3
18
9
0
22
16
7
19
10
2
32
26
15
55
38
12
61
42
13
64
42
18
57
36
18
52
32
16
39
27
12
27
23
6
34
29
10
39
30
13
38
29
13
35
27
15
74
60
47
194
157
126
255
233
185
255
243
188
255
255
235
255
255
234
255
189
128
255
255
221
42
15
29
90
60
41
80
40
22
70
44
28
46
23
18
69
36
18
97
63
35
218
142
63
255
242
119
255
255
156
255
255
142
255
206
97
185
117
67
59
64
54
10
49
46
12
22
5
22
17
46
35
44
85
39
64
110
38
72
114
42
65
102
70
30
67
145
40
27
17
26
26
158
72
30
42
29
44
6
42
60
10
52
76
14
62
89
16
69
96
16
72
97
18
65
87
20
50
68
16
32
44
9
16
22
5
4
7
3
3
1
3
3
0
5
3
0
7
1
0
6
2
0
3
1
0
0
1
0
7
2
0
10
1
0
9
0
0
7
2
0
5
5
0
5
3
0
6
0
0
10
5
0
7
5
0
6
4
0
8
3
0
8
2
0
5
0
0
6
6
0
2
3
0
5
8
0
0
2
0
3
4
0
2
5
0
1
7
0
2
5
0
0
3
0
2
0
0
2
1
0
6
3
0
9
2
0
4
6
0
1
5
0
5
4
0
6
1
0
6
5
0
4
7
0
5
6
0
7
8
0
4
8
0
4
3
0
4
4
0
5
4
0
6
8
0
7
1
0
9
5
0
4
2
0
10
5
0
16
6
0
14
2
0
3
3
0
6
0
0
4
1
0
0
2
0
2
4
0
7
4
0
6
3
0
3
5
0
3
2
0
4
2
0
3
2
0
10
1
0
13
4
0
19
12
0
46
25
2
61
47
18
64
60
33
34
31
20
32
31
17
48
41
32
30
21
18
10
51
8
54
87
16
52
12
13
64
8
19
210
30
21
229
48
7
27
69
66
140
59
83
66
22
22
17
38
53
13
62
41
137
174
150
114
111
74
101
221
134
117
142
110
204
255
228
255
183
104
255
208
105
255
203
107
237
172
95
135
107
61
84
73
36
99
83
39
110
89
44
106
86
46
93
78
40
73
63
29
61
53
24
74
64
31
87
75
39
83
72
40
58
49
23
39
36
13
47
41
19
50
41
21
50
42
23
53
50
28
43
47
25
28
39
17
32
42
16
47
53
20
66
66
29
90
82
43
102
91
51
101
91
51
95
86
49
109
100
58
174
155
101
218
199
138
255
232
159
255
252
176
255
248
181
237
240
179
243
239
178
255
242
178
255
255
192
255
240
183
186
162
120
76
75
49
69
70
38
100
92
49
98
87
48
81
72
38
80
72
33
92
82
38
90
83
43
92
84
48
255
255
255
255
255
255
49
55
61
255
254
219
255
255
255
184
150
121
109
97
48
91
81
36
80
70
30
81
72
36
82
76
39
92
85
43
122
106
56
134
114
63
121
107
58
97
91
47
98
88
45
110
93
47
125
102
47
138
108
45
136
104
42
130
99
40
139
101
43
137
97
45
145
104
46
175
124
52
183
123
50
196
125
47
226
140
51
224
135
53
190
113
46
156
103
45
141
103
46
134
104
44
135
105
42
124
93
34
109
85
32
98
83
37
73
65
32
63
61
25
69
73
30
80
85
39
91
86
42
93
84
43
95
87
41
89
84
35
86
82
34
92
84
37
88
77
34
84
74
31
100
83
34
110
89
38
102
82
38
101
83
39
112
92
42
122
98
43
124
99
46
118
97
42
107
91
37
96
82
32
86
70
27
95
76
32
108
84
36
99
74
34
64
49
19
73
59
23
103
78
27
118
85
31
126
91
40
132
99
46
136
104
46
125
98
42
105
85
38
95
79
37
89
77
39
90
77
41
89
73
37
70
59
23
72
58
19
88
68
25
90
71
27
81
65
25
70
55
20
78
62
19
106
83
26
128
96
35
135
99
41
255
255
255
255
255
240
13
7
5
27
17
5
43
26
12
42
30
12
36
27
10
25
15
6
23
11
7
30
17
12
44
27
17
62
42
28
60
43
27
39
30
22
32
25
17
23
18
7
21
15
8
15
13
8
17
15
10
25
19
13
20
16
8
21
12
5
22
12
6
38
21
13
43
22
13
50
28
18
46
24
13
43
25
11
36
23
10
25
16
7
25
16
6
31
19
9
32
18
6
34
19
4
32
18
5
29
18
7
42
24
8
50
27
11
50
27
13
58
29
16
64
32
18
52
27
15
40
19
11
26
10
4
20
8
3
24
13
5
28
14
6
29
12
4
25
7
7
24
8
6
26
14
4
32
17
7
38
22
8
85
77
75
255
255
255
255
255
211
35
27
19
11
6
0
3
2
0
15
5
2
21
11
12
40
38
26
68
36
1
40
37
26
71
39
11
17
12
4
72
7
8
45
10
8
71
10
9
64
11
10
20
7
11
31
21
26
41
39
39
29
29
18
6
3
20
13
15
18
74
33
19
107
47
16
234
211
207
255
255
249
84
87
117
210
165
117
219
200
187
217
179
128
28
24
18
142
125
104
255
238
195
250
212
179
229
183
144
150
109
69
121
83
67
82
62
56
61
55
49
152
132
119
191
163
144
178
152
140
186
161
149
202
178
158
144
126
106
147
137
125
255
244
217
255
255
235
226
181
140
74
53
40
45
45
53
98
78
50
183
146
115
255
213
164
192
170
137
133
136
139
255
255
255
161
132
97
84
61
38
61
42
22
51
35
19
61
42
25
84
57
33
77
53
25
74
45
21
59
35
19
68
43
22
75
47
25
63
36
21
34
18
7
32
19
9
51
31
17
64
40
26
75
49
33
85
54
36
82
50
34
50
32
19
22
18
11
49
39
27
198
174
154
255
255
255
84
30
13
255
255
239
142
99
45
111
77
46
14
25
24
58
31
6
152
99
51
255
188
111
255
255
154
255
255
172
255
255
167
255
234
136
179
131
83
65
49
40
38
9
17
26
40
67
27
59
95
34
67
107
36
67
109
30
62
91
24
43
53
29
13
13
33
21
32
30
43
58
151
55
31
63
12
33
153
94
65
78
42
57
20
43
65
17
47
66
15
46
62
14
37
49
12
22
31
11
9
13
10
4
2
8
1
0
1
0
0
4
0
0
5
1
0
5
1
0
3
2
0
5
2
0
7
2
0
6
2
0
7
1
0
6
2
0
5
1
0
5
2
0
6
5
0
7
4
0
7
4
0
6
5
0
5
7
0
5
2
0
2
2
0
4
2
0
10
5
0
5
5
0
3
8
0
5
10
0
4
6
0
2
4
0
2
4
0
1
3
0
7
4
0
11
2
0
10
4
0
7
3
0
5
1
0
2
1
0
3
3
0
7
7
0
9
4
0
6
4
0
8
14
0
18
19
0
14
19
1
16
20
2
21
19
1
14
14
0
6
7
0
3
5
0
5
4
0
8
5
0
4
5
0
5
3
0
3
4
0
7
5
0
12
2
0
11
4
0
1
3
0
4
2
0
2
2
0
3
1
0
1
3
0
10
4
0
6
2
0
1
3
0
0
1
0
3
1
0
6
1
0
14
1
0
4
6
0
32
20
1
46
22
2
54
41
16
63
61
33
29
28
20
33
32
18
55
50
35
26
23
13
11
15
2
33
93
9
68
38
26
18
0
4
97
14
27
229
33
16
183
53
18
31
68
69
122
67
78
31
34
15
17
77
79
81
72
52
200
234
173
55
127
59
7
62
21
255
255
255
196
254
182
137
93
47
129
95
49
87
64
34
59
41
20
62
40
15
63
41
13
79
55
23
115
82
38
138
99
46
137
100
43
105
79
30
93
74
30
101
76
35
125
93
50
147
109
58
149
113
57
125
95
49
88
64
32
92
64
30
109
78
39
121
89
47
138
102
52
151
111
53
141
104
46
133
97
43
132
94
46
126
88
46
103
71
36
82
61
29
103
80
38
130
97
40
138
103
40
150
115
51
156
124
58
164
130
58
167
127
58
150
110
56
95
73
41
46
40
20
56
49
25
94
78
41
108
86
45
112
87
43
128
97
49
127
95
49
126
97
53
112
86
44
112
85
38
134
101
45
143
107
54
255
255
255
255
255
255
55
61
67
255
255
235
255
255
255
195
151
120
135
101
51
139
103
46
141
103
47
119
87
44
102
80
41
111
89
41
126
99
47
129
101
48
140
110
53
123
98
48
95
78
37
71
66
34
70
62
35
96
69
31
122
80
29
128
86
33
132
90
43
139
89
39
150
93
34
145
84
25
118
62
11
100
45
3
112
58
14
138
84
29
167
100
41
149
94
43
125
84
36
110
78
31
85
62
24
64
44
17
57
42
21
84
63
32
83
65
36
77
61
34
86
68
36
97
81
39
99
82
38
88
71
32
63
54
24
50
46
18
70
59
23
92
69
32
79
59
30
76
58
28
114
84
38
144
104
48
145
104
50
139
103
51
127
97
48
113
86
43
99
75
38
89
67
30
91
66
33
90
69
33
86
63
30
120
86
42
126
89
41
134
96
44
123
91
38
132
98
37
125
86
29
106
72
28
111
76
34
130
89
42
150
107
52
166
120
57
169
121
55
163
116
51
126
87
40
98
67
31
115
78
37
117
79
41
98
69
35
100
72
34
111
79
35
87
62
25
64
45
15
98
73
23
113
81
30
119
84
35
125
87
40
255
255
255
255
255
238
33
17
10
41
22
13
34
20
12
20
11
1
22
11
1
20
13
2
14
7
2
8
9
3
10
8
3
31
22
12
57
40
27
52
38
25
29
21
12
14
9
5
6
5
4
5
7
6
10
8
7
7
10
7
14
13
7
13
10
8
12
8
5
21
12
11
42
20
18
33
15
13
15
4
4
19
11
6
27
14
9
20
9
5
11
8
4
15
9
2
23
12
4
22
11
4
7
2
5
9
5
4
32
18
9
5
4
2
25
15
10
24
15
14
4
5
3
18
8
5
7
3
1
20
10
7
28
12
8
34
16
8
17
9
5
34
18
15
46
24
16
33
19
10
28
18
10
23
11
5
8
3
4
77
71
69
255
255
255
255
255
204
28
29
29
22
18
19
5
3
0
3
1
0
10
11
13
52
40
27
64
31
7
47
37
27
69
34
4
7
9
7
61
12
5
78
17
7
51
8
11
77
19
23
104
71
71
131
103
95
78
61
54
35
20
14
39
23
23
33
4
1
87
31
9
52
30
17
142
160
181
255
255
233
50
61
97
183
146
107
209
199
187
222
188
139
35
34
29
173
157
133
255
255
211
243
209
160
189
166
135
97
96
70
84
89
71
111
113
93
141
129
107
154
133
111
94
82
59
113
98
76
152
133
115
145
130
115
112
89
63
164
142
127
220
177
148
55
45
36
53
52
57
42
36
15
67
67
71
58
43
18
34
20
15
111
67
43
103
71
46
255
250
215
255
255
255
125
102
77
73
53
32
57
40
23
52
37
19
34
29
15
46
38
17
64
43
23
57
33
24
35
22
16
18
15
8
21
17
7
38
28
17
51
37
25
74
46
31
58
36
20
29
16
8
24
14
10
36
19
13
35
17
12
29
16
12
29
15
15
41
23
17
130
128
123
255
255
255
80
91
80
255
255
185
255
210
123
185
129
62
255
190
103
255
255
146
255
255
176
255
255
190
255
255
175
255
188
116
150
74
34
46
18
38
33
49
77
41
65
100
37
71
108
32
72
105
36
58
82
37
33
47
35
4
8
28
33
45
20
61
81
14
76
101
2
83
110
8
79
103
134
89
78
104
45
24
120
94
79
101
67
40
17
18
22
8
10
12
5
7
4
5
3
0
5
0
0
4
2
0
4
4
0
10
4
0
1
1
0
8
0
0
7
2
0
7
4
0
4
2
0
6
3
0
6
4
0
3
4
0
6
2
0
11
1
0
4
2
0
5
4
0
6
4
0
4
2
0
0
2
0
2
2
0
2
2
0
4
4
0
4
3
0
7
5
0
10
7
0
9
4
0
7
4
0
3
3
0
3
3
0
4
4
0
2
3
0
7
4
0
7
5
0
1
1
0
3
3
0
4
2
0
1
1
0
2
2
0
2
9
0
9
15
0
8
14
0
10
11
0
15
16
0
5
4
0
12
11
2
13
10
0
12
8
2
23
19
0
7
8
0
5
4
0
4
8
0
1
5
0
4
0
0
5
1
0
2
3
0
8
3
0
12
3
0
11
3
0
2
1
0
2
0
0
3
1
0
4
1
0
7
2
0
12
4
0
7
2
0
3
2
0
1
2
0
3
1
0
7
3
0
10
2
0
12
11
0
43
25
2
45
22
2
34
25
8
58
55
32
35
34
24
31
25
14
57
55
33
32
15
16
17
27
2
15
79
4
65
69
24
60
8
22
15
1
14
129
15
23
236
34
8
138
38
19
67
64
78
92
84
84
34
14
23
7
63
67
186
203
123
119
130
110
74
157
71
255
255
194
255
255
255
92
113
90
29
27
12
37
23
8
25
20
9
35
27
14
32
25
17
30
22
17
19
14
14
22
14
2
55
41
15
59
45
20
54
41
13
58
35
20
57
40
9
92
69
33
96
72
39
82
63
30
45
43
23
45
44
22
65
53
31
85
57
30
96
61
30
80
50
21
61
36
15
41
19
10
22
11
10
17
11
8
40
27
20
30
24
12
65
48
23
53
36
18
69
47
28
55
42
27
38
26
17
50
32
19
60
37
22
64
43
19
77
57
31
68
52
27
83
63
28
106
80
36
113
80
37
66
43
19
31
21
14
17
10
10
35
31
16
72
58
35
64
50
25
67
48
25
87
72
44
255
255
255
255
255
255
63
61
73
255
255
240
255
255
255
148
112
107
54
37
15
83
60
29
84
65
32
70
55
19
39
32
13
47
41
15
57
42
18
36
27
7
58
40
12
91
67
26
83
62
24
40
35
17
21
21
16
59
36
22
66
60
40
74
62
37
44
39
19
71
50
23
57
37
23
8
21
14
66
50
18
72
36
5
89
44
18
37
6
3
52
20
7
60
19
7
30
7
4
10
10
9
38
28
19
43
25
20
28
38
32
61
50
29
84
67
32
80
60
29
84
59
25
87
63
23
76
62
22
65
51
19
43
34
17
39
29
16
75
50
28
72
52
29
70
57
27
57
47
23
45
34
17
47
39
20
94
74
35
111
85
43
100
76
40
80
61
31
62
48
24
51
38
19
62
43
25
84
62
28
80
61
28
89
68
37
59
49
29
91
71
43
118
87
49
100
68
37
58
39
27
31
26
22
16
17
14
35
31
14
51
42
19
96
67
27
109
72
24
90
56
17
88
56
21
60
40
12
58
39
14
80
56
29
85
60
33
83
57
24
91
61
27
108
75
34
100
70
29
113
77
30
85
53
22
67
46
17
54
38
13
255
255
255
255
255
239
42
26
15
57
33
20
32
19
12
11
6
3
10
6
1
16
12
1
16
12
2
19
18
4
14
14
3
15
9
8
12
8
7
28
18
11
24
14
7
9
3
1
7
5
5
33
18
11
51
25
12
61
30
14
61
31
19
53
26
19
38
19
12
21
10
4
11
5
9
22
7
10
11
3
3
18
13
6
19
9
8
32
16
9
26
14
5
37
17
5
50
27
12
46
26
14
28
17
7
4
2
2
37
23
13
6
5
4
33
21
13
24
15
10
21
17
10
23
12
3
24
11
4
33
16
8
28
13
5
32
15
9
21
11
5
38
23
15
42
30
18
52
38
24
65
43
23
59
34
18
39
21
12
90
78
69
255
255
255
255
251
189
43
41
29
32
31
34
5
5
0
3
2
0
5
8
11
51
37
23
59
27
10
52
35
22
60
25
1
11
14
14
81
54
53
126
92
87
111
118
105
146
108
87
92
67
45
26
12
10
93
66
65
35
36
30
22
32
28
17
19
16
72
42
18
90
38
13
144
138
153
255
255
227
75
73
107
193
153
113
255
246
231
240
204
151
38
24
20
90
79
69
249
204
169
255
255
210
255
244
175
255
209
135
254
193
127
251
198
139
255
255
195
255
255
253
255
255
216
255
255
230
255
255
255
255
255
239
249
205
145
255
239
195
224
180
139
17
13
5
74
71
74
27
23
12
94
85
84
37
26
6
3
2
0
21
7
0
55
25
8
255
255
241
255
255
255
107
91
71
57
43
21
28
18
6
49
29
13
32
20
7
22
15
8
12
4
5
8
1
4
12
8
6
21
11
13
16
8
9
11
10
7
44
28
14
43
21
8
36
25
14
42
24
15
30
20
18
24
13
8
18
8
9
25
14
12
34
19
14
21
10
4
145
139
129
255
248
197
179
144
113
255
156
74
255
255
166
255
255
191
255
255
197
255
255
179
255
216
130
217
110
45
87
28
41
32
56
83
34
74
102
31
78
105
28
76
104
30
53
76
32
12
24
32
26
26
23
45
53
12
55
71
5
70
93
2
85
109
8
79
97
11
73
90
15
66
86
15
52
68
95
82
76
127
98
61
71
63
64
120
100
60
22
14
2
1
3
0
2
2
0
2
1
0
4
2
0
1
4
0
5
2
0
2
5
0
10
4
0
12
4
0
7
5
0
8
6
0
10
9
0
7
8
0
8
3
0
8
1
0
12
4
0
8
6
0
11
7
0
8
4
0
6
3
0
4
2
0
4
3
0
3
4
0
4
6
0
7
4
0
6
1
0
0
2
0
7
3
0
6
2
0
3
2
0
2
2
0
1
1
0
2
1
0
7
5
0
6
1
0
7
6
0
13
2
0
13
5
0
11
2
0
7
2
0
4
7
0
5
8
0
10
9
1
18
19
2
14
15
1
3
5
0
17
12
0
18
13
1
27
23
1
13
5
2
27
22
3
13
10
1
1
4
0
5
2
0
1
7
0
6
2
0
7
1
0
5
2
0
9
2
0
10
1
0
12
1
0
1
2
0
2
2
0
3
2
0
5
1
0
7
1
0
7
3
0
4
3
0
2
4
0
2
3
0
4
3
0
10
1
0
11
5
0
27
16
0
50
32
3
34
21
4
11
6
1
55
50
29
47
45
27
34
29
19
54
54
33
32
8
13
12
53
1
38
47
2
37
97
12
80
28
29
26
3
7
33
2
20
164
25
15
223
28
7
75
27
28
73
83
97
71
77
81
45
65
59
59
22
36
179
192
121
71
87
61
147
98
93
255
255
255
216
255
200
4
8
21
49
39
19
63
49
27
42
37
24
54
48
35
71
59
37
36
35
22
12
14
9
11
14
12
44
37
27
40
28
20
15
9
12
36
19
11
49
28
18
47
29
13
37
25
13
47
38
20
49
42
18
49
30
17
36
19
13
16
8
9
19
17
8
33
24
15
21
17
6
11
2
15
11
15
12
34
28
18
31
25
7
24
17
12
25
18
9
31
22
8
28
21
10
37
22
10
52
38
9
71
54
24
54
36
22
10
12
5
61
52
25
89
71
36
79
62
35
52
42
19
53
43
27
14
11
7
15
8
2
46
30
18
10
7
11
7
2
1
36
21
13
53
45
34
255
255
255
255
255
255
78
64
83
255
255
234
255
255
255
141
106
105
67
41
13
79
50
18
69
38
12
60
41
19
21
9
9
33
24
12
46
27
15
25
20
4
48
36
15
45
31
16
19
11
3
44
27
8
74
43
15
85
56
25
41
39
24
47
45
31
9
18
13
60
28
17
58
26
20
80
47
23
65
29
15
34
27
12
70
50
23
36
7
16
95
27
14
86
21
7
29
9
14
9
12
16
58
43
22
53
28
15
60
54
33
42
33
16
50
38
18
48
37
17
51
40
17
57
39
18
55
38
16
56
43
20
44
33
17
19
12
4
49
34
18
26
25
16
29
28
13
36
34
15
18
11
5
34
25
5
18
10
6
6
5
10
17
11
6
39
27
13
17
10
5
8
6
7
21
15
15
52
40
16
92
69
32
84
62
29
54
44
15
43
38
12
34
30
17
12
14
17
18
11
11
14
15
9
48
40
15
65
49
19
48
31
8
14
14
15
42
25
14
39
21
4
45
30
15
32
23
13
15
12
8
18
17
12
24
22
14
29
21
8
14
14
7
57
42
19
24
19
7
28
20
7
49
34
11
23
11
5
18
15
10
255
255
255
255
255
246
71
40
16
74
37
15
51
27
7
44
25
5
35
19
5
17
10
6
29
15
7
41
25
8
41
22
10
37
16
11
22
7
4
15
5
5
11
12
4
7
5
4
17
13
6
32
17
13
19
10
10
7
5
7
4
3
8
10
4
1
25
11
8
24
12
5
18
14
5
5
9
5
7
7
7
12
8
4
32
17
11
12
10
4
32
17
7
49
24
12
35
20
10
32
18
5
31
20
5
14
6
1
35
23
12
29
18
5
41
26
13
47
30
17
36
22
13
32
18
9
29
17
8
29
14
8
38
14
5
55
28
12
51
33
13
55
34
18
60
36
18
54
32
14
44
24
8
25
14
6
39
21
11
86
65
56
255
255
249
255
255
225
83
72
49
25
25
28
5
5
2
8
4
1
1
6
11
50
36
19
43
17
4
30
17
19
58
54
65
142
119
116
181
154
138
114
108
88
13
34
22
72
34
38
78
73
74
110
99
93
51
65
63
25
17
23
36
25
27
37
15
14
39
20
12
43
26
14
132
121
117
255
255
225
85
84
104
190
149
106
255
255
251
255
226
171
42
50
38
31
19
14
63
37
21
106
67
45
111
80
57
139
107
79
183
138
106
214
162
126
240
186
142
255
233
185
255
213
150
255
204
169
255
219
162
236
182
133
227
186
152
255
255
255
255
210
158
11
7
10
69
72
74
13
5
10
99
92
83
22
13
4
1
1
0
10
3
0
65
36
12
255
255
237
255
255
255
114
98
76
62
44
18
46
29
11
70
45
15
91
55
21
78
44
19
57
31
12
33
20
4
16
9
12
10
5
8
15
8
10
24
15
12
19
8
8
8
10
10
27
19
12
52
31
12
76
46
22
62
38
13
55
31
14
32
24
22
57
60
58
159
144
119
255
255
208
255
255
191
209
156
104
156
110
70
255
206
133
255
218
136
223
109
48
100
24
43
43
58
85
41
73
104
38
74
100
35
71
86
35
43
48
30
1
8
32
41
51
25
68
82
14
84
105
6
88
118
7
84
116
11
83
113
13
80
112
14
66
93
13
43
60
11
24
32
13
10
14
10
2
2
47
41
34
142
122
80
17
21
32
134
114
72
32
19
1
3
4
0
1
3
0
1
3
0
6
1
0
1
2
0
5
6
0
13
8
0
15
5
0
11
5
0
8
7
0
8
4
0
8
2
0
8
3
0
9
4
0
8
4
0
15
3
0
17
2
0
7
4
0
3
1
0
6
2
0
8
4
0
5
4
0
5
4
0
5
4
0
2
3
0
4
2
0
4
3
0
3
3
0
3
2
0
9
2
0
11
2
0
8
3
0
6
3
0
0
2
0
11
3
0
10
1
0
2
12
0
6
13
1
3
8
2
5
7
1
2
0
0
12
12
0
17
17
2
10
5
1
14
10
2
10
8
1
15
10
0
7
8
0
25
21
2
7
5
2
23
18
2
9
9
2
8
1
0
9
3
0
8
3
0
3
6
0
3
1
0
9
2
0
14
3
0
12
2
0
8
3
0
1
0
0
2
3
0
1
2
0
2
1
0
5
1
0
2
1
0
4
5
0
2
2
0
4
5
0
4
2
0
11
5
0
6
15
2
57
42
13
63
50
19
20
19
12
2
5
4
60
55
33
48
45
26
36
38
28
43
41
27
32
13
7
16
55
3
26
19
2
6
106
2
70
58
21
58
6
19
23
13
9
82
42
13
170
52
22
145
28
19
41
28
37
61
99
109
89
39
49
78
87
81
71
47
4
125
121
84
126
117
94
255
255
255
255
255
255
77
110
90
71
49
22
69
45
18
44
28
8
55
38
12
68
51
23
76
60
29
74
56
30
76
51
25
76
53
27
57
46
31
36
29
24
21
14
14
17
12
4
12
8
5
28
17
7
59
35
10
61
31
9
24
11
1
34
20
7
38
28
14
20
19
16
42
34
19
40
32
14
38
32
20
47
36
11
62
43
17
76
52
21
62
42
20
39
27
9
17
11
1
19
18
16
29
18
14
26
22
12
35
31
14
49
43
19
49
40
23
28
25
19
40
35
21
28
18
11
59
41
13
25
18
14
59
53
26
96
75
37
56
43
23
15
12
11
14
10
14
12
10
14
26
24
24
255
255
255
255
255
255
115
89
105
255
255
243
255
255
255
115
91
95
23
20
12
36
31
10
30
22
8
52
39
17
41
31
20
57
40
23
36
25
15
34
23
11
62
41
20
83
52
16
64
39
23
19
2
5
40
21
8
28
21
13
15
17
17
21
20
16
20
18
10
42
29
12
42
39
18
75
71
31
91
83
37
102
70
28
53
41
20
46
17
7
51
31
13
35
25
8
57
41
21
46
29
10
74
57
35
74
34
16
62
60
39
62
42
21
11
7
5
27
25
10
29
27
15
24
18
11
64
40
15
63
46
16
39
36
17
8
6
5
55
44
21
46
38
17
24
14
10
46
37
12
11
11
10
33
16
4
81
50
14
81
48
18
54
35
13
92
63
24
83
55
22
63
39
14
25
14
5
32
25
18
24
19
15
19
14
8
21
16
6
25
20
5
42
34
10
35
31
15
34
31
10
73
57
19
98
70
22
70
48
12
15
13
7
37
21
17
28
10
7
16
9
8
17
17
11
51
37
16
92
65
27
90
61
26
62
43
21
32
29
18
16
15
7
48
35
19
32
18
8
48
21
2
56
26
6
52
32
12
26
18
7
255
255
255
255
255
249
21
5
7
21
12
8
37
17
9
25
14
6
44
27
14
41
25
14
52
30
20
29
20
13
16
12
7
4
5
5
13
5
6
10
3
4
11
10
2
32
17
8
41
21
13
28
12
8
5
3
3
13
7
6
18
7
11
18
7
9
18
9
3
31
13
12
48
21
18
55
26
19
36
16
9
22
14
7
47
31
13
40
28
6
35
22
6
25
12
6
14
12
1
31
18
6
42
28
5
41
22
7
32
21
7
35
22
7
13
6
8
29
15
9
32
18
10
17
11
7
15
10
4
15
12
8
7
6
1
19
16
10
21
13
8
36
23
10
29
18
5
23
13
5
27
16
8
22
16
9
34
31
26
104
106
93
255
255
246
255
255
232
106
87
60
9
6
4
1
0
4
11
4
5
14
18
20
47
37
18
43
29
22
60
55
55
80
62
58
59
44
41
57
61
51
97
120
110
133
138
119
121
122
100
74
76
57
21
28
15
47
22
13
53
14
11
86
15
10
23
7
5
29
13
10
28
17
11
114
104
91
255
255
207
60
60
79
144
96
58
255
255
252
219
168
121
54
49
44
68
61
50
45
36
26
45
24
14
56
36
19
60
41
22
44
29
13
15
10
2
34
17
5
137
124
125
184
146
98
142
125
124
160
132
90
24
18
7
131
124
111
255
255
255
255
246
184
3
2
14
48
55
54
36
37
48
72
71
59
25
10
3
2
5
0
11
4
0
70
41
14
255
255
230
255
255
255
138
114
86
74
46
15
59
37
11
32
20
4
38
22
5
31
18
0
40
23
4
54
32
10
58
36
18
58
34
19
51
28
17
27
14
5
14
5
1
22
14
5
49
34
15
64
41
18
22
16
12
103
89
72
232
192
145
255
255
211
255
255
255
255
255
255
255
255
255
255
222
166
136
102
70
77
36
18
47
24
45
33
47
75
34
60
87
29
65
88
21
57
77
22
26
34
32
16
22
36
52
64
28
78
93
7
93
114
1
98
122
5
95
122
7
86
115
9
71
98
11
56
74
13
42
52
14
22
31
9
10
11
1
4
1
9
3
0
10
3
0
5
3
0
11
8
7
142
118
76
25
15
3
132
112
76
43
24
2
19
8
0
8
3
0
5
1
0
5
0
0
4
2
0
7
5
0
11
5
0
8
4
0
6
3
0
4
3
0
4
1
0
7
2
0
9
0
0
2
2
0
11
2
0
10
4
0
2
4
0
8
5
0
5
4
0
7
4
0
7
4
0
2
1
0
0
3
0
0
1
0
3
2
0
5
5
0
4
2
0
2
3
0
5
4
0
12
3
0
10
4
0
9
4
0
8
4
0
14
1
0
10
2
0
8
6
0
11
14
1
13
11
2
13
10
1
5
7
2
6
8
0
10
10
0
21
12
1
20
21
3
8
0
2
17
19
4
10
10
1
15
11
1
17
13
1
12
8
2
15
17
3
0
9
1
4
5
0
8
4
0
11
3
0
2
5
0
2
5
0
11
5
0
19
4
0
13
3
0
6
0
0
4
2
0
2
2
0
3
2
0
7
1
0
5
1
0
0
3
0
4
3
0
3
3
0
11
4
0
15
1
0
12
9
0
34
32
11
90
68
32
57
48
28
38
38
26
12
13
5
60
54
36
32
29
15
18
27
23
31
26
20
44
28
18
16
38
4
17
33
2
19
86
4
35
82
12
73
30
17
51
33
5
81
59
7
104
59
21
106
50
32
116
38
22
48
38
45
41
102
104
112
11
28
77
75
66
45
51
36
104
65
64
255
255
199
255
255
255
220
255
201
27
31
29
19
10
2
28
18
1
18
14
10
15
17
15
8
3
5
22
12
8
12
6
7
17
9
5
24
15
4
52
36
16
23
17
13
50
30
17
49
33
18
39
26
7
25
10
8
21
15
7
35
22
5
34
21
9
58
40
14
81
54
23
64
41
19
8
2
4
28
22
13
26
15
7
9
2
8
20
9
4
38
25
10
59
40
17
55
39
12
56
37
13
30
15
10
10
5
13
24
18
4
22
14
14
12
15
13
1
5
4
34
28
12
4
3
3
40
31
12
39
27
8
71
48
14
50
33
7
63
50
17
38
30
13
30
22
10
51
37
15
55
38
27
255
255
255
255
255
255
120
93
107
255
255
255
255
255
255
93
73
68
63
47
22
88
61
24
83
53
21
91
58
19
89
58
22
93
65
24
66
50
13
70
53
15
67
49
23
46
33
14
51
34
18
31
10
15
48
26
8
34
21
7
40
22
7
61
30
7
65
27
1
85
29
5
120
41
1
155
67
13
179
90
27
184
104
34
169
95
21
170
79
8
162
75
13
117
57
17
78
43
17
61
36
8
83
68
38
94
64
29
68
55
33
17
12
9
66
40
20
59
43
21
33
26
9
61
46
20
103
74
32
119
86
36
113
86
40
108
77
36
102
74
27
75
53
14
64
45
11
77
59
20
34
28
15
40
29
19
24
7
1
62
43
20
17
22
12
66
49
21
69
52
15
91
68
23
91
66
24
73
50
20
35
25
10
7
8
0
1
1
7
24
9
5
45
24
2
48
30
12
58
42
7
82
54
17
38
25
5
43
32
10
39
30
10
87
62
30
96
63
32
69
41
19
93
57
19
122
82
25
114
79
25
96
67
20
91
55
17
70
43
17
53
39
22
65
48
26
69
51
27
89
65
31
71
53
25
56
38
15
41
30
7
255
255
255
255
255
248
32
19
5
33
16
5
31
15
6
30
18
7
37
20
11
22
12
10
39
22
14
47
23
14
55
27
14
54
27
16
37
18
11
12
13
4
8
7
2
9
4
7
21
13
10
20
10
5
28
15
10
33
18
11
18
7
2
15
10
11
37
17
15
20
10
7
16
10
5
5
1
4
25
14
6
24
18
10
43
29
9
11
5
4
40
26
14
49
27
17
44
27
11
13
5
3
18
15
2
21
15
3
13
12
2
17
7
2
33
17
4
23
13
3
19
9
5
35
20
12
33
19
10
9
1
1
11
10
9
18
5
1
69
38
20
78
46
26
61
39
20
33
20
8
40
31
19
79
78
62
175
170
147
255
255
218
255
233
187
221
179
145
117
98
74
6
8
7
11
14
17
49
49
49
89
76
67
65
49
39
26
12
9
46
38
41
56
64
61
85
102
110
88
110
129
57
97
96
47
53
38
27
12
5
10
6
1
38
2
0
20
14
4
54
23
5
62
15
2
95
8
2
8
6
1
31
25
24
228
194
163
255
255
212
173
148
142
107
66
24
255
255
255
188
145
98
67
54
35
69
54
41
50
46
35
9
1
5
17
11
7
21
13
5
47
27
15
3
8
2
39
16
6
134
127
125
192
150
98
134
123
124
177
143
94
13
7
4
190
178
163
255
255
255
255
216
153
9
6
8
28
30
27
27
24
34
41
37
24
25
8
1
4
3
0
16
4
1
65
34
11
255
255
220
255
255
255
178
142
98
63
40
12
18
15
4
36
22
10
37
22
10
14
8
6
22
12
9
24
13
4
32
17
10
27
14
10
21
10
5
26
12
7
24
18
15
58
50
41
129
114
88
255
219
158
255
255
233
255
255
255
255
255
255
255
255
255
255
255
221
255
197
127
170
80
34
71
17
49
43
41
69
41
52
74
29
61
80
20
52
64
15
18
19
18
25
32
22
63
76
19
89
108
13
101
121
7
102
119
5
97
113
8
86
101
10
66
80
12
43
57
11
21
33
4
7
11
3
4
1
8
2
0
5
6
0
4
2
0
4
4
0
11
5
0
4
1
0
4
3
0
1
3
0
135
111
78
53
39
20
115
102
81
57
43
20
26
12
0
8
5
0
8
4
0
8
3
0
7
4
0
7
4
0
8
1
0
3
0
0
1
1
0
4
1
0
4
0
0
3
1
0
3
3
0
12
2
0
8
1
0
14
5
0
10
4
0
10
5
0
4
3
0
2
1
0
4
2
0
3
4
0
3
2
0
2
1
0
3
3
0
3
2
0
6
1
0
1
4
0
4
2
0
16
3
0
11
8
2
10
15
5
13
15
5
11
5
3
5
4
1
10
3
0
13
14
2
8
14
1
9
4
2
2
3
1
7
5
0
16
17
0
8
1
0
24
22
6
9
17
8
20
29
10
13
19
5
15
17
3
7
13
3
14
5
5
8
17
8
14
21
8
7
12
4
8
1
0
7
4
0
4
2
0
8
1
0
15
3
0
19
3
0
12
1
0
4
1
0
4
3
0
4
4
0
5
4
0
4
3
0
5
1
0
4
4
0
4
2
0
8
3
0
10
4
0
6
1
0
4
10
0
64
52
21
95
70
35
18
16
8
41
43
31
19
15
8
49
44
30
14
13
7
8
7
8
15
14
8
53
33
22
35
17
8
9
52
5
35
34
3
9
94
9
48
38
18
34
27
4
60
48
16
67
46
26
53
29
24
84
61
42
100
43
26
62
50
46
35
93
93
138
47
36
86
89
68
51
3
15
183
123
120
255
255
255
255
255
255
118
124
93
44
31
21
31
21
8
14
9
3
15
14
13
14
17
14
7
9
6
17
10
5
27
14
5
18
9
5
36
27
13
49
34
11
63
45
17
61
43
16
59
41
20
26
27
22
34
19
5
17
7
5
33
24
11
50
39
16
62
46
21
60
44
14
64
49
18
70
53
24
53
38
13
30
27
17
59
42
27
84
55
34
35
19
15
40
38
11
47
41
13
46
38
10
23
16
6
8
12
5
36
32
18
31
28
25
32
28
19
27
20
5
14
10
14
31
18
5
69
47
18
15
7
8
65
50
19
67
51
22
14
9
6
45
34
10
63
37
0
147
137
119
255
255
255
255
255
255
29
30
52
255
255
255
255
255
255
54
39
28
43
29
11
27
17
4
32
23
7
17
13
4
31
21
4
41
28
5
52
33
11
77
55
15
79
56
18
69
44
21
63
36
17
26
15
13
50
27
7
44
24
5
26
9
5
33
14
3
26
19
8
34
13
3
83
38
12
54
34
17
31
20
9
41
28
6
60
44
14
90
52
11
104
47
10
62
31
13
21
24
14
20
23
10
62
55
27
77
71
34
67
57
26
60
43
16
33
27
14
27
17
13
71
54
17
78
59
18
24
14
6
93
62
23
115
83
33
125
90
36
127
89
32
129
85
34
140
87
38
154
96
35
143
94
30
133
88
32
125
87
29
113
71
21
68
41
10
84
56
14
113
80
24
103
67
21
73
42
8
42
22
0
48
26
5
48
23
10
38
18
5
18
11
2
42
22
4
32
18
6
50
33
2
33
18
11
20
15
8
40
26
8
13
12
7
26
20
11
48
32
13
8
7
9
40
23
3
35
27
7
34
22
7
47
37
8
37
25
8
6
2
0
40
32
14
44
28
16
26
23
11
51
34
12
70
46
14
68
46
13
46
31
10
255
255
255
255
255
248
15
9
6
18
11
6
32
17
7
35
18
7
52
28
12
74
40
21
69
38
19
44
25
10
16
9
3
7
4
3
19
14
8
31
22
7
13
8
2
18
16
4
31
16
11
37
19
14
21
13
10
7
7
3
32
17
10
14
5
4
27
14
14
38
17
13
34
17
9
20
11
2
9
4
3
13
8
8
29
20
7
41
24
11
53
35
16
34
19
11
51
31
17
49
31
12
46
28
10
34
17
8
16
7
5
6
7
1
23
14
5
40
21
10
41
22
11
23
13
6
2
4
3
16
11
7
18
7
5
19
11
8
55
34
21
45
29
14
19
13
8
60
56
53
166
158
136
255
247
209
255
255
232
228
172
132
28
37
40
212
178
154
210
175
138
50
48
32
38
29
22
53
43
38
29
24
14
20
26
37
20
29
28
46
55
52
35
65
53
41
24
24
76
28
4
64
44
1
61
31
0
29
2
0
39
3
0
24
5
2
38
4
6
54
2
6
12
7
4
98
3
5
48
4
7
53
41
32
255
218
178
247
192
136
255
231
200
166
135
91
255
255
255
255
255
210
137
101
61
39
44
44
15
17
21
41
15
5
41
21
9
31
18
12
33
14
7
22
17
8
28
15
4
148
140
130
188
147
93
138
131
131
192
153
100
20
18
17
255
247
224
255
255
255
193
147
89
19
4
10
22
24
16
9
15
21
33
26
7
15
8
0
3
4
0
25
9
3
52
22
5
255
253
215
255
255
255
213
163
104
58
35
12
17
9
4
22
11
4
17
9
5
12
7
5
35
20
12
12
9
4
23
13
3
27
21
17
86
70
57
183
151
116
255
251
184
255
255
241
255
255
255
255
255
255
255
255
255
255
255
204
255
170
110
154
70
38
64
24
46
39
51
76
33
56
86
27
55
80
26
39
52
27
9
9
31
25
34
28
59
72
22
81
96
15
91
108
7
92
112
1
84
105
3
74
90
3
59
67
6
40
43
7
19
21
4
5
5
8
4
0
5
4
0
8
4
0
5
4
0
4
2
0
7
5
0
1
1
0
4
1
0
5
3
0
2
4
0
1
1
0
4
2
0
111
93
67
89
74
44
88
82
68
79
68
46
26
11
0
14
7
0
4
3
0
3
4
0
4
4
0
8
3
0
10
0
0
5
0
0
0
2
0
4
0
0
7
1
0
9
2
0
9
3
0
12
2
0
8
2
0
7
8
0
11
5
0
6
7
0
2
1
0
2
1
0
2
1
0
6
0
0
2
1
0
4
1
0
8
2
0
5
3
0
4
3
0
12
4
0
17
4
0
17
3
0
21
22
6
7
12
4
23
21
4
12
8
2
4
1
2
7
4
0
11
6
1
14
16
2
0
6
1
6
2
0
3
5
0
15
11
0
8
10
0
20
18
7
25
32
9
17
20
7
21
31
8
16
17
7
12
20
7
18
16
8
17
15
6
8
17
6
15
17
6
7
5
0
4
4
0
2
3
0
6
1
0
14
2
0
14
0
0
7
2
0
4
4
0
5
2
0
2
1
0
6
2
0
5
2
0
2
3
0
10
4
0
2
1
0
12
2
0
5
1
0
3
4
0
13
14
2
74
58
23
86
66
36
27
19
17
48
47
41
24
23
21
43
44
27
9
10
4
9
5
7
13
17
8
45
29
16
45
20
9
4
54
8
44
39
3
10
92
4
24
52
23
20
24
12
45
37
18
59
51
34
37
22
21
42
43
34
62
82
51
77
49
32
64
56
43
56
60
62
147
65
45
56
31
17
103
42
65
255
255
214
255
255
255
200
247
174
55
45
27
47
37
22
55
39
21
65
46
17
48
36
10
42
32
10
55
37
10
72
50
14
94
65
20
115
80
28
119
83
28
105
72
20
100
66
14
105
68
17
115
79
35
89
63
31
86
58
26
93
65
25
88
65
21
91
65
23
100
70
28
94
66
29
84
58
20
83
60
24
110
80
35
95
62
27
31
23
13
79
62
29
73
56
24
61
46
21
78
60
26
104
76
31
113
83
34
110
83
33
124
92
36
122
79
31
88
49
13
63
33
15
20
15
12
39
29
18
34
29
11
58
48
24
58
46
22
79
57
24
37
21
8
122
115
89
255
255
255
255
255
255
255
172
148
92
52
20
255
255
255
255
255
255
50
36
24
69
47
22
49
37
20
9
10
9
21
10
3
30
19
7
28
22
9
5
4
7
47
36
18
71
53
23
57
43
25
46
33
29
41
30
20
31
13
7
52
29
5
41
24
10
28
16
10
30
32
13
61
47
21
23
37
23
54
18
10
87
30
12
111
38
5
90
24
13
71
30
10
100
40
1
64
32
5
93
51
8
87
44
6
89
48
14
86
53
28
71
50
28
76
51
26
96
61
27
64
43
14
20
21
23
100
80
42
88
67
34
40
35
20
24
18
13
11
8
7
22
21
7
18
7
3
50
43
20
63
53
25
27
22
15
62
36
12
82
49
14
76
44
11
58
41
14
36
25
7
9
13
5
17
14
8
20
16
7
34
24
9
29
25
11
31
27
14
29
21
2
44
20
3
53
27
2
13
2
4
42
26
4
44
27
3
15
10
5
27
17
10
34
21
8
35
27
13
43
33
18
35
27
20
74
49
24
101
67
26
78
57
19
83
63
18
86
58
18
63
42
15
21
19
8
47
31
13
22
21
7
35
32
19
17
25
19
18
22
16
20
20
15
255
255
255
255
255
247
30
18
6
25
14
4
26
15
8
42
22
12
46
22
10
43
20
8
47
23
11
53
25
14
52
27
15
59
30
16
58
29
13
47
22
10
35
14
8
48
27
11
10
4
2
51
28
16
63
35
21
42
21
17
10
8
2
28
16
11
9
8
4
11
8
9
41
21
12
33
15
5
17
3
2
8
5
5
17
10
4
22
11
4
38
25
15
32
22
14
38
21
11
30
15
6
21
10
5
8
6
5
20
18
10
18
10
10
11
1
8
15
10
12
10
6
4
37
23
10
50
31
13
45
25
10
35
17
8
36
19
6
65
35
16
86
48
23
70
56
51
198
193
183
255
255
255
244
206
169
14
16
18
181
153
132
177
141
110
195
160
145
223
176
140
52
47
27
15
22
14
53
46
48
81
70
62
53
44
32
12
23
35
22
22
11
18
13
2
62
35
0
58
34
2
48
35
0
50
36
0
31
8
0
42
7
0
41
11
4
39
17
4
7
20
1
27
18
2
36
17
1
42
12
2
10
26
25
202
181
142
255
255
193
255
233
170
98
70
37
199
176
162
255
255
238
248
197
140
18
9
4
20
5
1
7
5
5
13
4
7
11
9
7
21
10
7
23
7
7
2
10
8
165
148
133
192
149
92
155
139
136
196
154
98
19
18
14
255
224
201
255
255
255
223
169
111
15
65
94
21
89
122
28
76
107
27
46
47
7
5
1
5
3
0
42
21
6
36
17
3
245
213
191
255
255
255
255
228
154
87
77
55
10
10
8
25
15
10
46
26
11
38
25
11
60
46
30
113
96
72
220
184
135
255
255
207
255
255
251
255
255
255
255
255
255
255
255
228
255
239
161
247
138
76
135
50
36
70
34
55
58
43
63
47
44
62
31
43
60
21
24
37
23
15
16
28
44
55
25
60
71
16
74
86
6
86
101
4
89
105
2
80
98
4
64
81
10
44
58
11
24
30
8
13
11
5
5
2
1
2
0
2
3
0
5
3
0
10
4
0
4
2
0
10
4
0
8
1
0
8
2
0
7
3
0
2
3
0
5
4
0
7
5
0
7
4
0
3
6
0
3
6
1
76
62
40
126
109
72
57
54
38
102
96
70
14
4
0
23
10
0
4
0
0
4
2
0
8
3
0
11
1
0
5
0
0
4
1
0
3
1
0
4
1
0
8
2
0
8
3
0
8
5
0
8
6
0
6
4
0
1
7
0
6
4
0
4
6
0
3
3
0
0
2
0
5
1
0
5
2
0
1
2
0
4
3
0
7
5
0
9
4
0
10
1
0
9
4
0
7
3
0
1
2
0
27
25
7
5
11
3
18
18
7
10
6
3
11
8
1
0
5
0
8
1
0
12
10
0
14
13
1
3
4
2
2
4
1
7
1
0
17
11
0
15
8
4
21
29
9
12
16
8
17
25
5
14
12
8
6
15
3
7
12
4
13
21
8
22
25
10
14
14
4
4
2
0
4
0
0
2
1
0
7
1
0
18
2
0
12
2
0
1
5
0
4
2
0
1
5
0
7
3
0
1
2
0
8
2
0
1
3
0
12
3
0
2
1
0
11
2
0
1
2
0
1
2
0
30
26
7
74
56
20
70
54
36
34
30
22
36
41
36
27
30
27
32
37
21
16
18
11
18
19
12
8
8
4
25
15
7
61
40
14
27
35
9
57
86
4
23
52
5
18
74
26
23
36
20
37
25
4
58
56
41
35
22
14
33
18
18
45
51
30
38
104
66
81
49
36
49
26
21
73
29
30
130
30
18
41
4
31
177
152
131
255
255
255
255
255
255
79
73
59
35
27
19
49
31
10
49
38
12
61
50
15
65
50
20
85
57
23
110
71
27
107
68
23
101
66
23
89
62
23
52
36
12
36
25
1
45
30
3
95
60
15
95
62
21
76
48
14
39
22
3
12
16
13
43
34
18
40
28
12
27
26
12
39
34
16
26
19
7
43
35
16
73
51
26
76
55
31
97
69
33
66
40
15
47
20
6
59
34
7
71
50
14
106
78
28
124
89
35
90
64
29
71
50
24
72
54
25
89
63
37
74
50
27
69
46
18
86
56
20
135
93
35
140
94
34
92
57
14
142
121
87
255
255
255
255
255
255
255
235
192
84
41
35
188
123
77
255
255
255
255
255
255
27
15
20
36
30
13
80
61
21
112
83
34
92
73
34
61
51
24
43
36
21
58
43
24
58
42
26
68
49
27
19
18
14
10
14
6
30
24
10
51
38
8
79
64
22
92
69
24
115
71
21
146
78
21
156
85
25
163
90
26
159
90
21
130
71
15
92
44
11
85
37
10
111
62
17
175
89
19
191
91
13
143
56
8
75
29
28
32
38
37
80
56
35
84
65
33
66
51
27
27
20
13
50
40
23
64
42
21
43
37
18
62
41
24
15
14
5
2
4
2
34
23
5
8
4
2
36
30
15
70
45
22
55
29
13
45
26
6
27
16
1
14
11
7
8
1
5
22
22
15
33
22
10
16
9
5
16
10
8
24
19
12
52
36
19
67
40
19
57
25
9
27
11
0
21
11
3
20
10
5
62
39
12
47
27
13
5
14
10
50
44
21
58
44
18
23
15
5
56
40
17
18
12
7
14
8
5
20
13
13
53
34
17
43
25
9
67
47
14
29
18
21
55
46
26
26
14
17
43
29
8
31
19
13
51
39
19
88
61
27
101
67
26
89
56
17
255
255
255
255
255
248
36
17
7
37
17
8
31
14
6
23
11
7
15
5
4
44
19
14
41
21
15
7
5
5
14
7
2
14
7
5
4
5
1
15
10
4
7
4
2
31
22
7
53
31
14
36
20
12
61
36
19
50
28
18
21
13
5
28
16
7
19
16
10
48
28
15
57
30
12
33
20
4
37
19
7
45
23
9
61
30
11
56
27
9
48
27
8
25
17
8
46
26
12
57
36
14
75
45
15
70
42
17
58
34
11
36
20
8
16
9
3
31
18
14
42
25
13
33
22
4
20
13
3
18
12
6
40
22
7
47
24
4
39
19
6
52
39
31
220
189
167
255
255
255
255
255
206
173
153
139
219
172
127
17
11
25
149
130
122
251
207
178
190
154
120
76
67
48
47
38
25
29
16
11
27
23
24
44
23
13
13
9
27
30
23
11
44
15
1
78
23
2
96
33
1
97
31
0
82
24
0
55
3
0
52
2
0
49
9
2
47
16
6
29
13
3
23
16
4
37
7
4
45
7
6
58
11
6
55
46
36
96
63
43
31
20
26
208
188
169
255
255
255
255
255
249
212
165
117
21
8
1
5
3
7
27
13
7
34
18
3
30
17
4
7
7
9
41
36
20
102
80
41
217
168
123
221
152
79
196
135
100
255
216
117
255
255
155
255
255
188
255
255
255
244
157
91
15
67
92
16
31
36
26
81
103
6
67
75
1
3
2
3
2
0
44
28
11
29
13
8
158
119
126
255
255
234
255
255
239
255
230
145
65
43
22
98
76
44
172
138
88
255
216
152
255
255
217
255
255
255
255
255
255
255
255
255
255
255
219
255
221
136
210
101
48
97
21
32
51
27
53
52
27
51
48
31
51
34
29
43
17
10
15
14
17
20
18
38
46
18
56
67
16
76
95
11
83
107
4
85
108
2
84
105
5
70
87
7
46
59
8
22
31
11
7
11
12
2
2
12
1
0
12
4
0
10
9
0
7
9
0
4
4
0
6
1
0
5
1
0
1
2
0
6
1
0
4
0
0
1
2
0
4
1
0
3
1
0
8
3
0
7
7
0
1
0
0
2
2
0
8
5
2
42
31
15
136
123
84
25
27
11
118
115
85
3
2
2
21
11
0
13
6
0
8
4
0
4
2
0
5
1
0
8
3
0
10
4
0
10
5
0
11
6
0
8
5
0
5
4
0
3
4
0
3
2
0
3
2
0
3
1
0
5
5
0
4
4
0
3
2
0
2
3
0
6
3
0
5
2
0
8
4
0
9
3
0
13
5
0
13
1
0
5
3
0
3
0
0
6
2
0
4
4
0
20
20
5
7
12
2
8
9
5
12
9
4
18
15
1
14
11
0
3
2
0
5
5
0
18
15
2
10
5
0
4
5
2
4
4
1
6
6
2
9
7
1
7
10
2
22
16
4
20
20
3
18
13
7
20
23
9
22
26
9
18
20
6
11
11
2
0
1
0
2
1
0
4
2
0
5
2
0
4
4
0
21
5
0
15
4
0
7
6
0
4
4
0
5
4
0
8
2
0
5
2
0
7
2
0
6
1
0
13
1
0
7
2
0
12
2
0
8
1
0
8
2
0
55
44
14
74
60
24
41
28
23
31
27
24
24
29
36
17
18
15
20
19
11
16
10
4
28
20
10
45
33
19
50
35
22
99
66
26
61
27
14
78
113
7
55
28
4
19
78
24
42
48
34
56
35
19
51
47
38
39
35
27
19
16
26
48
21
16
13
68
38
60
102
68
103
38
28
43
2
4
58
10
3
106
21
9
40
43
67
255
255
255
255
255
255
163
205
162
46
36
21
57
43
28
99
74
36
94
65
31
83
54
26
83
58
28
85
64
34
85
65
35
69
56
30
43
40
22
80
59
31
90
65
25
97
66
21
108
74
27
80
57
29
40
30
19
31
20
7
41
25
4
35
24
3
52
31
10
45
31
7
49
36
7
43
30
8
65
35
10
31
9
4
43
35
19
52
39
19
16
7
5
41
26
9
51
36
13
53
37
15
38
23
10
34
21
10
28
18
9
21
16
14
12
7
7
30
23
12
31
19
18
31
21
7
34
31
21
50
45
21
58
56
31
156
140
108
255
255
255
255
255
255
255
231
209
117
60
34
20
15
15
255
211
144
255
255
255
255
246
218
41
37
21
53
48
22
48
41
21
10
4
10
54
31
10
58
42
17
49
43
25
41
30
15
24
17
8
59
40
16
22
26
13
57
53
24
73
65
25
60
51
17
42
30
5
66
33
8
84
30
3
41
8
2
38
25
8
24
24
18
42
8
14
67
22
8
29
18
12
51
27
18
82
38
12
68
38
2
64
34
4
81
62
33
120
75
34
71
46
29
89
51
31
84
61
34
70
61
34
94
74
38
68
47
17
17
5
14
34
31
27
51
35
21
3
3
1
11
17
7
58
41
10
38
27
12
67
46
22
55
34
18
32
28
12
38
32
10
28
22
8
10
6
4
11
13
4
37
36
15
35
24
11
8
3
6
23
22
12
76
57
28
63
46
26
28
19
15
31
30
13
42
26
9
44
25
9
27
14
8
20
19
7
49
44
22
60
45
21
60
36
15
63
42
21
25
12
7
43
31
17
55
40
17
63
47
23
58
42
25
67
43
20
48
28
11
93
62
24
70
47
21
60
41
13
10
7
3
45
27
11
29
16
6
39
37
23
30
33
15
21
24
16
28
29
17
255
255
255
255
255
250
23
11
4
12
8
5
3
4
4
5
2
4
26
11
8
24
12
9
36
17
11
18
7
5
15
8
2
1
4
5
13
4
4
17
13
4
43
25
11
67
37
17
104
57
26
116
62
31
96
49
27
52
22
15
37
14
8
57
26
11
66
33
17
50
24
15
24
11
8
18
12
8
41
26
14
36
22
14
13
8
5
3
3
1
38
22
5
53
31
9
53
30
9
43
26
5
39
24
5
49
32
11
66
42
20
68
44
22
60
39
20
46
29
18
31
22
10
32
15
7
27
14
4
25
13
10
16
5
4
14
7
10
26
14
13
109
96
85
255
255
255
255
255
246
149
110
66
173
141
121
255
255
208
255
255
233
255
255
213
238
197
152
134
112
79
49
42
24
14
12
2
4
5
0
28
24
18
51
29
15
15
5
18
46
27
10
41
18
0
22
13
0
44
25
0
47
24
0
36
14
0
40
6
0
66
6
0
58
10
1
48
19
9
49
21
4
59
20
9
55
10
8
94
100
95
255
232
190
255
255
234
255
255
199
255
218
161
255
255
255
255
255
223
180
138
101
29
31
29
78
60
40
111
94
60
157
124
65
200
151
77
255
202
113
255
248
134
255
255
141
255
255
172
255
255
181
255
230
129
255
227
154
255
255
241
255
255
255
255
255
238
255
255
212
124
95
75
19
66
99
16
92
128
5
92
117
7
57
65
1
1
1
2
1
0
26
19
11
42
23
7
63
45
68
145
116
118
255
255
212
255
255
206
255
255
187
255
255
228
255
255
249
255
255
255
255
255
234
255
255
176
255
178
104
171
79
38
81
17
33
60
33
50
60
35
50
51
31
45
36
19
25
27
5
8
21
32
39
18
56
67
14
71
84
11
78
93
8
82
99
5
83
103
5
76
95
2
58
72
8
42
53
6
26
34
6
8
12
6
1
1
6
3
0
7
1
0
6
5
0
3
3
0
4
4
0
5
4
0
7
5
0
7
5
0
5
3
0
4
3
0
3
5
0
5
7
0
7
7
0
6
5
0
2
1
0
7
2
0
9
4
0
4
5
0
1
2
0
6
1
0
15
10
2
23
16
2
121
112
86
19
7
12
124
115
89
25
18
17
7
7
0
15
7
0
3
1
0
4
5
0
7
4
0
9
3
0
10
3
0
9
7
0
4
7
0
1
5
0
2
2
0
4
8
1
10
17
3
14
17
4
16
15
3
17
18
1
10
15
0
7
5
0
8
2
0
7
2
0
12
2
0
7
3
0
2
2
0
6
2
0
4
5
0
5
3
0
4
2
0
4
2
0
6
5
0
12
15
4
9
16
5
4
2
3
2
6
5
6
4
3
9
13
0
12
14
0
7
3
0
5
11
1
15
14
1
3
5
1
7
7
1
15
12
0
12
10
1
14
9
2
11
9
1
4
8
0
7
0
1
5
3
2
1
6
1
7
4
0
7
2
0
3
2
0
4
1
0
5
0
0
7
2
0
6
3
0
24
4
0
16
4
0
8
6
0
3
3
0
7
6
0
3
5
0
6
2
0
2
1
0
12
0
0
11
1
0
5
2
0
7
1
0
4
0
0
18
15
4
80
68
26
71
55
25
13
7
0
16
11
13
2
5
12
13
10
3
27
21
16
39
31
16
44
29
16
71
45
27
63
42
22
145
97
39
64
36
15
79
113
10
81
92
4
11
57
20
53
50
48
58
39
19
43
28
22
41
49
44
21
26
31
29
16
14
10
17
7
31
88
51
82
76
52
100
32
29
43
11
8
65
16
1
98
12
28
147
193
159
255
255
255
255
255
255
58
57
48
35
25
21
47
35
14
55
44
22
56
41
18
69
52
24
82
59
27
82
58
23
101
73
29
91
64
22
89
56
19
46
29
7
52
32
3
82
56
20
68
44
17
72
45
19
31
14
12
36
17
6
12
5
2
33
18
9
14
2
7
40
29
15
9
3
5
80
50
21
57
40
19
78
51
23
33
26
14
76
52
31
111
74
36
127
86
37
144
97
39
133
90
34
104
71
28
66
50
22
44
37
23
46
33
19
78
59
28
86
56
23
92
55
17
99
61
20
97
63
20
117
80
35
255
244
186
255
255
255
255
254
225
145
85
38
44
17
24
88
69
49
255
255
249
255
255
255
153
113
120
87
59
22
95
64
23
109
74
25
129
89
42
106
80
42
73
58
30
66
50
26
118
91
49
158
116
66
100
70
51
48
28
25
31
17
7
22
18
8
25
14
4
62
39
17
119
72
23
173
93
22
162
85
16
138
71
16
127
66
17
125
71
5
136
81
10
165
98
27
176
98
25
209
111
20
168
84
17
164
77
8
130
73
32
90
51
28
43
29
29
75
38
21
91
54
18
44
21
6
47
28
10
86
54
24
71
44
20
37
26
9
31
24
12
60
41
20
65
48
23
98
70
31
91
61
26
78
52
19
52
31
12
22
17
5
22
14
10
7
8
8
15
13
9
25
22
11
59
40
24
29
19
13
16
15
5
83
58
27
95
58
22
53
29
13
43
36
19
37
25
10
44
35
22
52
41
23
40
32
18
76
53
24
94
62
27
79
46
17
29
18
5
66
44
20
20
13
15
12
7
8
60
37
10
73
41
9
53
25
2
32
13
7
14
2
3
58
37
14
54
42
27
53
40
31
53
38
24
13
8
6
25
16
1
41
25
11
61
35
14
87
50
22
98
58
15
255
255
255
255
255
250
20
10
4
31
14
5
43
20
9
29
17
8
16
5
1
61
25
15
68
29
19
49
24
15
49
27
15
44
23
12
31
15
8
38
19
11
47
24
12
29
14
8
1
2
3
7
5
4
7
3
5
15
7
3
11
10
1
6
8
4
6
5
4
23
16
7
32
18
8
30
18
10
7
4
7
15
8
3
26
11
4
32
18
2
20
13
3
21
10
2
27
14
3
23
15
3
15
6
3
7
7
1
23
15
8
2
4
0
21
13
3
17
8
3
46
29
15
38
28
12
9
2
4
20
8
7
13
8
7
36
17
9
46
29
20
187
170
157
255
255
255
255
222
155
25
15
3
25
23
19
109
78
55
154
108
71
89
63
38
30
21
7
14
14
2
8
6
0
7
5
0
5
4
0
26
20
11
62
35
11
14
1
11
58
32
11
37
19
0
1
1
0
1
2
0
2
2
0
7
2
0
6
2
0
37
3
0
45
5
3
26
12
8
29
12
5
32
13
3
29
40
51
255
237
206
255
255
223
255
223
193
224
183
175
110
96
119
230
193
177
255
196
110
255
255
163
255
255
171
255
255
192
255
255
211
255
255
219
255
255
242
255
255
255
255
255
255
255
255
255
255
255
255
255
255
240
239
234
208
186
205
197
159
184
177
102
136
135
53
86
86
62
52
61
128
104
78
184
122
90
141
84
49
12
33
46
6
20
21
3
8
8
2
27
28
12
43
47
27
49
59
50
61
69
80
69
56
226
170
131
255
255
194
255
255
227
255
255
195
255
213
130
227
114
55
119
38
25
58
17
38
51
18
36
49
21
35
39
22
27
27
11
14
17
14
16
22
41
43
27
65
69
21
81
89
13
86
99
9
83
99
8
76
94
5
65
83
2
55
67
8
40
49
11
20
28
12
5
10
11
1
1
9
1
0
10
2
0
9
3
0
11
2
0
11
3
0
4
5
0
2
1
0
6
1
0
4
3
0
4
2
0
8
6
0
9
8
0
10
7
0
10
6
0
8
5
0
9
4
0
7
7
0
8
4
0
7
4
0
10
9
1
12
12
3
11
8
3
6
3
1
14
12
2
14
9
0
95
89
72
72
52
40
109
97
76
72
54
41
10
4
0
16
9
0
12
7
0
11
8
0
6
5
0
3
2
0
4
1
0
4
5
0
6
4
0
4
3
0
1
7
1
12
21
5
19
20
6
18
22
4
13
19
3
10
14
2
22
17
0
11
13
0
10
1
0
9
3
0
5
3
0
4
0
0
5
3
0
8
3
0
5
1
0
7
3
0
4
3
0
3
2
0
4
2
0
5
10
3
10
17
5
6
7
4
15
19
5
12
15
3
6
5
0
10
14
0
16
8
0
2
7
0
17
16
2
9
10
0
12
17
1
13
11
2
13
9
1
5
5
0
4
4
0
3
2
0
3
1
0
1
2
0
4
1
0
3
5
0
5
3
0
8
7
0
7
7
0
1
7
0
8
4
0
18
5
0
23
7
0
6
1
0
13
5
0
7
4
0
10
3
0
6
5
0
10
2
0
7
2
0
13
3
0
1
3
0
8
2
0
11
0
0
12
1
0
51
47
20
94
80
37
29
19
7
18
27
20
22
14
12
14
13
6
20
13
15
46
37
25
39
29
16
58
31
21
62
32
20
130
91
43
156
103
42
22
8
4
154
161
83
162
158
112
85
99
70
46
48
44
58
20
20
34
18
8
28
44
44
21
22
12
14
31
36
25
24
16
51
60
28
18
93
54
93
70
60
114
41
42
51
17
12
57
15
5
81
52
72
255
255
255
255
255
255
153
180
128
29
17
11
55
35
21
48
27
18
48
22
9
49
29
12
68
44
21
63
42
23
11
10
8
56
36
12
68
46
17
38
30
14
17
10
6
39
30
14
24
21
18
45
27
14
31
20
20
22
11
7
16
8
8
12
12
4
34
25
12
55
35
14
41
25
12
63
43
22
22
14
7
77
50
23
50
38
16
53
35
22
30
22
9
17
10
10
55
36
17
67
45
18
76
56
24
89
69
30
90
72
36
74
56
33
72
50
24
22
11
3
29
24
13
52
34
19
51
38
15
62
54
32
255
225
187
255
255
255
255
193
180
102
56
44
27
27
34
255
211
145
255
255
255
255
255
242
62
46
45
46
39
11
43
33
10
31
26
11
12
7
8
39
24
10
50
38
18
50
39
17
76
60
38
17
8
14
65
49
23
67
39
17
19
17
10
28
19
5
25
16
5
33
28
20
4
12
4
63
26
11
83
33
4
58
18
2
53
10
10
92
45
9
151
90
28
155
90
27
134
83
24
180
106
25
165
95
22
174
92
17
133
58
12
77
38
14
87
59
17
93
69
29
52
36
16
62
26
3
89
51
14
44
25
4
59
43
26
87
65
40
109
76
38
86
61
27
49
38
12
26
27
10
41
31
8
8
2
4
39
29
14
41
30
13
87
65
26
89
61
27
54
31
16
32
19
8
53
37
20
29
14
8
28
14
2
73
45
24
59
46
27
90
66
35
64
41
20
36
19
8
34
26
11
36
29
11
35
27
8
75
49
14
66
51
20
47
36
19
19
14
9
71
44
13
129
75
23
131
75
22
148
91
30
145
91
34
89
52
22
61
34
13
81
48
17
90
57
24
66
48
24
46
37
17
52
38
21
17
15
10
54
41
14
62
50
14
51
37
14
35
25
12
39
28
9
255
255
255
255
255
249
12
8
6
13
10
3
24
16
5
38
19
7
49
22
8
34
14
7
19
7
4
25
12
5
43
20
7
62
29
9
67
30
11
72
32
11
52
22
5
30
14
5
10
4
6
4
4
3
1
4
4
30
16
14
28
17
15
37
22
15
11
5
6
19
11
2
35
18
4
36
21
8
19
8
6
32
15
2
55
28
2
61
32
5
45
24
5
13
6
1
7
5
3
14
9
4
14
7
0
10
7
2
18
10
4
19
13
2
14
10
2
40
24
8
40
26
15
43
29
17
46
31
20
4
5
5
15
8
6
38
19
9
47
34
30
255
237
216
255
255
255
180
141
82
24
22
23
13
5
6
55
34
23
5
2
0
8
5
0
29
18
14
42
28
20
34
21
14
5
1
1
2
1
2
30
22
13
68
38
14
8
5
14
64
33
12
33
18
0
3
3
0
4
3
4
6
11
17
24
38
52
50
77
98
69
102
126
78
118
141
79
137
158
105
138
163
109
134
166
117
137
171
249
190
166
255
186
100
255
255
167
255
255
168
255
231
142
255
255
205
255
255
255
255
255
250
255
255
245
255
255
255
255
255
238
255
255
231
255
255
223
213
212
192
131
168
171
98
148
160
82
123
131
49
86
92
37
65
74
29
48
51
11
18
11
51
33
44
4
1
7
29
31
25
255
231
154
189
146
131
255
206
147
22
53
69
30
63
76
45
71
73
56
70
68
66
63
61
73
63
59
72
63
58
50
42
44
64
45
34
130
62
26
131
45
12
82
15
37
52
23
44
49
22
40
46
19
29
40
12
14
39
20
26
35
41
50
25
61
69
19
75
85
14
83
97
8
87
103
4
87
104
4
78
96
6
62
80
7
43
58
10
22
32
12
7
14
13
7
4
12
7
0
14
4
0
16
3
0
13
4
0
8
3
0
6
4
0
5
3
0
3
2
0
1
3
0
1
1
0
4
1
0
7
1
0
11
2
0
11
5
0
9
3
0
7
2
0
8
3
0
7
4
0
10
2
0
9
3
0
8
5
0
5
3
0
4
7
0
11
13
2
9
5
2
11
9
2
14
3
2
21
13
2
15
6
0
57
53
45
118
100
72
65
58
46
121
98
71
13
11
0
12
8
0
17
11
0
14
4
0
12
1
0
7
7
0
2
5
0
3
5
0
0
6
1
5
5
2
4
10
1
11
14
5
13
17
3
19
21
5
14
15
4
13
7
1
25
13
0
31
20
0
5
7
0
7
1
0
4
3
0
8
4
0
5
4
0
7
5
0
5
6
0
5
3
0
2
2
0
1
4
0
2
5
0
4
10
2
15
20
6
8
9
3
15
20
6
4
10
1
12
13
0
14
12
0
17
8
0
2
4
0
8
12
1
12
13
2
7
11
1
4
3
0
4
4
0
2
2
0
1
0
0
2
0
0
4
2
0
3
1
0
2
2
0
8
1
0
4
5
0
11
4
0
4
3
0
8
8
0
16
4
0
21
2
0
13
5
0
4
4
0
16
4
0
7
4
0
13
4
0
2
3
0
7
1
0
6
3
0
11
2
0
6
4
0
10
1
0
16
1
0
3
12
4
101
85
43
77
60
28
32
38
32
30
29
24
44
33
18
46
48
35
56
55
38
58
49
31
47
29
16
70
31
17
45
41
21
192
123
60
60
27
6
234
209
134
255
255
255
255
255
255
255
255
255
52
89
33
85
7
47
30
19
9
32
34
31
18
32
32
11
22
29
29
18
19
59
40
26
118
101
63
49
118
87
110
76
75
141
47
51
83
20
19
32
13
27
106
198
173
255
255
255
255
255
254
50
63
48
52
38
18
44
31
16
31
18
11
27
17
11
35
22
11
31
19
11
36
22
12
35
24
8
20
14
4
14
16
9
24
16
6
0
8
9
42
31
21
33
14
7
75
41
17
59
31
11
27
11
4
1
6
5
10
5
2
54
37
13
57
39
12
18
13
11
21
14
15
47
29
12
2
4
3
17
13
12
28
23
18
35
23
9
63
42
16
43
28
10
24
23
6
18
9
4
38
30
10
26
23
13
10
5
5
43
25
10
50
29
10
36
14
6
41
21
12
56
40
22
185
143
102
255
255
255
255
255
255
218
145
122
208
150
109
255
255
255
255
255
255
173
123
101
40
18
10
50
32
10
22
10
8
30
17
4
63
35
16
66
36
14
59
31
11
81
49
14
122
85
37
118
86
40
53
34
18
44
27
10
24
18
13
17
10
13
20
17
13
23
22
18
26
28
13
23
21
4
41
27
13
62
39
17
56
19
7
58
22
14
56
38
21
50
61
35
43
52
30
44
22
10
77
35
12
65
32
9
63
30
4
93
42
17
137
65
20
90
22
14
39
27
24
12
27
19
44
25
8
76
55
26
102
72
36
121
83
36
44
28
14
26
19
7
60
39
14
78
48
20
82
59
28
86
66
29
71
55
26
109
83
38
90
65
29
90
67
25
58
42
16
39
30
14
39
25
11
18
10
2
51
38
20
61
46
26
34
30
15
56
33
12
46
26
8
43
27
14
39
26
18
35
23
11
27
14
4
37
18
7
60
44
18
66
49
24
59
41
23
66
44
23
12
11
7
48
36
16
65
53
30
68
54
30
71
53
28
73
54
28
82
58
27
54
36
16
47
30
13
21
16
8
51
37
24
55
39
23
72
48
19
69
46
16
94
57
23
124
71
26
157
89
27
255
255
255
255
255
245
29
18
11
38
26
14
21
11
6
25
11
5
28
16
7
13
5
4
19
7
7
33
16
11
48
25
15
66
40
25
65
44
29
57
38
23
23
15
7
9
6
5
11
3
3
15
10
6
8
5
8
26
16
12
24
4
2
52
31
17
54
27
8
52
25
8
32
12
7
10
8
3
11
13
4
15
11
5
19
7
2
17
4
5
3
5
7
17
8
4
10
9
3
19
17
5
36
24
9
37
25
12
37
24
10
34
21
7
7
2
6
44
25
5
77
45
21
82
46
14
96
54
21
66
32
4
38
17
4
12
4
3
63
67
61
255
255
255
255
255
235
108
80
37
27
19
18
38
26
19
36
22
16
12
5
3
4
4
1
44
28
20
5
5
0
49
31
20
4
2
3
2
4
10
43
48
52
70
66
79
31
68
104
74
102
138
96
128
157
97
134
161
112
148
177
113
145
176
95
127
161
93
121
154
68
99
127
36
69
96
10
40
64
25
26
40
7
4
15
25
37
28
140
128
105
255
223
181
255
248
195
255
221
178
202
186
163
172
174
160
158
159
143
116
124
108
92
111
93
79
97
83
48
70
54
34
59
52
28
46
50
17
29
30
23
24
22
23
18
11
8
4
16
14
8
39
21
15
40
16
14
28
23
22
32
60
58
58
18
51
46
38
75
65
255
202
120
125
73
75
244
167
102
60
66
69
63
67
64
58
57
51
52
46
48
43
37
46
21
34
45
10
37
49
32
31
47
49
28
46
56
24
43
59
17
32
54
8
14
42
17
25
36
42
54
32
61
74
29
71
86
26
75
91
17
76
93
10
79
91
7
80
92
0
72
89
7
57
76
8
35
53
7
11
26
8
4
7
8
5
1
6
5
0
7
5
0
8
4
0
5
4
0
1
2
0
5
3
0
1
2
0
4
3
0
8
4
0
8
1
0
5
4
0
3
3
0
4
1
0
7
1
0
7
0
0
1
1
0
6
3
0
7
2
0
4
4
0
5
4
0
2
4
0
8
5
0
4
2
0
8
2
0
3
4
0
5
6
0
7
10
2
4
6
1
14
8
2
6
3
1
27
14
2
13
4
0
27
21
17
140
125
95
15
17
15
146
125
95
4
7
2
4
5
0
19
12
0
4
5
1
9
11
2
9
13
1
4
10
1
6
10
2
10
10
1
12
8
0
5
6
1
8
8
4
22
20
6
23
22
4
18
18
1
43
21
0
43
19
0
62
32
0
30
19
0
4
2
0
8
4
0
13
7
0
6
4
0
5
2
0
6
1
0
4
2
0
1
0
0
0
2
0
2
3
0
2
5
2
17
21
7
13
13
2
14
16
7
1
4
0
6
3
0
12
7
0
7
4
0
2
1
0
2
3
0
2
2
0
1
4
0
6
4
0
3
4
0
4
1
0
2
3
0
5
5
0
6
7
0
4
7
0
4
5
0
4
4
0
5
4
0
8
4
0
1
5
0
8
5
0
17
4
0
15
7
0
5
3
0
6
3
0
15
5
0
3
3
0
15
5
0
2
2
0
7
1
0
1
3
0
9
2
0
1
3
0
16
2
0
14
3
0
33
27
8
124
100
54
46
28
7
65
68
53
6
3
2
79
73
49
68
66
48
44
42
25
33
24
12
58
27
6
9
20
13
168
107
55
29
45
44
255
255
232
255
255
255
255
255
255
255
255
247
255
255
255
255
255
235
78
75
58
46
31
8
33
29
23
20
26
29
14
13
24
44
39
40
112
62
45
89
61
74
202
127
94
68
122
97
137
48
54
152
59
67
110
28
34
85
67
60
230
255
255
255
255
255
161
232
184
82
78
54
70
52
32
59
43
23
96
66
28
100
65
27
71
46
17
42
30
9
21
11
1
12
9
5
12
9
4
15
16
9
13
8
1
54
39
15
62
46
21
50
43
25
55
44
31
42
31
21
35
21
10
42
26
6
24
18
8
27
18
13
52
33
20
60
36
20
65
39
16
81
46
17
125
78
24
144
95
35
97
62
24
82
59
28
19
11
11
44
31
15
37
26
16
11
7
10
28
23
7
39
28
15
62
37
8
97
57
17
103
64
23
64
43
20
40
25
8
46
30
16
199
164
122
255
255
255
255
239
193
255
255
230
255
255
255
202
148
127
50
38
24
33
26
20
82
54
24
92
59
23
109
74
27
86
61
21
26
21
12
30
25
11
38
29
15
40
25
16
58
42
18
92
66
28
127
84
31
159
110
45
122
89
41
73
49
26
49
27
14
34
22
5
53
41
15
39
15
5
53
34
11
60
30
13
44
19
3
79
52
15
123
70
18
102
64
21
56
39
17
32
14
4
23
18
12
38
33
19
48
43
29
93
75
41
38
20
22
90
37
11
74
26
8
57
27
14
94
67
36
72
50
28
67
55
31
100
71
34
48
38
20
39
18
9
59
36
16
62
40
15
86
63
26
81
63
26
64
43
19
30
22
9
37
27
15
71
51
18
53
36
15
19
13
10
23
24
14
60
53
25
65
47
17
99
72
29
108
75
25
55
34
14
48
34
14
100
67
28
128
87
36
138
98
44
106
83
43
49
43
30
26
25
20
49
34
18
34
22
9
54
31
12
41
28
16
21
13
8
32
23
12
21
14
9
13
8
6
40
30
12
75
56
21
70
49
18
48
38
14
61
45
24
20
15
10
42
26
7
31
16
8
6
12
5
10
14
11
12
1
5
255
255
255
255
255
243
20
13
4
35
21
12
37
20
10
42
20
9
63
32
15
61
31
16
39
19
12
42
18
11
63
27
13
91
45
22
88
41
17
101
54
27
93
46
18
67
34
10
38
21
6
29
14
8
22
9
7
43
22
12
50
22
8
72
43
20
58
34
14
18
14
4
10
8
3
13
7
4
22
13
4
37
21
7
36
22
7
45
28
10
74
40
16
90
49
21
71
39
15
36
23
7
27
15
6
15
11
6
34
23
10
59
36
12
63
38
15
53
33
17
27
15
8
28
15
7
32
14
4
45
37
30
127
105
76
223
194
156
255
255
230
255
255
255
255
230
170
68
55
22
32
25
22
47
36
25
38
28
20
9
10
2
10
3
2
40
24
14
46
28
18
21
13
11
24
15
8
42
34
49
80
91
118
63
77
107
22
49
91
24
55
94
48
55
80
36
41
60
39
33
50
36
25
31
3
26
22
34
68
73
63
105
116
82
124
132
105
142
145
113
145
145
109
140
142
112
145
149
103
130
133
75
90
95
45
48
52
26
20
14
9
4
12
4
6
18
12
9
26
21
16
34
24
19
34
40
28
55
36
21
53
24
8
37
21
6
31
18
7
32
18
7
36
19
13
39
37
44
64
52
71
75
47
80
78
43
76
71
33
66
47
44
59
34
12
20
12
32
28
39
161
121
93
165
113
84
99
59
22
34
37
37
23
37
41
8
39
55
15
47
69
30
47
70
43
40
65
52
29
55
57
7
30
55
15
4
50
33
27
43
49
54
31
66
80
22
80
99
19
85
101
14
82
98
9
77
92
1
65
76
7
50
59
6
35
41
7
20
25
7
7
11
8
0
2
9
2
0
7
4
0
4
1
0
5
0
0
7
5
0
7
1
0
5
4
0
1
2
0
8
5
0
10
4
0
7
2
0
5
4
0
6
4
0
12
2
0
16
2
0
16
4
0
9
3
0
4
1
0
3
1
0
8
3
0
2
2
0
5
2
0
8
4
0
9
4
0
7
4
0
4
4
0
1
5
1
5
10
2
4
11
1
5
6
0
8
7
2
11
2
0
20
7
2
8
1
0
25
11
1
8
5
2
14
8
3
135
124
100
38
26
13
146
129
100
41
29
19
2
3
1
13
7
0
12
9
3
13
10
2
4
4
3
6
1
3
8
4
3
10
7
2
13
10
1
11
4
1
13
7
0
8
11
0
3
1
0
21
13
0
60
35
0
29
20
0
64
36
0
50
32
0
12
2
0
8
4
0
11
6
0
1
2
0
3
4
0
2
2
0
2
0
0
3
4
0
3
4
0
1
4
0
4
1
1
10
9
5
13
12
7
7
5
4
0
0
0
3
1
0
6
3
0
5
1
0
2
3
0
3
0
0
3
2
0
4
2
0
4
5
0
3
2
0
4
0
0
2
1
0
7
3
0
8
3
0
4
1
0
3
1
0
0
3
0
4
4
0
7
3
0
3
3
0
10
3
0
22
3
0
13
2
0
2
4
0
6
2
0
11
6
0
7
0
0
10
6
0
4
2
0
4
2
0
3
0
0
8
1
0
5
1
0
19
2
0
3
5
0
53
33
8
114
92
48
29
24
18
54
51
42
53
47
28
103
91
68
53
41
31
4
15
18
36
9
5
27
6
3
41
31
27
194
200
157
255
255
255
255
255
255
255
255
255
177
143
123
101
78
68
255
255
232
255
255
255
255
255
226
98
100
74
121
136
113
158
152
124
124
113
98
112
97
84
177
105
81
255
203
162
57
59
38
252
204
145
21
75
62
134
46
55
159
76
91
131
45
60
166
149
97
255
255
255
239
255
255
131
241
196
86
93
67
56
40
13
37
22
10
56
43
21
31
21
12
64
40
8
68
50
13
72
56
29
65
49
33
42
32
26
15
12
7
53
39
13
56
42
21
9
3
9
32
32
21
83
71
46
129
106
62
129
103
59
70
52
34
18
14
13
20
4
8
49
32
14
48
40
21
49
38
22
65
45
22
35
37
29
79
53
36
78
44
17
91
69
32
73
55
28
29
18
10
31
25
17
22
23
18
31
29
15
21
14
6
22
16
4
52
29
5
43
22
3
16
4
8
30
18
7
154
135
105
255
208
172
255
255
210
255
255
255
255
198
164
78
59
48
59
35
12
64
35
4
72
41
8
31
14
3
39
20
14
75
41
11
49
33
10
50
41
23
25
10
8
100
67
25
59
36
11
39
31
17
52
49
23
32
18
8
51
42
17
17
24
12
15
7
4
17
10
3
52
35
13
108
56
8
93
47
8
63
24
5
103
55
19
92
40
3
58
24
8
82
54
17
64
47
25
58
19
10
51
23
20
53
37
13
59
19
5
141
74
23
109
55
26
81
39
18
92
49
16
88
53
17
111
76
38
153
104
45
164
106
43
120
75
28
69
42
8
126
76
25
133
82
32
97
68
34
38
32
18
34
11
10
29
7
10
22
24
15
45
35
13
38
32
13
66
47
17
69
44
20
66
49
17
67
51
23
38
32
27
21
14
19
109
75
24
73
47
16
51
36
16
47
29
14
42
38
24
43
37
22
42
29
15
65
46
21
63
42
14
64
41
10
31
18
4
29
24
11
78
61
29
39
39
27
18
7
9
24
14
7
14
10
8
17
8
5
42
29
10
44
37
17
72
52
20
51
34
13
14
14
14
35
24
13
60
36
17
38
24
13
41
22
13
49
23
7
255
255
255
255
255
246
25
18
7
36
25
12
25
15
5
18
9
5
7
2
2
29
17
8
3
1
1
34
14
5
19
8
4
31
23
13
62
40
21
49
30
21
43
22
14
38
19
8
10
6
1
11
5
5
12
5
6
37
21
10
16
7
5
34
20
12
48
26
11
44
24
10
30
12
7
4
4
3
21
15
4
27
19
1
15
10
2
23
14
3
48
21
5
35
15
6
45
20
13
45
21
11
15
8
5
31
17
6
22
11
6
8
7
1
31
22
5
55
34
10
66
37
12
76
39
12
108
81
65
244
199
158
255
255
247
255
255
255
255
255
255
255
229
175
148
113
71
47
46
23
59
40
32
17
6
4
58
38
31
12
9
3
7
5
1
63
56
41
117
87
58
106
70
41
67
26
5
50
20
64
42
66
96
23
72
47
56
94
84
83
122
117
95
141
138
94
141
144
111
154
164
118
154
169
96
132
149
85
122
139
72
107
122
43
75
87
29
49
52
19
29
12
7
13
15
8
5
21
7
0
16
6
3
20
20
8
32
42
20
51
37
21
42
23
15
24
15
5
19
46
43
53
50
45
48
42
41
39
28
25
36
19
18
34
30
41
50
46
71
69
46
80
69
38
76
56
34
67
35
10
34
18
12
8
44
14
12
45
7
3
35
25
24
34
18
7
16
12
21
16
35
43
41
13
37
55
14
50
71
27
46
66
40
39
62
40
38
65
45
24
45
55
8
12
54
20
16
49
45
47
38
69
74
25
79
90
15
85
104
10
89
112
9
88
111
7
80
97
4
62
73
4
43
53
7
26
34
11
10
14
10
3
2
5
2
0
3
1
0
4
4
0
8
2
0
8
3
0
7
2
0
2
1
0
1
2
0
4
5
0
1
5
0
1
1
0
1
4
0
11
5
0
6
2
0
8
3
0
7
4
0
12
5
0
13
3
0
7
1
0
3
3
0
5
4
0
4
4
0
5
4
0
11
4
0
10
1
0
6
3
0
2
4
0
4
3
0
7
2
0
7
4
0
7
11
3
7
8
2
8
11
3
3
9
0
10
5
1
7
4
2
17
10
1
5
4
0
18
7
0
8
2
0
7
4
0
107
100
83
85
71
45
113
101
80
89
74
49
14
15
7
12
9
5
13
10
4
6
1
2
14
8
3
24
9
3
10
5
2
13
6
3
24
11
2
41
19
0
27
16
0
0
7
0
5
2
0
14
7
0
53
34
0
47
33
0
44
28
0
53
40
0
10
6
0
7
4
0
12
4
0
9
4
0
4
2
0
4
1
0
2
1
0
7
2
0
4
4
0
1
3
0
5
1
0
4
3
0
5
3
0
2
1
0
1
2
0
3
1
0
4
3
0
6
4
0
3
3
0
1
2
0
6
1
0
6
7
0
2
5
0
3
2
0
3
0
0
3
1
0
4
3
0
4
4
0
4
1
0
4
1
0
3
2
0
5
2
0
7
3
0
3
3
0
15
1
0
25
3
0
11
1
0
5
2
0
7
4
0
4
4
0
9
1
0
10
5
0
5
2
0
3
2
0
5
0
0
4
2
0
8
4
0
17
4
0
10
11
1
62
35
6
86
63
27
36
33
24
2
2
7
79
69
44
89
68
54
22
8
6
12
11
21
102
80
52
160
168
143
255
255
255
255
255
255
255
255
255
255
255
196
147
103
63
88
53
24
86
54
22
163
118
71
255
255
223
255
255
255
255
255
255
255
255
255
255
255
255
255
255
255
255
242
201
77
86
22
255
158
152
255
236
167
118
90
63
226
197
131
21
53
34
135
33
41
174
80
98
159
50
80
169
132
74
225
255
255
229
255
255
162
255
239
38
72
69
87
68
32
111
81
32
86
67
28
42
41
22
15
11
15
16
5
17
28
31
18
42
32
24
12
7
9
45
33
14
32
37
23
45
43
29
54
43
33
56
46
31
43
43
28
34
36
29
38
35
32
22
6
13
26
16
7
46
39
22
34
24
17
50
28
10
92
54
15
105
62
20
66
37
17
17
8
8
42
35
30
34
27
17
46
34
26
41
30
13
96
69
26
104
66
22
99
61
21
71
44
11
58
38
11
9
7
12
27
18
16
19
19
20
177
159
131
66
48
44
179
151
130
157
125
108
130
96
63
112
80
37
87
60
25
74
49
23
88
61
28
128
91
37
107
76
28
8
11
10
84
61
26
97
70
26
47
37
18
52
37
15
46
31
13
66
41
11
108
78
25
120
92
35
44
45
25
42
14
8
73
42
6
52
38
11
59
17
5
63
27
6
48
17
6
41
24
14
69
36
18
107
47
7
43
12
16
96
63
26
44
44
32
29
3
18
34
10
20
49
31
5
42
25
6
79
50
26
94
64
29
57
37
22
133
99
63
125
102
75
49
43
36
56
38
12
77
55
26
37
32
18
5
10
8
15
20
12
17
24
14
52
41
14
95
77
24
97
80
29
47
41
21
9
4
7
23
13
2
27
21
12
40
19
2
54
40
13
75
46
7
35
20
5
74
59
19
115
84
33
117
78
28
62
43
14
40
28
15
33
24
7
76
49
17
132
91
38
119
87
41
78
61
29
75
55
23
88
61
20
27
22
17
81
60
32
15
19
19
70
42
12
87
52
14
65
34
7
29
15
8
36
28
15
49
32
13
30
28
12
44
25
9
32
20
8
42
29
19
77
49
22
68
43
14
32
25
9
21
17
5
7
4
8
255
255
255
255
255
250
32
16
8
38
15
5
25
9
2
21
9
5
29
13
5
40
22
12
23
10
6
39
17
8
35
16
7
55
25
11
52
24
11
39
16
8
28
11
8
28
17
10
17
13
8
13
9
2
12
8
4
25
11
7
47
18
9
33
10
4
10
8
5
30
16
8
42
20
11
41
19
8
27
15
4
23
14
5
33
18
5
18
8
3
33
17
7
81
40
16
65
31
12
32
13
7
10
7
4
2
1
5
25
11
5
36
19
7
42
23
10
48
26
10
26
15
19
87
98
95
255
255
223
255
255
255
255
255
247
255
218
163
128
101
75
48
48
29
36
13
5
52
41
31
30
23
18
36
17
13
42
20
19
97
86
67
232
184
141
255
242
178
255
186
129
172
133
100
72
35
5
29
19
54
43
64
93
64
90
81
57
81
71
53
73
66
47
64
61
33
45
42
32
33
32
27
22
27
15
15
13
19
14
8
12
8
9
4
1
10
3
1
14
4
3
16
12
3
8
10
1
18
5
3
11
7
1
15
27
17
36
47
30
49
31
21
34
30
25
33
5
5
9
55
62
64
30
40
41
32
53
27
24
64
32
25
71
32
22
65
22
6
34
13
15
14
45
12
1
53
24
17
65
30
25
57
18
8
20
4
27
25
10
57
64
12
77
91
4
84
105
3
86
110
25
72
96
31
41
63
42
18
33
48
3
10
50
20
17
48
49
48
45
72
76
35
84
97
24
91
112
15
93
119
5
87
117
1
78
111
3
69
98
6
55
78
8
39
53
10
21
26
14
4
5
16
1
0
16
3
0
16
5
0
10
6
0
7
5
0
4
2
0
4
5
0
8
5
0
8
6
0
8
4
0
4
3
0
2
1
0
2
3
0
5
4
0
7
4
0
8
5
0
2
2
0
11
2
0
7
2
0
9
2
0
1
1
0
5
0
0
6
0
0
5
1
0
0
3
0
2
3
0
2
1
0
4
2
0
3
0
0
10
1
0
14
3
0
12
4
0
8
5
0
4
5
0
6
6
3
8
7
2
10
7
3
6
4
0
8
6
0
12
9
0
15
7
0
8
4
0
16
7
1
14
8
4
7
9
5
67
60
49
119
110
81
60
49
42
122
104
78
18
18
6
4
7
4
5
6
3
14
8
5
36
18
2
26
7
1
38
18
3
26
15
3
52
29
1
59
34
0
56
34
0
10
7
0
4
5
0
9
5
0
33
23
0
46
36
0
34
22
0
50
37
0
10
9
0
2
3
0
4
2
0
4
1
0
1
3
0
2
2
0
5
1
0
5
4
0
5
3
0
0
2
0
4
3
0
3
1
0
3
1
0
1
2
0
4
2
0
4
4
0
6
4
0
3
5
0
6
3
0
3
3
0
4
4
0
8
4
0
8
4
0
8
4
0
3
2
0
5
1
0
10
5
0
13
4
0
5
1
0
4
1
0
1
2
0
7
1
0
8
1
0
5
3
0
22
2
0
24
4
0
5
3
0
11
5
0
8
5
0
3
1
0
11
5
0
5
5
0
4
3
0
3
3
0
4
2
0
3
5
0
15
3
0
17
7
0
31
20
4
72
43
11
49
31
8
29
21
9
54
45
20
76
59
40
74
41
37
71
39
19
178
129
81
255
255
242
255
255
255
255
255
255
255
255
215
163
118
86
98
63
34
89
55
24
54
29
5
28
20
15
25
11
14
148
118
72
255
255
186
255
255
238
255
255
220
255
255
175
255
255
255
255
255
255
255
229
144
47
21
49
255
241
189
255
231
144
173
147
101
228
185
112
19
12
11
121
17
15
178
83
90
165
89
114
157
72
18
209
255
251
254
255
255
196
255
255
97
122
107
59
40
18
77
44
11
119
78
21
81
59
25
67
51
23
77
57
27
59
38
17
66
40
13
87
53
10
77
51
14
92
64
20
134
94
38
181
131
62
221
161
82
227
160
82
180
119
58
112
77
36
50
45
26
41
37
20
29
19
14
26
15
5
41
21
2
41
19
8
24
10
10
62
43
7
112
86
39
110
81
31
45
26
13
37
31
30
103
74
45
121
89
48
92
72
40
28
27
26
30
16
7
52
31
15
57
37
7
41
33
11
168
146
110
43
54
59
120
113
100
35
28
18
82
56
27
67
46
23
54
33
16
70
43
15
105
69
26
112
73
27
103
70
21
100
71
29
32
18
6
101
62
20
88
45
5
28
13
15
7
11
15
62
33
8
82
44
15
56
17
3
62
32
10
47
24
13
41
10
12
72
20
5
106
41
2
93
37
8
67
8
11
61
23
9
71
29
8
137
74
23
121
75
27
114
73
29
74
41
15
46
13
5
30
25
14
62
43
7
28
17
13
96
62
28
110
66
21
67
42
17
73
49
24
85
58
20
86
74
42
79
49
22
53
44
18
60
45
20
36
28
12
28
18
8
43
28
8
45
29
13
25
18
17
41
30
18
47
39
20
49
41
21
58
40
18
75
53
26
57
40
20
43
29
8
14
5
2
21
11
3
42
24
15
50
24
10
49
33
6
11
12
2
30
20
13
10
10
10
35
20
8
41
20
3
56
31
7
37
18
4
48
22
4
91
58
19
118
76
34
12
9
9
71
54
29
29
19
7
38
30
15
48
38
17
65
40
15
43
37
12
52
37
9
38
32
5
52
31
4
37
26
8
29
26
15
32
30
11
55
46
19
79
57
21
66
39
12
53
25
10
255
255
255
255
255
252
18
4
4
14
3
2
17
6
4
39
22
8
48
25
11
47
26
15
14
10
5
24
7
5
50
25
13
43
21
13
29
13
10
32
16
9
19
11
5
16
7
4
49
23
14
56
28
18
51
27
18
44
23
15
33
18
11
41
17
11
37
15
9
20
11
7
17
10
9
26
14
8
28
16
4
49
25
7
72
35
9
91
45
17
84
43
20
32
19
9
6
2
3
6
4
1
10
7
3
17
8
6
18
10
4
20
12
6
35
30
24
115
101
91
255
224
193
255
255
255
255
255
255
255
250
181
139
95
61
13
10
13
45
26
5
16
8
22
22
28
25
59
39
27
71
55
39
95
88
71
254
213
172
255
255
255
255
255
195
117
84
60
120
111
102
135
129
110
38
34
8
68
37
22
35
15
44
7
8
18
12
3
25
16
8
20
10
1
9
5
3
4
5
2
10
10
3
13
5
0
8
5
0
8
5
0
11
8
2
12
1
0
5
2
2
13
10
0
17
15
0
12
6
3
2
7
1
10
30
21
33
42
32
39
14
14
17
28
50
49
23
74
56
38
69
48
31
32
31
31
16
50
23
12
60
23
7
57
27
11
42
30
9
25
13
12
10
14
40
46
29
63
79
32
86
110
32
103
131
27
105
132
13
96
118
7
69
84
25
31
40
37
5
4
48
31
37
60
62
70
58
77
87
44
89
103
32
99
118
24
100
122
15
93
118
4
88
109
2
78
95
5
58
77
10
35
56
10
17
34
12
7
14
12
2
2
14
2
0
15
2
0
12
1
0
10
3
0
10
2
0
10
0
0
9
2
0
10
4
0
2
1
0
3
5
0
8
4
0
5
4
0
6
5
0
4
2
0
7
2
0
10
4
0
10
3
0
7
0
0
5
5
0
10
4
0
2
2
0
8
3
0
7
1
0
2
1
0
6
3
0
9
4
0
7
3
0
7
1
0
5
2
0
2
0
0
2
2
0
4
0
0
4
1
0
6
2
0
6
2
0
2
2
0
5
1
0
6
3
1
7
9
2
11
10
1
11
6
0
5
1
1
2
5
2
7
7
1
6
4
0
13
12
3
15
17
7
13
13
7
33
16
13
139
126
100
4
2
9
149
130
101
33
25
7
14
13
5
14
8
3
34
18
5
33
15
2
10
3
0
47
23
0
25
17
0
67
37
0
29
19
0
65
41
0
26
14
0
4
4
0
6
3
0
17
13
0
36
28
0
33
28
0
34
26
0
5
5
0
0
1
0
2
2
0
6
2
0
2
3
0
1
4
0
1
1
0
3
5
0
4
4
0
4
3
0
5
2
0
3
4
0
2
2
0
3
2
0
2
4
0
2
0
0
4
4
0
4
2
0
5
0
0
2
0
0
6
1
0
7
3
0
1
3
0
7
1
0
6
1
0
5
4
0
7
1
0
0
0
0
7
1
0
0
2
0
2
1
0
9
1
0
7
2
0
8
1
0
27
5
0
20
6
0
2
2
0
14
7
0
2
2
0
11
4
0
10
4
0
3
2
0
2
2
0
2
4
0
2
4
0
3
4
0
21
0
0
13
6
0
57
36
7
75
48
12
24
12
1
61
47
17
90
70
32
65
43
32
89
51
39
109
78
46
255
255
206
255
255
255
255
255
232
180
131
94
53
33
27
25
15
8
32
31
12
92
67
33
109
74
33
106
73
27
115
77
28
76
46
13
22
21
27
54
46
47
27
23
26
58
39
21
225
188
144
255
255
255
255
255
255
245
217
113
75
31
77
255
255
218
183
161
93
255
242
163
232
190
123
19
14
5
115
10
15
179
68
74
169
105
131
160
17
36
219
255
203
255
255
255
255
255
255
178
198
140
112
84
51
68
50
28
64
44
26
39
31
27
73
56
34
69
54
28
83
61
28
19
18
17
75
45
13
76
51
16
32
21
2
47
38
15
37
21
13
32
23
7
55
37
16
63
39
17
26
11
3
41
29
10
60
35
16
60
34
16
45
27
16
51
32
19
22
15
15
59
44
33
34
26
13
38
24
11
55
40
13
63
41
17
18
11
11
10
4
9
41
33
19
72
53
27
44
29
7
57
37
15
65
43
28
76
54
33
150
119
76
168
129
85
175
128
78
115
72
32
32
18
16
89
57
11
167
103
34
180
116
45
177
124
54
129
96
46
43
30
9
111
77
30
112
80
33
76
53
18
50
29
4
44
25
19
63
52
29
85
63
28
87
70
34
50
38
22
70
26
2
141
62
4
168
84
12
117
63
17
87
32
24
121
62
33
152
68
25
174
80
6
175
95
11
184
91
10
163
82
2
177
100
12
211
132
19
255
171
46
252
163
41
184
96
8
143
58
18
171
82
21
174
93
28
217
131
50
246
165
73
229
160
77
172
120
56
103
58
17
60
33
10
46
20
6
51
31
4
44
20
1
41
21
1
26
10
10
10
15
10
24
22
8
43
28
6
96
62
14
111
72
20
136
87
28
159
106
33
184
128
38
162
111
32
94
61
22
11
4
5
53
36
19
42
28
7
50
31
4
78
50
17
107
71
26
86
58
19
34
21
5
49
34
8
30
22
9
41
22
10
22
20
9
106
74
30
134
98
44
122
83
28
74
44
12
49
31
6
64
49
10
124
87
26
166
108
34
144
93
28
121
81
20
145
94
24
167
109
31
160
106
36
161
104
33
145
92
27
84
49
12
36
16
6
34
18
7
255
255
255
255
255
249
41
20
14
44
20
12
43
17
8
57
29
12
38
17
8
55
29
16
20
8
7
13
10
4
26
18
9
7
5
4
11
8
6
6
5
5
12
7
1
33
14
10
23
8
5
18
10
8
16
9
6
28
12
8
14
10
7
36
21
14
48
25
17
41
17
10
33
14
5
13
7
7
7
3
9
12
4
2
34
18
7
15
10
7
38
17
5
63
32
13
54
29
7
28
15
4
16
12
5
21
13
3
23
17
18
98
88
75
252
217
182
255
255
255
255
255
255
255
255
202
86
47
20
180
174
156
249
224
184
142
131
105
33
31
18
37
27
9
64
42
39
51
47
31
48
26
17
144
108
91
255
194
149
116
67
40
207
180
149
255
255
203
255
193
135
122
94
63
40
27
4
74
33
19
21
9
53
28
16
39
25
14
31
32
12
32
7
0
6
11
4
10
4
0
11
7
4
16
1
0
2
4
0
7
6
2
8
12
4
9
6
2
4
4
2
7
4
0
15
8
8
7
17
31
27
29
57
48
33
67
50
25
56
29
17
38
2
14
26
19
7
20
19
13
22
22
17
11
20
26
13
23
17
20
15
2
38
36
10
58
69
22
82
104
28
103
126
21
102
123
13
87
109
6
62
82
18
27
37
37
14
13
48
53
56
46
85
88
39
100
108
31
107
119
25
107
122
22
97
115
16
89
111
7
90
112
1
82
103
4
64
82
6
43
59
9
24
35
10
8
14
11
4
2
11
5
0
7
1
0
6
3
0
4
2
0
4
0
0
4
3
0
6
1
0
7
5
0
5
3
0
5
4
0
7
4
0
9
2
0
0
0
0
6
4
0
10
4
0
2
2
0
5
2
0
2
1
0
8
5
0
7
6
0
8
6
0
12
6
0
10
4
0
8
5
0
5
2
0
1
2
0
4
1
0
7
3
0
8
3
0
6
1
0
7
2
0
6
2
0
8
1
0
5
1
0
2
2
0
3
2
0
5
3
0
4
2
0
7
5
0
7
8
1
2
4
4
0
8
7
2
12
6
10
6
2
8
0
0
5
6
3
5
8
2
6
13
3
8
5
0
8
14
4
17
14
6
12
2
3
13
16
4
140
122
102
52
41
11
152
132
107
62
45
13
11
10
4
24
17
4
20
8
4
26
16
1
17
15
0
43
25
0
9
8
0
70
42
0
23
18
0
57
36
0
33
15
0
2
2
0
4
2
0
7
7
0
20
13
0
25
15
0
15
11
0
7
4
0
6
4
0
5
4
0
10
0
0
4
4
0
4
2
0
3
1
0
5
5
0
2
5
0
2
2
0
5
4
0
2
1
0
2
4
0
7
7
0
7
5
0
7
9
0
7
4
0
7
2
0
5
1
0
3
3
0
1
1
0
5
4
0
8
3
0
8
0
0
4
3
0
4
2
0
4
1
0
3
2
0
6
3
0
9
1
0
7
2
0
11
2
0
6
2
0
13
1
0
29
6
0
14
3
0
7
7
0
12
4
0
5
2
0
8
2
0
3
3
0
4
5
0
2
3
0
4
5
0
4
2
0
11
2
0
21
4
0
11
12
0
78
49
10
63
40
9
16
11
2
96
77
36
100
75
45
65
41
34
124
78
50
255
235
152
255
255
255
255
255
229
67
57
45
20
16
8
58
46
24
73
54
24
80
55
27
90
62
36
72
53
26
89
65
38
82
56
30
103
66
27
105
65
28
71
45
19
51
33
8
62
40
12
97
67
36
255
248
192
255
255
255
255
255
255
227
209
86
188
124
130
255
255
246
171
150
89
255
255
238
255
233
150
25
8
22
109
39
48
161
48
47
169
111
128
175
6
55
233
255
178
255
255
255
250
255
255
116
161
140
49
32
24
83
59
27
59
44
26
60
43
22
48
36
14
45
33
10
90
60
31
77
58
24
86
59
24
83
58
22
60
42
16
41
28
8
31
25
5
54
42
18
72
55
29
95
66
32
91
60
21
37
17
1
32
26
20
49
32
19
34
20
17
33
27
19
60
37
24
63
47
28
25
22
20
40
38
26
89
67
35
143
98
43
194
134
54
199
138
57
141
97
39
99
71
29
79
56
28
44
28
14
58
37
10
125
84
26
154
101
31
131
82
24
84
48
6
89
55
11
83
48
18
69
50
12
87
69
22
73
49
14
66
51
24
42
32
23
79
48
8
149
88
18
171
95
15
151
82
5
102
56
3
99
64
15
132
79
28
144
86
23
136
80
29
110
52
10
118
41
10
104
39
28
83
71
46
70
43
33
142
93
31
75
45
24
108
40
12
180
80
12
195
100
3
157
90
17
169
97
27
189
105
41
168
93
40
126
74
31
82
65
30
85
47
19
92
32
4
42
24
7
39
19
3
36
17
8
35
18
8
24
20
7
14
16
8
37
46
18
53
60
27
28
34
18
21
24
14
57
47
19
102
72
29
133
91
39
136
94
38
132
92
37
133
92
37
139
94
36
152
100
38
119
79
26
80
53
9
85
57
7
115
81
24
139
99
32
153
104
26
135
85
16
117
68
13
116
69
14
118
71
15
104
60
13
104
60
5
72
42
5
71
47
14
76
49
14
41
30
7
30
18
3
28
18
5
31
22
16
52
46
19
88
75
32
74
66
34
61
59
33
64
60
24
39
39
16
30
30
14
28
36
23
69
57
29
77
65
26
81
65
22
76
60
23
61
43
18
48
29
13
44
25
11
255
255
255
255
255
244
27
15
11
10
6
4
4
5
5
43
24
7
35
20
6
45
24
14
23
6
7
19
13
7
25
16
9
3
1
0
10
5
2
9
7
6
13
8
5
38
19
10
52
23
8
48
22
8
36
20
8
39
21
11
24
12
10
19
7
5
30
14
5
24
11
7
2
4
6
21
12
11
18
13
10
24
20
10
52
27
6
94
47
18
87
47
19
31
19
5
11
6
5
37
22
6
21
8
8
65
65
59
204
184
159
255
255
255
255
255
255
255
255
215
122
84
57
114
106
95
255
237
194
255
255
232
255
255
221
255
255
224
115
98
89
55
44
33
48
22
20
77
57
43
50
38
27
150
114
93
255
214
166
255
255
229
255
255
208
192
135
89
29
10
5
50
12
14
5
10
7
62
26
20
8
5
56
33
17
42
20
11
28
34
14
44
31
14
7
38
18
13
19
11
6
10
4
19
4
3
9
10
4
14
20
15
18
36
41
36
42
66
60
42
80
73
41
82
68
43
79
59
41
72
47
29
50
18
5
29
15
13
29
22
10
30
3
3
31
20
16
36
34
11
49
54
8
62
73
13
83
100
20
95
115
18
88
108
8
65
86
7
33
43
25
3
2
44
33
34
51
62
65
48
83
92
44
101
115
39
109
127
29
107
127
21
101
120
13
92
111
3
83
101
4
74
89
4
60
73
8
42
54
10
24
32
10
9
13
10
3
2
11
4
0
12
5
0
14
7
0
15
4
0
9
3
0
0
6
0
4
4
0
2
0
0
1
4
0
2
5
0
3
4
0
2
4
0
6
4
0
6
4
0
7
5
0
8
1
0
2
1
0
5
2
0
14
4
0
2
1
0
10
4
0
10
4
0
8
5
0
2
3
0
3
5
0
4
5
0
5
4
0
1
2
0
5
3
0
9
3
0
9
1
0
4
1
0
4
3
0
4
4
0
5
3
0
0
1
0
1
0
0
10
1
1
7
2
2
4
3
1
5
2
0
7
7
0
7
7
0
1
4
3
5
14
5
8
10
4
9
11
5
15
9
5
7
2
0
18
13
3
18
7
2
12
16
3
4
2
0
7
14
3
34
20
4
26
5
7
34
26
6
114
102
89
96
78
37
110
104
94
98
79
40
29
15
1
24
12
2
52
28
1
28
18
0
8
8
0
46
28
0
18
11
0
51
28
0
43
25
0
50
31
0
22
11
0
1
4
0
4
3
0
0
2
0
3
2
0
0
5
0
2
3
0
4
0
0
10
3
0
13
2
0
7
2
0
4
2
0
2
1
0
1
0
0
5
1
0
2
5
0
5
5
0
7
1
0
4
3
0
7
4
0
12
8
0
4
1
0
1
13
0
7
0
0
8
8
0
13
10
1
15
10
2
12
10
1
7
9
0
4
8
0
5
0
0
4
4
0
4
0
0
5
0
0
8
3
0
10
3
0
6
2
0
9
2
0
11
3
0
5
1
0
18
2
0
29
6
0
6
1
0
15
7
0
11
5
0
10
7
0
8
0
0
13
5
0
14
5
0
6
4
0
4
6
0
4
2
0
14
1
0
11
3
0
42
28
2
82
52
12
38
24
4
20
20
8
114
89
52
104
68
44
120
62
42
255
214
144
255
255
255
255
255
255
191
152
105
75
50
17
59
42
21
48
35
23
58
47
20
109
80
37
145
109
55
150
114
55
147
106
46
122
86
35
58
40
14
71
45
17
50
33
9
100
64
15
117
71
18
112
64
17
123
78
41
255
255
211
255
255
255
255
255
255
186
172
59
255
255
214
255
255
255
108
67
41
255
255
255
246
196
124
13
41
56
93
58
73
139
29
20
157
114
126
167
48
83
207
215
137
255
255
255
255
255
255
123
140
142
180
114
34
198
136
60
178
126
57
187
130
54
211
139
55
165
108
42
100
66
18
66
38
5
89
57
16
83
44
7
73
38
6
86
46
10
141
79
12
192
118
25
209
138
39
200
129
41
176
111
33
150
94
11
130
81
13
119
75
13
121
80
27
132
91
38
117
85
31
91
66
20
74
53
12
67
46
3
91
63
10
102
68
18
43
30
10
34
20
14
41
38
18
63
50
21
85
59
24
81
44
10
91
52
5
112
77
17
106
75
19
105
69
17
166
108
27
244
155
41
255
163
46
243
155
53
219
150
61
147
101
43
43
21
5
78
54
24
76
42
3
114
75
23
127
88
32
119
83
31
89
67
22
126
88
26
160
107
31
82
54
19
27
7
1
68
26
20
147
87
37
148
93
36
120
60
5
176
118
43
109
63
19
54
25
13
87
56
20
40
23
19
33
19
14
27
34
19
38
54
31
44
63
35
59
66
38
91
73
27
115
50
12
82
17
10
21
3
1
18
4
8
27
1
3
12
11
11
24
22
7
34
19
4
40
24
4
44
20
8
50
26
7
41
11
3
39
8
7
8
11
15
3
11
19
31
7
12
32
6
11
27
14
12
11
12
11
45
38
18
36
29
8
23
18
7
22
15
3
55
27
2
67
33
2
66
36
3
25
10
2
8
9
8
22
20
13
56
43
26
76
60
21
95
56
10
67
35
12
49
33
15
34
25
8
38
24
6
37
23
4
28
17
1
50
38
19
66
47
16
10
10
6
56
28
7
125
76
19
173
105
27
181
104
22
198
115
31
205
122
29
147
86
19
66
33
1
29
11
8
39
19
6
34
16
4
10
10
5
13
5
6
255
255
255
255
255
244
36
15
14
27
11
7
24
8
4
25
8
3
37
15
8
26
13
7
20
7
7
25
14
11
18
11
7
7
4
1
9
5
1
4
4
3
13
10
7
7
5
3
23
14
8
33
17
9
44
22
10
45
23
13
15
9
4
38
16
9
69
31
17
68
27
13
49
19
5
21
8
5
11
8
10
25
20
8
39
24
8
31
20
8
18
10
5
41
24
4
53
24
3
11
18
39
149
147
132
255
255
240
255
255
255
255
255
247
236
188
143
25
24
21
163
131
108
195
148
118
142
110
91
136
124
101
137
143
127
253
208
165
172
124
93
65
49
39
25
7
3
56
39
25
62
50
33
103
75
58
177
115
84
154
96
65
55
26
16
27
41
34
53
49
39
34
28
32
14
22
13
55
23
16
15
10
46
38
17
52
16
10
18
19
7
48
39
28
17
43
34
29
49
48
38
44
67
66
53
83
81
48
83
75
40
77
62
34
68
45
16
40
14
9
23
9
8
25
13
17
43
15
20
51
25
10
47
38
10
49
48
8
53
64
13
60
80
19
78
103
18
89
111
2
73
92
14
43
61
20
12
27
29
20
17
40
50
49
45
77
86
44
93
110
42
103
122
35
104
125
26
99
122
20
97
121
13
92
114
2
80
99
4
61
80
4
40
57
5
20
34
7
4
16
7
4
5
6
1
1
9
5
0
10
3
0
8
4
0
8
6
0
11
8
0
11
6
0
8
3
0
4
3
0
4
3
0
5
2
0
1
2
0
7
2
0
9
3
0
8
2
0
6
5
0
7
5
0
9
4
0
11
3
0
12
7
0
17
8
0
12
3
0
7
2
0
14
6
0
16
8
0
5
5
0
1
4
0
7
4
0
11
2
0
9
2
0
10
5
0
11
5
0
8
3
0
6
2
1
5
2
2
4
4
2
7
6
2
5
3
1
5
2
0
8
0
0
9
0
0
9
1
0
11
3
3
6
10
3
11
15
4
3
10
3
2
7
2
3
10
2
3
8
2
4
12
5
5
11
4
7
11
5
15
10
5
1
1
0
30
21
1
27
13
2
35
22
1
14
14
0
19
12
1
50
35
2
12
11
2
47
32
2
76
71
62
131
114
74
53
61
61
104
100
73
44
23
0
23
11
0
38
21
0
43
26
0
36
19
0
46
29
0
16
13
0
21
12
0
31
18
0
25
14
0
5
1
0
3
7
0
5
4
0
4
4
0
4
4
0
2
2
0
3
1
0
5
1
0
8
3
0
2
1
0
5
3
0
7
3
0
4
2
0
8
3
0
7
3
0
9
8
0
5
2
0
5
5
0
6
4
0
8
2
0
4
3
0
7
8
0
3
6
0
7
6
0
3
14
0
12
10
2
16
14
0
13
7
1
7
1
2
4
10
1
4
4
0
2
4
0
7
3
0
7
2
0
2
2
0
4
3
0
8
3
0
14
2
0
10
5
0
1
1
0
20
2
0
27
5
0
5
1
0
17
7
0
4
2
0
10
6
0
3
3
0
4
6
0
13
4
0
8
4
0
2
6
0
7
2
0
14
2
0
6
9
1
70
47
10
68
42
10
16
7
1
39
32
20
109
83
50
127
78
47
255
188
117
255
255
255
255
255
255
215
186
136
54
43
27
58
43
17
25
19
13
43
28
19
17
5
10
31
20
3
71
46
16
95
66
22
97
68
21
110
77
26
69
52
23
48
26
8
65
42
19
26
22
5
28
16
7
27
15
12
22
15
8
98
70
47
255
255
208
255
255
255
255
255
255
24
46
10
255
255
255
255
255
255
206
154
107
255
255
229
138
108
64
21
49
51
80
76
80
117
8
5
165
97
115
212
28
76
255
236
125
255
255
255
255
255
255
114
193
179
24
16
36
24
10
7
46
19
3
30
7
4
23
8
5
20
9
9
15
26
18
26
32
21
11
16
20
14
22
20
15
13
17
38
21
14
20
28
23
26
27
24
12
12
13
42
31
26
76
49
22
77
42
19
70
34
8
45
19
5
39
24
15
39
30
16
41
18
3
60
29
17
63
34
12
59
38
18
35
19
10
54
37
16
33
18
13
38
28
19
16
18
21
21
26
25
31
34
33
81
67
36
91
73
41
85
70
29
102
79
30
111
83
29
85
66
23
82
63
23
96
71
26
93
63
23
79
58
24
49
35
17
96
65
18
128
86
24
65
44
8
39
19
12
67
42
10
25
22
8
83
51
8
65
46
12
103
62
10
62
45
11
8
17
21
87
65
34
186
104
28
179
99
23
134
83
28
55
41
25
74
38
22
114
76
30
21
17
17
65
33
31
43
22
9
28
21
24
24
37
36
30
15
30
96
45
7
146
70
11
171
87
15
195
89
17
148
62
15
92
23
18
56
17
21
73
25
11
68
11
13
47
10
16
49
52
26
75
63
32
74
55
27
83
60
25
78
58
24
65
48
17
44
32
12
47
36
14
60
43
15
69
47
15
97
63
23
103
70
24
80
53
14
44
27
7
18
19
8
22
24
10
31
29
7
71
58
17
95
70
25
79
57
19
62
43
15
97
59
10
138
76
10
171
103
23
196
122
34
211
132
38
130
81
23
44
29
7
35
27
18
55
39
24
25
13
12
63
44
9
83
68
29
113
89
36
119
84
26
116
76
20
112
78
31
74
57
30
125
97
45
153
110
38
135
96
30
94
67
24
77
55
17
98
66
21
108
74
23
255
255
255
255
255
247
19
13
7
15
4
1
15
7
1
9
6
2
2
5
3
17
8
4
40
18
8
33
16
9
18
8
6
18
8
0
18
11
1
21
12
2
6
1
2
22
13
5
27
14
4
32
14
5
30
16
7
20
8
6
33
18
3
47
21
8
14
12
4
15
11
7
22
15
12
39
24
15
37
22
10
20
7
4
20
16
5
48
31
11
45
31
12
45
44
30
136
127
118
255
255
224
255
255
255
255
255
248
250
193
152
97
73
53
12
17
24
100
83
72
109
84
64
166
141
116
239
197
158
255
240
194
255
255
207
255
204
158
155
121
96
45
40
32
12
5
0
10
6
0
9
4
2
16
8
5
28
15
5
30
20
11
36
30
20
60
55
42
32
27
26
17
43
49
21
19
12
46
19
12
22
14
41
30
34
50
14
52
22
31
71
51
51
78
67
30
63
63
45
56
43
41
53
16
36
37
7
27
30
4
23
39
12
10
34
12
18
23
17
6
30
24
17
45
46
12
53
60
6
60
70
10
76
92
13
85
108
8
68
87
10
33
44
28
5
3
42
36
36
48
66
68
45
89
98
39
103
121
36
105
125
28
98
119
20
93
115
19
91
115
10
84
109
3
71
94
1
54
74
3
34
48
8
14
24
8
4
8
6
1
1
9
1
0
14
2
0
12
3
0
10
3
0
3
1
0
8
6
0
10
4
0
9
5
1
10
7
2
13
7
1
13
7
0
8
4
0
5
4
0
7
7
0
9
4
0
1
2
0
9
4
0
4
4
0
5
1
0
3
1
0
7
4
0
10
6
0
10
6
0
5
8
0
11
10
0
18
8
0
13
4
0
3
1
0
11
5
0
15
4
0
16
6
0
15
8
0
8
6
0
4
7
0
5
8
0
3
3
0
3
4
0
2
7
3
4
5
2
6
2
1
7
1
0
1
5
2
2
4
0
3
4
0
2
3
0
0
1
0
4
6
3
7
10
3
5
0
2
12
8
7
16
19
11
9
16
8
4
7
2
3
3
3
7
5
2
12
11
3
25
18
4
6
7
1
41
28
2
20
11
1
36
25
0
38
24
0
25
22
1
43
37
2
9
7
1
37
28
0
34
31
28
142
129
98
21
26
23
127
125
96
38
25
1
31
16
0
17
12
0
28
21
0
34
20
0
28
19
0
5
2
0
1
0
0
3
4
0
2
3
0
2
3
0
4
5
0
5
3
0
0
5
0
3
3
0
3
5
0
1
4
0
4
2
0
11
5
0
15
6
0
8
0
0
6
2
0
4
1
0
8
2
0
1
7
0
10
5
0
5
7
0
1
3
0
1
3
0
3
2
0
2
3
0
2
1
0
4
5
0
5
8
0
7
6
0
8
7
1
8
8
2
9
5
1
2
5
0
6
5
2
3
2
0
3
2
0
7
2
0
6
4
0
13
2
0
14
1
0
13
4
0
15
5
0
5
4
0
6
3
0
19
2
0
20
2
0
2
1
0
12
4
0
9
7
0
9
5
0
5
1
0
5
2
0
11
4
0
11
5
0
4
8
0
13
6
0
18
4
0
34
32
7
90
63
15
47
28
8
22
13
9
71
51
34
112
85
45
195
138
79
255
255
242
255
255
255
209
188
145
15
7
7
60
48
18
47
33
12
24
12
7
56
30
15
18
2
18
40
43
33
63
67
42
55
55
32
16
20
21
61
30
14
115
66
20
51
31
7
66
52
22
117
87
33
92
67
26
63
43
22
43
27
9
17
11
13
81
64
43
255
255
233
255
255
255
255
255
255
43
9
26
255
255
255
255
255
239
255
215
171
211
200
76
45
48
23
12
41
35
60
84
78
104
4
11
168
82
99
216
61
103
255
179
65
255
255
255
255
255
255
191
244
195
56
52
46
35
20
14
54
38
17
102
74
29
127
94
33
93
66
19
46
31
8
37
22
5
37
30
14
26
15
11
61
33
5
102
66
16
113
83
30
137
98
35
160
108
31
158
105
28
129
87
30
69
46
17
35
18
2
36
24
10
40
32
15
32
29
21
38
31
13
58
43
9
81
58
18
71
48
17
44
31
8
39
32
15
46
50
20
106
89
40
116
87
36
86
58
30
85
51
10
139
94
29
194
135
47
191
125
47
192
122
41
210
132
39
197
123
35
130
84
28
75
54
21
81
67
33
84
62
29
97
66
22
154
104
34
131
98
30
76
65
23
3
10
2
53
37
13
36
14
5
48
33
5
29
17
2
92
60
17
96
63
26
46
32
23
64
41
16
78
59
21
82
52
15
61
39
10
35
16
8
94
53
20
84
73
55
125
95
45
145
102
27
147
117
41
156
120
50
148
102
40
95
58
21
27
22
10
37
10
2
25
19
19
68
49
19
81
33
14
27
12
13
48
31
8
48
31
10
74
42
4
97
47
9
35
2
10
18
28
18
15
30
20
10
24
19
37
31
16
14
14
14
39
23
18
34
17
22
10
17
20
25
16
11
57
29
6
101
59
13
115
64
13
91
45
6
75
34
3
83
45
10
113
75
21
111
64
15
127
76
20
93
53
13
86
50
13
48
25
3
96
63
22
84
56
29
47
32
10
89
52
19
60
37
10
74
53
24
92
63
22
116
81
22
137
99
30
96
76
27
13
9
7
46
22
1
47
18
3
92
53
14
62
32
7
73
49
17
39
35
20
82
59
24
72
48
18
57
39
10
68
45
12
17
15
8
255
255
255
255
255
247
36
11
3
1
3
0
4
3
0
36
15
8
62
27
13
74
34
16
69
32
14
31
15
11
13
7
7
7
5
1
12
11
3
6
2
4
27
13
6
14
6
2
25
10
4
13
8
4
41
22
9
24
8
7
59
52
51
93
93
94
70
98
100
54
66
68
31
18
26
5
21
26
61
62
52
86
83
71
90
89
85
115
117
111
202
190
167
255
255
230
255
255
255
255
255
255
255
223
159
67
38
14
103
87
78
136
115
108
172
175
176
95
118
123
93
65
56
169
122
91
156
125
101
121
98
81
90
64
48
60
36
29
42
30
19
36
27
23
49
38
27
57
46
33
69
57
43
80
67
49
76
62
46
59
50
43
55
54
52
64
61
59
48
49
54
43
72
80
25
63
79
41
60
72
38
58
63
29
55
36
28
44
7
12
32
8
23
28
10
15
21
24
13
28
21
10
34
17
8
35
30
14
47
48
19
58
62
18
62
74
28
78
97
34
93
115
27
92
112
8
66
81
14
31
36
25
10
14
34
47
54
38
76
88
37
93
116
38
105
132
35
107
131
28
102
125
20
95
123
14
87
115
9
74
99
4
54
75
3
32
50
8
17
30
13
8
14
13
2
2
8
1
0
7
0
0
8
3
0
5
4
0
3
4
0
6
4
0
17
8
2
18
10
5
21
10
4
15
8
1
4
4
0
15
5
0
7
1
2
11
4
0
8
1
2
5
3
0
7
4
0
1
1
0
5
3
0
11
6
0
4
1
0
11
4
0
11
5
0
1
3
0
6
1
0
8
5
0
8
2
0
7
2
0
0
2
0
10
6
0
15
9
0
7
5
0
7
4
0
3
3
0
5
0
0
4
2
0
3
7
0
10
7
0
2
6
0
4
5
0
7
5
0
6
6
0
4
5
4
7
1
0
2
3
3
7
5
2
11
7
1
16
6
0
18
7
0
15
5
0
9
2
0
2
4
1
13
10
4
21
5
4
27
14
7
24
14
2
23
20
10
17
12
3
2
3
1
12
9
3
18
17
3
25
17
3
16
7
2
40
27
0
15
6
2
7
11
0
32
25
0
8
4
2
41
32
0
32
25
2
7
10
0
5
8
5
131
122
103
17
12
7
144
137
104
52
38
14
21
10
0
5
4
0
12
11
0
10
10
0
0
3
0
6
3
0
2
3
0
4
5
0
3
4
0
6
3
0
4
3
0
4
4
0
3
2
0
2
2
0
5
2
0
4
2
0
5
3
0
7
4
0
3
3
0
8
5
0
2
1
0
2
1
0
5
4
0
6
2
0
5
1
0
4
6
0
5
4
0
5
5
0
7
7
0
5
6
0
4
5
0
5
4
0
4
4
0
3
2
0
7
7
0
5
4
0
8
8
1
3
4
2
1
2
1
5
5
0
3
2
0
4
1
0
8
7
0
10
4
0
4
1
0
8
1
0
8
2
0
2
0
0
12
4
0
16
1
0
14
2
0
4
4
0
6
2
0
7
2
0
8
4
0
8
6
0
6
4
0
12
7
0
11
4
0
9
9
0
21
7
0
4
15
2
91
69
21
93
60
18
29
19
9
42
25
18
81
62
34
130
96
44
255
255
165
255
255
255
255
255
211
90
64
26
124
93
25
68
55
14
28
25
10
53
31
20
15
5
11
56
36
8
92
63
18
72
49
14
93
69
22
38
28
6
44
31
10
63
39
11
86
59
15
92
56
10
95
53
10
114
71
15
89
57
21
52
31
12
27
17
13
31
27
20
133
107
68
255
255
255
255
255
255
255
255
254
95
49
36
255
255
180
255
231
155
121
112
41
89
107
28
44
60
44
30
16
12
49
86
59
68
40
31
132
66
88
194
74
127
255
103
31
255
255
255
255
255
255
232
255
232
109
99
76
22
7
8
64
46
16
25
13
2
67
39
15
76
41
13
98
56
12
110
71
17
84
62
14
28
25
7
18
14
6
14
5
2
44
27
9
56
34
15
66
44
20
78
50
17
93
60
24
66
40
13
65
43
14
85
60
22
91
64
24
48
33
18
22
10
5
14
4
5
82
61
25
161
118
50
155
117
50
154
112
45
146
100
38
117
82
36
105
70
29
102
63
16
56
35
4
24
22
11
51
43
23
63
50
18
53
34
10
45
24
10
82
54
23
64
38
3
77
55
21
73
46
15
45
17
8
104
64
28
72
44
13
54
39
10
91
55
10
57
18
14
38
36
21
38
33
22
51
38
21
27
2
14
78
61
23
39
53
21
26
42
22
50
34
10
79
48
7
73
63
20
67
63
28
32
36
36
33
11
27
78
32
14
65
37
5
75
50
17
84
20
18
142
64
29
208
110
16
249
142
41
217
127
34
144
66
3
102
34
19
57
27
20
15
34
24
34
45
28
45
51
31
77
65
26
93
72
26
102
80
32
86
59
21
67
46
14
70
50
15
74
49
7
65
45
7
85
60
11
96
65
15
83
52
13
102
63
16
107
67
15
66
40
10
32
12
3
26
17
8
7
5
1
16
12
4
61
49
14
106
81
22
66
51
10
16
16
5
32
25
5
76
55
21
146
97
29
214
142
46
209
141
49
161
111
37
110
82
29
115
87
39
133
99
48
119
92
48
83
70
35
91
69
21
30
25
1
56
34
17
104
60
22
112
60
19
95
48
13
108
59
11
92
50
6
34
12
5
38
34
15
55
44
15
77
54
10
29
26
5
255
255
255
255
255
247
44
12
2
32
11
2
20
10
5
42
20
10
7
2
3
19
10
7
48
24
8
49
26
12
37
17
10
41
19
9
38
20
8
27
14
7
5
2
3
45
19
7
57
23
10
45
7
2
28
17
18
76
84
82
255
225
191
255
255
234
255
255
239
255
255
236
255
232
189
126
115
99
58
54
45
25
34
38
70
75
75
194
183
159
255
255
231
255
255
237
255
207
149
37
29
30
174
139
122
255
224
182
255
224
179
213
166
136
101
100
107
123
104
106
135
140
134
84
99
110
119
121
130
138
131
138
138
128
129
127
118
111
124
113
101
106
102
94
71
79
80
57
70
78
77
86
88
77
83
83
59
65
66
44
54
58
34
46
46
12
15
11
33
22
20
31
31
25
18
14
10
13
22
29
27
49
41
33
53
29
28
46
33
14
42
47
12
47
60
12
56
75
7
65
87
10
74
99
11
81
107
10
80
102
2
61
79
14
36
47
21
7
10
30
31
29
41
59
66
49
80
99
44
97
121
38
111
133
31
111
133
20
101
127
13
90
117
10
79
103
1
67
89
3
49
71
5
25
44
9
11
18
14
1
4
17
7
0
10
5
0
5
4
0
10
3
0
7
5
0
11
5
0
10
4
0
8
5
0
11
7
0
13
9
1
17
10
3
21
12
7
12
10
6
15
9
7
18
9
3
11
5
0
13
2
0
9
2
1
3
5
2
7
7
1
11
6
0
7
1
0
6
2
0
7
2
0
9
6
0
7
2
0
8
7
0
14
4
0
8
0
0
4
2
0
7
5
0
5
1
0
1
0
0
6
0
0
9
5
0
7
5
0
10
9
0
13
10
0
13
7
0
12
6
0
16
9
0
20
11
0
14
6
0
6
4
0
2
1
0
7
11
1
6
7
2
1
0
2
6
5
2
5
5
3
6
3
0
11
4
0
8
2
0
7
2
0
8
6
0
12
4
0
8
2
0
15
11
1
18
12
3
5
7
9
18
13
11
39
26
11
52
35
3
11
7
2
24
18
2
25
18
2
25
19
1
25
18
1
20
10
1
11
12
1
16
12
1
31
20
0
30
17
1
27
22
2
40
29
1
47
33
0
48
33
0
126
112
89
79
64
37
131
122
89
90
72
38
9
3
0
3
1
0
2
2
0
8
6
0
7
2
0
4
2
0
1
2
0
1
0
0
1
3
0
4
3
0
5
1
0
2
5
0
7
3
0
7
5
0
8
5
0
7
2
0
2
1
0
7
5
0
14
4
0
6
4
0
8
2
0
8
2
0
4
4
0
3
7
0
7
5
0
10
5
0
15
9
0
16
5
0
10
8
0
7
5
0
5
4
0
4
4
0
1
6
0
1
3
0
3
4
0
2
8
0
8
5
0
3
2
0
7
4
0
1
3
0
5
1
0
1
4
0
6
5
0
5
0
0
2
2
0
7
2
0
5
1
0
7
2
0
15
2
0
12
3
0
9
2
0
5
1
0
3
3
0
10
6
0
2
3
0
11
10
0
4
3
0
7
5
0
12
5
0
14
5
0
22
4
0
54
50
14
134
91
33
60
32
14
24
16
10
69
48
27
70
51
24
207
159
95
255
255
255
255
255
255
117
110
106
41
30
18
32
20
10
23
18
7
62
48
20
51
33
7
55
34
14
31
11
5
38
44
27
61
62
40
77
62
31
31
13
15
55
24
19
27
6
28
54
48
36
121
88
40
94
72
34
40
31
21
50
34
13
70
46
17
58
38
10
45
27
4
35
20
10
140
114
79
255
255
255
255
255
255
255
255
220
49
27
25
235
235
60
104
111
65
48
55
46
49
67
26
53
90
60
67
36
24
190
185
122
206
163
87
65
158
103
127
89
111
255
62
44
255
255
196
255
255
255
242
255
247
94
84
76
138
101
30
168
120
39
119
85
23
74
50
15
42
25
3
15
18
13
76
58
23
76
55
20
7
6
8
40
27
15
79
53
22
100
72
24
106
78
28
94
68
28
54
42
21
32
22
7
16
12
4
16
13
9
43
30
13
78
50
17
27
14
5
53
28
8
90
62
31
44
32
21
36
18
8
79
50
14
72
52
18
57
39
14
52
35
16
56
44
20
63
51
29
63
56
35
71
62
39
40
36
32
81
73
46
77
67
37
91
69
35
31
12
11
41
32
15
76
56
30
21
13
13
84
56
33
67
48
25
71
47
17
77
53
23
45
40
19
37
27
11
62
26
7
51
18
14
26
29
12
34
26
8
39
17
6
27
13
14
51
15
24
50
31
11
22
22
19
27
24
17
29
36
21
37
17
14
64
26
8
49
39
7
39
49
16
55
58
24
42
34
3
61
60
35
31
41
24
113
75
28
43
23
16
39
20
13
21
18
10
15
22
14
16
24
10
50
39
9
54
42
17
21
23
16
17
25
21
23
8
14
40
18
10
35
19
10
25
21
16
76
58
22
72
61
29
48
42
23
29
30
19
33
16
13
77
31
6
102
49
3
99
53
9
72
35
4
34
7
3
15
8
3
40
17
5
75
34
15
71
34
16
41
18
13
22
5
10
51
30
20
36
26
18
21
11
13
37
14
8
67
33
1
78
49
5
97
69
12
140
94
22
170
107
22
197
123
25
211
129
26
165
95
19
147
87
17
147
83
17
156
87
20
148
89
20
135
84
16
125
77
9
146
93
11
171
111
20
183
120
27
156
101
25
117
73
21
255
255
255
255
255
249
42
18
4
42
15
4
43
17
8
60
24
13
77
34
15
87
40
16
78
37
14
37
14
3
12
15
17
21
30
35
36
49
55
72
78
76
103
101
90
115
108
94
129
108
91
130
100
81
118
87
67
241
192
157
255
255
236
255
218
155
244
174
126
255
222
161
255
255
198
201
163
130
18
7
6
80
85
81
224
194
151
255
249
183
225
165
113
11
29
41
255
228
192
255
255
244
255
247
200
139
117
108
35
38
38
167
125
85
146
136
129
145
142
134
68
69
59
21
10
16
46
29
22
37
22
7
17
15
14
43
34
21
55
43
22
53
38
25
46
34
23
39
29
27
56
44
34
57
50
39
65
51
32
45
33
24
43
24
17
48
21
13
39
13
9
18
21
35
13
47
61
32
71
83
34
74
83
32
78
92
37
89
112
36
90
116
32
82
103
17
61
77
10
28
38
26
7
5
43
42
47
55
75
88
57
96
116
52
109
130
48
112
133
43
105
130
41
102
130
32
102
128
19
98
116
11
84
100
6
64
80
5
43
57
6
20
29
12
9
8
13
3
1
17
7
0
15
5
0
8
6
0
8
3
0
8
7
0
13
2
0
13
4
0
14
9
1
14
14
2
15
13
1
10
6
0
10
8
0
14
9
1
21
11
4
20
10
4
11
7
3
3
0
4
8
4
7
9
5
3
8
5
0
5
6
0
5
5
0
9
1
0
10
0
0
1
2
0
8
5
0
12
6
0
10
5
0
11
5
0
11
5
0
5
5
0
11
3
0
13
6
0
6
7
0
5
5
1
3
2
2
2
2
1
7
2
0
5
5
0
13
8
0
15
8
0
13
10
0
10
10
0
5
6
0
9
7
0
10
9
0
10
10
0
15
8
0
4
6
0
10
11
2
6
2
0
4
5
1
3
3
1
12
2
2
11
9
5
18
12
5
10
8
2
12
0
0
8
7
0
12
4
0
15
7
0
15
14
0
7
4
0
35
20
2
50
35
4
33
17
2
71
50
0
29
18
1
34
27
2
25
25
1
27
27
0
27
24
0
19
17
2
32
22
0
36
24
2
33
21
0
27
15
0
0
4
0
1
2
0
11
8
0
17
12
0
95
83
59
130
110
69
91
82
59
131
112
69
5
0
0
7
4
0
7
2
0
5
4
0
5
3
0
4
5
0
4
3
0
3
2
0
3
2
0
4
3
0
5
4
0
8
4
0
7
3
0
5
3
0
5
2
0
3
3
0
7
2
0
7
4
0
3
2
0
11
2
0
14
4
0
8
3
0
9
1
0
6
5
0
12
5
0
12
2
0
12
10
0
4
7
0
10
7
0
5
6
0
4
5
0
2
2
0
2
7
0
3
1
0
4
9
0
8
5
0
11
6
0
7
5
0
9
6
0
7
4
0
5
2
0
4
4
0
5
1
0
1
4
0
3
3
0
7
3
0
3
1
0
6
3
0
16
3
0
8
3
0
3
2
0
7
5
0
6
4
0
9
5
0
5
3
0
10
8
0
2
4
0
1
3
0
7
2
0
13
2
0
15
4
0
109
80
27
112
70
25
14
17
11
19
12
7
74
52
29
98
67
41
255
255
212
255
255
255
236
218
188
22
10
13
57
41
21
11
2
10
26
20
7
18
16
14
41
33
23
28
24
20
20
17
11
26
24
10
74
49
19
95
60
18
48
25
9
24
24
15
59
47
20
69
51
22
111
74
28
143
91
30
140
90
26
107
71
19
60
37
8
28
19
10
31
23
12
43
15
3
57
38
15
175
145
105
255
255
255
255
255
255
255
255
215
48
38
9
180
185
63
81
69
75
45
30
78
64
96
31
60
84
58
255
255
174
255
255
165
255
255
195
255
255
139
33
140
112
243
28
68
255
255
137
255
255
255
255
255
217
54
73
69
30
25
26
42
32
28
49
32
21
45
26
8
31
27
6
20
17
7
70
52
20
43
31
23
21
17
8
31
18
7
67
41
15
99
67
22
110
75
26
82
55
20
67
47
16
79
57
20
102
69
22
99
58
13
27
16
9
68
50
17
64
44
16
53
37
15
89
70
31
91
71
27
90
65
20
72
46
18
41
25
15
104
67
28
32
18
9
45
18
5
34
13
11
87
70
27
28
23
3
80
64
29
70
64
25
107
74
32
21
16
14
93
66
23
120
73
29
102
58
12
161
98
34
185
123
53
127
83
37
74
39
9
70
35
9
27
5
5
25
7
10
17
16
5
19
19
7
14
19
4
20
20
8
15
5
4
56
19
27
51
25
4
43
21
14
60
28
4
76
42
14
73
39
21
64
29
28
67
59
54
86
75
53
80
63
29
73
82
31
86
81
37
153
132
60
117
93
47
31
28
20
89
42
8
65
30
7
52
29
7
35
14
3
58
22
5
97
48
17
80
40
4
65
49
15
46
28
8
35
16
9
57
38
14
91
62
26
76
51
11
75
48
13
18
14
8
4
7
4
51
25
5
61
41
8
61
44
20
47
38
27
27
27
21
46
34
17
36
32
15
60
42
8
76
50
15
69
39
10
28
13
2
4
2
3
38
24
14
28
21
11
5
1
5
10
3
8
22
21
15
31
37
21
36
36
21
21
20
16
21
15
8
19
6
7
27
28
16
96
67
18
65
50
6
27
27
1
25
8
2
87
36
4
78
32
9
31
31
16
69
60
19
61
53
21
14
29
21
25
17
15
40
23
4
255
255
255
255
255
248
40
22
12
36
30
24
20
33
38
28
48
55
55
71
73
105
96
88
142
116
95
147
118
89
122
95
71
90
65
49
67
45
31
53
33
18
45
20
10
50
20
10
40
10
5
25
20
14
45
40
26
246
204
170
255
255
209
72
45
17
30
29
43
34
29
31
255
184
134
255
229
169
255
219
182
255
255
245
255
255
210
164
99
62
167
155
133
255
255
255
255
255
255
255
226
171
183
146
107
165
99
49
182
106
54
154
100
77
79
64
69
20
36
44
15
17
22
7
2
2
43
21
23
80
46
38
96
55
34
82
43
19
64
24
5
48
11
8
22
13
26
14
26
38
35
21
36
31
22
44
19
37
59
5
50
70
14
55
79
20
68
98
31
86
118
41
100
128
42
100
125
28
82
101
10
51
64
5
25
31
18
4
9
36
43
53
47
75
91
59
104
120
63
116
135
56
115
138
50
111
137
43
105
130
37
101
120
29
97
113
21
84
103
14
69
88
8
53
69
4
34
44
11
16
20
11
2
5
8
4
0
7
1
0
5
4
0
5
7
0
8
10
0
14
13
0
10
8
0
13
9
0
5
3
0
14
6
0
15
3
0
20
3
0
14
10
3
8
8
3
13
14
4
7
4
1
12
11
0
11
4
2
9
3
3
2
2
3
5
5
5
9
8
6
7
5
4
2
0
1
4
2
0
0
3
0
1
7
0
3
2
0
1
4
0
3
2
0
8
5
0
6
2
0
10
6
0
14
3
0
20
7
0
17
4
0
7
3
0
14
3
0
12
9
1
5
6
2
1
2
1
5
3
2
7
3
0
4
3
0
4
0
0
2
2
0
7
2
0
10
6
0
7
7
0
12
8
0
8
4
0
7
6
0
11
5
0
5
7
0
7
5
1
4
1
1
8
4
4
7
11
8
8
10
7
4
14
8
17
16
8
13
18
7
4
3
0
4
9
0
14
7
0
15
11
0
22
17
0
24
17
0
41
22
0
48
32
0
43
29
0
61
45
0
44
30
2
32
30
0
51
36
2
51
33
0
46
35
0
43
32
1
21
15
2
22
14
1
24
12
0
14
5
0
3
3
0
2
2
0
5
5
0
2
1
0
50
44
30
164
142
97
33
34
30
160
143
98
12
7
1
8
5
0
3
2
0
2
2
0
6
2
0
1
3
0
2
1
0
4
3
0
6
3
0
6
2
0
6
3
0
5
2
0
4
4
0
5
8
0
0
5
0
5
3
0
3
1
0
6
2
0
7
1
0
7
1
0
5
2
0
10
2
0
10
2
0
8
7
0
10
3
0
5
3
0
8
8
0
6
7
0
9
0
0
3
5
0
5
8
0
2
1
0
3
5
0
5
7
0
10
8
0
10
1
0
8
4
0
1
3
0
2
3
0
6
5
0
3
4
0
2
2
0
2
1
0
8
1
0
10
5
0
13
7
0
5
1
0
12
1
0
19
2
0
5
2
0
5
4
0
7
4
0
10
1
0
5
1
0
4
5
0
8
4
0
11
4
0
12
5
0
9
4
0
14
4
0
15
14
2
141
100
40
80
48
15
35
33
19
38
29
20
71
47
26
237
186
122
255
255
255
255
255
255
83
67
61
36
41
34
44
40
32
37
27
14
41
21
8
28
13
6
15
6
8
11
10
7
23
16
14
65
44
26
24
15
23
74
51
26
44
33
20
33
33
28
14
23
28
15
21
21
20
20
13
11
13
8
42
24
6
77
47
9
85
52
11
83
50
10
68
34
2
51
20
17
46
22
20
84
41
18
218
154
101
255
255
255
255
255
255
255
255
234
21
33
40
139
148
61
114
77
98
45
19
70
25
92
40
255
255
144
255
255
240
255
222
133
255
255
231
255
255
179
92
196
120
197
41
44
255
255
152
255
255
255
255
255
253
255
255
213
255
255
188
255
255
171
255
254
149
169
140
96
61
50
31
42
33
12
39
26
16
41
28
17
32
20
14
33
20
8
45
28
8
65
41
8
82
48
14
46
22
6
50
24
5
65
41
16
66
46
18
68
47
14
67
47
10
75
52
12
85
63
24
85
69
27
64
56
21
63
49
14
45
33
4
38
25
12
111
64
21
101
69
22
145
100
37
225
159
64
247
176
77
209
149
68
255
185
76
255
189
69
195
127
48
120
85
32
141
99
40
183
128
60
193
135
66
168
119
48
180
124
37
161
104
35
109
69
20
60
36
5
24
11
11
58
23
7
58
24
5
55
29
6
70
47
17
67
50
20
57
46
22
100
65
32
148
84
18
154
79
23
151
71
6
141
65
10
105
36
7
16
26
32
89
66
45
113
68
42
127
70
26
120
79
20
83
75
38
63
70
41
16
8
14
85
57
18
89
49
16
52
20
2
72
41
4
12
7
3
40
39
11
82
65
20
69
47
20
100
66
19
7
4
4
44
32
5
65
40
14
69
39
14
133
84
14
163
103
15
148
91
12
141
87
14
108
79
25
56
54
26
20
25
18
20
12
4
28
26
12
62
47
11
40
30
4
16
5
7
4
15
17
62
54
25
100
71
20
104
69
15
89
59
15
90
64
15
97
70
17
74
60
21
22
28
15
10
10
10
3
5
7
40
33
7
69
52
16
86
58
19
94
53
12
93
46
3
84
46
8
93
37
2
86
43
6
52
26
4
54
35
10
80
54
7
60
39
4
118
74
7
126
78
12
116
76
15
65
39
14
255
255
255
255
255
235
178
124
83
163
106
66
121
72
47
74
44
31
34
20
13
24
12
2
13
8
1
2
7
11
13
23
21
34
36
37
44
51
54
70
75
71
88
89
79
93
93
80
97
91
77
89
77
67
84
61
53
229
188
159
255
255
255
176
128
84
25
23
34
34
26
25
166
117
91
255
225
173
255
255
208
197
136
96
106
106
97
255
255
242
255
255
255
255
255
209
200
146
102
104
75
51
255
205
136
230
153
83
36
35
32
48
69
76
63
97
109
73
113
127
78
120
131
81
120
130
80
119
130
78
118
132
67
114
130
62
117
132
66
122
135
62
118
132
58
112
131
61
110
132
61
107
127
59
106
122
56
104
117
44
86
99
31
59
72
17
29
37
19
5
8
41
38
41
56
69
74
64
93
102
63
107
122
58
114
132
60
119
142
60
116
141
56
110
132
50
105
125
34
95
114
20
81
98
14
64
79
8
45
55
5
26
30
4
7
11
8
4
2
9
2
0
8
5
0
14
3
0
12
5
0
11
5
0
10
5
0
8
6
0
7
5
0
7
6
0
12
10
0
11
7
0
10
7
0
18
11
0
12
4
0
14
3
0
11
6
0
4
8
0
2
12
4
4
5
2
17
17
4
9
7
2
17
13
0
12
8
1
4
5
3
5
4
4
4
5
3
4
4
1
2
4
0
0
3
1
5
4
2
9
3
1
7
2
0
7
5
0
6
4
0
4
3
0
9
3
0
4
2
0
9
5
0
14
5
0
17
6
0
18
8
0
9
5
0
14
6
0
12
7
2
2
6
2
4
4
2
2
4
2
4
2
0
4
4
0
2
1
0
0
3
0
8
4
0
12
8
0
7
5
0
14
7
0
14
5
0
4
2
0
10
1
0
6
4
0
4
4
0
8
7
4
16
15
10
14
9
5
2
2
3
12
14
7
15
10
7
17
23
8
3
4
0
3
8
0
16
12
0
8
5
0
28
17
0
24
15
0
26
17
0
43
30
0
8
9
0
60
43
0
44
33
1
14
17
2
26
28
1
42
32
0
40
29
0
21
15
0
1
2
0
4
3
0
4
1
0
1
1
0
4
3
0
5
3
0
2
5
0
1
1
0
11
14
11
168
147
108
34
19
4
171
152
108
48
37
17
3
3
0
3
1
0
2
2
0
7
1
0
1
1
0
6
1
0
7
2
0
5
4
0
5
2
0
4
1
0
4
2
0
8
5
0
6
4
0
4
4
0
2
0
0
2
4
0
3
3
0
8
3
0
15
5
0
15
5
0
5
5
0
9
5
0
6
7
0
6
2
0
6
0
0
4
5
0
1
4
0
4
5
0
2
4
0
1
9
0
6
1
0
3
2
0
5
2
0
9
2
0
5
2
0
3
1
0
6
2
0
6
5
0
9
3
0
9
2
0
8
4
0
8
3
0
12
4
0
12
2
0
21
7
0
14
6
0
20
6
0
21
6
0
10
4
0
10
0
0
7
5
0
10
3
0
4
2
0
3
1
0
1
1
0
8
5
0
10
5
0
9
0
0
12
2
0
53
41
13
159
112
51
56
32
17
45
37
25
52
34
26
140
104
65
255
255
255
255
255
255
238
189
135
103
59
14
98
58
15
90
46
7
89
55
19
69
41
12
56
37
10
69
44
12
86
54
15
97
63
16
142
95
24
182
119
31
131
78
18
38
14
5
31
33
20
76
64
32
68
58
32
41
38
27
31
28
23
30
25
18
18
20
18
11
16
19
20
11
15
37
5
13
71
29
15
50
21
18
35
41
30
85
67
30
74
70
69
255
255
255
255
255
255
255
255
255
83
30
56
145
148
83
130
107
110
30
36
10
212
128
63
255
255
255
252
236
163
255
204
110
255
255
226
255
255
231
255
255
160
24
66
28
255
236
130
255
255
211
255
255
211
255
255
180
255
255
162
255
255
165
255
255
174
181
146
112
115
77
29
118
77
15
107
51
5
91
41
17
65
36
17
40
24
10
25
19
17
63
43
18
12
7
10
39
27
8
37
22
7
45
37
17
80
57
20
112
69
12
104
63
11
57
36
14
32
15
3
39
25
14
79
55
17
55
43
9
30
27
8
81
54
19
119
74
25
133
77
24
92
62
23
14
20
11
42
32
11
41
22
2
49
18
13
41
19
12
44
28
14
58
43
14
96
64
11
143
98
31
178
123
48
158
111
50
104
74
39
32
31
22
44
31
20
21
20
22
10
6
17
44
24
12
86
45
7
106
49
14
121
54
8
105
62
9
78
47
12
98
46
16
132
64
24
131
69
9
103
61
20
49
48
26
61
52
31
79
48
40
48
58
43
70
60
31
41
17
10
58
46
20
79
60
13
77
50
8
108
65
16
107
65
15
70
47
8
25
18
6
58
43
13
78
65
24
12
23
17
23
5
3
50
37
8
110
76
24
85
54
19
14
11
1
71
45
10
79
44
7
46
20
3
11
12
5
10
14
14
43
22
0
55
36
17
64
51
23
50
48
31
37
33
26
39
36
24
77
54
19
49
28
7
26
14
5
33
24
9
35
26
3
16
4
0
42
27
6
60
38
13
49
18
8
73
43
15
68
42
10
42
30
5
39
23
7
66
46
16
50
32
10
22
14
3
35
28
12
89
57
16
134
90
20
134
95
19
106
76
13
43
34
11
36
32
9
98
72
13
62
48
11
11
10
8
49
24
9
56
29
4
68
50
16
255
255
255
255
255
206
23
15
16
38
36
27
24
35
37
11
31
49
32
49
63
78
82
78
140
115
90
161
124
88
136
101
70
104
70
49
85
50
29
53
26
10
31
10
1
17
3
2
13
5
2
22
15
8
56
28
14
56
56
59
255
255
224
255
255
215
133
96
58
23
39
48
73
53
50
47
26
14
117
107
91
255
255
226
255
255
255
255
255
223
216
163
116
81
60
32
25
16
3
72
48
34
255
214
146
255
168
87
209
131
58
193
116
44
143
84
27
85
54
33
28
24
35
20
21
26
8
10
11
11
5
2
14
6
4
13
2
0
24
12
16
25
22
25
30
36
39
34
50
58
47
65
78
61
81
95
65
96
111
70
115
130
78
126
142
75
127
144
64
125
143
61
121
141
55
114
135
46
110
133
42
108
129
40
103
118
31
89
102
18
67
80
11
45
54
6
23
31
5
8
13
8
3
2
8
2
0
10
3
0
10
6
0
9
5
0
9
5
0
12
6
0
11
5
0
12
4
0
9
5
0
11
5
0
16
5
0
16
5
0
12
1
0
11
6
0
13
4
0
8
5
0
5
3
0
8
6
0
14
7
0
5
2
0
14
1
0
8
4
0
7
12
3
8
7
3
8
12
4
15
4
1
8
6
0
11
6
0
5
2
0
3
2
0
8
5
0
10
4
0
10
3
0
7
5
2
11
4
0
10
7
2
11
9
0
10
9
0
9
5
0
13
4
0
15
2
0
9
3
0
5
2
1
7
8
3
8
6
3
17
10
1
11
3
0
9
3
0
6
4
1
3
6
2
2
3
1
6
7
2
9
6
0
8
4
0
5
2
0
3
5
0
8
3
0
12
7
0
12
6
0
7
4
0
21
8
0
15
4
0
8
1
0
7
4
0
5
7
1
13
8
5
17
14
7
21
11
8
10
5
8
28
21
8
18
13
8
28
23
4
7
6
0
18
8
0
10
8
0
6
7
0
17
13
0
43
30
0
55
34
1
47
31
2
47
32
1
52
40
0
21
15
0
3
5
0
5
4
0
5
4
0
5
2
0
6
1
0
4
1
0
4
0
0
7
0
0
3
2
0
1
1
0
1
3
0
1
2
0
4
1
0
6
3
1
143
124
91
97
74
43
145
128
93
97
81
47
1
4
0
1
1
0
0
1
0
4
2
0
6
2
0
7
2
0
3
4
0
3
1
0
3
2
0
7
1
0
10
0
0
7
5
0
6
3
0
2
2
0
2
2
0
6
4
0
10
4
0
12
7
0
11
3
0
14
4
0
13
8
0
12
5
0
8
4
0
5
2
0
9
4
0
0
2
0
5
3
0
3
8
0
4
7
0
7
4
0
3
4
0
4
2
0
7
3
0
7
3
0
2
1
0
8
7
0
11
4
0
8
6
0
7
3
0
6
1
0
7
2
0
8
6
0
8
2
0
1
5
0
13
3
0
13
3
0
20
3
0
17
4
0
5
5
0
5
4
0
3
2
0
9
2
0
3
2
0
4
2
0
2
1
0
10
4
0
6
3
0
20
2
0
12
1
0
102
74
28
150
104
50
15
12
9
30
26
19
82
58
36
255
255
180
255
255
255
255
255
226
66
46
33
8
2
3
34
29
12
31
17
2
23
22
16
38
29
10
39
26
11
29
16
7
28
13
7
17
8
9
25
17
9
15
6
13
52
40
19
60
39
17
77
52
22
78
54
24
76
55
27
29
21
16
22
11
17
42
26
15
39
24
3
32
19
4
49
27
8
64
39
2
87
57
11
106
64
15
117
69
26
84
40
5
114
72
29
157
112
61
255
255
240
255
255
255
255
255
255
124
87
86
114
126
84
52
74
64
70
51
28
255
255
172
255
255
255
233
182
179
186
128
41
255
255
191
255
255
255
255
255
243
229
161
78
79
100
91
157
132
94
192
138
87
192
137
87
253
196
109
255
255
190
255
255
222
186
171
118
41
40
29
83
54
27
108
65
18
99
61
25
105
68
19
147
99
33
143
88
28
81
49
22
62
39
12
70
44
8
99
69
21
133
95
40
154
111
40
133
96
34
115
81
25
132
103
35
143
109
38
113
79
22
42
23
2
14
13
6
7
7
4
4
5
4
48
27
6
24
22
10
34
31
16
46
38
20
87
64
23
101
77
28
137
101
44
145
109
55
110
85
43
47
37
22
59
46
20
75
58
15
63
48
16
46
31
11
17
6
7
27
20
7
46
36
16
102
74
21
119
88
23
106
79
21
62
62
28
43
53
33
26
27
18
39
25
7
114
67
19
178
98
18
226
131
21
255
163
29
233
139
25
163
88
17
112
59
10
87
68
18
80
56
14
44
38
5
21
24
18
9
23
26
22
27
17
81
49
17
89
44
10
67
35
12
82
44
8
72
44
17
46
33
10
54
35
12
27
15
2
38
25
15
46
25
9
50
37
12
36
27
4
54
31
9
90
55
5
68
43
3
69
40
2
87
55
12
85
64
26
52
52
27
40
44
21
55
46
18
55
38
15
33
18
3
44
26
11
77
42
9
57
27
14
15
15
7
47
40
5
89
60
7
95
60
8
90
58
11
83
55
13
58
41
17
62
39
17
77
46
20
83
54
17
49
37
11
8
6
10
22
16
7
36
31
8
31
28
15
27
13
6
39
18
5
4
10
8
31
27
8
41
31
3
40
30
1
55
29
5
99
54
3
112
62
3
71
39
14
39
22
4
255
255
255
255
255
236
144
106
77
143
94
60
111
66
42
64
38
26
38
21
12
56
28
12
38
22
11
27
17
9
17
10
5
12
6
5
20
10
4
30
21
10
53
31
16
44
28
17
9
8
9
37
17
12
44
23
10
33
23
11
168
129
103
255
255
223
254
204
158
43
34
26
213
174
136
255
235
182
255
255
232
255
255
236
215
167
132
68
58
39
20
18
8
34
15
6
73
35
9
56
22
4
196
150
117
204
141
91
245
155
88
255
172
91
255
158
76
249
157
102
132
96
100
56
102
132
74
122
143
77
124
145
73
121
144
79
127
149
72
125
147
63
120
140
66
121
140
74
122
143
76
119
141
73
117
136
70
119
136
66
117
132
62
110
124
48
100
112
29
84
97
20
70
83
12
55
68
7
34
50
4
14
28
7
5
10
8
4
1
13
2
0
16
4
0
16
1
0
12
2
0
10
2
0
10
4
0
10
5
0
9
2
0
7
2
0
8
4
0
8
5
0
12
4
0
13
8
0
10
8
0
7
7
0
7
4
0
7
2
0
4
6
0
5
5
0
4
5
0
3
3
0
8
2
0
6
4
0
10
6
0
8
3
0
7
3
0
1
1
0
9
7
1
14
6
2
11
4
1
3
4
0
6
6
0
5
5
0
5
3
0
3
2
0
5
3
0
5
4
0
8
2
0
7
5
1
7
0
2
2
1
1
2
4
0
4
4
0
9
7
0
10
4
0
4
2
0
2
4
0
1
8
2
6
11
3
3
7
3
14
12
4
9
10
1
2
5
0
5
6
0
5
6
1
2
3
2
3
4
1
5
4
0
7
5
0
4
6
0
2
7
0
6
2
0
8
4
0
19
9
0
10
4
0
20
6
0
19
6
0
11
4
0
10
5
0
4
6
2
16
10
2
22
15
6
18
13
6
8
2
2
34
29
0
11
11
0
37
29
0
8
3
0
8
2
0
12
6
0
7
5
0
7
10
0
5
12
0
20
7
2
39
22
0
18
13
2
21
15
0
28
22
0
19
17
0
5
7
0
1
2
0
3
4
0
6
4
0
4
3
0
5
1
0
6
0
0
0
2
0
3
2
0
5
4
0
8
3
0
5
1
0
2
2
0
101
89
62
142
116
76
99
84
60
137
115
74
4
3
0
6
3
0
9
2
0
10
2
0
8
4
0
3
1
0
2
2
0
2
4
0
1
2
0
7
2
0
6
3
0
2
5
0
5
2
0
4
0
0
5
2
0
5
3
0
7
5
0
8
2
0
3
1
0
4
2
0
10
4
0
10
4
0
2
0
0
2
2
0
7
4
0
9
4
0
7
2
0
3
0
0
5
2
0
1
3
0
0
4
0
7
1
0
7
2
0
3
1
0
8
3
0
7
5
0
8
5
0
4
4
0
2
4
0
4
2
0
6
2
0
6
4
0
0
3
0
6
3
0
11
5
0
5
5
0
21
6
0
11
4
0
5
3
0
5
5
0
1
1
0
9
3
0
1
4
0
3
2
0
4
1
0
5
4
0
11
2
0
21
1
0
14
15
5
145
98
40
120
80
34
32
30
18
14
7
5
235
189
118
255
255
255
255
255
255
155
117
81
23
13
11
1
2
5
21
18
7
56
41
8
75
48
8
67
37
2
34
15
7
30
21
15
49
33
17
44
25
8
46
29
3
28
9
2
73
40
9
78
37
11
86
48
12
77
45
7
95
58
18
72
46
7
81
49
6
101
59
13
96
48
5
101
51
9
99
52
3
68
29
10
46
19
10
71
41
8
110
72
26
91
54
18
47
35
20
36
31
19
104
78
47
255
255
192
255
255
255
255
255
255
255
224
140
24
61
52
28
31
8
149
93
27
255
255
212
255
255
255
255
255
255
146
91
65
162
132
89
255
255
255
255
255
255
215
91
61
37
133
140
52
127
115
114
105
81
184
127
67
255
233
107
255
255
221
255
255
172
117
71
22
88
38
6
85
35
22
67
30
15
53
28
8
62
40
18
10
14
13
52
40
22
23
17
8
48
28
16
89
53
24
120
73
28
117
62
8
109
66
22
75
47
11
73
45
11
59
25
2
45
23
12
19
13
1
34
34
23
61
49
24
50
31
9
80
40
5
118
72
7
76
52
9
20
14
11
48
21
5
116
58
11
146
90
35
98
68
24
115
92
39
169
120
30
169
120
31
92
70
20
68
62
28
74
76
41
17
49
40
23
21
29
56
35
22
70
43
10
109
62
8
137
81
7
87
45
3
54
44
24
64
40
21
101
46
9
115
76
21
49
33
19
49
27
22
65
42
15
31
27
14
23
24
23
31
29
23
56
42
24
65
32
11
62
31
7
48
28
7
77
48
6
97
59
7
77
40
8
88
44
13
66
38
11
74
42
12
67
37
13
39
33
10
49
21
5
90
62
24
76
51
15
15
14
7
59
37
5
8
6
8
45
34
7
31
14
4
29
18
3
29
17
7
15
13
6
9
12
16
5
3
3
21
15
5
17
7
8
49
37
18
36
18
14
13
11
12
11
8
5
36
29
15
67
46
12
63
36
5
11
11
2
54
38
9
43
29
2
74
40
3
72
32
10
63
35
12
54
33
6
25
18
8
5
8
8
15
4
9
18
7
11
17
8
12
31
26
15
23
21
11
12
14
7
29
21
6
14
8
2
14
11
3
24
16
1
19
8
5
42
25
4
25
8
8
29
23
13
3
1
5
255
255
255
255
255
248
25
14
3
8
2
1
38
15
4
41
21
9
20
15
11
32
13
5
35
14
4
41
22
8
24
15
7
14
9
7
6
1
5
42
23
14
51
22
18
27
17
14
42
25
22
4
6
3
24
15
7
10
8
11
206
171
142
255
255
255
255
209
166
170
143
119
255
227
174
232
176
133
248
196
150
152
118
84
20
21
11
22
14
2
29
17
3
31
14
0
35
15
2
74
36
7
55
50
59
82
76
71
19
5
2
55
38
26
100
50
25
255
196
151
255
221
164
57
65
72
48
77
93
46
84
102
49
89
106
50
88
106
39
83
99
32
76
89
33
71
81
37
68
73
33
59
61
24
48
50
14
37
38
8
20
21
12
7
8
5
4
2
10
6
0
9
5
0
7
4
0
11
9
0
10
7
0
11
9
0
7
6
0
8
1
0
1
3
1
5
6
2
8
7
1
12
11
0
13
11
0
6
7
1
8
8
3
13
10
3
13
5
1
13
3
0
15
4
0
9
6
0
1
1
0
4
2
0
3
4
0
6
6
0
4
10
0
7
7
4
3
13
7
6
10
5
3
2
1
5
2
0
7
4
0
10
2
0
4
1
0
4
3
0
13
0
0
2
2
0
12
5
0
4
6
0
4
3
0
1
1
0
4
1
0
5
1
0
6
2
0
4
4
0
4
1
0
5
4
0
7
1
0
8
2
0
5
5
0
3
4
0
5
5
0
2
4
0
5
2
0
5
3
0
4
4
1
7
5
4
5
3
3
5
9
3
15
15
2
10
2
0
8
10
0
8
8
0
4
8
0
1
5
0
1
2
0
3
4
0
2
6
0
1
4
0
4
3
0
5
1
0
16
9
0
15
7
0
10
4
0
14
5
0
12
5
0
4
4
0
4
2
1
19
17
2
21
17
1
18
16
0
19
20
0
26
23
0
15
10
0
35
28
0
8
3
0
16
4
0
10
2
0
10
15
0
17
17
1
20
18
2
35
25
0
42
25
2
29
16
1
17
8
0
16
7
0
24
14
0
12
13
0
2
7
0
2
3
0
3
2
0
3
4
0
2
6
0
7
4
0
8
2
0
8
4
0
7
4
0
2
4
0
4
2
0
3
2
0
55
50
33
162
138
94
50
42
29
159
134
92
5
5
1
4
4
0
4
0
0
5
1
0
4
5
0
4
2
0
2
2
0
3
1
0
2
0
0
9
5
0
4
9
0
1
6
0
2
0
0
6
2
0
7
2
0
6
0
0
4
5
0
4
0
0
7
2
0
5
2
0
4
2
0
3
2
0
4
4
0
3
3
0
4
0
0
3
2
0
1
1
0
2
1
0
4
1
0
1
4
0
5
3
0
1
3
0
7
0
0
10
0
0
10
1
0
7
5
0
5
8
0
2
5
0
0
3
0
6
2
0
1
2
0
5
2
0
4
2
0
10
2
0
14
4
0
13
1
0
22
7
0
7
3
0
6
1
0
10
7
0
1
2
0
11
5
0
1
3
0
3
2
0
1
5
0
7
3
0
14
0
0
17
1
0
57
41
15
154
98
41
69
45
16
30
24
14
116
94
60
255
255
255
255
255
255
235
188
145
45
24
15
51
33
11
40
30
12
26
21
11
38
17
1
41
14
9
54
21
7
57
28
8
37
17
12
20
7
7
36
29
14
48
25
7
37
19
7
34
20
11
48
29
14
81
52
19
81
50
17
79
50
16
52
42
18
25
11
14
66
33
1
84
54
15
100
67
19
112
75
14
107
72
12
100
61
11
103
53
4
119
61
16
110
54
14
82
40
7
48
17
14
25
19
23
45
47
39
239
199
138
255
255
255
255
255
255
255
255
179
114
86
44
18
50
67
161
174
48
255
255
217
255
255
255
255
255
255
232
153
144
207
199
122
255
255
255
255
255
255
207
37
50
139
112
136
142
84
94
182
118
56
255
255
144
255
255
233
255
255
164
99
75
41
111
76
24
72
45
8
12
10
9
75
47
16
74
42
11
59
34
8
62
41
18
32
26
10
48
39
17
65
51
20
79
62
30
107
84
44
54
53
35
84
43
13
131
68
14
97
46
9
97
48
13
89
41
12
87
55
23
43
21
21
36
38
27
46
33
18
27
17
22
99
59
19
74
37
4
79
37
7
43
21
12
57
50
35
17
21
33
51
10
22
104
55
10
87
46
10
113
60
15
155
91
33
211
130
39
188
119
27
111
68
18
106
60
4
156
100
10
100
82
18
50
27
20
146
64
13
170
92
18
175
105
20
189
123
45
93
70
36
65
28
11
134
76
4
156
91
11
78
40
8
60
29
4
107
60
9
120
58
14
79
25
22
41
7
21
70
54
20
73
51
18
64
26
7
74
25
7
71
28
9
28
7
5
57
25
7
47
19
10
63
42
13
8
12
5
59
39
14
58
18
17
80
38
10
62
28
5
21
12
5
53
33
12
49
40
10
26
26
10
8
12
8
22
21
15
18
23
17
32
15
5
16
21
13
62
52
18
49
35
5
28
16
5
22
15
2
26
17
2
24
12
8
19
18
8
82
54
7
61
38
5
39
21
4
4
6
6
15
17
6
10
8
9
24
24
9
35
17
6
51
29
5
47
27
4
41
22
3
43
25
4
19
13
5
48
34
11
80
57
15
66
47
11
72
53
15
97
74
30
130
101
50
133
100
54
117
79
36
112
71
18
71
47
13
57
41
10
48
41
14
255
255
255
255
255
246
52
21
6
27
10
4
14
8
3
54
24
7
56
24
10
32
17
9
27
17
9
34
19
10
47
24
11
33
19
5
43
22
5
78
43
13
129
69
34
134
71
35
72
36
18
13
5
0
30
15
5
59
60
59
255
255
241
255
255
236
89
66
52
233
183
145
255
203
165
168
138
110
184
147
109
80
55
25
46
29
3
41
23
2
31
13
1
46
18
2
66
31
6
54
29
7
51
33
21
96
83
75
72
69
59
55
52
37
99
87
64
233
188
152
255
255
255
176
141
101
55
50
30
33
28
13
17
13
5
25
15
8
13
9
1
11
9
2
17
12
2
12
5
3
2
4
0
5
2
0
10
4
0
9
3
0
10
2
0
12
4
0
13
5
0
11
8
0
5
5
0
10
8
0
5
4
0
8
2
0
14
4
0
10
4
0
4
8
4
5
12
4
10
12
4
15
14
4
18
14
5
7
7
2
13
7
2
8
3
2
4
4
2
6
3
0
0
2
0
5
5
0
3
1
0
7
3
1
10
8
3
12
9
3
10
13
1
8
10
9
13
21
13
15
20
15
12
15
8
11
8
0
8
9
0
12
8
0
4
4
0
12
10
0
20
13
0
22
17
4
16
14
6
2
7
4
8
2
0
10
2
0
8
2
0
8
1
0
7
3
0
8
3
0
3
1
0
8
3
0
7
2
0
4
4
0
5
3
0
2
3
0
4
4
0
8
7
0
5
4
0
4
5
0
3
7
0
4
8
1
8
9
3
4
8
3
12
11
1
15
5
0
2
5
0
9
5
0
1
4
0
5
5
0
6
4
0
5
6
0
0
3
0
4
3
0
7
5
0
10
6
0
10
8
0
9
7
0
4
3
0
5
5
0
6
4
0
7
2
0
4
2
0
18
19
0
20
15
0
5
8
0
11
7
0
3
5
0
30
18
0
24
21
0
4
5
0
0
6
0
11
14
0
7
7
0
13
12
2
19
20
0
15
16
2
22
13
0
37
22
0
40
28
0
33
26
0
22
17
0
10
8
0
5
4
0
7
4
0
7
4
0
4
4
0
2
1
0
5
3
0
10
3
0
9
2
0
3
0
0
7
4
0
4
1
0
4
2
0
21
18
11
161
140
100
14
9
6
168
139
101
37
28
14
1
4
0
4
2
0
5
2
0
8
5
0
2
3
0
0
5
0
4
3
0
8
5
0
11
8
0
7
6
0
5
5
0
5
1
0
5
1
0
2
2
0
0
4
0
0
2
0
1
1
0
5
1
0
2
1
0
2
4
0
4
3
0
7
2
0
8
2
0
10
1
0
3
0
0
2
2
0
1
5
0
0
4
0
4
3
0
7
4
0
9
2
0
11
0
0
6
0
0
5
1
0
9
4
0
8
1
0
3
5
0
6
2
0
8
3
0
8
1
0
8
3
0
10
2
0
18
4
0
10
1
0
28
8
0
19
7
0
4
1
0
5
2
0
16
7
0
1
1
0
11
7
0
3
3
0
4
1
0
5
0
0
10
3
0
12
1
0
8
4
0
100
66
22
141
86
36
25
17
5
13
8
6
255
216
158
255
255
255
255
255
209
84
49
31
110
67
13
77
49
14
81
52
10
130
89
28
163
105
26
155
95
19
144
88
18
106
67
11
46
26
11
24
25
12
18
23
20
23
10
7
71
37
7
107
51
3
114
54
5
109
58
7
80
47
4
63
43
12
38
28
12
58
35
8
84
47
13
96
49
5
82
41
4
74
33
11
67
26
16
51
12
21
34
5
19
38
33
22
38
37
22
50
34
17
54
40
22
47
33
17
30
22
13
21
16
8
163
133
84
255
255
233
255
255
255
255
255
234
247
239
140
79
65
85
118
155
21
255
255
179
255
255
255
255
255
255
62
41
57
255
255
213
255
255
255
255
255
255
255
220
115
255
255
174
255
255
232
255
255
255
255
255
209
193
141
88
76
49
19
54
31
0
60
37
11
67
40
11
77
43
14
92
60
27
163
98
38
180
110
42
125
81
26
87
67
18
26
24
7
25
12
7
59
39
14
84
50
16
126
85
33
66
49
22
74
60
28
60
51
27
37
43
34
81
86
62
101
100
64
28
37
22
21
18
3
71
51
14
51
41
14
57
29
12
71
43
13
47
28
11
41
27
7
24
24
18
61
57
33
120
97
44
62
62
32
84
34
12
136
60
12
125
46
24
156
69
26
164
77
11
200
113
15
246
146
23
255
153
27
234
127
23
152
90
21
131
80
25
96
63
24
91
54
16
40
24
8
91
49
17
84
33
12
134
65
17
116
47
17
83
26
23
60
12
24
38
14
24
33
25
20
15
14
4
50
28
8
111
58
7
108
67
10
93
61
8
109
66
10
114
69
14
108
66
18
115
58
10
142
77
15
128
77
17
166
107
25
136
96
26
99
71
25
40
37
22
43
23
2
98
60
15
95
60
17
78
52
18
93
73
32
101
80
39
59
46
22
20
14
14
79
52
15
48
24
2
32
23
9
17
19
3
48
42
14
82
67
26
69
59
22
54
42
12
42
38
11
27
24
13
36
31
20
54
44
26
49
47
27
28
32
20
61
43
10
55
32
4
33
18
3
21
17
5
16
7
2
10
8
5
55
40
9
68
43
10
67
49
22
75
51
22
58
31
10
93
62
31
90
62
28
72
51
19
41
38
23
57
38
9
20
6
2
34
20
7
38
20
9
255
255
255
255
255
244
42
21
3
57
28
7
69
31
8
67
28
7
74
27
5
77
29
8
87
40
11
83
43
10
59
31
7
47
24
4
55
27
7
66
32
8
72
32
11
75
29
13
90
35
10
88
32
9
87
38
11
132
117
104
255
255
255
255
216
158
40
30
15
168
122
91
255
225
184
255
240
186
141
112
84
16
13
8
33
21
11
26
16
8
16
10
5
10
2
5
27
10
1
47
23
2
65
29
4
91
55
37
122
94
76
132
111
89
164
122
87
193
139
106
255
255
255
255
249
183
68
58
36
40
36
22
18
17
13
25
19
14
18
16
9
11
11
4
20
15
3
18
12
4
8
5
0
11
3
0
12
6
0
14
7
0
12
5
0
15
4
0
17
7
0
22
10
0
19
7
0
10
4
0
7
1
0
5
4
0
2
0
0
7
4
0
3
9
5
6
4
2
10
5
2
13
8
7
18
7
5
13
11
5
16
8
2
8
3
1
6
7
5
6
4
4
2
3
1
4
7
0
7
4
0
10
3
2
8
6
3
15
3
5
27
15
8
13
5
7
21
20
13
7
5
9
17
15
14
20
15
2
17
16
3
21
18
3
7
5
1
16
10
0
13
9
0
16
11
7
14
5
3
17
14
7
6
3
1
1
3
0
7
2
0
4
3
0
6
4
0
5
0
0
5
5
0
9
6
0
5
5
0
8
1
0
5
5
0
5
8
0
8
6
0
4
3
0
2
4
0
4
6
0
3
4
0
4
5
0
8
4
0
7
4
0
10
5
0
19
7
0
7
1
0
13
5
0
6
2
0
3
7
0
5
7
0
7
7
0
7
3
0
9
4
0
9
7
0
8
10
0
11
10
0
10
7
0
4
3
0
1
2
0
1
2
0
5
3
0
11
3
0
20
10
0
33
17
0
40
24
0
39
29
0
36
30
0
31
22
0
7
14
0
3
7
0
8
13
0
17
15
0
21
17
0
25
18
1
29
22
2
36
29
1
41
30
0
34
22
0
18
10
0
10
8
0
3
9
0
3
5
0
5
1
0
2
2
0
3
0
0
5
2
0
6
1
0
2
2
0
5
2
0
3
1
0
9
1
0
4
4
0
3
4
0
2
1
0
2
3
1
144
125
96
81
62
36
153
127
100
86
66
40
6
4
0
8
0
0
6
0
0
3
3
0
5
6
0
7
4
0
13
2
0
9
7
0
7
5
0
5
4
0
6
5
0
6
3
0
3
4
0
3
5
0
0
3
0
2
0
0
4
2
0
5
0
0
2
2
0
5
3
0
5
1
0
11
7
0
9
6
0
12
2
0
6
1
0
3
2
0
4
2
0
8
4
0
14
3
0
20
2
0
18
2
0
17
2
0
13
2
0
7
2
0
1
2
0
5
4
0
8
2
0
0
2
0
4
2
0
4
2
0
7
4
0
7
1
0
10
3
0
5
2
0
30
10
0
17
1
0
3
6
0
3
4
0
18
4
0
3
1
0
13
9
0
8
4
0
6
3
0
11
3
0
12
3
0
10
0
0
23
21
4
130
83
25
127
76
33
26
15
7
125
96
58
255
255
222
255
255
255
206
172
123
29
20
11
73
46
17
41
26
8
62
37
10
83
55
22
57
25
1
58
24
15
35
7
15
43
20
5
39
25
10
55
44
16
16
17
12
32
20
8
28
21
8
45
26
7
54
41
17
44
33
14
61
37
11
64
48
12
36
21
3
56
26
4
62
32
8
52
29
11
98
58
15
127
78
13
98
57
4
44
17
8
11
5
13
16
12
4
41
37
19
44
35
20
35
22
7
36
17
9
60
43
12
65
47
17
58
39
13
125
91
50
255
255
159
255
255
255
255
255
255
215
207
117
255
255
153
255
255
191
255
255
197
255
255
255
199
149
131
67
59
28
247
255
205
255
255
255
255
255
255
255
255
255
255
255
255
219
201
162
123
87
63
38
25
4
42
33
7
21
17
6
43
33
15
65
41
8
79
45
9
145
90
28
132
92
28
102
79
35
11
17
5
71
43
13
124
81
32
139
89
39
117
79
34
36
19
7
103
60
16
149
91
29
166
105
38
139
81
23
106
57
10
68
40
13
30
18
5
56
44
19
16
18
14
42
27
8
40
31
11
91
63
26
42
43
26
82
67
33
93
71
34
73
49
27
22
11
8
105
76
42
134
95
49
80
53
17
13
11
12
66
48
21
43
19
9
133
89
42
138
96
44
86
57
22
135
69
10
255
128
4
255
165
7
255
178
21
255
177
26
255
176
39
255
144
30
231
127
23
192
111
22
205
126
29
208
122
26
173
90
14
125
59
11
118
69
20
150
101
27
157
101
19
102
63
8
53
29
5
41
16
5
13
7
3
8
4
5
33
11
4
83
49
18
84
51
13
31
21
3
29
23
11
38
28
14
34
7
13
37
1
12
59
51
28
45
32
18
3
7
9
19
10
1
14
0
3
32
33
19
4
4
5
23
11
4
58
31
12
102
67
15
108
73
20
58
42
12
20
14
2
67
47
16
67
44
8
41
32
10
48
25
5
46
28
10
44
25
11
41
25
18
12
7
12
36
24
10
43
27
8
48
24
4
31
19
5
53
28
8
74
50
24
80
57
28
34
26
15
34
22
6
73
53
18
74
53
11
57
39
13
45
29
3
95
70
29
75
69
36
99
76
41
82
59
27
59
35
5
51
27
4
44
24
5
46
31
15
255
255
255
255
255
246
104
46
8
83
38
11
55
25
8
31
18
2
36
19
7
20
9
10
35
21
8
17
7
5
6
4
5
22
11
7
32
21
11
31
17
12
23
12
10
3
3
6
35
21
2
65
36
5
63
32
5
182
148
121
255
255
255
255
201
145
35
24
11
94
69
44
255
255
223
255
255
235
67
57
42
10
6
0
3
3
1
11
5
2
7
5
3
13
3
3
24
12
7
34
22
12
43
26
15
22
17
11
31
14
9
37
21
14
80
43
21
62
41
31
255
255
208
255
255
255
178
136
92
34
30
15
23
21
17
36
29
25
41
33
25
25
23
13
25
19
7
31
19
5
19
8
1
12
0
0
9
3
0
11
4
0
14
8
0
11
7
0
19
14
0
15
13
0
22
12
0
8
3
0
8
1
0
5
4
0
1
1
0
5
4
0
5
5
2
7
10
4
7
4
3
4
4
7
14
8
5
11
12
6
11
7
3
22
22
8
28
24
9
31
24
9
22
13
4
12
7
1
8
4
3
3
2
2
6
6
2
10
12
7
11
2
4
26
13
3
13
13
13
17
8
6
10
8
13
19
12
4
13
10
4
26
20
4
8
8
3
11
7
0
8
9
0
11
12
5
7
8
6
20
13
5
8
4
2
10
3
0
8
1
0
4
2
0
4
1
0
7
4
0
5
5
0
5
1
0
7
0
0
3
1
0
3
5
0
9
3
0
5
3
0
5
2
0
4
5
0
1
5
0
5
4
0
7
8
0
4
7
0
4
8
0
5
8
0
22
10
0
13
3
0
12
3
0
11
6
0
10
9
0
10
10
0
7
8
0
5
4
0
5
5
0
3
5
0
3
2
0
11
2
0
4
2
0
7
1
0
5
3
0
1
3
0
5
2
0
2
3
0
0
2
0
1
2
0
5
2
0
16
5
0
15
10
0
10
11
0
2
7
0
7
4
0
10
5
0
13
12
0
10
9
0
2
2
0
4
4
0
2
1
0
5
3
0
11
2
0
15
4
0
11
4
0
6
3
0
3
2
0
4
2
0
6
1
0
8
3
0
6
0
0
5
1
0
1
2
0
6
0
0
4
2
0
9
2
0
2
2
0
4
5
0
7
7
0
7
6
0
112
97
78
129
104
70
113
98
79
127
107
71
3
4
0
3
2
0
8
1
0
2
1
0
13
4
0
16
5
0
11
5
0
8
3
0
6
4
0
3
4
0
3
0
0
3
2
0
8
2
0
8
2
0
6
3
0
1
1
0
3
2
0
5
1
0
4
3
0
5
4
0
4
7
0
10
8
0
4
0
0
13
4
0
8
3
0
8
2
0
14
7
0
13
10
0
9
8
0
13
5
0
18
3
0
13
2
0
7
2
0
8
1
0
9
0
0
7
4
0
5
2
0
3
2
0
4
2
0
10
5
0
10
5
0
5
4
0
4
2
0
11
1
0
29
8
0
10
2
0
5
7
0
6
0
0
15
2
0
4
4
0
17
9
0
8
3
0
4
7
0
14
4
0
15
2
0
13
3
0
65
48
13
156
96
34
102
61
32
106
79
56
255
255
196
255
228
173
245
216
179
255
250
174
95
59
21
128
78
22
89
55
12
84
53
14
110
75
26
121
83
28
103
72
28
66
50
14
30
25
13
36
22
9
62
43
24
87
67
33
89
62
29
60
37
15
60
44
17
66
41
20
62
44
18
102
66
23
27
19
5
23
13
4
43
27
2
29
18
3
14
9
8
60
35
7
44
24
3
38
26
6
73
43
8
47
25
12
44
38
16
21
15
7
20
9
3
28
14
7
23
12
9
10
15
14
24
27
13
36
20
1
35
23
9
26
27
22
255
255
161
255
255
255
217
168
106
255
255
185
255
255
255
255
255
255
255
255
255
164
129
121
31
26
14
10
26
26
102
132
116
176
223
181
231
237
173
146
119
79
116
81
29
94
63
16
42
30
10
21
14
4
7
13
8
50
27
7
71
43
14
11
4
17
73
47
28
131
73
29
101
46
15
76
48
5
48
38
15
39
21
20
69
47
21
123
84
38
13
3
2
43
29
7
43
34
14
35
31
17
28
11
10
54
23
7
39
18
19
21
28
25
24
13
9
45
37
12
65
39
11
86
58
20
72
42
18
20
15
11
53
34
12
37
26
4
46
24
1
84
49
24
146
103
58
42
28
11
32
26
29
60
38
14
88
54
14
66
44
20
78
65
29
20
32
17
38
38
19
62
41
8
75
49
9
56
46
10
71
61
22
72
66
20
58
45
21
79
21
8
93
38
7
68
19
10
93
47
10
94
53
13
67
39
10
65
36
6
149
90
25
211
124
34
221
133
31
158
89
15
97
55
7
106
65
13
100
64
15
78
48
11
49
32
9
17
5
5
35
25
15
48
31
12
58
42
12
37
27
8
23
16
4
45
25
3
92
64
17
117
82
26
102
71
23
87
61
19
96
69
22
115
85
31
99
74
28
43
32
12
30
4
7
62
21
4
76
29
3
86
40
12
34
7
7
55
48
23
58
55
28
55
45
15
33
22
2
27
22
9
28
24
18
26
23
14
75
53
18
98
66
24
87
53
19
71
37
8
32
15
4
21
10
8
54
48
21
56
31
2
72
48
15
38
31
10
67
47
10
87
62
20
81
55
16
68
39
5
90
53
13
113
67
10
90
48
4
34
15
5
50
28
8
58
31
10
57
33
5
69
48
8
255
255
255
255
255
249
20
6
4
16
9
6
16
8
5
32
12
2
66
32
8
49
22
2
19
11
4
55
33
7
50
30
6
35
20
4
24
17
5
21
13
8
24
15
6
14
11
2
6
7
3
2
4
1
8
3
3
137
111
85
255
255
255
255
255
200
49
36
26
38
29
19
255
255
245
255
255
253
88
56
29
83
41
9
83
40
9
59
27
7
32
13
5
28
13
2
35
20
2
51
27
6
35
21
5
8
5
3
25
7
3
46
22
7
73
34
11
51
22
4
159
125
106
255
255
255
255
255
193
72
56
35
18
16
8
23
24
14
42
36
27
42
39
29
28
24
15
29
23
7
21
17
3
3
2
0
7
4
0
4
2
0
12
5
0
8
5
1
22
14
2
2
6
2
14
15
3
11
12
3
7
5
1
12
9
0
18
10
0
17
10
0
13
5
0
10
4
0
12
7
1
11
1
4
15
5
4
22
13
1
24
21
8
36
32
15
27
20
10
18
24
13
18
17
6
15
11
5
15
13
7
12
12
7
8
11
3
14
8
8
15
14
7
16
11
7
15
10
7
20
16
4
4
7
9
10
4
1
12
10
3
15
13
4
8
6
3
4
2
0
13
7
0
13
8
1
11
7
3
10
7
3
8
6
1
11
4
0
6
2
0
7
6
0
4
2
0
11
10
0
7
5
0
4
4
0
2
7
0
2
6
0
4
1
0
7
7
0
4
3
0
4
4
0
8
7
0
5
4
0
4
4
0
0
8
0
7
10
0
13
12
0
14
9
0
15
7
0
13
3
0
3
4
0
8
5
0
9
3
0
5
2
0
3
3
0
2
5
0
6
3
0
1
4
0
1
4
0
10
5
0
10
6
0
2
4
0
7
3
0
7
1
0
5
7
0
4
6
0
1
5
0
2
4
0
4
3
0
6
1
0
7
0
0
3
1
0
3
1
0
5
1
0
5
4
0
8
3
0
10
6
0
11
4
0
7
5
0
4
5
0
1
7
0
5
3
0
5
0
0
7
3
0
7
2
0
4
1
0
1
0
0
1
3
0
4
2
0
7
4
0
5
2
0
2
2
0
5
4
0
7
2
0
7
1
0
1
2
0
2
1
0
2
3
0
3
5
0
66
55
49
159
137
98
65
54
46
156
136
94
4
3
0
5
1
0
3
5
0
15
8
0
21
9
0
10
7
0
5
5
0
8
2
0
9
3
0
4
3
0
5
3
0
5
2
0
5
1
0
5
2
0
5
2
0
2
2
0
3
2
0
6
1
0
3
2
0
2
4
0
3
2
0
8
8
0
9
4
0
5
3
0
10
3
0
12
3
0
5
6
0
4
3
0
4
3
0
2
5
0
4
4
0
8
2
0
14
2
0
14
1
0
6
1
0
4
4
0
7
1
0
7
3
0
7
2
0
5
2
0
2
2
0
5
1
0
8
3
0
25
5
0
31
6
0
7
1
0
4
4
0
2
4
0
8
4
0
7
3
0
15
6
0
5
2
0
8
5
0
10
5
0
19
3
0
8
8
1
120
73
24
177
107
46
86
53
36
252
217
158
255
255
255
186
168
135
54
51
49
255
255
220
133
103
69
74
50
27
27
15
9
45
27
7
10
4
4
43
25
10
56
32
12
62
33
8
56
34
17
25
12
11
17
17
0
24
20
4
11
14
10
32
13
4
52
35
8
87
55
19
83
62
27
101
65
24
7
0
9
57
40
6
79
52
15
78
55
19
53
41
20
61
39
10
64
31
7
47
23
5
68
42
7
64
40
5
23
19
10
25
30
17
48
37
12
111
69
14
128
75
12
85
49
8
50
23
8
53
24
13
72
41
13
55
25
16
137
135
97
255
255
255
255
255
193
255
255
252
255
255
216
247
172
133
255
187
148
141
96
65
73
51
15
65
54
21
74
53
18
85
69
21
110
82
30
59
46
15
69
51
13
85
56
12
82
50
6
86
48
4
104
54
4
60
27
8
38
33
10
36
22
6
42
25
2
93
54
11
193
117
28
255
181
56
244
161
54
106
72
13
111
77
27
79
57
28
17
11
7
37
34
17
29
37
20
32
25
14
34
7
7
50
20
8
119
71
17
136
84
17
140
96
37
59
43
21
17
15
6
17
15
3
34
17
11
47
35
19
92
65
26
79
53
24
39
24
17
32
26
18
108
87
45
165
130
66
171
128
55
149
106
31
138
97
26
154
111
40
226
161
65
209
151
56
168
118
31
184
126
28
210
133
32
209
125
24
205
122
20
180
107
18
141
83
17
147
92
22
162
108
28
173
116
28
168
111
26
89
57
14
28
10
3
24
26
10
104
63
19
45
29
10
110
66
18
124
74
22
33
5
3
27
19
16
17
24
13
42
38
11
21
11
4
66
44
14
79
61
29
58
51
21
31
24
18
82
55
22
68
45
16
48
29
7
50
28
4
63
38
4
46
27
6
40
29
11
42
25
15
11
12
11
61
36
11
84
52
11
122
80
20
136
86
17
129
81
12
118
70
8
102
55
7
105
59
5
101
62
11
67
40
14
41
21
7
32
15
7
39
26
9
50
36
11
53
36
11
26
19
7
35
25
4
62
35
9
63
46
11
89
56
15
130
87
23
122
86
22
113
73
10
67
37
10
36
14
8
39
29
8
40
24
5
22
8
4
27
17
7
53
30
8
51
41
8
43
33
6
93
63
8
65
45
7
50
37
4
56
39
4
255
255
255
255
255
250
25
14
3
19
12
4
26
15
7
12
9
4
31
11
4
77
31
7
80
33
7
37
14
5
29
13
5
43
20
7
35
18
5
32
18
7
25
15
5
9
7
2
6
10
2
8
12
4
3
8
2
65
42
32
255
255
195
255
255
255
255
252
183
222
171
127
255
255
255
255
255
219
80
50
22
44
13
2
42
15
1
53
22
2
65
24
4
69
27
5
65
30
6
58
28
6
53
27
7
57
29
7
47
24
5
26
10
5
27
17
5
41
25
6
27
24
27
255
244
194
255
255
247
166
125
89
22
15
8
12
14
10
12
6
6
32
29
28
27
26
23
29
28
14
30
25
8
14
10
1
5
4
0
4
2
0
13
4
0
4
3
2
22
13
0
5
9
0
7
6
3
17
16
2
14
9
3
25
18
2
25
19
5
27
22
4
17
19
1
6
11
0
12
11
0
9
9
1
14
11
4
15
13
3
11
17
7
21
20
12
15
4
3
5
10
12
15
17
8
10
7
5
8
10
7
17
14
8
16
16
9
1
2
2
8
9
5
4
1
1
13
7
4
10
12
4
14
12
6
17
11
3
15
12
3
7
10
3
3
3
1
8
6
0
18
6
0
7
3
0
13
8
0
4
6
0
11
11
0
6
5
0
4
0
0
7
9
0
3
6
0
10
12
0
7
2
1
12
8
2
15
10
1
12
9
0
12
7
0
15
7
0
15
9
0
7
4
0
7
4
0
4
6
0
10
6
0
14
9
0
13
14
0
8
15
0
8
12
0
12
7
0
8
4
0
8
7
0
10
6
0
13
5
0
13
4
0
10
3
0
5
2
0
4
2
0
2
2
0
4
3
0
10
8
0
15
12
0
17
13
0
5
4
0
4
1
0
7
6
0
6
1
0
5
3
0
4
2
0
5
3
0
2
4
0
7
4
0
7
3
0
4
2
0
4
2
0
12
5
0
13
6
0
8
7
0
5
2
0
4
6
0
6
2
0
1
4
0
4
3
0
4
1
0
4
3
1
3
3
2
1
2
2
4
1
2
6
2
1
7
4
0
8
2
0
6
4
0
4
3
0
5
2
0
4
3
0
4
0
0
2
2
0
2
4
0
5
4
0
2
2
0
22
18
20
160
143
104
3
2
12
165
146
101
31
26
8
7
6
0
9
5
0
18
3
0
11
1
0
3
1
0
6
1
0
3
4
0
6
7
0
5
6
0
4
2
0
7
1
0
13
1
0
10
2
0
4
4
0
3
2
0
4
2
0
3
0
0
4
1
0
4
4
0
0
6
0
6
2
0
8
5
0
6
7
0
9
4
0
15
3
0
6
6
0
6
1
0
4
3
0
10
3
0
13
3
0
14
5
0
8
3
0
9
4
0
4
4
0
10
4
0
10
4
0
5
1
0
2
2
0
9
4
0
11
4
0
10
4
0
4
2
0
36
10
0
25
5
0
9
3
0
7
1
0
4
1
0
4
1
0
7
1
0
10
4
0
1
1
0
8
3
0
8
5
0
17
3
0
31
24
5
159
92
34
169
103
52
42
31
27
255
255
233
255
255
255
251
211
146
180
146
104
255
248
159
255
252
148
88
61
30
30
11
5
18
15
4
32
23
1
23
16
10
13
12
5
20
14
5
38
31
11
38
28
13
22
14
8
20
16
7
94
68
31
161
122
55
140
105
50
60
50
29
40
41
21
95
77
30
113
84
36
84
51
27
59
35
21
65
31
9
90
63
29
78
52
18
22
7
14
65
33
13
115
64
9
89
48
7
50
27
14
28
31
28
59
39
24
108
62
19
148
78
0
182
99
13
160
88
14
136
86
18
122
81
19
109
66
7
112
77
53
255
255
255
255
255
255
255
255
170
255
255
255
255
255
211
226
165
69
150
105
39
111
75
21
85
54
18
46
31
18
73
37
5
150
94
26
158
91
15
177
101
12
206
123
18
234
143
26
251
150
30
227
141
29
178
117
29
86
57
12
70
40
8
83
43
6
95
48
7
148
89
28
151
96
36
84
36
2
216
129
34
166
114
32
52
42
18
53
35
14
62
40
10
68
41
5
55
41
11
90
62
19
64
37
8
82
55
17
69
54
23
56
38
15
101
69
27
100
64
20
106
69
19
119
79
24
146
99
32
141
92
32
115
68
18
102
56
7
120
69
11
135
81
21
130
77
19
112
66
10
103
63
7
103
69
15
85
58
18
73
44
12
92
55
27
97
47
4
32
6
10
52
50
24
52
47
28
36
34
18
35
26
9
42
24
13
100
59
19
123
69
12
146
79
13
162
91
16
159
96
19
108
67
17
65
33
10
124
71
5
191
125
27
185
124
28
120
84
19
72
53
11
94
65
13
99
64
16
59
28
7
34
26
22
49
24
23
71
34
14
85
53
7
93
60
24
49
29
20
55
51
18
86
65
16
77
57
22
105
76
27
86
65
24
40
32
14
73
35
8
47
12
4
70
32
4
85
52
15
100
59
14
101
56
8
106
53
9
97
38
10
43
2
17
22
22
20
27
17
18
35
19
20
52
24
7
74
41
3
89
48
5
71
32
10
23
8
10
18
8
3
14
7
6
52
31
2
99
49
5
93
45
8
112
54
13
141
66
10
113
43
12
56
8
12
57
16
15
67
33
8
48
24
7
21
8
11
17
20
9
36
22
1
40
27
8
76
48
10
74
44
3
26
13
3
15
11
1
16
12
5
255
255
255
255
255
249
4
3
3
15
7
4
22
12
5
15
9
5
4
3
4
20
7
2
55
25
3
79
38
7
80
41
7
56
27
2
25
10
5
16
13
9
9
9
7
10
11
5
22
17
7
32
23
8
43
28
9
45
26
7
85
72
69
255
251
194
255
255
239
255
255
211
255
255
253
200
155
115
67
36
8
80
44
12
74
41
10
53
29
8
17
12
4
10
5
1
14
2
1
17
15
4
33
24
6
33
22
5
25
19
4
26
18
6
48
30
12
70
42
17
79
52
28
236
199
167
255
255
221
170
119
79
55
48
38
31
26
20
22
17
15
32
26
27
28
29
28
30
35
22
33
34
15
25
19
7
16
8
1
19
9
1
28
12
2
19
8
1
22
12
1
12
11
2
14
6
4
18
11
3
18
12
5
22
17
3
13
9
4
18
11
7
26
20
9
12
14
6
12
10
4
7
8
4
7
8
7
7
8
5
5
3
2
11
14
13
18
11
11
8
2
4
12
15
5
10
4
1
8
13
8
11
12
3
23
20
12
10
7
2
7
10
4
10
8
2
5
2
2
13
13
5
24
19
4
12
12
3
13
4
2
3
2
0
7
5
0
11
8
0
19
8
0
7
1
0
10
10
0
17
7
0
4
5
0
8
6
0
7
7
0
9
12
0
1
5
0
12
8
1
14
7
4
14
10
3
14
16
3
10
11
0
4
2
0
4
2
0
11
5
0
7
7
0
2
3
0
7
2
0
8
1
0
7
2
0
10
6
0
11
4
0
12
5
0
13
5
0
8
0
0
4
8
0
10
3
0
6
3
0
11
1
0
13
2
0
12
4
0
4
1
0
2
1
0
1
2
0
6
7
0
8
1
0
9
8
0
5
5
0
6
5
0
5
5
0
7
5
0
6
2
0
5
0
0
7
0
0
6
0
0
6
1
0
7
3
0
8
4
0
9
7
0
11
7
0
7
6
0
1
3
0
1
2
0
7
7
0
4
1
0
4
4
0
7
0
0
7
1
0
4
2
2
2
2
0
5
4
0
8
4
0
6
2
2
3
2
0
4
0
0
6
3
0
7
4
0
4
2
0
1
4
0
5
3
0
3
3
0
3
1
0
8
3
0
6
2
0
5
1
2
140
128
94
64
58
27
149
135
98
76
63
33
6
3
0
2
0
0
15
3
0
8
3
0
2
2
0
2
4
0
9
5
0
9
2
0
3
0
0
2
2
0
8
5
0
7
6
0
2
4
0
2
2
0
5
5
0
7
5
0
7
5
0
2
6
0
6
4
0
3
2
0
7
3
0
7
4
0
14
4
0
15
4
0
15
3
0
2
4
0
10
4
0
16
7
0
15
8
0
7
7
0
6
4
0
9
1
0
12
1
0
10
5
0
5
5
0
1
2
0
4
4
0
5
4
0
5
2
0
7
3
0
12
5
0
11
4
0
31
11
0
18
1
0
2
3
0
5
2
0
6
4
0
5
2
0
7
4
0
10
4
0
4
1
0
10
2
0
11
4
0
12
3
0
78
52
15
183
112
46
177
132
85
146
149
116
255
255
216
255
255
227
214
167
91
255
255
220
255
253
164
255
255
251
98
74
37
23
18
4
21
17
2
8
7
5
9
4
3
14
14
7
35
20
4
74
50
10
65
38
15
18
11
2
39
35
15
127
90
35
56
28
10
87
60
24
49
35
21
24
13
11
59
38
21
71
48
24
29
21
16
32
19
1
24
26
12
71
56
25
77
43
18
98
60
9
101
60
8
107
65
13
72
36
3
85
55
21
55
39
22
61
42
12
128
90
25
118
88
25
99
67
15
58
35
2
21
17
17
50
37
29
50
38
29
39
30
22
255
255
255
255
255
255
100
72
35
255
255
252
255
255
255
251
197
122
132
78
25
132
73
15
80
36
2
66
34
17
57
20
11
78
41
14
56
25
19
46
21
10
58
34
16
58
27
7
37
14
3
42
24
2
143
87
21
185
112
29
128
70
13
72
40
6
36
23
11
90
55
9
232
150
49
219
143
48
118
72
19
148
97
31
100
67
22
73
50
14
109
89
37
107
86
42
64
55
24
39
24
8
80
55
20
104
67
17
118
77
30
92
53
10
97
63
21
15
4
16
52
35
22
47
35
17
8
2
4
43
22
4
34
14
13
33
21
8
30
17
7
25
6
7
26
3
8
17
8
9
21
13
4
19
20
8
21
28
19
27
29
24
26
25
26
17
20
12
76
55
15
46
32
18
4
10
2
37
21
2
50
32
12
81
56
24
55
42
22
40
36
21
56
41
19
58
42
16
20
9
9
100
67
22
98
65
18
96
64
16
101
50
1
99
42
3
86
39
7
91
44
8
94
35
11
87
30
29
60
34
42
33
29
43
40
4
25
52
20
8
54
27
9
28
14
11
34
19
11
82
41
14
52
30
8
40
24
15
113
81
18
50
42
18
96
60
12
63
39
13
18
5
8
47
18
2
44
33
13
37
34
20
55
48
22
74
56
15
92
63
17
98
61
14
54
37
21
26
18
13
47
26
9
59
35
4
57
30
3
42
19
7
49
27
7
63
29
8
65
30
5
77
39
4
80
37
3
29
14
9
43
43
21
66
50
19
62
41
9
31
20
7
2
1
3
39
14
6
69
26
7
84
39
7
76
39
3
31
16
7
41
21
4
41
27
11
29
15
2
10
5
4
22
15
7
32
25
16
31
26
15
255
255
255
255
255
247
10
5
5
13
7
5
36
20
7
65
33
10
76
36
12
72
35
13
62
32
15
40
20
14
30
16
11
53
30
11
92
50
19
121
66
30
118
64
32
84
42
19
62
30
9
61
30
8
58
27
8
67
28
10
89
42
19
187
139
101
182
131
88
133
109
95
175
137
104
96
51
28
131
66
26
146
74
25
160
79
25
157
79
25
131
68
22
94
49
15
71
36
10
64
32
6
52
24
4
35
15
3
34
15
3
45
19
7
72
38
17
98
55
25
182
130
92
255
255
254
255
255
204
87
55
42
39
32
24
36
32
23
30
24
20
35
25
25
29
24
28
24
25
22
22
27
12
31
29
15
17
13
7
18
11
3
21
10
1
30
14
1
20
12
4
15
11
4
16
8
4
13
5
2
21
14
6
10
8
1
19
15
7
10
8
7
14
8
9
29
19
11
7
5
4
15
8
2
1
1
5
2
4
2
10
5
7
4
8
4
14
11
5
16
10
5
14
14
4
7
3
3
9
12
6
4
8
3
20
19
10
15
12
5
10
10
3
9
12
3
10
9
4
12
11
4
13
7
4
1
6
3
12
4
1
8
1
0
7
2
0
16
9
0
9
7
0
11
2
0
10
7
0
20
10
1
8
4
2
12
5
1
16
4
0
19
8
0
17
8
0
8
2
2
17
10
3
16
14
2
18
15
3
16
14
0
14
10
0
17
10
0
14
12
0
7
9
0
10
7
0
10
3
0
8
2
0
6
4
0
5
5
0
8
7
0
12
4
0
8
7
0
4
4
0
3
4
0
9
5
0
7
1
0
1
2
0
6
4
0
7
4
0
10
6
0
5
5
0
7
6
0
11
11
0
15
14
0
13
11
0
7
5
0
5
2
0
5
2
0
5
2
0
2
4
0
4
6
0
3
5
0
4
4
0
7
4
0
9
5
0
11
7
0
7
7
0
5
1
0
8
4
0
4
2
0
3
3
0
7
5
0
4
1
0
8
7
0
5
5
0
1
3
0
6
4
1
10
5
2
14
4
2
10
5
2
8
1
1
5
1
0
2
2
0
0
1
0
1
2
0
3
4
0
1
1
0
4
2
0
3
4
0
7
6
0
8
2
0
3
1
0
6
0
0
105
101
77
118
106
64
110
103
80
121
103
66
6
1
0
5
3
0
11
3
0
9
2
0
5
1
0
6
2
0
4
2
0
2
3
0
4
5
0
4
1
0
9
2
0
3
1
0
2
2
0
5
5
0
3
7
0
6
3
0
5
0
0
2
3
0
6
3
0
4
1
0
9
5
0
8
7
0
12
2
0
7
3
0
7
2
0
11
5
0
16
8
0
16
5
0
7
2
0
7
2
0
7
1
0
9
0
0
10
4
0
1
0
0
8
1
0
6
1
0
1
4
0
5
5
0
6
4
0
5
1
0
11
4
0
13
1
0
25
8
0
10
2
0
1
1
0
4
0
0
8
5
0
4
2
0
10
6
0
11
3
0
5
3
0
8
4
0
14
4
0
12
14
2
142
97
33
215
150
78
255
255
194
255
255
227
99
93
80
255
255
171
255
255
162
251
204
157
223
176
99
255
255
255
170
132
78
15
14
2
21
11
3
26
14
4
21
7
4
21
18
2
60
47
15
59
46
21
18
9
11
55
41
13
60
41
19
161
117
48
162
120
46
150
109
50
81
62
37
72
60
35
103
85
41
68
59
33
28
26
21
28
15
8
1
5
5
43
35
18
66
47
20
55
35
11
35
26
4
112
74
17
101
61
15
73
47
13
43
33
19
51
40
23
20
6
12
93
51
6
127
72
8
115
69
13
99
68
24
30
23
7
50
30
16
28
22
18
255
255
254
255
255
255
101
82
64
225
188
136
255
255
255
255
255
209
133
92
34
70
47
16
13
10
5
27
19
14
48
28
5
94
60
17
80
50
17
90
49
5
131
81
18
132
78
16
130
70
11
145
82
17
125
80
20
84
56
5
89
52
18
101
52
6
116
64
4
110
63
16
115
66
17
158
97
24
121
79
22
52
38
12
101
61
22
99
61
20
87
57
20
61
44
24
20
11
17
89
60
15
91
58
17
68
37
10
62
48
22
15
2
1
51
34
10
17
17
14
59
32
10
13
6
11
52
31
18
38
17
4
69
46
12
67
45
12
30
20
3
12
10
11
7
8
7
16
12
3
25
23
6
21
18
13
37
35
26
29
25
25
60
32
4
103
70
19
130
93
25
136
98
30
134
92
32
146
97
28
121
80
23
100
66
23
60
36
6
49
23
14
42
15
17
38
25
25
42
29
24
33
24
4
22
12
8
35
24
3
38
15
11
53
25
13
104
63
26
129
65
18
87
31
18
66
42
30
89
38
24
93
33
9
56
17
5
18
15
20
27
5
4
69
27
2
105
55
4
121
70
8
49
25
8
36
19
10
114
77
14
90
58
11
82
55
12
48
32
18
91
50
13
74
42
10
59
34
7
29
19
8
37
28
8
22
17
9
27
18
11
21
16
8
46
30
11
60
41
12
14
10
2
28
21
5
60
42
9
59
32
2
27
8
7
36
30
2
65
40
8
27
17
3
29
13
4
49
28
10
48
32
18
4
17
17
18
15
19
34
1
15
45
13
10
35
2
9
38
15
7
62
39
8
56
32
7
10
4
11
22
13
19
65
46
23
53
45
25
6
12
11
25
15
10
45
30
13
46
34
13
255
255
255
255
255
239
135
77
41
174
110
63
194
121
68
188
109
56
173
93
41
144
72
25
109
54
17
90
46
15
101
50
15
117
59
18
113
55
20
110
52
19
121
61
27
111
56
27
64
31
9
32
15
5
14
8
6
32
21
23
87
67
59
253
198
157
230
165
125
255
207
165
255
207
157
173
129
102
53
36
31
48
21
7
50
24
8
74
42
21
124
76
41
160
97
48
152
88
41
124
69
31
108
58
22
100
53
18
78
40
14
57
28
9
38
24
9
61
47
32
232
202
178
255
255
230
100
76
62
28
29
21
15
10
14
13
8
5
19
14
7
35
23
18
27
20
25
27
21
23
31
22
17
41
38
22
22
22
12
5
6
4
1
2
2
14
8
2
5
4
2
18
12
3
16
6
2
5
3
2
22
15
5
1
1
4
10
11
4
21
14
11
16
10
7
27
18
8
5
4
6
17
10
2
8
12
3
14
13
7
12
9
5
10
8
3
17
15
4
16
14
5
8
8
4
8
5
4
13
12
5
15
16
7
18
14
8
14
11
4
5
2
1
9
11
2
12
8
1
10
8
0
6
1
0
5
7
0
5
2
0
8
5
0
21
10
0
25
14
0
17
9
0
6
4
0
4
7
0
13
7
2
9
4
0
9
8
2
12
9
0
7
8
0
14
8
0
9
2
1
7
6
3
25
16
3
29
22
1
19
16
0
11
8
0
12
8
0
9
8
0
10
6
0
7
2
0
7
0
0
3
1
0
3
5
0
5
4
0
10
7
0
4
2
0
6
7
0
5
1
0
4
0
0
5
2
0
11
5
0
6
1
0
7
5
0
1
5
0
7
4
0
7
4
0
5
4
0
4
3
0
5
1
0
4
2
0
3
6
0
6
7
0
1
4
0
0
1
0
6
3
0
8
5
0
9
10
0
11
11
0
9
8
0
3
4
0
5
3
0
7
2
0
4
3
0
3
4
0
1
2
0
3
2
0
5
4
0
1
4
0
6
5
0
3
1
0
7
3
0
7
7
0
7
4
0
8
6
0
2
4
0
7
1
0
1
1
0
0
2
0
1
2
0
5
1
0
7
0
0
7
2
0
8
2
0
12
5
0
16
3
0
11
6
0
3
2
0
1
1
0
63
62
51
159
144
97
62
59
48
154
135
94
11
1
0
7
0
0
5
2
0
7
2
0
4
1
0
1
4
0
2
5
0
5
5
0
7
0
0
2
3
0
10
3
0
4
5
0
3
3
0
6
2
0
10
4
0
11
3
0
6
4
0
5
6
0
9
7
0
9
6
0
8
7
0
14
5
0
7
5
0
11
5
0
17
5
0
16
7
0
10
3
0
6
3
0
4
0
0
12
2
0
8
2
0
3
2
0
3
2
0
5
2
0
4
0
0
6
4
0
4
6
0
5
6
0
12
6
0
12
5
0
7
4
0
22
5
0
24
5
0
2
1
0
2
0
0
1
1
0
6
1
0
7
4
0
8
3
0
7
3
0
3
5
0
10
5
0
18
1
0
60
50
14
199
129
55
204
166
122
255
245
203
178
141
106
167
137
98
195
164
95
255
255
186
255
255
223
255
245
178
255
218
143
255
255
169
73
51
10
30
27
2
8
4
1
15
8
4
21
15
11
65
41
17
72
43
13
35
32
16
43
27
13
31
19
9
49
32
16
38
29
11
27
22
14
0
3
4
15
15
3
24
13
4
50
31
4
41
21
2
36
21
9
68
44
12
96
66
17
96
63
21
97
59
15
103
63
11
83
49
11
109
69
27
121
80
33
112
81
33
79
62
26
62
51
18
43
24
10
8
9
8
37
21
4
65
44
16
39
25
18
41
21
11
106
62
12
255
255
204
255
255
255
191
156
117
125
97
71
255
255
255
255
255
255
87
44
19
121
72
10
93
51
10
105
59
4
152
88
17
143
77
12
119
55
3
131
58
13
139
69
11
113
68
23
72
40
18
131
84
27
204
123
27
237
137
31
205
114
26
144
77
15
87
40
5
25
10
10
17
18
24
92
47
4
154
93
17
148
91
19
112
64
12
101
60
15
112
71
26
110
64
17
88
52
26
68
43
14
32
20
10
51
30
16
74
43
11
61
31
3
9
3
3
15
21
11
40
13
4
110
63
8
122
73
12
104
60
8
108
60
3
106
50
10
115
58
9
123
61
8
114
58
15
87
44
14
61
28
13
69
28
17
69
38
18
40
21
16
64
48
24
52
10
13
101
37
12
111
39
14
77
22
16
90
38
15
155
75
5
214
124
46
202
116
47
150
81
46
72
24
31
32
28
40
87
54
42
116
46
35
176
111
45
208
159
77
212
158
73
216
144
45
201
130
48
150
94
42
130
101
64
116
120
103
77
76
70
42
32
16
88
65
13
128
80
12
128
71
10
116
66
8
101
50
9
129
73
9
80
42
10
93
52
6
136
83
10
143
87
14
85
46
5
57
22
11
80
35
8
49
17
7
63
34
13
62
43
13
83
65
23
78
54
11
49
26
8
67
36
6
73
42
6
35
24
6
33
29
13
54
43
17
26
17
7
7
16
9
41
28
7
57
31
10
15
14
14
56
34
12
27
19
10
1
1
5
45
31
11
2
1
2
8
7
4
10
21
17
26
30
14
58
41
13
67
38
13
25
15
13
31
14
9
39
21
12
52
36
10
31
31
15
38
20
6
61
40
13
34
21
2
21
19
15
23
26
18
255
255
255
255
255
230
71
41
26
124
67
34
114
56
29
74
43
26
45
28
21
45
23
16
44
19
5
32
14
5
55
25
7
37
10
5
5
12
5
34
21
15
2
4
4
66
42
28
73
41
22
67
34
19
79
42
25
115
65
45
149
96
68
190
142
108
109
89
70
55
33
33
173
114
77
208
145
105
138
106
78
129
107
86
128
117
99
188
154
128
255
186
142
255
199
138
255
185
125
227
156
105
181
122
74
147
94
48
108
67
34
51
36
22
6
13
10
130
112
97
255
255
255
119
92
70
161
135
113
147
121
107
21
11
5
36
24
24
41
32
22
38
27
23
16
10
15
15
14
12
17
18
13
38
33
24
25
23
13
2
11
5
0
4
4
13
6
2
15
11
2
25
17
7
20
11
3
3
3
3
18
15
4
14
12
5
11
8
2
6
3
5
13
10
10
10
7
9
12
4
7
12
7
3
7
15
4
6
5
4
5
7
1
9
3
1
2
4
3
13
8
4
1
5
4
7
4
4
5
7
5
5
5
6
7
3
4
12
7
1
15
5
0
10
2
0
7
1
0
8
6
0
10
4
0
14
8
0
5
4
0
5
3
0
12
5
0
10
9
0
7
1
0
13
7
0
13
11
0
16
13
1
23
15
2
24
13
1
22
9
0
20
10
0
13
9
0
8
6
0
11
5
0
14
6
0
11
2
0
15
7
0
5
4
0
4
4
0
5
3
0
6
2
0
9
2
0
3
1
0
6
3
0
5
5
0
7
3
0
8
7
0
4
3
0
9
7
0
3
0
0
1
0
0
3
0
0
8
4
0
7
5
0
3
2
0
4
0
0
4
1
0
6
4
0
3
4
0
1
3
0
5
2
0
8
4
0
8
7
0
10
6
0
14
3
0
13
2
0
5
2
0
11
7
0
4
4
0
7
4
0
6
3
0
5
1
0
5
3
0
7
4
0
5
0
1
2
4
2
2
2
1
1
2
0
8
5
0
10
3
0
13
4
0
11
5
1
7
4
2
3
8
1
3
2
0
4
3
0
7
0
0
7
2
0
2
4
0
2
4
0
4
3
0
5
1
0
7
0
0
8
2
0
9
4
0
5
5
0
7
3
0
4
3
0
5
3
0
6
3
0
31
20
21
174
156
110
5
5
9
170
155
109
33
23
11
7
7
0
6
7
0
8
6
0
4
5
0
4
3
0
8
2
0
5
4
0
11
1
0
8
2
0
11
4
0
4
4
0
4
3
0
4
1
0
4
2
0
6
0
0
3
4
0
5
4
0
6
1
0
8
2
0
7
2
0
7
8
0
18
7
0
15
2
0
10
2
0
10
4
0
8
1
0
8
4
0
10
2
0
8
2
0
1
3
0
1
1
0
2
3
0
2
4
0
7
3
0
9
1
0
5
4
0
1
2
0
4
2
0
11
5
0
10
1
0
29
8
0
15
4
0
2
3
0
0
4
0
2
4
0
5
2
0
1
2
0
5
2
0
2
2
0
1
3
0
14
3
0
12
7
1
133
88
32
205
136
72
161
170
156
178
190
171
178
129
89
164
156
130
255
255
236
255
255
203
186
139
97
255
255
188
36
20
4
255
255
215
128
88
50
38
20
8
39
19
7
71
40
6
92
51
6
84
50
13
84
50
8
82
55
14
78
51
13
47
28
7
3
0
7
22
13
9
18
13
2
7
4
10
17
13
10
26
21
4
45
30
3
4
8
0
10
7
8
69
47
25
82
63
32
44
43
24
28
15
10
108
63
14
153
100
33
132
87
36
112
71
32
134
91
48
178
123
64
220
155
70
187
133
60
110
87
47
74
57
37
77
59
32
31
28
22
41
21
0
93
63
24
255
255
175
255
255
255
255
220
155
84
65
58
255
255
255
255
255
255
22
14
27
68
40
17
115
64
3
192
111
20
158
93
17
92
53
8
59
35
11
35
14
11
53
32
16
84
49
7
66
43
21
95
67
24
29
12
13
9
13
6
9
18
4
44
34
17
117
82
35
193
150
75
200
160
81
155
128
62
34
38
25
82
39
1
130
77
21
116
79
30
98
65
26
101
58
21
103
58
21
61
31
10
29
14
9
39
22
3
64
38
1
74
46
4
87
57
8
107
71
10
98
62
5
63
33
4
38
14
6
49
25
12
28
6
21
61
59
34
53
55
36
43
39
26
14
15
20
50
13
26
77
24
27
67
17
20
83
39
16
88
24
10
107
55
18
70
21
17
61
8
19
62
22
19
43
25
27
78
21
28
154
81
21
168
91
49
111
59
26
129
111
74
79
76
34
45
48
25
122
81
35
97
66
45
78
55
95
68
32
42
58
31
93
45
23
60
12
54
77
28
47
58
27
36
69
92
79
34
122
110
80
24
26
7
43
23
8
24
15
5
40
22
7
69
34
11
107
58
14
76
49
15
16
8
5
60
27
0
37
10
8
69
32
11
83
55
2
79
61
10
84
56
9
43
37
11
49
36
12
65
44
8
44
21
12
80
55
17
73
50
10
94
64
10
64
48
10
48
26
7
48
27
11
5
2
4
35
19
2
36
29
19
37
50
26
75
55
20
25
30
21
45
16
18
53
20
10
37
12
11
74
53
17
45
35
12
42
28
3
5
12
19
30
19
6
50
18
10
17
10
9
54
31
15
70
52
7
92
58
7
96
50
4
98
52
9
61
38
9
16
11
5
34
30
13
29
20
4
34
31
10
255
255
255
255
255
230
47
32
24
97
68
50
41
48
49
55
44
36
17
10
0
65
45
29
72
45
26
18
7
4
22
8
1
32
16
3
13
6
2
30
22
14
53
33
16
62
38
23
91
49
28
118
62
35
108
53
25
87
41
23
79
54
46
74
76
79
138
138
132
188
173
156
148
133
118
87
56
52
85
44
19
94
55
33
99
61
42
128
74
52
69
34
21
42
29
24
52
41
32
72
58
50
91
75
66
139
111
92
175
138
109
165
128
101
126
97
78
255
224
193
255
255
214
148
136
132
179
153
128
255
233
201
19
17
19
79
64
54
78
60
50
42
33
29
18
12
11
5
7
5
7
12
9
34
30
23
29
23
16
12
12
8
8
9
7
17
13
4
12
10
4
20
11
4
30
19
7
13
13
2
14
13
4
17
17
7
13
9
5
20
11
6
14
8
3
1
1
5
13
7
5
4
9
4
4
8
3
5
5
1
11
6
1
8
1
2
13
6
1
9
4
1
3
4
2
8
4
1
5
5
0
4
4
0
9
6
0
7
4
0
3
4
0
9
1
0
11
0
0
12
6
0
7
4
0
17
7
0
11
5
0
7
4
0
8
4
0
11
7
0
4
2
0
8
4
0
12
8
0
11
8
0
11
5
0
12
5
0
11
7
0
13
9
0
16
9
0
16
7
0
9
6
0
11
4
0
5
3
0
15
5
0
14
4
0
4
2
0
10
4
0
14
3
0
14
5
0
13
5
0
7
5
0
5
2
0
8
1
0
4
4
0
2
2
0
4
2
0
8
5
0
10
2
0
11
2
0
9
4
0
7
2
0
1
1
0
1
2
0
2
1
0
9
2
0
3
2
0
4
5
0
11
8
0
14
9
0
17
11
0
15
11
0
9
7
0
10
3
0
5
3
0
8
6
0
8
4
0
7
5
0
7
5
0
12
4
0
10
4
0
7
5
0
4
4
2
3
1
0
2
1
2
4
5
0
10
7
0
7
4
0
8
1
0
8
2
2
5
4
0
5
5
2
3
2
0
4
3
0
5
0
0
3
2
0
4
2
0
5
0
0
7
2
0
5
0
0
7
1
0
4
1
0
4
2
0
4
3
0
4
2
0
10
3
0
5
6
0
0
6
0
8
3
2
157
140
100
73
61
33
156
146
103
82
70
39
10
3
0
6
2
0
10
3
0
10
7
0
9
5
0
7
4
0
4
1
0
5
1
0
7
2
0
3
4
0
1
4
0
2
2
0
7
1
0
4
2
0
5
3
0
6
3
0
5
4
0
4
1
0
5
5
0
7
8
0
14
7
0
18
5
0
10
5
0
5
5
0
4
4
0
4
2
0
6
5
0
7
1
0
3
1
0
1
2
0
2
3
0
3
1
0
7
1
0
10
2
0
7
4
0
9
4
0
2
6
0
7
3
0
9
5
0
20
5
0
32
7
0
7
4
0
1
0
0
0
1
0
3
2
0
4
1
0
4
0
0
6
2
0
2
4
0
3
4
0
16
2
0
34
27
7
253
173
83
248
202
135
255
255
222
255
255
255
255
255
210
235
189
142
93
80
65
65
43
15
20
8
5
255
215
145
228
178
117
255
225
161
255
214
142
51
35
11
42
28
10
43
26
8
14
17
16
48
34
21
45
29
14
5
12
7
40
29
11
37
28
13
31
32
22
45
42
29
48
43
26
21
23
17
26
12
12
43
22
2
57
32
7
50
25
6
52
32
10
51
27
6
82
44
10
116
63
12
119
63
7
90
48
12
70
38
16
90
51
20
125
79
32
115
79
30
61
39
14
61
41
27
130
79
29
79
61
27
79
62
27
122
89
32
130
96
43
140
110
60
97
84
54
225
189
133
255
255
255
255
255
176
157
125
90
255
255
255
255
255
255
59
41
18
64
39
9
94
58
13
75
46
13
34
17
7
42
27
10
20
12
11
20
13
14
51
30
14
40
19
14
19
11
1
105
69
20
182
118
36
197
120
36
141
80
22
46
16
2
102
74
30
193
148
77
123
70
23
213
144
69
198
126
34
166
106
34
121
74
34
91
56
29
67
34
14
32
15
10
9
4
8
12
5
10
22
21
10
14
19
19
37
17
17
27
8
9
28
21
9
63
49
5
52
44
10
28
25
8
27
7
3
66
28
3
117
66
15
193
124
28
171
92
5
191
104
11
236
140
26
212
124
24
130
70
13
76
36
2
69
51
15
58
31
13
68
49
17
24
15
14
13
3
14
52
29
21
71
62
41
84
64
33
52
37
10
61
60
44
97
90
64
116
86
45
108
81
22
142
94
34
151
96
34
49
57
28
38
47
52
57
79
85
56
41
7
28
13
69
36
24
24
36
36
42
44
72
90
34
72
102
106
72
50
71
39
24
76
70
14
144
91
11
101
58
8
44
31
3
56
53
17
17
33
18
37
38
11
36
33
8
56
39
12
42
32
11
20
24
13
42
19
12
62
29
10
41
24
3
30
17
7
50
32
20
44
34
22
28
16
14
41
16
6
24
11
2
67
38
3
76
50
11
19
2
8
24
19
8
29
20
5
67
47
15
32
7
2
84
47
5
42
18
6
19
8
3
18
17
9
24
19
8
71
43
6
49
38
7
35
31
5
15
11
14
25
25
17
58
50
21
92
62
16
87
49
17
61
33
7
47
22
4
37
15
9
51
24
8
94
50
9
107
57
2
78
38
7
24
11
15
40
34
18
255
255
255
255
255
228
25
14
8
60
25
4
48
24
14
29
12
8
44
34
24
38
22
7
87
56
35
30
14
5
7
3
2
16
10
5
22
15
5
34
21
9
34
24
17
23
27
18
21
19
11
11
13
9
34
30
19
49
33
23
86
55
36
97
59
32
89
54
22
77
44
19
77
47
24
87
64
40
96
83
61
104
93
73
123
105
83
180
136
105
230
160
113
210
142
96
146
98
68
109
68
44
78
47
19
48
30
12
26
9
5
79
54
39
93
68
53
255
255
230
114
82
52
255
255
253
140
108
92
255
255
252
41
36
35
107
95
75
129
100
88
39
33
29
14
7
12
15
10
14
13
16
14
24
26
17
28
22
15
12
8
7
13
9
5
14
14
6
20
16
8
15
11
5
20
16
4
27
18
7
12
12
6
14
13
5
8
6
6
6
7
2
13
6
6
5
3
4
12
11
4
5
10
1
9
12
0
8
10
0
13
10
0
15
11
0
12
10
0
11
7
0
14
9
0
10
12
0
8
11
0
12
10
0
16
11
0
20
12
0
23
10
0
21
7
0
14
5
0
16
5
0
10
7
0
18
7
0
17
10
0
10
8
0
8
6
0
10
7
0
5
3
0
4
4
0
8
4
0
7
7
0
4
3
0
4
2
0
4
2
0
5
3
0
7
2
0
9
4
0
8
3
0
8
2
0
14
1
0
3
4
0
13
3
0
7
4
0
11
2
0
15
3
0
2
5
0
11
8
0
14
6
0
8
2
0
8
2
0
4
1
0
2
3
0
1
4
0
4
3
0
4
3
0
3
3
0
2
3
0
3
4
0
0
4
0
1
4
0
4
4
0
13
4
0
11
5
0
13
10
0
11
4
0
7
1
0
7
5
0
5
4
0
1
6
0
6
3
0
8
3
0
1
2
0
7
3
0
10
5
0
13
2
0
11
2
0
4
1
0
1
4
0
8
6
1
9
8
2
9
8
1
9
8
0
7
1
0
4
3
0
3
1
0
5
3
1
1
5
2
4
3
1
6
4
0
7
5
0
2
3
0
2
2
0
5
1
0
3
1
0
4
2
0
4
3
0
7
4
0
4
2
0
1
5
0
4
4
0
6
0
0
3
2
0
3
4
0
2
4
0
2
5
0
117
109
75
128
110
71
115
108
75
129
110
71
9
4
0
5
1
0
10
0
0
13
5
0
13
6
0
8
4
0
5
3
0
4
5
0
4
7
0
0
4
0
1
3
0
4
1
0
10
4
0
4
3
0
1
4
0
6
4
0
7
7
0
4
6
0
10
7
0
14
3
0
15
1
0
11
1
0
8
1
0
8
1
0
3
2
0
1
3
0
3
7
0
3
2
0
2
3
0
2
2
0
2
2
0
3
2
0
8
3
0
2
1
0
5
5
0
7
7
0
7
6
0
6
3
0
8
6
0
25
5
0
31
5
0
3
4
0
0
3
0
0
2
0
1
2
0
4
2
0
3
2
0
5
1
0
2
1
0
6
5
0
17
3
0
136
106
51
255
255
224
255
255
220
255
255
198
255
255
230
233
153
72
197
133
43
126
84
20
64
37
1
64
33
2
133
97
56
255
255
185
32
41
52
255
255
206
128
96
43
12
1
8
71
39
10
90
51
9
100
61
6
85
53
12
73
46
17
56
38
17
11
10
10
45
34
20
43
37
17
18
20
8
51
35
17
42
25
15
32
12
0
44
28
6
25
13
8
38
29
11
24
21
8
8
7
11
26
22
11
35
31
11
52
38
17
30
16
4
60
46
18
82
61
34
139
109
64
237
175
85
236
176
85
129
106
64
32
41
40
24
31
29
98
68
28
47
37
25
65
39
19
89
59
31
164
143
102
255
255
255
255
255
170
225
172
97
255
255
255
255
255
242
37
39
12
13
15
11
75
48
11
42
32
8
29
14
8
47
30
3
21
8
5
23
14
12
50
37
16
60
35
5
63
35
7
67
43
11
56
39
9
79
52
12
123
85
22
110
71
17
156
102
28
255
211
83
255
217
76
253
173
53
137
78
1
69
48
21
44
36
24
47
27
15
78
46
19
47
26
10
12
8
7
18
21
13
18
19
5
26
17
2
43
30
3
22
16
8
51
28
9
41
29
3
15
10
2
46
31
6
32
24
5
17
15
8
76
55
20
104
75
23
38
43
22
21
24
19
39
34
17
111
79
27
82
53
18
59
38
9
85
51
18
123
55
4
127
70
12
55
35
11
48
41
12
81
64
42
81
60
19
29
40
54
77
60
1
69
48
18
24
26
30
58
33
6
81
56
15
28
26
25
91
47
36
59
31
41
13
17
41
73
89
87
86
122
124
61
88
87
48
67
85
45
58
54
13
53
81
34
28
47
47
14
24
84
68
42
104
73
17
49
4
11
71
53
17
36
9
6
56
40
12
48
25
11
30
13
12
64
19
12
74
22
17
67
21
15
63
39
6
40
28
2
45
16
8
31
8
13
38
22
20
28
27
14
92
59
14
109
72
18
93
65
20
76
55
17
36
24
6
64
38
7
104
60
7
70
40
4
55
29
6
59
35
10
29
33
19
73
38
11
39
17
5
21
8
4
24
17
7
11
11
17
55
26
20
98
52
15
71
38
7
25
14
12
36
22
11
27
22
12
27
15
12
28
9
13
27
11
12
13
2
3
8
7
4
11
9
6
29
20
10
40
29
9
44
25
5
85
58
12
115
79
14
255
255
255
255
255
219
39
22
14
34
18
20
18
14
18
32
29
26
27
17
14
52
35
19
69
39
23
34
20
10
38
18
11
14
2
4
23
15
8
49
32
16
75
47
23
65
36
18
36
21
11
28
18
13
53
34
16
40
20
7
47
29
15
42
22
9
41
23
10
37
26
13
38
31
24
50
36
31
44
32
23
41
26
17
53
29
16
68
35
19
48
25
14
53
37
24
58
46
35
53
40
31
51
28
11
123
74
45
147
97
65
110
69
45
145
125
116
255
253
213
104
93
94
255
255
235
40
36
45
255
255
250
20
29
18
103
90
72
136
107
92
44
40
37
7
2
4
12
11
12
18
22
18
22
23
14
37
24
16
21
9
7
2
1
3
17
11
8
19
13
8
19
13
10
2
4
2
21
11
5
18
12
5
13
8
3
9
6
6
11
10
2
11
12
4
10
11
2
13
10
3
14
10
2
9
2
0
8
2
0
13
4
0
20
7
0
17
6
0
10
4
0
13
6
0
12
7
0
8
3
0
12
4
0
15
4
0
11
4
0
13
2
0
10
3
0
4
3
0
13
5
0
11
8
0
14
5
0
18
7
0
9
3
0
5
2
0
5
3
0
5
1
0
8
3
0
4
1
0
6
5
0
3
0
0
2
2
0
2
2
0
5
5
0
5
5
0
3
3
0
14
2
0
1
4
0
10
7
0
10
6
0
8
2
0
6
4
0
7
1
0
12
5
0
8
4
0
4
3
0
8
2
0
4
4
0
3
1
0
4
1
0
1
2
0
2
0
0
4
2
0
1
1
0
6
2
0
13
6
0
14
7
0
12
4
0
6
2
0
12
4
0
18
9
0
12
11
0
5
4
0
3
7
0
9
8
0
12
10
0
10
7
0
6
5
0
5
2
0
7
2
0
2
5
0
3
7
0
4
4
0
4
1
0
5
1
0
11
3
0
7
2
0
6
3
0
0
5
0
7
8
0
8
4
0
4
2
0
1
2
0
1
5
0
5
3
0
4
3
0
8
2
0
7
6
0
6
1
0
4
2
0
5
2
0
3
0
0
2
2
0
2
2
0
3
3
0
7
4
0
6
6
0
3
5
0
8
4
0
7
2
0
1
0
0
2
4
0
1
5
0
5
4
0
73
68
44
156
140
97
69
62
42
158
139
95
11
4
0
11
2
0
7
1
0
8
4
0
7
7
0
6
4
0
5
2
0
8
3
0
5
2
0
1
3
0
2
4
0
7
2
0
3
2
0
4
3
0
5
5
0
7
2
0
10
4
0
14
5
0
12
0
0
9
4
0
11
4
0
5
1
0
1
4
0
2
6
0
4
5
0
4
4
0
3
5
0
2
4
0
4
4
0
6
1
0
7
4
0
7
0
0
7
4
0
4
2
0
3
1
0
2
5
0
6
4
0
10
1
0
5
6
0
30
6
0
23
4
0
3
0
0
1
3
0
0
1
0
1
2
0
4
2
0
2
2
0
7
4
0
7
6
0
11
5
0
27
32
15
255
255
176
255
255
255
255
255
205
147
108
69
255
255
186
130
103
69
92
47
8
138
79
14
118
67
13
115
68
17
108
69
27
255
255
181
240
171
86
255
244
173
225
167
90
30
16
7
2
7
7
16
20
17
39
32
19
55
36
10
58
27
7
55
25
11
51
34
25
80
53
25
107
64
4
119
73
14
139
84
13
157
95
15
133
81
12
91
52
8
47
23
5
31
18
5
59
44
9
39
30
9
61
43
6
65
41
5
91
56
15
128
74
7
139
81
20
102
58
4
77
47
10
84
53
24
106
68
25
98
67
19
86
59
17
119
75
16
184
114
24
234
147
39
240
156
46
239
161
56
255
204
118
255
255
255
255
255
176
187
151
80
255
255
255
255
255
255
78
57
31
49
34
13
83
59
19
66
45
13
47
33
6
32
31
8
17
21
12
20
32
22
24
39
30
7
19
23
57
16
14
128
57
3
206
109
13
231
127
15
173
94
23
91
34
11
71
17
25
156
73
21
223
123
18
235
131
21
222
121
18
207
110
14
177
94
26
126
63
7
61
26
2
29
24
14
32
27
17
23
21
6
31
34
19
20
31
28
25
17
24
15
9
17
33
28
13
100
72
13
118
82
14
63
44
8
27
20
11
62
34
5
122
74
21
197
116
18
209
115
9
195
112
22
222
140
36
217
129
27
114
53
6
71
38
12
75
49
8
82
62
22
118
77
28
82
60
17
51
38
18
19
11
21
38
25
49
80
64
42
52
60
39
85
103
60
82
95
70
65
68
28
71
52
37
45
64
56
70
93
74
66
94
54
68
90
42
78
96
95
39
44
57
73
87
104
75
84
92
72
77
76
45
25
4
63
53
34
48
3
53
58
49
66
80
71
25
39
31
17
30
39
15
54
17
6
57
20
10
43
12
7
23
37
17
34
26
9
79
45
12
106
52
7
134
65
9
147
77
2
140
72
7
125
63
5
81
35
8
72
39
12
70
35
11
80
35
12
45
18
16
17
14
11
28
26
10
39
29
9
33
33
14
64
42
11
83
46
2
34
10
7
29
21
7
56
34
18
19
18
19
24
13
14
30
22
13
38
18
12
51
39
8
4
17
22
55
25
2
72
40
10
45
24
8
22
20
6
16
12
5
17
8
8
26
12
10
14
8
9
22
13
3
40
26
10
40
28
12
48
32
8
58
39
11
65
44
11
47
30
6
255
255
255
255
255
215
27
10
6
4
12
11
16
12
6
31
26
16
14
13
12
52
36
24
30
14
6
29
16
5
30
23
8
38
21
12
38
20
7
53
26
5
65
30
5
85
38
13
79
35
11
55
23
11
52
24
5
34
10
6
39
18
10
48
23
15
55
28
25
62
35
31
60
36
29
46
27
20
29
17
10
23
16
9
21
15
10
8
9
10
25
18
18
62
45
31
63
45
29
48
26
15
52
43
25
74
49
28
80
57
39
103
82
69
255
242
207
239
185
142
185
164
153
255
206
170
160
107
79
255
225
187
65
68
56
97
77
61
76
59
51
90
73
67
41
32
32
18
15
17
14
15
14
26
24
23
47
33
28
15
14
14
18
7
8
8
6
6
8
9
8
17
10
11
12
6
7
8
2
2
11
3
1
14
7
2
12
9
5
11
10
2
12
9
3
16
10
3
17
9
3
12
5
1
5
3
0
4
2
0
6
4
0
2
1
0
7
1
0
4
1
0
3
3
0
6
1
0
4
0
0
8
3
0
16
4
0
5
4
0
1
1
0
4
4
0
8
5
0
8
4
0
12
6
0
5
1
0
12
6
0
13
2
0
7
3
0
7
1
0
7
2
0
5
2
0
2
5
0
5
4
0
2
2
0
5
2
0
4
3
0
4
0
0
2
3
0
3
2
0
11
1
0
14
4
0
12
2
0
6
2
0
2
4
0
5
2
0
7
2
0
7
4
0
8
8
0
3
4
0
5
1
0
3
2
0
2
3
0
4
0
0
3
4
0
6
5
0
9
6
0
9
5
0
10
4
0
14
5
0
11
4
0
13
8
0
11
3
0
10
6
0
10
4
0
12
4
0
8
3
0
2
8
0
4
1
0
5
5
0
3
5
0
5
3
0
5
4
0
5
7
0
2
7
0
1
4
0
0
2
0
2
3
0
7
1
0
2
5
0
10
1
0
1
1
0
5
4
0
10
4
0
3
5
0
3
1
0
7
0
0
11
4
0
13
7
0
12
7
0
10
6
0
1
4
0
8
4
0
3
4
0
4
4
0
7
4
0
9
5
0
7
2
0
5
5
0
4
4
0
6
4
0
5
3
0
10
4
0
2
2
0
4
3
0
1
1
0
3
2
0
6
4
0
37
27
18
169
152
110
8
7
11
174
158
110
35
24
9
13
1
0
2
2
0
6
2
0
6
3
0
6
1
0
4
1
0
5
3
0
7
1
0
4
5
0
6
4
0
2
1
0
11
6
0
14
7
0
14
4
0
12
1
0
11
0
0
13
0
0
12
3
0
7
3
0
6
4
0
4
2
0
3
2
0
2
3
0
3
3
0
7
3
0
7
8
0
5
6
0
2
2
0
0
0
0
4
4
0
7
1
0
4
4
0
5
2
0
2
0
0
3
2
0
4
4
0
5
3
0
14
7
0
31
9
0
14
1
0
4
1
0
2
3
0
2
1
0
4
3
0
4
0
0
7
0
0
3
2
0
4
1
0
15
2
0
167
155
98
255
255
255
255
255
255
143
122
106
255
210
136
224
183
118
255
255
159
23
15
1
52
37
10
59
48
16
54
43
11
22
16
5
176
147
96
255
255
166
139
125
92
255
255
176
18
16
13
20
13
3
37
32
9
63
48
13
96
70
25
70
49
16
60
44
13
68
50
16
128
90
32
99
65
17
52
32
15
38
25
5
35
26
8
30
20
9
62
37
8
110
64
10
130
77
5
106
60
7
71
31
13
90
42
8
122
59
5
140
66
13
138
62
5
119
49
19
105
38
19
81
26
20
54
8
23
77
24
22
132
58
14
152
73
4
123
56
5
117
54
15
170
86
17
185
93
8
143
75
18
255
203
114
255
255
255
255
255
233
59
31
53
255
255
255
255
255
255
35
28
43
46
24
8
105
57
15
146
85
24
126
70
10
86
42
4
69
31
7
81
40
9
92
40
1
105
39
8
125
53
8
162
89
11
172
100
19
152
85
13
103
54
21
60
24
4
58
24
17
48
25
13
29
23
17
28
22
15
45
36
21
45
37
22
43
25
19
47
21
5
43
22
0
22
8
12
35
21
20
53
31
3
51
34
20
50
36
6
7
13
10
27
5
15
46
22
9
43
24
4
14
17
12
47
27
12
56
37
17
16
7
10
2
11
17
4
12
15
37
23
12
83
47
4
112
72
14
86
63
17
73
60
24
67
62
36
83
68
38
63
52
29
61
36
14
91
53
10
65
27
20
35
2
21
15
26
36
76
74
58
93
103
80
103
111
93
95
132
152
98
146
194
122
117
118
145
119
134
178
183
196
164
207
255
134
208
255
88
162
255
26
80
184
98
123
179
63
85
134
73
79
52
17
50
87
41
16
64
51
30
34
87
75
73
123
68
9
94
22
11
58
23
18
35
5
10
12
14
12
31
31
8
64
42
15
97
58
11
122
72
12
52
27
3
33
14
14
37
21
3
75
38
11
66
32
8
21
8
7
39
25
4
62
43
10
82
63
20
60
38
16
61
36
9
72
47
8
36
25
4
17
10
8
67
37
15
77
51
20
35
42
17
38
38
18
31
28
21
9
23
29
28
25
26
19
23
21
14
16
18
42
22
18
39
32
17
7
3
8
32
21
8
31
8
10
27
13
8
18
3
7
25
13
8
35
20
5
13
8
5
31
23
13
33
21
7
2
4
4
32
25
1
77
54
10
100
64
8
130
80
5
255
255
255
255
255
215
35
18
10
29
19
14
39
19
12
43
32
18
41
30
24
29
24
21
20
7
5
16
4
6
39
25
8
48
28
10
37
23
8
39
24
9
27
17
10
25
8
1
80
36
15
97
45
18
71
29
10
37
14
10
19
8
10
23
2
10
41
11
8
56
19
5
61
24
5
54
24
4
45
20
5
39
18
7
33
16
6
35
17
8
55
30
19
98
57
36
151
92
53
149
99
56
93
66
37
54
38
22
45
32
20
85
75
70
255
252
208
95
68
43
236
205
180
151
126
105
65
56
60
176
154
128
33
40
25
94
66
54
46
33
33
95
72
63
81
64
59
65
53
47
37
34
24
34
31
21
61
43
33
55
38
28
28
19
13
10
8
7
10
10
10
18
13
14
15
10
6
6
4
1
16
10
1
16
9
2
13
6
2
17
8
4
12
5
2
7
5
4
14
3
7
7
5
1
5
4
0
6
4
0
3
4
0
7
4
0
6
5
0
6
2
0
6
4
0
9
1
0
11
2
0
5
0
0
12
3
0
8
3
0
4
5
0
5
5
0
8
5
0
8
3
0
1
2
0
7
2
0
4
4
0
10
2
0
7
3
0
8
0
0
7
2
0
4
5
0
3
4
0
4
1
0
1
5
0
4
2
0
5
5
0
5
1
0
1
3
0
2
3
0
4
1
0
11
3
0
14
8
0
13
8
0
7
4
0
3
2
0
4
2
0
2
2
0
4
5
0
6
7
0
11
7
0
10
4
0
5
4
0
6
8
0
12
12
0
15
10
0
17
6
0
15
4
0
8
3
0
5
3
0
8
4
0
10
5
0
5
5
0
4
0
0
7
6
0
10
10
0
8
9
0
7
5
0
8
3
0
4
2
0
3
2
0
7
2
0
4
3
0
7
4
0
6
1
0
7
2
0
8
2
0
7
5
0
5
1
0
9
6
0
4
1
0
1
1
0
2
2
0
4
8
0
7
9
0
12
8
0
13
8
0
11
8
0
9
6
0
1
3
0
10
4
0
5
4
0
12
8
0
6
5
0
5
5
0
5
3
0
5
0
0
1
1
0
2
5
0
1
2
0
5
5
0
5
2
0
5
3
0
7
3
0
6
2
0
5
3
0
4
3
0
6
1
0
15
7
4
157
143
108
67
56
27
164
151
111
86
69
34
8
4
0
7
1
0
7
4
0
4
4
0
6
4
0
5
3
0
8
4
0
4
1
0
2
5
0
8
3
0
9
7
0
11
4
0
7
2
0
8
3
0
5
4
0
2
2
0
7
0
0
2
3
0
2
5
0
3
2
0
3
1
0
2
2
0
5
3
0
4
4
0
2
2
0
4
1
0
1
4
0
1
1
0
3
2
0
4
4
0
5
1
0
5
2
0
2
4
0
2
5
0
3
4
0
2
1
0
1
3
0
22
8
0
29
7
0
11
4
0
7
3
0
2
2
0
3
3
0
7
2
0
2
0
0
6
1
0
2
1
0
7
0
0
16
22
7
255
255
230
255
255
255
255
255
176
69
56
36
255
255
191
46
34
11
255
255
206
79
57
30
49
29
4
43
24
2
33
12
6
26
7
4
75
54
23
255
255
197
49
29
18
255
255
204
79
73
59
41
18
15
46
31
20
43
8
17
86
45
7
111
58
4
119
60
5
112
55
7
144
86
19
181
111
18
172
108
13
172
107
11
173
107
12
149
92
14
117
72
16
94
58
16
68
37
7
42
19
4
21
5
10
10
16
20
16
17
21
13
10
23
16
20
22
31
27
23
34
30
17
30
40
20
36
44
19
38
36
7
30
24
1
26
17
2
20
14
11
21
11
15
14
4
6
25
12
11
39
28
15
168
132
72
255
255
255
255
255
255
251
178
112
255
255
255
255
255
255
125
86
51
124
82
27
96
73
34
82
70
31
78
70
26
76
72
29
67
67
31
65
60
27
50
53
23
37
49
22
32
34
24
37
8
19
67
41
20
79
56
20
58
41
17
17
8
3
14
18
13
41
12
27
72
32
22
89
50
17
113
56
14
107
51
23
74
29
16
24
5
4
37
29
6
81
54
13
93
64
16
100
69
4
98
68
17
68
48
9
32
27
12
18
21
15
40
33
23
89
63
25
97
62
13
42
20
5
30
28
15
51
34
12
60
35
10
60
18
17
47
8
31
29
13
22
37
22
9
7
13
10
63
45
8
87
56
3
96
61
2
81
52
5
38
29
1
68
50
14
57
27
17
36
5
20
25
24
34
17
7
17
27
33
34
42
51
61
23
42
55
43
60
47
69
82
84
74
77
119
102
121
115
40
78
85
17
76
203
32
96
201
62
112
157
85
125
149
55
88
154
49
44
16
45
46
28
27
25
29
56
49
49
143
91
38
112
54
14
76
53
3
123
72
9
157
100
45
147
100
68
73
47
45
8
14
12
30
22
9
81
54
9
126
71
4
100
56
14
54
27
12
42
17
9
40
12
11
28
18
11
33
31
16
70
54
20
48
38
16
15
17
19
47
18
22
48
20
11
30
14
1
13
11
1
55
34
2
101
52
5
98
49
4
78
37
8
46
11
18
54
44
30
80
70
36
57
48
23
66
31
11
88
37
16
64
24
27
29
6
32
33
15
23
49
14
21
31
1
18
34
16
15
22
9
14
22
18
14
12
24
20
20
11
18
55
22
4
39
21
5
18
10
1
36
31
10
36
28
8
26
19
4
255
255
255
255
255
208
87
49
31
82
48
27
50
30
12
22
12
4
14
8
9
12
11
9
17
13
6
25
16
5
29
15
6
23
11
2
15
11
6
32
18
7
48
24
7
47
23
9
32
14
10
13
3
7
4
4
2
25
16
11
24
15
15
13
6
5
6
1
8
11
9
14
20
9
10
31
9
4
36
11
4
41
15
7
45
18
5
49
19
4
53
21
8
51
21
13
45
18
10
64
26
10
97
43
18
98
48
25
79
42
26
129
99
85
255
243
195
129
114
98
229
179
148
81
66
59
118
87
76
145
119
95
46
31
18
37
27
22
37
24
17
37
28
24
50
42
45
66
55
51
47
37
27
10
12
7
25
21
19
33
26
19
23
19
8
15
11
6
23
13
13
21
11
13
13
10
3
14
10
1
18
11
1
17
10
4
11
5
1
11
5
3
17
11
5
5
4
4
19
8
6
8
4
3
5
8
0
8
7
0
4
5
0
10
5
0
7
5
0
11
4
0
10
2
0
11
2
0
13
1
0
11
2
0
7
0
0
5
2
0
5
6
0
8
5
0
3
2
0
1
0
0
4
0
0
2
1
0
6
1
0
5
1
0
2
1
0
7
0
0
4
3
0
5
3
0
5
1
0
7
0
0
6
5
0
6
4
0
5
7
0
5
3
0
3
1
0
1
2
0
6
2
0
6
4
0
4
3
0
11
4
0
5
6
0
4
5
0
10
4
0
17
5
0
19
8
0
17
10
0
18
9
0
12
8
0
9
4
0
7
6
0
8
5
0
3
7
0
4
7
0
4
5
0
3
4
0
5
5
0
10
7
0
7
6
0
5
6
0
6
5
0
4
3
0
2
3
0
7
6
0
13
7
0
10
5
0
5
4
0
7
3
0
7
2
0
3
2
0
6
1
0
1
3
0
1
3
0
4
2
0
10
4
0
9
7
0
5
4
0
5
1
0
1
2
0
4
5
0
8
8
0
13
4
0
13
6
0
4
5
0
4
0
0
3
2
0
5
2
0
5
3
0
6
3
0
8
7
0
1
5
0
2
3
0
6
1
0
7
0
0
3
2
0
4
0
0
3
6
0
2
4
0
5
1
0
5
0
0
4
3
0
0
3
0
7
3
0
2
4
0
1
7
0
3
2
0
120
115
88
126
108
65
122
117
89
134
116
66
9
0
0
9
4
0
6
3
0
4
3
0
4
4
0
2
0
0
1
4
0
3
2
0
1
4
0
2
5
0
5
5
0
4
1
0
1
2
0
4
4
0
5
1
0
4
4
0
8
1
0
4
2
0
5
3
0
6
1
0
5
1
0
5
3
0
4
4
0
4
3
0
4
2
0
2
5
0
2
3
0
2
1
0
3
1
0
2
4
0
6
1
0
8
2
0
2
1
0
2
1
0
3
4
0
3
4
0
8
5
0
24
7
0
25
3
0
10
0
0
2
5
0
6
2
0
1
3
0
5
3
0
1
2
0
5
1
0
3
1
0
10
1
0
161
133
69
255
255
255
255
255
255
217
130
58
127
68
12
255
231
146
238
178
105
255
243
157
255
206
120
61
49
17
85
67
22
88
66
17
69
45
9
52
25
9
255
220
147
236
196
137
255
238
148
255
246
160
48
20
18
24
8
14
5
26
22
11
15
26
22
5
23
11
22
27
29
48
33
65
59
27
55
34
12
8
8
9
39
31
13
39
34
15
42
34
13
46
31
4
47
31
10
23
15
1
15
12
12
8
8
11
5
7
6
21
7
2
40
11
8
30
4
16
10
21
23
17
9
12
33
8
8
41
11
16
51
15
8
49
17
11
30
8
10
21
3
17
25
1
11
65
17
19
98
33
22
115
51
11
120
60
18
255
255
207
255
255
255
199
154
86
255
255
255
251
223
172
40
27
36
109
71
27
152
101
30
165
106
24
148
86
14
119
63
7
114
62
15
129
70
19
137
61
15
149
54
27
175
72
25
201
100
10
203
111
18
149
74
7
94
39
12
65
27
15
57
28
17
27
24
2
34
17
4
37
18
10
18
15
11
38
28
7
28
9
21
46
27
17
31
22
15
38
21
18
43
27
12
38
20
11
39
23
7
43
33
7
34
28
2
21
19
2
24
14
12
38
18
20
50
26
14
47
35
8
42
24
10
44
16
17
50
18
18
70
43
14
50
32
10
38
40
25
83
66
30
86
66
27
16
19
23
20
4
27
41
6
33
86
34
34
110
50
25
79
41
16
32
12
5
32
9
8
50
24
19
30
31
49
26
36
57
47
38
38
51
47
41
47
49
49
84
79
78
83
68
82
152
163
200
153
206
255
102
213
255
33
139
255
66
139
255
55
54
45
104
153
180
106
158
215
35
61
89
34
12
37
43
34
40
93
54
15
123
82
14
136
84
7
62
31
5
56
55
65
130
106
26
126
86
56
92
46
23
84
39
17
75
39
20
44
30
13
52
38
17
46
36
21
47
28
8
8
25
20
49
35
9
76
47
2
44
18
10
38
13
21
50
18
20
53
22
9
27
8
17
18
8
19
19
14
23
22
2
18
43
29
13
44
34
20
17
39
32
28
37
29
95
61
22
86
67
24
79
51
15
127
81
12
63
39
12
12
11
7
21
15
1
15
8
8
34
11
11
47
22
6
69
52
13
153
100
19
184
111
15
162
87
1
124
56
14
99
49
7
90
60
12
100
76
18
101
72
7
73
42
7
61
30
11
255
255
255
255
250
198
54
38
32
72
44
36
58
34
25
39
24
17
40
27
19
41
35
23
35
35
27
35
31
27
42
31
22
36
25
17
27
20
14
21
15
11
25
14
5
20
15
3
12
5
7
38
18
12
45
24
13
30
18
8
18
12
9
15
8
7
8
3
3
11
9
7
17
11
8
25
15
6
22
13
6
23
13
4
39
24
8
55
30
12
66
33
19
79
37
19
87
41
11
79
41
7
71
40
9
76
48
16
88
60
27
96
64
44
185
144
122
130
116
106
87
57
30
236
192
155
207
174
144
87
64
44
16
24
22
31
20
12
52
30
16
49
25
8
27
14
27
31
32
48
62
53
44
25
24
16
18
17
17
18
15
13
19
19
10
30
24
15
37
24
15
21
18
8
13
12
1
15
12
2
12
9
2
10
3
4
15
12
4
18
16
5
13
10
2
9
6
4
11
3
1
17
10
4
7
4
1
5
2
0
5
2
0
11
2
0
8
2
0
16
5
0
11
6
0
8
2
0
2
2
0
4
1
0
5
1
0
3
2
0
2
5
0
8
7
0
12
3
0
13
2
0
12
2
0
14
4
0
14
6
0
9
4
0
2
2
0
5
3
0
4
4
0
8
1
0
8
1
0
5
2
0
4
4
0
2
2
0
3
5
0
4
1
0
2
2
0
5
4
0
12
8
0
22
11
0
24
10
0
17
10
0
9
6
0
8
5
0
14
3
0
17
4
0
14
3
0
11
1
0
5
3
0
9
5
0
10
2
0
6
3
0
7
7
0
9
8
0
10
8
0
10
8
0
12
8
0
12
9
0
10
9
0
7
7
0
5
5
0
8
2
0
10
1
0
9
2
0
8
2
0
7
2
0
9
1
0
9
1
0
7
3
0
3
1
0
4
3
0
5
1
0
5
4
0
7
1
0
10
3
0
2
3
0
5
1
0
5
1
0
7
1
0
5
5
0
9
5
0
9
3
0
2
1
0
8
4
0
8
5
0
7
3
0
2
2
0
3
1
0
3
1
0
2
1
0
4
3
0
9
6
0
10
4
0
10
2
0
11
4
0
11
7
0
10
6
0
5
4
0
3
4
0
3
4
0
6
3
0
3
1
0
4
2
0
4
5
0
4
3
0
2
8
0
4
0
0
77
76
57
165
146
99
68
73
57
169
149
99
7
5
0
5
0
0
2
5
0
1
4
0
5
4
0
11
5
0
13
4
0
9
2
0
5
1
0
3
1
0
7
2
0
5
4
0
1
4
0
2
7
0
4
2
0
1
4
0
6
2
0
5
0
0
1
2
0
10
0
0
1
2
0
5
1
0
2
3
0
4
2
0
2
4
0
0
2
0
2
2
0
4
1
0
3
1
0
6
4
0
4
1
0
8
1
0
3
1
0
8
2
0
10
5
0
9
6
0
8
3
0
21
4
0
24
4
0
4
1
0
5
3
0
1
3
0
4
3
0
4
2
0
3
2
0
7
2
0
3
2
0
8
2
0
255
255
172
255
255
255
255
255
203
116
78
21
95
64
21
91
70
52
255
255
175
146
112
63
255
255
192
79
42
17
55
29
8
39
14
4
46
25
13
57
43
18
121
101
68
255
255
248
255
213
130
255
255
255
171
109
62
55
15
15
50
14
14
51
30
6
68
47
11
89
56
18
80
45
11
41
16
13
11
23
18
39
28
21
37
28
17
32
25
14
28
13
9
23
5
9
13
13
10
15
12
6
27
15
14
33
12
9
49
26
9
62
42
10
58
48
17
55
51
24
58
49
20
56
47
14
57
44
8
64
45
7
70
43
12
75
47
18
66
41
4
45
37
16
31
33
23
39
32
17
29
21
3
28
14
4
44
25
6
255
255
210
255
255
255
255
245
117
255
255
255
146
130
99
13
21
19
1
20
20
5
26
27
15
25
22
29
13
14
40
25
7
49
38
11
60
48
24
52
38
22
54
37
18
71
47
11
48
35
18
18
7
7
68
39
15
77
47
9
50
41
17
8
7
22
55
40
4
74
58
2
97
69
3
114
69
14
106
51
14
82
33
15
60
32
8
22
20
15
2
11
19
17
11
7
39
29
8
49
29
15
32
16
13
24
6
13
55
23
12
66
30
16
65
34
19
75
39
12
89
58
12
85
57
15
77
52
14
70
44
5
62
28
26
58
20
41
94
59
45
76
25
27
74
51
25
18
12
7
28
10
13
38
19
15
36
22
5
11
19
23
13
7
21
14
2
19
8
13
22
38
27
29
59
38
19
46
51
82
44
52
83
64
76
108
77
96
125
104
118
126
68
59
76
68
60
46
62
72
87
88
100
84
25
13
41
62
78
84
78
141
245
79
165
255
70
163
255
73
125
223
31
42
63
34
12
47
77
45
15
100
46
19
55
25
14
86
54
7
109
83
39
53
62
92
22
25
58
62
40
37
67
43
9
51
37
26
24
20
8
41
32
7
106
73
13
146
90
8
137
62
27
105
17
49
57
16
51
34
25
39
39
7
30
53
17
38
25
25
45
20
42
44
58
61
37
90
75
28
88
64
17
91
56
2
92
55
14
73
42
7
39
21
5
65
43
10
136
92
19
135
91
16
86
56
10
64
34
10
20
8
5
35
15
5
23
8
5
24
13
6
80
42
4
105
60
5
73
34
8
57
20
9
85
52
17
58
25
14
64
31
20
74
36
15
76
34
8
65
24
11
68
29
6
74
38
8
255
255
255
255
249
195
61
25
14
30
13
13
16
18
15
31
27
17
52
43
30
80
63
43
93
70
42
76
53
34
69
43
28
83
48
26
98
56
27
99
60
33
95
60
35
110
74
43
116
81
45
105
69
36
101
60
31
108
61
33
102
53
29
82
40
20
66
35
14
61
34
13
68
36
14
72
39
16
77
42
17
98
56
24
127
75
41
158
94
56
182
112
67
168
101
60
135
73
41
106
54
23
93
47
19
78
39
15
45
21
10
26
17
12
100
74
53
129
109
86
89
85
83
46
34
39
65
41
36
69
48
35
72
57
39
61
43
30
31
10
8
29
22
33
25
24
41
38
38
66
71
60
65
85
66
54
70
50
37
53
36
26
43
35
23
45
36
21
37
23
11
5
5
4
3
3
2
8
4
3
21
11
4
25
14
4
26
20
6
22
16
4
26
24
8
10
10
1
4
0
2
11
9
3
6
7
2
2
3
0
6
2
0
7
1
0
9
2
0
3
4
0
9
5
0
2
4
0
8
1
0
6
0
0
5
2
0
5
2
0
8
2
0
11
4
0
11
6
0
10
8
0
10
7
0
10
5
0
5
4
0
11
5
0
4
4
0
2
3
0
3
0
0
8
1
0
2
1
0
1
1
0
7
3
0
14
6
0
12
3
0
8
4
0
10
5
0
12
5
0
16
4
0
16
7
0
9
6
0
4
0
0
5
4
0
7
3
0
11
2
0
17
5
0
20
10
0
16
11
0
14
7
0
10
2
0
4
5
0
1
4
0
7
3
0
12
2
0
14
4
0
16
5
0
15
6
0
12
5
0
10
3
0
8
1
0
5
1
0
3
2
0
3
2
0
6
2
0
6
2
0
5
2
0
5
1
0
7
1
0
3
4
0
4
1
0
7
3
0
4
4
0
5
7
0
14
5
0
18
4
0
20
5
0
12
4
0
4
4
0
10
3
0
8
5
0
2
2
0
7
6
0
11
7
0
11
7
0
7
5
0
7
2
0
5
1
0
0
2
0
2
1
0
1
0
0
4
2
0
4
2
0
3
3
0
5
2
0
10
5
0
12
6
0
13
6
0
10
2
0
10
4
0
7
5
0
3
5
0
4
3
0
4
0
0
5
4
0
11
7
0
10
7
0
8
3
0
37
37
27
184
164
121
6
18
20
189
163
119
30
22
5
5
5
0
5
1
0
3
5
0
4
2
0
4
2
0
5
3
0
7
1
0
9
1
0
6
1
0
2
0
0
7
5
0
5
1
0
2
7
0
2
0
0
2
5
0
3
4
0
5
2
0
1
2
0
7
0
0
5
1
0
1
3
0
3
3
0
2
1
0
2
1
0
3
4
0
4
1
0
4
4
0
4
5
0
4
4
0
4
2
0
10
2
0
17
2
0
13
3
0
9
1
0
8
3
0
4
4
0
23
2
0
21
3
0
1
2
0
3
2
0
4
0
0
1
0
0
2
1
0
4
2
0
5
1
0
10
2
0
77
65
31
255
255
255
255
255
255
118
98
95
80
39
4
105
49
1
84
39
15
255
255
171
93
73
49
255
255
175
255
223
142
255
232
158
255
255
227
255
255
255
255
255
255
255
255
255
255
255
255
255
241
163
255
255
255
255
255
166
9
5
11
12
10
13
11
16
12
26
13
2
8
13
13
58
48
20
91
65
24
90
48
9
75
27
12
65
31
20
43
15
15
15
12
12
7
2
4
12
9
16
7
8
12
13
20
15
24
28
25
21
18
14
9
8
7
16
2
9
15
12
8
18
15
1
48
38
12
42
27
7
21
18
4
7
7
4
18
22
12
42
38
13
54
41
5
51
41
11
13
19
18
43
15
12
75
37
4
97
56
7
255
255
221
255
255
255
255
255
137
255
255
255
158
120
89
123
72
9
123
75
21
151
100
28
181
122
29
178
120
24
187
123
21
230
152
27
234
149
25
195
118
16
154
85
6
144
75
11
155
85
7
157
93
5
139
83
15
120
74
11
115
83
17
128
94
21
160
119
25
182
133
32
215
147
35
241
154
27
227
137
14
188
109
7
157
93
14
133
79
20
100
58
20
66
30
12
61
25
12
77
37
11
129
75
17
173
97
20
191
107
6
210
118
10
225
134
15
207
140
34
161
119
34
121
93
25
89
70
21
52
38
18
29
22
21
2
21
26
56
27
22
112
64
10
107
57
29
73
25
31
45
12
28
22
4
14
4
5
5
29
18
5
17
10
20
22
12
28
31
21
19
29
26
17
43
37
11
102
77
58
143
135
130
99
128
136
30
71
125
58
51
65
120
124
119
157
170
167
149
171
174
109
173
226
49
154
255
38
154
255
36
143
255
19
85
166
35
115
237
87
172
255
34
75
159
51
36
16
15
13
13
51
35
4
62
28
22
84
47
7
108
93
40
106
91
39
87
78
28
67
47
28
71
39
6
81
49
15
89
59
16
92
57
11
67
32
14
30
48
34
144
119
42
202
140
36
153
97
22
63
44
16
35
28
4
68
44
5
120
66
8
190
105
17
247
134
11
251
135
17
223
125
22
174
95
9
111
51
9
65
19
11
72
36
3
33
17
6
25
14
6
34
20
5
23
14
7
87
48
13
170
101
13
199
114
12
180
97
12
157
82
10
94
44
8
56
33
6
73
49
8
31
19
7
59
51
14
59
57
23
28
30
14
10
12
8
42
38
18
49
42
9
55
41
4
55
33
4
255
255
255
255
255
205
46
31
25
28
15
12
7
6
4
16
13
5
27
21
17
20
7
8
34
28
19
45
35
19
17
13
8
17
13
4
47
32
17
94
60
34
108
67
40
118
72
39
131
82
43
141
94
53
144
98
57
132
86
49
116
73
40
105
68
39
105
68
38
106
68
36
87
57
30
60
38
17
45
26
10
30
18
8
34
27
23
54
40
29
25
19
17
24
21
11
61
40
28
75
44
29
57
27
16
24
4
4
20
24
13
34
35
18
99
83
56
133
108
84
124
97
79
133
91
63
72
39
18
17
14
22
49
48
50
29
33
37
26
30
36
39
29
33
12
9
18
53
53
63
31
24
21
40
32
34
82
66
55
72
56
47
69
53
44
55
42
26
26
22
7
32
26
14
28
21
13
23
18
10
36
25
13
41
30
15
27
18
9
14
8
3
15
13
8
22
16
6
8
8
3
9
8
3
7
2
1
2
3
0
2
3
0
1
4
0
8
3
0
11
2
0
9
5
0
11
4
0
6
2
0
7
3
0
5
2
0
7
3
0
1
5
0
4
2
0
3
2
0
0
2
0
4
5
0
4
2
0
10
2
0
6
4
0
8
9
0
8
5
0
6
1
0
10
4
0
5
3
0
8
1
0
13
4
0
11
5
0
12
5
0
3
4
0
5
5
0
2
4
0
7
6
0
11
8
0
15
7
0
15
5
0
12
6
0
12
9
0
16
8
0
18
5
0
17
7
0
15
6
0
13
7
0
12
7
0
12
8
0
12
5
0
10
4
0
7
3
0
7
3
0
7
1
0
4
3
0
2
5
0
1
5
0
2
2
0
2
0
0
5
1
0
5
3
0
3
3
0
2
1
0
4
0
0
6
2
0
5
2
0
7
5
0
11
3
0
12
5
0
13
8
0
14
9
0
15
7
0
10
6
0
15
7
0
15
4
0
7
4
0
9
3
0
8
4
0
7
5
0
7
4
0
4
3
0
4
3
0
2
0
0
2
5
0
7
4
0
4
2
0
1
2
0
0
4
0
5
7
0
7
7
0
2
1
0
7
2
0
7
3
0
1
5
0
5
3
0
7
1
0
10
8
0
9
4
0
5
4
0
5
2
0
1
2
0
9
2
0
9
2
0
1
2
0
8
0
0
7
11
7
168
154
115
65
46
20
176
154
115
80
61
27
4
5
0
4
3
0
2
4
0
6
1
0
4
3
0
1
2
0
5
2
0
10
1
0
5
3
0
2
3
0
2
5
0
4
3
0
7
5
0
9
4
0
11
5
0
11
2
0
9
4
0
9
4
0
10
4
0
7
4
0
4
4
0
2
3
0
1
0
0
4
1
0
3
3
0
5
6
0
7
8
0
10
8
0
11
7
0
8
5
0
5
4
0
3
2
0
6
4
0
5
5
0
3
6
0
8
2
0
27
5
0
13
5
0
2
3
0
4
0
0
3
2
0
2
1
0
2
2
0
5
0
0
4
1
0
10
4
0
255
212
115
255
255
255
255
255
255
101
61
29
125
77
15
141
83
19
79
60
51
255
255
196
255
255
222
255
255
255
255
255
255
255
255
255
255
255
237
255
233
170
167
126
105
55
33
43
173
152
84
255
219
123
255
255
238
255
255
229
25
49
48
52
62
36
79
64
28
75
50
20
67
45
11
72
45
8
52
32
14
42
20
4
35
16
4
28
31
13
9
19
14
30
30
16
34
24
9
24
9
6
10
4
5
16
13
4
14
16
7
8
21
18
11
9
12
24
15
5
23
21
7
33
21
10
32
24
10
22
8
4
39
21
5
46
26
5
69
48
5
77
56
15
89
63
20
113
76
26
136
86
21
112
72
11
59
36
7
26
21
4
255
255
224
255
255
255
216
218
129
255
255
255
255
218
98
255
205
63
255
178
51
223
125
27
173
92
25
167
96
12
158
97
8
143
86
11
125
71
18
140
82
27
160
103
35
182
118
35
178
110
26
156
92
16
142
79
12
149
79
1
137
73
12
155
88
7
193
118
24
190
118
25
136
80
15
82
35
10
85
30
13
96
32
17
88
33
20
83
41
22
72
44
19
35
21
4
32
21
6
40
32
13
17
11
18
13
5
9
2
5
11
14
14
18
14
17
22
37
24
32
41
34
50
18
39
62
27
69
64
71
98
55
91
98
42
81
73
26
67
52
5
57
33
16
39
21
16
50
34
3
76
59
12
100
76
21
93
78
27
76
59
18
59
33
3
67
36
18
79
31
29
55
14
33
48
23
14
10
13
12
85
55
56
89
75
94
31
53
97
28
45
82
84
70
62
160
137
55
179
192
136
130
194
217
67
125
157
17
45
62
7
25
48
15
68
126
31
125
251
90
165
255
70
94
168
98
57
22
127
69
29
134
69
21
95
49
10
31
21
15
33
24
20
31
27
26
38
23
15
94
72
27
125
103
25
140
110
24
149
113
31
188
142
37
255
180
38
255
195
32
255
162
15
255
111
31
225
97
31
166
71
22
107
39
20
82
25
23
92
36
14
120
66
19
81
46
17
27
26
18
54
35
16
22
11
1
29
22
0
23
12
4
61
32
6
93
47
1
88
43
5
146
81
9
185
102
7
188
99
10
177
84
17
140
60
13
132
59
12
126
57
12
99
48
14
68
41
0
89
58
7
94
55
7
96
47
7
110
57
5
101
58
6
87
58
14
52
38
8
29
25
10
10
11
4
22
20
3
255
255
255
255
255
207
55
23
12
35
18
7
9
6
0
17
6
4
21
14
14
12
14
9
30
26
16
44
25
17
34
24
16
27
18
7
55
36
24
83
56
37
120
85
55
112
81
54
93
67
43
91
67
41
98
70
45
114
85
61
149
121
88
175
138
97
165
120
81
135
96
61
108
81
53
93
70
44
84
61
35
60
44
25
13
7
4
62
39
28
111
69
45
113
75
49
74
49
33
46
28
22
41
28
19
25
13
2
26
15
9
18
7
7
60
51
38
134
110
86
136
117
93
134
109
85
105
68
50
44
32
43
35
32
35
29
32
47
40
50
58
13
21
34
48
49
60
89
76
82
96
64
49
77
53
32
11
11
15
70
56
51
87
68
63
79
59
50
79
62
48
55
44
32
30
21
14
7
5
4
17
12
5
4
3
5
8
10
7
9
5
7
13
13
10
32
21
9
14
8
0
7
4
0
4
4
0
1
4
0
8
7
0
16
11
0
18
10
1
19
9
2
16
5
1
11
1
0
5
1
0
4
3
2
6
3
5
3
7
5
4
7
4
3
9
5
2
8
6
4
7
6
7
8
6
13
11
4
11
4
1
10
10
0
8
3
0
12
8
0
10
3
0
11
5
0
7
1
0
5
2
0
5
4
0
13
4
0
15
6
0
9
4
0
12
8
0
13
8
0
13
5
0
14
4
0
13
3
0
10
2
0
5
4
0
8
5
0
7
7
0
0
5
0
2
5
0
2
1
0
5
3
0
6
2
0
8
3
0
12
2
0
11
2
0
7
1
0
4
2
0
1
2
0
1
2
0
0
1
0
1
2
0
0
2
0
5
1
0
5
1
0
5
2
0
4
3
0
5
1
0
5
1
0
8
4
0
11
6
0
12
8
0
12
8
0
12
9
0
11
5
0
5
1
0
5
2
0
8
1
0
12
5
0
8
3
0
6
0
0
4
6
0
5
3
0
2
4
0
2
0
0
2
1
0
3
2
0
4
4
0
4
5
0
4
4
0
5
4
0
1
3
0
4
5
0
5
2
0
5
5
0
6
5
0
7
1
0
7
0
0
4
0
0
1
2
0
3
0
0
6
8
0
6
6
0
6
10
0
10
6
0
12
1
0
10
1
0
3
1
0
5
1
0
4
3
0
3
3
0
129
123
89
128
101
58
132
119
90
129
105
60
7
3
0
5
5
0
2
7
0
9
4
0
1
1
0
7
4
0
8
4
0
4
3
0
4
2
0
3
4
0
2
5
0
1
4
0
4
5
0
7
5
0
5
4
0
2
1
0
7
1
0
11
3
0
11
4
0
10
4
0
10
4
0
9
4
0
2
2
0
6
4
0
1
4
0
4
4
0
5
4
0
7
5
0
0
1
0
2
4
0
6
7
0
8
1
0
4
5
0
4
4
0
4
3
0
16
5
0
21
7
0
5
1
0
5
2
0
1
1
0
6
0
0
2
2
0
4
2
0
4
1
0
6
2
0
10
14
1
255
255
224
255
255
255
227
187
143
34
28
20
75
50
23
83
51
21
165
130
81
255
255
207
255
255
201
110
81
48
150
119
67
255
248
144
255
255
243
255
255
255
255
255
255
255
255
255
255
255
255
255
255
255
249
196
132
255
255
189
185
130
73
92
57
12
57
35
9
22
23
15
25
20
12
49
27
7
35
25
12
28
19
11
36
31
7
28
29
18
29
10
17
16
0
8
18
12
13
30
12
5
25
13
5
20
22
9
10
14
9
5
8
15
12
25
29
7
34
33
17
29
27
31
27
14
63
39
10
56
31
7
35
28
5
117
86
20
149
99
20
147
92
19
150
89
18
145
79
10
132
67
7
108
64
18
60
28
7
56
28
8
255
255
213
255
255
255
94
101
69
255
255
255
179
198
133
115
66
15
135
81
14
106
68
32
73
55
31
56
38
12
39
43
15
99
89
32
137
111
45
118
95
40
75
68
24
53
41
10
27
20
10
46
35
7
73
57
17
97
71
22
81
59
14
109
80
16
168
129
35
177
137
41
204
147
41
199
138
32
169
114
21
98
65
7
30
14
6
42
30
22
73
55
34
52
34
19
61
27
3
87
48
14
104
48
13
125
59
0
144
75
11
170
97
17
191
115
23
172
104
23
118
77
9
74
62
18
51
54
25
21
27
27
43
6
30
81
26
31
116
53
25
146
78
10
146
84
2
114
63
2
69
33
10
30
17
15
25
18
5
57
45
14
22
15
12
25
16
14
25
31
25
84
77
24
117
92
37
115
74
12
82
49
10
74
42
12
20
38
28
57
77
80
90
117
157
72
122
181
92
128
160
124
186
249
167
252
255
207
255
255
236
255
255
238
255
255
222
255
255
221
229
224
201
152
103
166
111
20
138
103
24
135
113
43
120
115
65
108
115
78
141
152
83
255
217
94
255
229
85
255
209
67
255
204
45
255
215
39
255
217
33
255
199
21
255
158
7
206
87
21
86
12
39
47
38
41
106
54
24
146
74
19
112
53
24
39
5
22
38
33
21
84
59
18
106
72
19
113
72
18
69
41
13
20
15
5
41
32
8
52
36
10
53
35
5
86
53
1
88
45
6
102
55
10
63
31
2
16
13
7
52
38
8
107
70
11
114
70
13
87
51
8
24
7
3
44
35
14
30
18
12
59
37
9
80
57
11
41
32
15
16
4
10
42
27
11
34
21
13
4
10
14
36
38
18
81
67
26
255
255
255
255
255
203
12
8
4
22
13
8
41
30
16
55
39
18
56
38
19
7
3
9
33
23
14
51
34
15
67
46
25
53
38
28
45
29
17
57
40
33
21
21
22
15
6
3
36
16
10
64
42
24
78
60
36
64
53
36
47
40
31
4
7
10
40
35
31
57
37
24
38
25
16
22
17
18
37
27
19
55
39
23
63
40
25
51
27
23
22
13
13
30
12
1
58
36
18
70
40
24
62
32
13
46
17
9
41
7
4
17
7
15
10
20
26
39
25
24
108
88
66
184
164
134
222
182
146
133
97
72
50
41
30
33
32
49
67
68
84
64
67
80
46
51
60
56
52
53
27
17
17
94
69
54
40
35
27
56
50
42
77
66
56
78
54
44
61
38
31
70
56
34
49
37
20
28
21
11
32
21
10
29
17
8
10
4
6
17
11
10
24
23
17
36
20
10
11
5
1
8
12
4
12
11
5
7
5
3
18
10
3
13
12
3
7
10
1
10
5
0
4
5
2
14
6
0
21
8
0
13
8
4
8
7
2
10
5
2
6
5
0
4
7
2
7
2
0
12
5
2
19
10
7
28
17
11
31
18
11
27
13
10
20
11
12
18
18
14
14
17
12
2
5
7
8
2
2
13
2
0
16
4
0
11
4
0
4
2
0
5
8
0
7
4
0
9
5
0
9
3
0
12
2
0
10
2
0
4
1
0
1
3
0
0
3
0
7
2
0
4
2
0
6
4
0
7
3
0
7
3
0
4
3
0
4
4
0
6
3
0
2
3
0
4
2
0
4
3
0
3
4
0
3
2
0
0
0
0
2
1
0
1
4
0
5
6
0
10
6
0
12
11
0
15
12
0
11
10
0
7
8
0
12
7
0
14
6
0
11
8
0
7
5
0
6
3
0
10
2
0
10
4
0
9
3
0
11
4
0
10
7
0
5
5
0
4
3
0
3
4
0
3
3
0
1
2
0
1
2
0
1
3
0
1
4
0
4
2
0
7
2
0
4
4
0
3
2
0
3
1
0
3
2
0
3
2
0
2
3
0
7
6
0
7
2
0
5
0
0
7
1
0
2
2
0
7
1
0
7
4
0
0
4
0
4
4
0
4
2
0
3
4
0
3
2
0
3
2
0
3
1
0
7
4
0
8
2
0
91
85
58
168
141
93
77
74
57
169
141
93
17
4
1
5
5
0
2
2
0
7
4
0
5
2
0
4
3
0
4
1
0
1
1
0
2
1
0
5
1
0
1
1
0
2
2
0
3
1
0
5
1
0
4
2
0
2
1
0
7
0
0
7
1
0
9
2
0
7
2
0
5
1
0
8
4
0
3
3
0
5
4
0
3
3
0
5
4
0
4
5
0
5
8
0
10
10
0
9
7
0
3
4
0
1
3
0
3
7
0
4
2
0
8
7
0
18
5
0
16
7
0
1
2
0
1
0
0
7
1
0
1
1
0
5
2
0
5
3
0
2
2
0
2
1
0
137
113
60
255
255
255
255
255
255
148
112
73
110
72
30
79
49
18
36
28
7
114
96
55
255
255
196
255
255
255
255
255
255
255
255
231
255
255
255
255
255
240
255
224
162
221
154
108
161
104
74
103
71
57
235
185
124
255
240
154
218
166
103
255
230
152
81
61
22
128
84
24
150
94
21
153
91
24
124
72
12
65
29
10
19
25
25
96
75
39
125
97
43
112
84
34
114
76
20
127
80
17
117
67
2
73
42
21
33
16
21
23
8
13
22
13
4
12
5
7
9
2
1
25
12
11
53
29
12
71
35
11
83
38
10
124
66
17
131
73
22
94
40
7
71
29
4
32
5
8
29
36
19
117
89
31
116
86
27
34
31
12
23
21
14
255
255
185
255
255
255
64
128
55
255
255
255
255
255
223
255
195
75
223
170
77
117
88
40
64
43
17
77
54
23
43
37
17
55
34
12
68
27
6
96
50
22
134
78
26
177
103
21
210
120
12
235
135
12
239
140
12
221
129
13
171
102
16
124
81
28
110
76
36
78
62
38
66
44
24
29
16
9
36
22
25
73
38
21
73
36
22
50
14
19
74
55
27
41
43
19
20
19
8
15
16
10
15
10
18
35
24
1
34
20
2
29
17
7
19
3
12
11
22
25
38
18
41
72
25
48
77
29
46
37
12
45
14
35
43
21
32
30
4
9
11
16
20
17
21
29
24
17
28
23
28
18
18
55
27
8
53
22
17
57
32
13
33
18
21
46
6
24
78
39
45
92
54
36
48
42
34
70
61
22
53
25
22
108
65
21
119
76
10
73
38
10
17
41
40
90
123
95
86
125
86
15
59
64
64
28
81
112
108
164
133
160
239
132
158
206
105
117
127
75
64
60
41
22
35
5
19
21
75
62
20
126
79
38
114
49
22
134
54
25
197
104
36
221
91
56
127
20
60
48
27
61
32
57
45
23
64
41
36
68
42
78
98
47
149
134
52
193
141
48
171
110
33
129
75
17
109
65
13
109
72
12
99
64
10
19
4
14
44
41
15
32
26
7
18
11
3
33
21
3
37
24
1
50
30
5
16
4
12
31
20
8
25
25
2
36
22
4
36
13
5
76
40
10
86
36
12
61
15
13
53
20
9
62
36
14
84
41
7
113
57
10
116
60
8
103
58
11
98
55
4
124
69
18
142
72
13
146
74
21
148
82
5
140
81
2
101
52
6
62
36
18
67
51
24
46
35
17
255
255
255
255
255
207
88
45
19
87
46
17
94
50
15
110
57
18
122
68
26
106
59
31
85
45
25
78
43
22
76
42
21
87
48
25
104
58
29
158
94
53
212
132
81
219
139
83
199
126
71
157
102
57
133
86
52
168
110
72
212
148
99
215
152
101
197
135
85
161
107
67
127
84
53
124
81
46
121
79
43
102
65
40
84
52
32
79
50
28
49
34
20
23
13
6
29
12
5
34
15
4
21
8
8
14
13
10
4
11
16
55
45
43
82
67
62
96
84
73
96
91
78
103
94
84
150
122
95
160
123
99
105
78
63
66
45
42
76
58
58
106
86
81
114
94
84
80
68
65
47
38
38
105
84
74
69
58
45
35
31
30
65
61
53
98
79
54
119
90
56
103
76
46
45
28
17
19
15
8
18
14
8
27
17
9
32
20
14
6
10
7
52
35
22
35
16
7
6
4
3
9
7
4
11
7
3
5
4
2
19
11
4
3
5
4
5
4
0
10
7
0
16
10
2
19
7
0
18
5
0
20
7
2
23
8
5
21
10
5
15
10
4
11
12
5
14
10
6
14
10
7
9
14
8
4
8
4
15
8
3
9
4
0
4
4
4
11
2
1
7
4
6
4
15
14
11
23
17
13
22
14
11
20
13
7
18
13
2
12
8
8
12
2
7
4
0
2
4
0
4
0
0
7
4
0
7
4
0
4
3
0
0
0
0
4
3
0
3
3
0
9
3
0
10
1
0
10
3
0
6
3
0
7
1
0
1
3
0
7
4
0
6
3
0
3
2
0
4
5
0
2
4
0
4
4
0
4
5
0
8
8
0
12
10
0
13
9
0
13
5
0
17
9
0
19
4
0
13
8
0
6
5
0
11
3
0
3
5
0
4
8
0
7
7
0
12
7
0
13
5
0
8
4
0
7
4
0
8
7
0
3
5
0
1
3
0
4
2
0
4
0
0
5
2
0
9
2
0
11
1
0
5
3
0
4
4
0
2
3
0
2
5
0
7
7
0
5
7
0
8
5
0
6
3
0
6
3
0
5
7
0
5
8
0
7
4
0
2
2
0
5
2
0
8
2
0
10
2
0
3
1
0
3
2
0
2
5
0
3
4
0
1
2
0
2
1
0
2
2
0
2
4
0
7
4
0
5
2
0
50
42
29
185
165
116
6
16
19
187
165
116
45
23
8
4
4
0
8
6
0
3
3
0
5
1
0
6
2
0
5
3
0
5
5
0
4
7
0
2
6
0
2
3
0
2
4
0
3
6
0
2
5
0
4
4
0
4
3
0
3
2
0
10
3
0
12
5
0
9
5
0
7
2
0
4
5
0
2
5
0
2
5
0
2
4
0
2
3
0
5
2
0
3
2
0
6
2
0
3
2
0
4
0
0
3
0
0
4
7
0
5
6
0
12
2
0
18
4
0
9
3
0
1
2
0
2
1
0
6
0
0
4
2
0
0
4
0
8
4
0
10
1
0
8
2
0
255
255
168
255
255
255
255
255
225
67
43
21
30
22
8
13
5
13
26
3
21
29
11
30
110
76
52
225
155
88
255
255
198
145
102
62
255
255
228
73
60
41
38
27
17
33
29
14
25
17
19
56
19
17
54
45
45
255
255
210
11
11
12
255
255
207
136
81
32
86
30
20
84
44
16
78
41
13
141
82
7
216
120
18
255
138
10
255
157
20
255
177
34
255
185
43
255
173
30
255
156
22
241
142
22
211
138
33
172
116
25
131
87
16
86
57
13
50
41
20
54
49
31
72
53
26
66
34
5
41
9
10
15
14
12
83
62
16
151
109
29
167
121
29
162
115
22
172
118
21
192
124
24
182
110
19
122
62
4
89
46
5
91
52
13
255
251
153
255
255
255
189
255
141
255
255
255
255
255
255
200
131
54
225
147
43
231
158
50
184
129
39
119
80
20
70
37
10
67
33
25
51
22
21
9
8
11
15
19
13
15
5
9
82
52
0
107
68
10
89
53
9
44
28
11
24
13
13
32
10
18
29
12
12
36
29
17
20
21
8
58
43
18
48
25
29
36
20
13
77
49
9
39
29
14
34
27
25
85
45
10
125
80
20
131
87
23
108
68
16
97
62
10
87
59
13
66
41
13
24
14
14
19
10
5
47
20
17
54
36
11
39
35
20
52
42
22
76
63
28
48
47
29
10
11
15
13
11
13
17
7
29
45
13
36
80
33
22
109
68
19
97
67
15
88
62
5
105
83
8
115
98
17
114
101
33
105
104
82
36
4
132
72
82
173
58
68
112
33
49
60
22
34
34
38
55
42
59
76
76
58
86
117
59
88
135
89
98
125
105
107
130
106
121
153
80
77
60
38
43
7
17
34
12
28
14
8
5
2
17
35
16
12
87
47
16
53
33
44
28
65
68
24
73
68
103
121
55
223
181
55
255
196
50
255
170
37
255
153
17
255
165
20
255
176
29
255
159
28
214
131
25
165
103
21
131
86
21
94
67
18
61
43
8
47
28
2
37
19
13
28
33
18
48
38
14
6
7
11
45
31
8
25
13
6
51
31
6
90
54
5
129
79
9
131
80
14
119
74
8
117
78
10
92
58
11
69
42
18
75
36
21
90
41
15
105
55
7
109
60
10
97
46
14
64
14
27
75
29
32
94
19
31
116
50
19
105
51
17
74
30
18
63
21
10
38
10
4
11
19
10
42
43
15
73
63
18
66
43
7
37
27
12
255
255
255
255
255
215
90
47
18
95
46
18
92
40
14
67
24
7
74
33
11
108
56
25
155
83
36
161
87
36
161
90
42
168
96
50
158
87
43
126
65
26
82
43
18
59
40
24
50
41
27
59
33
22
28
17
15
49
24
10
67
38
16
98
55
24
94
54
24
82
45
17
98
53
17
121
66
24
119
66
25
84
50
21
64
41
23
61
38
24
55
33
20
75
43
21
87
48
25
69
38
20
57
31
18
51
32
17
49
43
40
92
72
62
86
69
55
94
78
59
104
88
67
79
69
59
87
67
51
159
118
95
122
93
71
18
14
6
17
9
5
26
17
12
32
21
20
44
27
24
53
33
26
113
89
77
123
100
86
98
78
71
121
96
75
135
96
62
101
60
36
57
30
18
21
6
2
15
10
1
23
12
5
32
21
11
32
22
16
50
35
21
48
29
17
2
2
2
8
4
3
10
10
4
19
12
4
26
13
6
14
4
4
15
8
8
5
4
1
16
10
0
23
10
2
17
4
0
10
1
0
10
3
0
9
5
0
7
0
0
12
7
0
16
12
0
17
9
0
5
1
2
20
10
7
26
18
11
22
17
11
18
15
10
22
19
12
27
24
14
25
22
13
17
15
8
9
5
4
7
11
4
4
8
2
4
4
1
2
7
7
7
13
5
11
7
3
5
7
2
5
11
4
11
14
6
7
11
4
3
5
1
3
0
0
2
2
0
5
1
0
8
3
0
7
3
0
4
2
0
2
1
0
6
3
0
4
1
0
4
4
0
3
1
0
3
3
0
5
5
0
1
2
0
2
6
0
8
3
0
9
4
0
5
1
0
2
5
0
2
5
0
7
8
0
4
13
0
13
6
0
7
4
0
11
5
0
11
0
0
12
4
0
9
5
0
8
4
0
8
4
0
6
3
0
2
2
0
5
5
0
3
2
0
3
4
0
7
2
0
5
3
0
2
2
0
7
4
0
7
3
0
11
4
0
7
1
0
3
3
0
7
0
0
7
1
0
3
2
0
5
3
0
9
3
0
10
4
0
10
4
0
8
2
0
5
3
0
1
3
0
2
2
0
5
4
0
1
2
0
5
1
0
5
4
0
1
2
0
1
3
0
2
1
0
3
1
0
1
2
0
1
4
0
1
4
0
2
1
0
16
9
8
173
158
118
70
52
23
176
161
120
87
64
33
4
2
0
2
3
0
6
4
0
7
2
0
5
2
0
10
2
0
9
3
0
3
3
0
1
2
0
2
3
0
1
3
0
1
2
0
1
4
0
3
4
0
8
3
0
8
5
0
4
5
0
3
6
0
2
4
0
2
4
0
3
4
0
1
5
0
0
2
0
1
0
0
2
4
0
5
5
0
1
4
0
5
1
0
4
0
0
2
2
0
1
1
0
4
0
0
5
4
0
21
5
0
16
2
0
5
2
0
7
2
0
4
3
0
4
2
0
2
1
0
6
5
0
4
2
0
5
4
0
29
28
16
255
255
255
255
255
255
210
145
100
73
49
17
56
50
22
39
38
16
14
16
18
5
17
18
54
36
16
74
49
29
255
237
149
216
164
104
255
253
164
218
177
111
31
24
16
58
42
30
106
46
27
130
65
17
117
62
8
226
184
156
199
175
122
255
225
155
255
200
123
46
36
28
59
50
33
24
43
34
103
79
34
110
79
34
77
52
33
66
58
39
30
47
37
33
41
31
39
42
22
35
45
19
43
41
13
72
46
15
66
34
18
68
38
18
77
49
18
57
37
13
20
6
2
19
18
9
29
20
11
35
17
16
51
21
14
74
33
11
100
50
5
111
63
9
99
60
10
77
43
4
48
24
11
35
23
7
29
21
10
29
15
5
26
12
4
217
190
120
255
255
255
255
255
184
255
255
255
255
255
255
95
87
62
11
16
26
63
31
19
74
41
18
35
7
25
55
15
26
65
30
20
49
25
19
41
17
8
42
22
25
49
24
21
75
49
15
35
24
12
30
32
11
63
51
18
65
58
20
41
52
27
16
35
37
55
12
27
65
39
15
60
45
22
155
91
17
203
107
4
208
110
6
191
106
8
153
90
22
106
55
17
95
58
20
104
73
23
115
81
23
116
77
16
133
84
15
131
82
11
96
54
2
100
55
6
64
40
13
36
28
18
43
26
17
43
30
14
10
15
7
37
15
10
52
21
13
44
5
16
34
2
13
20
17
10
15
22
11
59
44
32
113
76
5
99
86
51
71
77
75
19
35
62
49
35
27
86
101
121
29
55
93
36
38
44
88
107
149
137
175
250
155
193
255
128
132
168
75
44
24
6
45
95
78
88
66
110
99
64
107
91
83
94
92
122
61
49
71
12
33
28
26
44
28
36
37
31
20
46
34
40
68
27
128
100
17
157
101
6
157
82
12
137
56
22
127
49
29
116
45
31
97
34
31
82
26
31
71
22
25
62
19
24
77
29
21
95
39
16
96
36
14
89
34
15
95
39
8
96
51
10
62
31
3
32
9
5
41
9
17
68
33
14
117
69
9
130
84
5
100
59
4
73
35
8
79
36
10
84
31
15
91
29
22
92
27
21
57
14
7
18
7
4
46
40
19
65
42
20
62
24
16
49
15
7
39
22
10
37
21
3
78
54
11
132
94
21
168
105
15
152
87
7
116
76
14
87
59
12
82
52
4
73
38
5
72
35
8
62
28
9
52
25
10
53
31
17
29
26
19
16
25
18
255
255
255
255
255
220
73
38
16
29
11
7
10
8
4
50
28
7
63
34
5
61
38
11
67
48
21
51
44
23
43
35
21
52
33
22
31
17
14
23
8
8
26
8
2
9
10
5
25
18
9
59
32
11
23
14
9
39
18
5
41
22
9
51
28
13
62
29
12
87
43
15
95
45
9
57
21
4
50
15
8
61
25
4
61
32
3
31
18
2
17
10
7
27
13
12
26
12
10
42
16
11
48
14
8
47
17
12
97
70
56
91
75
62
56
51
52
39
35
35
5
10
18
27
33
33
76
65
52
157
116
91
107
81
57
17
13
1
32
19
13
26
19
9
14
14
7
20
15
10
39
25
15
88
63
45
141
108
80
144
107
82
109
83
59
86
60
37
26
16
3
4
2
0
7
4
0
9
6
0
24
10
4
31
17
6
25
10
5
28
16
4
11
20
5
25
17
4
14
7
0
16
4
2
17
10
2
50
21
9
19
9
3
14
3
8
12
4
1
33
16
1
22
7
1
11
1
0
4
2
0
1
2
0
11
5
0
20
5
0
13
7
0
13
10
0
8
7
0
13
9
0
12
5
0
8
2
0
6
5
0
4
5
0
15
5
0
12
4
1
8
8
7
20
21
14
28
28
17
28
29
14
24
26
13
18
24
13
11
17
8
8
11
2
7
5
2
3
5
0
1
6
4
3
5
2
13
14
8
21
25
15
27
29
18
29
25
17
24
18
13
14
12
7
2
9
3
1
7
1
2
1
0
1
4
0
5
0
0
4
3
0
1
2
0
2
2
0
2
6
0
2
1
0
1
7
0
11
4
0
7
5
0
10
7
0
7
8
0
7
5
0
13
1
0
15
6
0
12
5
0
5
4
0
7
1
0
5
5
0
4
5
0
4
2
0
4
3
0
4
2
0
4
2
0
7
1
0
2
3
0
2
2
0
1
2
0
2
4
0
4
4
0
5
2
0
8
4
0
6
3
0
8
1
0
8
5
0
5
2
0
5
4
0
4
3
0
4
2
0
2
1
0
2
1
0
1
2
0
3
2
0
7
0
0
5
1
0
2
3
0
2
4
0
4
1
0
2
4
0
8
3
0
9
6
0
12
7
0
7
3
0
1
2
0
6
2
0
4
1
0
7
3
0
7
2
0
3
4
0
0
4
0
140
126
98
123
107
62
141
127
99
127
105
62
4
0
0
2
2
0
5
2
0
6
2
0
7
1
0
4
3
0
5
5
0
4
6
0
2
5
0
3
4
0
6
6
0
11
10
0
13
10
0
11
7
0
10
8
0
6
4
0
5
1
0
7
1
0
8
1
0
7
2
0
5
1
0
1
4
0
1
3
0
4
2
0
8
4
0
10
2
0
8
4
0
5
2
0
4
2
0
1
3
0
2
2
0
0
2
0
7
4
0
23
6
0
11
2
0
1
2
0
5
2
0
2
3
0
4
1
0
6
0
0
7
3
0
5
2
0
14
3
0
92
88
45
255
255
255
255
255
255
182
137
80
56
36
21
33
27
11
44
39
11
18
5
8
32
11
12
56
16
18
77
25
20
148
104
69
255
255
174
203
146
69
255
255
196
106
61
18
77
39
2
68
44
4
108
80
20
122
92
31
166
129
83
255
255
197
97
65
44
255
255
209
169
109
27
159
109
27
139
102
33
198
139
38
255
189
49
255
192
52
255
173
45
255
169
39
255
186
40
255
183
31
255
160
22
234
134
21
193
103
7
166
81
12
152
72
19
129
61
20
101
46
18
90
44
12
94
47
6
85
41
13
60
20
19
33
10
19
6
10
20
7
5
21
42
14
16
60
23
13
40
12
13
12
7
19
19
16
14
10
10
4
12
7
10
19
11
7
165
141
93
255
255
255
255
255
210
255
255
228
255
255
255
167
165
116
21
48
46
10
45
43
55
34
34
45
10
16
79
45
8
55
43
21
30
24
11
37
17
12
76
40
21
96
59
4
70
45
9
9
6
7
62
42
11
91
58
18
91
60
28
91
61
35
100
72
31
49
46
24
96
59
3
111
80
20
56
38
11
26
10
1
35
25
8
50
35
15
70
47
3
58
31
10
62
43
7
48
36
5
51
45
14
80
68
22
97
63
17
87
52
6
23
14
2
29
14
2
24
11
8
46
41
19
48
45
17
8
18
25
31
29
20
38
43
30
54
51
29
70
56
19
87
56
9
75
39
7
50
26
5
82
44
28
100
65
18
73
70
77
97
96
38
107
113
80
101
98
25
79
91
98
26
37
90
22
36
91
43
65
100
45
63
69
16
7
75
19
53
180
23
21
84
58
22
77
68
60
69
43
59
81
21
56
124
30
24
116
106
35
65
137
50
43
146
60
43
175
92
17
179
107
7
141
79
6
111
55
15
80
43
27
32
35
27
86
71
27
88
65
21
53
37
11
23
13
2
60
39
13
83
48
7
70
34
8
59
22
21
58
18
24
64
24
27
73
29
29
72
15
27
96
33
28
127
51
27
162
73
24
179
91
21
149
80
12
111
59
13
95
51
12
94
50
13
102
54
10
103
59
6
82
53
7
50
30
9
30
11
7
41
16
11
48
28
14
54
36
12
52
29
12
42
32
23
41
3
19
85
34
11
90
34
9
78
21
18
88
43
31
64
15
29
62
41
32
70
33
30
53
14
28
14
22
24
30
45
14
55
54
12
67
61
20
70
64
22
70
58
18
57
44
13
12
18
8
255
255
255
255
255
223
43
25
7
15
7
4
30
13
4
29
16
5
41
24
7
14
14
8
42
20
8
76
35
8
85
45
17
83
44
21
62
28
14
21
11
5
51
25
8
85
38
11
80
33
11
83
38
8
59
23
4
72
35
8
73
38
11
42
23
7
45
24
8
43
21
10
9
7
8
53
25
7
64
30
5
61
38
12
55
39
16
40
25
11
37
16
4
56
18
5
69
26
3
72
36
17
85
43
18
95
44
18
118
73
50
90
69
57
87
69
69
133
96
86
196
141
110
239
178
134
229
173
130
188
141
98
102
81
46
54
44
23
43
31
19
26
20
14
21
15
11
22
11
10
19
8
8
18
7
6
23
15
7
42
29
20
39
28
20
38
25
15
21
15
1
8
5
0
5
5
0
4
5
0
17
6
3
24
14
4
20
15
1
7
3
2
27
17
9
19
24
14
28
24
11
18
8
2
36
19
3
32
11
7
23
13
6
16
7
3
20
7
1
45
18
2
15
5
0
12
1
0
11
1
0
15
5
0
25
14
0
14
10
0
2
1
0
11
10
0
7
4
0
21
15
0
7
4
0
10
9
0
10
5
0
5
4
0
20
7
0
12
5
0
2
1
0
3
3
0
4
5
0
5
3
0
5
4
0
5
5
1
11
6
3
19
10
4
20
9
3
14
10
2
10
15
4
11
15
7
8
14
7
10
11
5
12
1
0
5
4
2
21
8
5
15
5
6
7
3
3
9
7
2
9
7
5
7
7
4
4
7
1
4
8
0
3
6
0
5
3
0
3
5
0
3
2
0
2
4
0
7
2
0
8
4
0
5
2
0
4
3
0
4
2
0
3
2
0
5
2
0
3
3
0
0
4
0
4
4
0
2
4
0
3
2
0
4
5
0
2
5
0
2
3
0
4
3
0
9
4
0
6
2
0
4
2
0
3
4
0
2
1
0
4
0
0
2
3
0
5
4
0
8
3
0
4
2
0
3
5
0
2
0
0
3
5
0
7
1
0
4
2
0
3
1
0
5
4
0
4
6
0
4
5
0
2
5
0
5
5
0
1
2
0
3
5
0
5
2
0
2
5
0
9
4
0
6
3
0
4
4
0
7
2
0
5
3
0
5
3
0
8
4
0
7
3
0
4
2
0
5
1
0
1
2
0
100
85
67
154
138
89
94
84
65
157
136
84
10
2
0
2
3
0
5
4
0
5
4
0
7
2
0
2
1
0
8
0
0
7
1
0
8
4
0
9
7
0
10
7
0
10
5
0
7
5
0
4
3
0
3
5
0
1
1
0
2
2
0
5
1
0
4
0
0
2
0
0
6
3
0
2
2
0
3
1
0
1
1
0
5
1
0
3
1
0
4
3
0
1
2
0
5
1
0
4
3
0
2
5
0
3
4
0
9
4
0
19
4
0
6
2
0
1
2
0
2
4
0
5
3
0
5
3
0
8
1
0
8
2
0
8
0
0
10
2
0
255
241
139
255
255
255
255
224
158
255
241
154
255
232
130
211
130
54
110
57
24
62
15
27
87
38
26
116
61
10
109
60
5
75
40
10
255
255
178
85
79
55
255
255
195
148
110
63
41
16
21
82
34
18
130
69
8
166
100
13
182
117
32
255
255
199
178
133
76
255
255
196
199
165
103
30
28
19
17
24
29
21
41
51
61
38
47
88
30
29
108
46
28
90
13
26
77
25
34
74
17
38
93
5
38
115
24
36
115
27
29
97
24
21
76
23
16
40
8
8
3
19
12
29
43
21
20
34
18
24
7
3
46
23
8
47
14
17
44
1
31
50
8
35
41
16
38
29
29
36
38
50
34
24
56
41
32
65
46
24
66
48
34
75
58
45
87
61
107
117
72
255
255
255
255
255
207
246
255
129
255
255
248
255
255
162
23
27
18
42
43
19
69
55
15
89
67
22
75
64
29
42
42
21
43
34
8
47
33
13
47
37
11
47
37
7
31
23
11
35
29
8
70
45
5
67
33
6
53
32
10
32
29
9
72
41
12
119
90
23
102
82
24
55
57
26
56
18
22
123
39
17
152
64
23
157
84
5
127
71
15
87
34
4
82
31
14
91
36
7
115
67
22
128
80
19
92
66
32
36
37
36
16
11
28
16
3
20
29
14
15
67
49
23
26
23
20
26
37
32
19
19
20
23
11
16
43
31
19
57
41
15
70
39
11
86
34
10
123
50
14
183
87
24
236
132
22
233
155
51
193
140
78
150
110
80
119
85
27
87
83
69
50
56
55
2
29
34
13
43
122
44
107
253
52
131
255
71
107
180
57
56
50
48
21
45
57
65
99
74
51
68
83
49
1
82
39
21
80
41
14
55
28
39
26
17
26
10
24
29
2
42
36
18
39
27
49
31
13
84
65
30
82
74
39
48
53
37
45
54
24
76
67
18
68
64
17
50
49
15
59
51
13
51
41
10
60
37
0
97
57
3
119
71
8
122
70
3
113
64
8
92
53
8
71
42
7
87
56
13
116
81
21
122
92
18
99
81
19
77
64
19
91
66
19
102
63
7
72
39
15
31
5
11
9
17
21
11
18
17
40
24
6
53
29
3
69
38
2
117
63
3
163
88
9
160
93
11
137
86
7
147
97
5
149
95
6
155
98
13
164
96
4
146
74
4
98
45
10
71
38
8
64
37
7
52
19
15
58
15
15
59
14
16
57
24
17
65
22
12
105
51
5
130
72
7
255
255
255
255
255
221
48
22
9
50
24
8
23
10
5
8
7
2
44
27
6
77
47
18
86
60
29
83
63
32
82
60
28
77
50
21
63
36
14
52
25
8
36
13
6
14
10
4
45
26
8
52
30
11
19
8
2
74
39
11
54
24
5
35
16
4
35
22
4
19
18
1
27
15
7
25
19
14
35
31
15
27
24
10
20
11
4
16
19
15
8
7
5
32
18
7
57
25
7
78
35
22
90
40
26
99
58
42
143
114
93
173
149
124
198
163
140
195
154
127
179
131
95
145
94
66
114
66
41
82
52
22
35
19
6
17
22
14
45
40
26
58
47
31
55
44
26
48
35
18
44
29
15
37
24
11
21
12
5
2
1
2
17
7
2
22
12
5
13
12
0
4
4
0
2
3
0
5
2
0
12
6
1
20
11
4
24
19
7
28
25
8
37
25
11
21
8
4
37
26
11
16
12
3
40
17
2
29
10
1
15
1
5
26
16
10
28
17
10
41
18
7
22
8
2
14
3
0
16
0
0
31
11
1
35
15
2
22
8
1
6
4
0
10
7
0
15
12
0
15
14
0
14
3
0
19
11
0
7
2
0
18
7
0
17
7
0
4
3
0
4
3
0
3
4
0
2
2
0
3
0
0
5
2
0
4
2
0
5
2
0
8
3
0
3
2
0
7
1
0
5
2
0
8
5
2
13
12
8
14
22
15
22
28
18
31
26
17
27
20
13
7
13
7
3
10
4
2
7
3
2
3
2
4
3
4
1
4
2
3
0
0
1
4
1
5
10
2
11
17
2
7
17
2
5
11
1
0
7
0
2
2
0
4
3
0
4
3
0
1
4
0
3
2
0
2
7
0
2
6
0
0
3
0
3
2
0
2
4
0
3
7
0
4
10
0
3
7
0
4
5
0
4
3
0
7
3
0
5
4
0
5
1
0
6
2
0
6
3
0
7
2
0
5
2
0
2
2
0
4
3
0
4
0
0
5
3
0
4
2
0
2
3
0
5
2
0
7
1
0
7
2
0
5
4
0
5
2
0
6
1
0
1
2
0
5
1
0
3
7
0
5
7
0
4
4
0
3
3
0
6
7
0
6
3
0
2
5
0
4
0
0
5
3
0
5
1
0
5
1
0
2
1
0
5
4
0
2
1
0
7
1
0
60
44
34
176
154
103
29
26
29
177
157
103
28
18
4
6
1
0
8
3
0
8
5
0
4
1
0
4
3
0
11
3
0
8
4
0
11
4
0
12
4
0
9
3
0
1
1
0
4
4
0
0
1
0
7
4
0
8
2
0
4
1
0
4
2
0
4
1
0
4
2
0
3
1
0
4
3
0
0
2
0
7
2
0
6
1
0
5
0
0
2
1
0
0
3
0
2
5
0
4
5
0
6
1
0
7
6
0
13
6
0
19
3
0
1
3
0
5
1
0
4
7
0
1
2
0
4
4
0
5
2
0
5
0
0
8
2
0
104
90
45
255
255
255
255
255
255
255
255
173
140
115
55
123
97
86
255
239
167
255
229
140
128
93
54
48
46
13
94
71
23
100
58
4
120
66
4
255
188
97
255
245
137
194
163
122
255
246
146
108
75
8
94
67
11
45
27
8
7
11
22
4
8
19
218
181
111
255
255
175
207
162
104
255
255
185
59
52
25
48
44
31
43
43
29
28
37
30
18
28
39
53
26
43
54
19
37
39
19
39
30
36
41
17
31
39
12
22
36
25
9
30
24
4
25
13
18
25
31
31
25
15
21
23
21
22
27
39
39
31
24
17
25
24
12
27
25
22
34
16
21
21
16
34
17
37
39
18
37
31
16
38
35
20
17
18
20
16
22
26
9
17
28
21
7
24
39
27
13
86
68
27
255
255
208
255
255
225
255
255
233
255
255
213
255
255
165
73
40
36
42
15
25
26
7
24
22
16
12
34
12
9
45
10
28
52
0
37
39
4
29
28
19
13
29
31
16
26
37
25
51
52
22
83
69
18
117
85
22
152
104
30
170
120
37
130
95
25
57
43
12
26
13
9
8
14
14
48
25
16
48
37
12
49
55
22
66
63
24
74
71
25
60
57
31
48
45
22
44
45
28
49
46
21
43
36
7
5
9
0
26
20
8
38
7
17
50
7
24
31
9
23
30
38
26
49
53
28
76
72
31
73
53
15
50
39
17
20
16
4
7
5
7
12
11
7
26
5
10
68
42
7
89
61
17
159
95
21
185
117
13
132
86
10
57
29
24
76
38
8
117
81
55
132
102
93
104
76
82
31
13
41
14
5
25
66
28
81
103
55
94
138
91
106
158
124
141
153
119
124
131
76
53
106
46
8
115
47
30
165
75
42
210
107
26
209
109
53
209
105
19
228
121
10
225
119
14
180
88
22
152
84
42
115
64
38
61
17
25
41
11
16
105
49
8
196
105
11
230
130
14
198
120
17
143
93
13
95
61
13
67
30
20
50
10
27
31
17
26
3
23
14
21
21
8
2
13
11
19
12
14
39
14
12
47
17
10
47
24
15
62
30
14
98
49
13
99
51
8
98
60
12
47
35
11
14
5
12
18
18
13
34
21
7
34
20
0
52
32
4
50
23
5
49
16
16
70
22
17
74
23
12
45
9
18
22
25
24
41
11
14
65
19
11
67
17
20
57
9
24
37
14
26
28
12
23
19
14
26
15
18
27
22
17
30
39
14
27
47
15
23
59
18
22
72
31
18
255
255
255
255
255
218
31
16
2
45
22
6
53
25
8
57
26
7
43
21
9
2
2
5
39
15
2
53
23
5
55
28
7
39
22
7
14
8
5
25
10
6
27
8
3
8
4
1
26
13
3
37
21
4
65
36
10
65
33
11
17
6
2
11
10
4
17
17
7
8
5
8
33
14
5
23
10
10
15
12
13
44
27
4
97
52
15
112
48
9
91
27
13
71
13
20
70
13
18
80
34
31
81
32
31
90
46
51
132
108
100
119
92
79
127
69
46
210
136
97
255
185
131
253
178
121
192
140
94
155
116
76
144
108
67
151
111
70
107
74
49
60
41
31
36
28
16
29
23
8
22
16
4
24
18
7
32
22
7
31
19
5
27
15
5
18
11
2
10
7
0
5
4
0
4
2
0
4
5
0
6
5
0
8
3
0
6
4
0
17
10
2
34
21
10
44
30
14
35
26
10
11
8
2
25
8
2
33
11
0
42
17
7
49
16
4
44
17
5
33
15
6
21
10
4
9
4
0
13
4
0
33
17
2
10
3
0
22
11
2
11
1
0
8
2
0
19
9
0
11
2
0
24
8
0
24
8
0
11
3
0
26
8
0
8
3
0
15
1
0
15
5
0
8
3
0
2
4
0
6
4
0
9
3
0
5
0
0
5
2
0
8
1
0
2
0
0
3
0
0
5
0
0
10
4
0
13
5
0
6
4
0
4
1
0
10
1
0
7
1
1
7
4
2
9
5
1
11
5
2
11
7
5
9
8
4
7
10
1
5
11
0
2
9
2
6
7
0
6
5
0
6
4
0
7
6
2
1
5
0
1
2
0
3
5
0
3
5
0
6
7
1
4
10
3
4
9
3
2
5
1
4
2
0
3
1
0
1
2
0
1
4
0
5
5
0
7
2
0
7
2
0
6
3
0
8
0
0
10
2
0
6
4
0
6
4
0
8
5
0
5
4
0
5
1
0
5
2
0
4
4
0
5
0
0
1
1
0
1
1
0
7
2
0
7
4
0
5
4
0
4
3
0
8
4
0
11
2
0
4
1
0
6
2
0
5
5
0
5
7
0
6
3
0
4
1
0
5
5
0
3
4
0
6
1
0
0
2
0
2
2
0
3
1
0
4
2
0
4
2
0
5
1
0
4
3
0
8
1
0
3
3
0
22
15
11
171
152
112
48
42
14
174
157
115
63
57
25
5
3
0
4
1
0
6
3
0
13
6
0
13
4
0
12
2
0
5
2
0
2
1
0
2
2
0
3
1
0
7
4
0
5
4
0
3
4
0
6
2
0
3
1
0
5
3
0
2
0
0
2
2
0
4
5
0
2
0
0
2
4
0
4
0
0
5
1
0
4
2
0
5
2
0
2
2
0
4
1
0
1
1
0
3
4
0
2
4
0
6
6
0
19
5
0
20
3
0
6
4
0
4
1
0
3
7
0
0
1
0
3
5
0
4
3
0
5
4
0
5
2
0
255
254
137
255
255
255
255
255
239
225
155
93
255
255
151
255
255
122
182
94
12
144
147
140
255
255
212
255
240
170
64
81
74
63
5
38
70
7
43
82
8
34
255
255
176
18
27
30
255
255
204
111
124
68
18
66
50
17
57
51
5
49
50
2
58
57
54
52
49
255
255
207
42
38
39
255
255
228
89
93
78
2
38
41
11
24
19
15
7
13
25
7
30
33
6
31
48
22
23
45
22
17
22
25
11
6
17
8
18
11
13
8
2
10
11
20
21
26
29
28
21
19
29
23
8
24
27
13
20
26
29
25
30
48
39
26
57
53
26
43
34
31
20
16
20
8
11
10
2
5
12
2
11
44
19
25
74
40
18
89
63
14
94
71
4
103
80
14
131
103
23
173
140
34
255
255
128
255
255
179
255
255
202
255
255
163
195
170
91
83
54
29
37
11
5
22
3
9
29
14
17
29
28
25
35
30
19
17
19
11
2
11
5
19
25
11
26
26
21
8
14
22
22
22
31
35
14
24
26
3
20
29
12
5
58
38
7
75
64
20
76
70
27
90
82
36
93
80
40
53
49
37
40
27
28
52
48
25
36
35
26
46
28
7
54
42
23
50
51
29
50
52
18
49
40
4
47
27
18
43
17
24
65
29
26
70
38
23
72
46
12
81
56
4
85
62
20
74
52
15
57
33
16
41
12
8
41
19
7
45
31
7
76
50
10
90
55
5
92
49
9
127
69
2
143
84
12
131
91
22
108
73
14
114
72
12
49
25
14
27
25
16
12
22
17
50
34
24
91
43
16
70
40
19
13
32
46
74
99
137
111
129
140
91
95
84
63
55
9
35
32
19
61
51
15
134
108
17
193
152
31
215
167
53
200
151
70
166
107
40
143
74
4
114
59
13
85
53
20
64
46
12
110
62
26
116
45
36
91
24
32
97
56
21
155
81
11
173
92
2
176
103
7
163
100
14
145
96
23
138
106
39
98
84
41
55
40
21
80
43
5
90
49
12
85
44
6
99
50
10
128
63
14
140
71
8
124
70
4
98
60
14
83
49
13
92
55
10
76
40
14
66
24
26
30
40
38
41
54
37
8
28
29
33
16
22
19
6
18
21
12
26
11
24
40
16
27
41
17
16
34
18
15
29
21
32
29
8
27
25
10
22
26
14
19
32
32
8
36
51
3
36
52
8
46
37
13
44
13
17
26
31
29
16
40
30
12
18
14
7
11
14
9
50
45
13
88
64
11
255
255
255
255
255
219
34
13
3
11
4
1
13
10
3
33
18
7
55
25
9
36
18
5
28
16
0
21
8
2
12
9
2
4
7
2
8
2
2
19
8
6
33
11
4
25
13
6
34
18
8
27
16
8
31
16
8
23
12
4
12
8
1
19
15
11
17
18
14
31
32
16
38
40
20
40
38
22
8
21
13
43
20
12
69
28
5
58
20
7
73
34
13
62
22
4
59
23
4
64
34
26
63
30
21
93
57
49
168
130
110
195
156
125
251
196
148
255
193
147
241
172
130
237
163
119
191
131
92
116
79
54
48
31
20
23
18
11
79
52
39
100
68
48
36
28
18
25
18
12
26
16
11
25
15
8
18
12
5
11
1
1
5
2
0
5
4
0
6
5
0
6
5
0
5
4
0
2
3
0
1
0
0
4
2
0
5
4
0
5
5
0
7
5
0
12
9
0
10
8
0
11
5
1
20
5
3
25
6
4
33
14
7
49
25
12
54
25
12
39
15
7
26
8
2
17
3
0
31
12
1
23
11
2
18
7
2
7
1
3
10
8
4
9
8
4
12
10
3
12
6
1
21
8
1
15
7
3
13
7
4
21
8
5
24
12
7
19
11
6
18
10
2
13
3
0
13
4
0
13
3
0
11
4
0
7
4
0
5
3
0
5
1
0
8
2
0
8
3
0
7
2
0
17
7
0
11
0
0
4
6
0
7
1
0
8
2
0
7
4
0
1
4
0
4
3
0
3
2
0
1
1
0
0
0
0
3
1
0
3
4
0
4
8
1
7
13
2
11
17
2
13
17
2
11
13
1
7
9
0
5
7
0
3
7
0
5
4
0
4
3
2
8
1
2
2
6
1
6
8
3
4
8
4
4
8
3
2
7
1
1
8
0
5
12
0
10
13
0
3
10
0
1
6
0
0
3
0
6
1
0
3
0
0
3
2
0
2
4
0
4
4
0
3
2
0
1
2
0
3
4
0
5
3
0
2
1
0
2
2
0
4
3
0
2
3
0
5
5
0
8
5
0
8
1
0
4
3
0
5
2
0
7
1
0
3
5
0
3
2
0
3
6
0
4
7
0
5
5
0
2
2
0
5
2
0
3
3
0
3
3
0
3
2
0
4
0
0
3
1
0
3
2
0
5
3
0
6
1
0
1
0
0
6
3
1
142
127
101
111
99
57
145
128
106
111
101
62
3
2
0
7
2
0
14
0
0
13
2
0
9
2
0
4
3
0
2
3
0
4
1
0
4
2
0
4
2
0
1
1
0
5
2
0
3
2
0
5
2
0
4
2
0
4
4
0
4
0
0
4
3
0
1
4
0
3
1
0
3
2
0
4
2
0
4
2
0
4
2
0
4
2
0
4
2
0
5
0
0
2
2
0
3
2
0
2
4
0
13
7
0
22
3
0
12
3
0
4
5
0
7
3
0
8
4
0
7
3
0
5
2
0
8
3
0
10
0
0
7
5
0
255
255
190
255
255
255
255
251
165
58
69
39
33
13
27
195
137
90
255
247
145
255
202
104
59
37
34
250
220
157
255
255
213
255
255
170
129
124
75
26
35
25
255
194
115
255
207
111
255
213
138
255
241
139
51
97
63
33
80
61
12
61
57
5
63
58
8
76
60
255
220
137
241
156
96
255
255
170
255
235
154
2
46
50
10
36
36
18
35
29
22
27
16
32
24
3
31
24
7
16
11
10
4
28
27
5
19
16
13
14
15
16
16
25
33
29
24
30
21
8
17
18
5
13
23
11
13
16
7
1
4
3
23
24
16
34
25
17
13
13
12
22
20
26
51
27
11
60
27
16
55
24
13
51
27
15
52
33
3
49
33
15
27
18
9
10
7
14
26
17
16
31
10
10
117
72
27
177
109
33
175
104
35
157
81
16
150
76
10
118
55
12
82
33
24
66
29
27
48
25
33
22
13
20
29
19
12
20
22
7
10
16
11
12
11
8
24
53
41
40
78
58
45
76
48
53
63
34
48
49
31
36
38
15
23
22
9
22
11
1
20
15
8
20
11
13
20
20
10
25
25
13
42
20
16
111
76
8
166
134
32
177
143
41
136
109
37
74
66
30
38
36
19
25
18
14
30
14
7
25
13
5
36
4
20
64
11
39
81
11
56
82
12
64
79
12
58
67
20
41
27
12
31
21
24
24
29
10
33
61
13
44
70
8
43
73
7
40
70
10
34
89
36
18
117
67
7
134
84
20
138
80
1
110
52
18
58
28
17
49
31
23
43
23
16
28
25
20
86
43
10
115
57
8
98
84
81
52
65
89
28
49
65
56
67
95
70
61
33
63
47
10
41
28
9
61
40
15
60
36
25
74
30
18
117
76
4
135
88
4
139
65
21
181
77
25
212
101
27
183
82
27
186
85
24
197
103
10
226
134
4
227
156
24
227
135
18
213
116
12
203
112
18
153
82
14
100
52
4
67
39
9
94
61
19
98
68
27
29
30
23
2
25
21
19
18
15
22
7
12
5
14
10
31
26
8
35
38
15
16
30
26
35
7
35
86
24
43
89
24
31
62
17
18
25
21
14
39
37
15
42
38
20
45
46
23
39
49
25
36
38
21
6
18
20
19
19
10
29
19
7
56
31
10
62
35
4
53
26
5
58
37
4
76
51
17
102
67
14
117
79
10
109
83
16
95
80
22
98
74
17
110
74
9
99
65
10
93
61
10
78
58
14
87
62
10
77
52
8
255
255
255
255
255
219
34
13
6
36
19
10
27
25
13
43
31
15
69
35
11
36
18
4
5
5
0
16
8
3
35
17
6
37
16
5
48
16
3
41
11
4
13
9
5
59
34
12
89
45
15
84
38
10
73
30
6
56
21
2
35
7
2
31
16
12
16
9
10
7
4
7
16
14
9
35
17
11
66
37
19
65
33
15
40
16
3
5
7
8
34
24
16
36
21
17
24
12
10
35
25
23
10
13
23
26
26
35
87
69
70
56
60
76
45
44
63
42
42
51
91
64
59
120
77
57
113
71
59
61
78
96
92
117
127
83
108
117
106
111
112
128
120
108
91
85
75
46
38
32
24
12
6
20
13
4
14
11
3
12
4
0
8
0
0
4
2
0
2
3
0
3
3
0
5
4
0
5
5
0
5
6
0
9
5
0
8
5
0
8
12
5
15
20
12
19
23
13
25
28
18
33
45
29
27
39
25
8
15
8
7
2
0
4
0
0
5
2
0
4
3
0
4
4
0
7
5
0
29
11
2
27
7
2
22
5
0
17
6
0
18
2
0
17
7
0
5
5
2
1
2
2
12
6
2
18
7
2
18
7
0
10
1
2
9
5
2
18
6
4
14
8
3
10
9
4
19
8
6
13
6
5
8
7
3
13
8
1
13
7
0
2
4
0
4
3
0
10
2
0
13
5
0
14
6
0
2
3
0
7
4
0
3
2
0
5
1
0
7
5
0
4
2
0
6
1
0
6
0
0
2
1
0
0
2
0
1
0
0
2
3
0
2
5
0
2
4
0
1
2
0
5
2
0
3
2
0
2
4
0
7
6
0
12
15
12
19
10
18
13
10
11
4
11
3
6
9
3
2
4
1
4
3
0
2
2
2
4
3
2
2
1
0
2
3
0
10
2
0
7
5
0
6
3
0
8
3
0
11
5
0
9
8
0
8
10
0
6
9
0
7
8
0
3
9
0
3
9
0
4
6
0
2
3
0
3
1
0
3
1
0
1
4
0
3
5
0
2
4
0
4
2
0
2
4
0
4
1
0
5
4
0
2
2
0
6
5
0
9
3
0
8
2
0
4
3
0
3
4
0
3
2
0
3
2
0
0
3
0
2
2
0
4
4
0
7
0
0
3
3
0
3
4
0
1
1
0
3
1
0
2
3
0
6
5
0
104
91
76
158
138
98
105
91
77
158
139
99
10
3
0
10
1
0
8
2
0
2
2
0
2
2
0
2
1
0
4
1
0
2
2
0
2
2
0
2
2
0
2
2
0
0
1
0
4
2
0
4
1
0
1
3
0
7
5
0
5
4
0
2
3
0
6
1
0
3
2
0
5
0
0
4
1
0
3
2
0
4
0
0
3
1
0
3
1
0
5
2
0
4
1
0
5
3
0
1
2
0
16
7
0
17
1
0
7
2
0
9
4
0
7
5
0
3
5
0
5
1
0
8
2
0
12
4
0
10
5
0
93
77
36
255
255
211
255
255
239
255
251
165
255
255
162
213
164
77
74
51
10
42
39
38
194
157
118
255
255
173
255
255
140
68
82
32
255
166
99
255
255
157
255
225
116
30
5
9
255
255
180
40
7
10
255
255
158
59
37
21
16
51
35
12
44
36
4
50
43
10
58
49
120
136
93
255
255
191
92
60
26
255
255
185
66
42
37
45
5
22
79
16
18
106
30
20
117
38
21
120
41
24
114
43
29
99
49
33
82
37
8
69
27
8
64
15
24
53
26
45
40
28
51
39
17
40
43
22
26
45
18
25
51
10
24
62
19
33
70
3
43
74
23
43
63
20
30
58
12
20
49
14
35
31
38
56
20
50
65
24
42
61
45
14
46
74
17
28
96
39
16
104
54
9
107
62
8
102
60
4
87
44
12
58
27
12
22
12
6
18
15
15
15
16
27
30
4
26
44
19
15
47
32
18
38
27
7
31
19
15
19
25
14
7
8
3
35
24
14
58
28
24
59
14
32
40
12
41
18
31
49
9
42
41
23
32
21
25
26
14
32
24
10
27
22
13
21
17
18
29
28
16
32
36
15
38
46
21
29
46
27
26
22
16
26
11
10
37
29
14
43
29
20
53
24
15
76
40
17
101
64
15
93
64
16
43
35
15
19
15
17
22
11
21
18
14
20
19
8
17
49
14
15
70
30
26
52
35
5
39
29
14
39
12
20
26
7
5
14
6
9
33
11
20
43
14
29
43
17
5
42
27
14
60
41
17
65
53
22
76
67
73
83
66
66
100
68
70
43
25
24
44
43
40
40
32
52
63
50
69
62
59
64
56
80
129
38
50
88
50
32
26
129
111
39
206
211
150
255
255
255
255
255
255
255
255
255
255
251
153
255
209
109
255
175
85
194
130
57
114
67
24
94
42
18
131
64
11
123
63
4
121
60
9
148
92
10
178
112
15
164
103
16
184
121
21
173
117
31
137
91
24
125
84
21
105
63
12
49
17
15
32
49
38
11
35
32
11
25
17
35
29
6
59
34
5
89
54
16
105
66
18
102
65
13
86
61
18
30
25
10
17
7
10
41
25
9
48
22
12
32
25
9
21
4
12
60
43
2
43
29
4
53
37
7
32
10
18
42
27
13
80
41
9
109
53
12
103
47
26
94
32
34
81
23
35
56
14
32
43
6
27
43
10
35
42
10
41
41
7
34
38
20
14
57
36
3
60
42
7
105
68
7
141
87
14
149
89
12
119
74
11
255
255
255
255
255
211
109
53
23
90
44
20
66
35
15
78
46
21
73
42
16
58
28
10
74
35
12
68
29
11
42
20
7
25
14
3
25
12
1
47
17
1
78
33
8
105
49
18
99
47
16
75
37
16
62
28
9
56
26
3
25
8
2
8
10
7
11
13
9
18
18
14
20
25
19
21
24
18
18
18
11
24
13
7
24
7
3
18
3
9
24
11
10
38
19
7
32
12
7
28
16
15
12
11
15
14
15
19
46
41
36
34
42
52
17
26
51
60
51
62
97
70
72
87
79
79
138
148
132
249
231
193
255
249
210
255
241
209
255
240
214
255
246
218
255
238
212
204
192
174
119
109
100
68
69
57
75
80
55
66
67
39
30
25
11
19
8
10
29
22
18
25
25
17
15
16
7
16
18
9
48
48
35
96
94
74
152
151
126
208
202
176
232
220
197
204
198
175
136
140
119
93
103
81
88
95
71
67
68
46
34
26
11
19
12
3
14
7
2
12
4
3
13
6
3
9
9
1
10
6
1
19
0
3
19
2
4
23
5
3
26
6
2
20
7
3
18
5
3
20
2
1
22
4
1
27
2
3
30
3
4
31
4
5
33
8
7
27
10
6
15
4
2
18
3
4
9
2
0
12
0
2
10
3
2
7
5
2
15
7
0
5
2
0
9
1
0
9
3
0
10
4
0
10
3
0
14
2
0
10
2
0
4
2
0
4
3
0
6
5
0
2
4
0
1
5
0
4
6
0
2
4
0
0
2
0
1
4
0
4
4
0
2
3
0
4
2
0
5
3
0
8
3
0
5
1
0
3
2
0
4
4
0
32
34
32
20
21
24
29
32
32
7
2
0
9
5
1
9
7
3
7
10
4
6
12
3
7
9
1
6
10
0
5
11
0
4
10
0
3
7
0
2
5
0
4
3
0
7
2
0
2
4
0
7
4
0
1
0
0
2
2
0
4
2
0
2
3
0
1
2
0
3
0
0
3
0
0
2
1
0
3
2
0
4
3
0
2
4
0
3
6
0
2
4
0
4
5
0
0
9
0
3
12
0
5
6
0
7
2
0
8
4
0
5
7
0
5
7
0
4
6
0
0
8
0
2
11
0
3
10
0
2
5
0
7
2
0
6
2
0
4
1
0
1
2
0
3
1
0
3
2
0
4
2
0
66
55
46
192
167
125
46
42
40
193
166
122
18
15
4
6
2
0
2
1
0
1
5
0
1
5
0
0
4
0
3
4
0
4
3
0
5
1
0
3
2
0
1
0
0
2
0
0
1
1
0
0
1
0
2
2
0
4
4
0
3
1
0
4
1
0
6
0
0
2
1
0
5
2
0
2
2
0
6
1
0
7
4
0
5
4
0
3
2
0
3
1
0
0
1
0
7
4
0
7
5
0
15
5
0
10
2
0
5
2
0
4
1
0
1
1
0
2
2
0
4
3
0
12
1
0
10
4
0
12
7
1
255
199
103
255
255
255
255
255
188
126
103
41
238
176
123
255
255
220
255
255
164
151
91
35
55
7
16
30
37
50
220
177
131
255
255
191
255
255
150
18
21
15
255
245
138
255
255
179
255
206
111
86
66
47
255
248
150
177
119
58
21
27
27
18
37
37
7
47
39
14
51
34
36
61
36
255
255
189
178
149
93
255
255
181
170
126
74
31
40
25
43
31
20
41
14
9
44
15
4
43
7
12
47
23
24
41
20
20
41
21
13
31
12
15
13
4
10
4
12
7
7
25
14
9
36
31
14
36
42
31
10
36
49
19
22
28
5
19
10
13
22
29
22
21
24
25
23
15
25
29
31
24
31
45
15
21
61
21
18
81
34
17
88
42
18
74
37
18
54
32
10
27
20
3
18
13
10
20
16
11
38
30
13
49
30
3
58
27
5
80
43
11
107
67
14
135
86
12
151
97
8
145
89
8
131
69
14
133
61
20
145
74
11
142
76
7
114
47
17
73
7
34
43
29
47
25
40
42
13
34
27
23
24
14
15
10
5
1
7
6
17
14
10
29
24
8
33
29
11
39
38
18
29
33
18
10
18
10
44
37
11
77
66
26
80
64
20
58
43
20
42
33
21
38
22
13
26
30
31
27
24
17
94
54
5
131
72
9
147
75
26
144
62
44
125
44
55
105
32
54
77
28
36
34
25
5
21
19
27
10
14
26
15
7
17
17
11
7
10
18
14
17
20
6
56
21
31
88
23
52
96
22
55
79
21
47
48
10
40
51
25
83
58
5
88
115
55
101
161
72
57
207
141
127
214
197
222
197
234
255
170
222
255
158
202
236
153
194
234
155
201
255
172
222
255
179
232
255
165
186
216
139
135
119
115
110
179
105
80
110
116
102
158
123
120
147
96
77
36
65
44
54
70
46
23
90
39
15
56
47
21
48
63
22
67
70
20
84
50
5
17
18
4
11
4
5
44
35
12
32
28
19
42
27
6
80
63
20
80
63
28
71
51
15
98
66
18
150
95
11
175
107
8
172
99
4
140
79
13
104
55
21
103
47
14
140
70
15
134
62
21
121
55
19
115
53
12
81
32
11
75
32
11
69
34
14
85
50
15
64
27
13
81
48
5
85
56
15
121
81
9
140
87
6
83
61
8
24
36
20
22
29
15
40
28
20
39
20
32
22
8
20
43
15
15
39
23
4
13
17
7
17
8
12
35
24
13
47
24
10
18
4
8
56
34
12
75
40
9
123
64
2
255
255
255
255
255
203
17
8
4
13
16
6
28
26
13
64
38
17
55
29
9
49
23
9
44
19
8
58
21
10
45
19
6
42
20
4
81
33
8
106
39
12
85
34
13
54
27
10
30
13
5
51
31
17
71
37
15
86
46
14
70
41
10
37
21
3
26
14
1
39
17
4
36
13
2
31
9
2
47
14
2
66
22
4
88
33
5
128
55
10
166
74
14
170
72
10
148
58
4
128
48
6
132
56
14
173
91
41
197
115
59
138
77
40
46
13
9
38
54
52
85
81
68
79
79
61
64
52
39
39
41
39
35
31
35
12
8
5
71
61
56
144
123
102
193
180
144
250
238
200
255
252
221
255
242
203
253
214
173
225
196
157
221
196
164
234
203
169
215
185
147
158
137
105
75
67
46
82
76
62
153
137
109
169
147
115
142
119
94
87
66
56
49
34
34
82
69
66
111
96
90
90
64
60
66
66
59
46
64
48
15
14
11
81
81
74
168
161
149
198
189
176
147
143
134
66
71
66
14
26
22
5
11
7
9
14
11
5
28
24
7
29
27
5
20
19
16
11
7
19
2
0
17
4
0
15
2
0
14
4
0
11
3
0
6
5
0
3
3
0
4
4
1
15
5
4
21
3
6
20
2
5
19
4
3
20
2
1
14
7
0
5
3
0
1
2
0
1
5
0
7
3
0
11
2
0
11
2
0
12
4
0
15
3
0
15
1
0
12
4
0
10
2
0
11
2
0
10
1
0
7
4
0
6
4
0
5
5
0
4
3
0
4
3
0
8
3
0
9
3
0
4
1
0
5
4
0
2
5
0
2
3
0
30
30
34
21
18
14
36
30
33
7
7
5
6
2
0
7
1
0
9
4
0
9
3
0
4
5
0
2
7
0
3
3
0
6
5
0
4
5
0
1
4
0
2
4
0
7
4
0
7
6
0
7
10
0
3
10
0
5
8
0
6
10
0
8
10
0
8
7
0
3
4
0
1
1
0
3
2
0
1
5
0
5
5
0
5
2
0
4
1
0
4
2
0
5
6
0
4
3
0
4
5
0
2
3
0
1
1
0
5
2
0
3
2
0
4
4
0
1
3
0
3
8
0
4
8
0
4
10
0
4
10
0
2
9
0
0
8
0
3
7
0
4
9
0
6
12
0
5
9
0
4
7
0
25
15
18
187
162
122
41
26
13
190
166
120
71
51
25
4
2
0
5
4
0
4
2
0
3
0
0
3
4
0
3
5
0
4
4
0
6
5
0
5
4
0
5
1
0
6
0
0
4
0
0
3
2
0
0
1
0
2
4
0
1
3
0
2
1
0
5
1
0
2
2
0
3
2
0
6
2
0
4
3
0
10
7
0
12
4
0
5
2
0
2
2
0
3
2
0
6
0
0
7
1
0
15
3
0
10
3
0
7
3
0
3
1
0
4
1
0
5
3
0
7
2
0
8
2
0
0
5
0
19
9
3
255
255
149
255
255
255
225
173
123
241
180
114
255
234
134
70
74
57
255
255
170
146
106
58
85
55
10
93
65
13
78
53
2
31
27
42
254
202
136
255
255
178
189
164
103
151
98
54
255
225
119
255
183
80
255
241
133
248
176
87
149
94
25
160
104
30
142
94
22
101
69
14
67
44
5
178
146
103
255
255
164
236
195
120
255
255
177
10
22
21
54
29
7
63
34
8
71
38
4
74
41
8
61
31
14
32
9
13
37
23
15
42
21
10
40
12
16
39
7
22
34
7
26
35
9
20
43
9
11
50
23
14
58
24
17
63
28
10
48
20
4
22
4
8
20
24
18
19
25
26
15
21
32
3
39
43
14
43
42
18
36
32
10
26
23
18
1
11
45
26
7
59
39
8
65
40
2
74
45
7
65
39
12
25
6
8
13
24
16
31
33
17
54
38
10
52
25
11
37
25
7
16
7
1
7
13
11
21
7
11
29
8
7
30
14
5
32
25
8
38
30
12
52
38
17
58
47
30
61
67
45
62
74
51
46
57
40
20
37
28
7
26
31
32
22
37
39
15
43
55
7
37
53
14
20
30
29
15
81
72
31
107
95
44
96
86
34
82
71
27
68
58
24
45
25
26
54
31
28
81
56
8
43
41
17
13
7
7
48
19
2
69
39
5
74
47
6
67
43
3
68
29
20
57
22
25
24
15
9
12
4
11
38
19
7
44
25
13
39
12
29
31
8
36
10
24
35
15
29
31
7
24
30
13
31
38
15
38
43
49
39
69
26
29
99
30
24
76
58
46
76
51
98
199
1
81
189
15
85
150
22
52
99
39
36
68
60
90
154
57
75
89
31
34
7
24
93
137
61
194
255
116
248
255
146
228
255
154
191
170
153
171
124
118
143
188
72
116
96
51
56
40
88
60
26
146
101
19
129
86
25
95
49
5
92
43
6
54
22
10
27
19
6
20
12
11
34
21
16
63
44
21
72
52
12
51
31
7
65
17
17
102
37
17
157
76
8
137
73
10
84
49
11
40
26
9
20
5
4
43
24
18
66
23
16
109
48
4
129
64
9
103
53
7
80
40
9
88
48
9
147
88
16
211
132
17
243
152
26
254
156
33
255
152
26
225
123
10
220
114
7
199
98
7
164
80
6
157
82
18
173
94
21
193
102
15
232
118
31
252
131
3
247
137
15
255
150
15
255
149
19
237
135
18
185
106
10
108
61
4
43
24
3
31
16
4
79
50
6
100
63
10
255
255
255
255
255
208
76
46
20
65
37
16
50
27
9
29
17
5
26
13
5
9
7
2
31
14
7
43
20
10
21
11
4
23
5
0
33
8
3
33
12
5
44
20
5
47
24
5
56
24
5
61
29
10
43
17
6
16
8
4
67
35
8
109
49
5
116
46
1
109
41
1
108
40
5
110
43
6
116
49
7
126
55
9
140
61
10
141
63
8
120
49
6
104
39
9
112
48
15
113
55
17
91
47
20
76
45
33
45
21
5
78
57
42
76
51
24
25
17
22
68
43
41
45
27
19
34
37
31
90
75
68
142
120
106
150
132
118
119
113
97
91
91
79
56
64
55
34
34
20
98
83
75
102
93
98
92
84
103
123
125
146
195
200
200
214
219
205
205
204
193
244
232
215
255
250
223
205
190
167
67
59
51
65
58
46
140
119
102
179
146
134
181
152
144
157
145
135
120
118
104
95
94
80
66
66
54
33
42
45
116
127
118
197
200
182
210
201
192
174
170
161
174
166
161
135
138
133
65
76
66
16
22
13
11
16
14
13
17
15
8
10
6
14
16
15
8
10
10
4
3
0
4
2
0
3
2
0
0
3
0
4
2
0
3
6
0
1
4
0
1
2
0
1
6
0
3
3
0
4
4
0
2
0
0
3
2
0
1
3
0
2
5
0
2
5
0
2
5
0
1
7
0
2
8
0
0
7
0
1
5
0
5
2
0
7
1
0
3
3
0
2
2
0
4
2
0
3
2
0
3
2
0
5
0
0
8
5
0
10
3
0
10
5
0
11
3
0
12
2
0
10
5
0
6
5
0
4
4
0
4
2
0
14
12
16
25
21
24
19
15
15
3
9
9
2
3
0
1
4
0
4
5
0
7
5
0
8
4
0
4
5
0
5
6
0
2
1
0
2
1
0
1
2
0
3
1
0
4
0
0
3
3
0
3
2
0
1
5
0
4
1
0
4
2
0
2
0
0
6
1
0
3
3
0
5
4
0
7
6
0
4
4
0
6
0
0
3
1
0
3
5
0
3
5
0
5
7
0
4
11
0
2
12
0
3
7
0
3
4
0
4
5
0
3
7
0
2
7
0
1
6
0
4
11
0
3
11
0
4
12
0
4
10
0
1
6
0
0
4
0
4
4
0
3
5
0
2
4
0
3
4
0
5
3
0
2
3
4
145
130
98
115
85
52
148
135
100
122
94
59
7
9
0
7
15
0
8
18
0
10
16
1
7
13
3
7
12
3
8
11
1
6
8
0
1
5
0
5
2
0
4
0
0
9
1
0
4
2
0
4
2
0
3
2
0
4
1
0
2
1
0
4
1
0
3
1
0
2
4
0
0
4
0
10
2
0
10
6
0
5
10
0
7
7
0
3
5
0
1
1
0
7
2
0
14
0
0
18
5
0
7
2
0
5
3
0
6
2
0
7
1
0
8
4
0
11
4
0
6
3
0
4
6
0
21
8
3
255
255
179
255
255
255
211
170
120
50
35
25
255
226
141
255
255
200
255
255
158
131
94
45
37
25
3
16
7
10
10
23
18
32
48
30
22
58
40
132
98
64
255
179
107
255
200
103
170
119
75
143
129
99
255
255
161
166
122
74
5
9
14
21
17
18
36
22
15
41
19
7
49
24
3
115
97
70
255
255
209
87
77
49
255
255
199
88
74
29
66
57
24
29
22
10
11
5
7
8
10
8
20
20
15
32
26
17
44
35
20
59
42
14
59
40
11
45
31
5
22
17
0
9
18
12
18
37
29
21
41
33
20
26
20
40
28
16
57
39
16
53
39
14
56
42
13
77
60
20
74
65
26
39
43
21
9
21
16
25
4
10
35
13
10
25
8
17
10
8
17
12
8
5
21
10
5
25
17
10
12
9
6
15
14
7
12
10
2
23
17
9
50
43
23
78
67
32
85
65
26
67
46
17
50
27
8
53
24
4
69
32
4
96
51
2
90
45
4
57
21
10
30
9
16
12
16
24
17
25
21
34
37
23
37
39
25
36
34
22
29
42
32
15
36
35
7
17
31
19
13
27
51
29
22
72
47
9
60
43
23
8
9
15
13
15
17
35
33
22
83
68
34
98
71
36
44
40
30
25
22
21
47
26
15
26
22
12
2
4
10
19
8
13
33
24
22
44
42
28
45
36
20
48
22
16
50
18
21
58
22
18
78
39
12
84
50
12
76
46
8
92
57
12
128
82
16
130
80
20
104
59
21
78
43
15
87
51
7
138
78
21
175
98
29
162
92
29
155
96
18
164
136
109
166
187
234
147
223
255
135
230
255
143
227
255
130
220
255
86
211
255
68
215
255
86
240
255
112
237
255
165
207
168
139
150
102
144
166
134
212
222
179
251
217
137
215
147
33
177
101
24
130
80
16
67
51
24
68
44
14
88
61
9
123
81
14
126
90
24
147
112
34
184
132
40
179
119
35
148
89
15
111
59
5
49
13
10
51
17
11
108
63
14
96
47
1
56
28
7
52
31
12
41
32
19
5
24
22
70
56
28
85
65
29
96
73
29
110
78
31
83
58
26
56
45
23
48
39
22
87
63
21
115
66
9
110
52
18
87
29
4
99
49
17
113
49
2
137
71
10
114
54
17
131
57
12
162
71
7
148
66
10
120
56
4
107
42
18
111
33
34
120
42
24
150
71
10
132
54
2
102
35
7
100
38
13
115
51
8
130
65
5
106
56
1
38
19
2
72
44
10
255
255
255
255
255
215
33
9
4
24
5
2
39
13
5
71
29
11
88
38
15
81
38
14
65
30
10
48
20
4
29
10
3
40
16
5
74
31
4
83
32
8
61
27
11
26
17
7
18
14
8
23
21
9
15
13
3
15
9
2
13
4
8
7
5
5
19
5
0
20
4
3
21
5
1
6
1
1
18
10
4
29
12
6
35
17
7
53
28
10
73
42
12
89
51
13
100
54
13
105
53
9
119
62
18
157
93
47
188
121
66
166
105
51
89
47
9
24
26
35
60
50
52
8
12
19
81
55
32
146
107
75
140
96
65
126
73
46
100
52
25
80
36
14
63
26
15
30
10
16
20
4
8
42
37
36
34
49
60
77
83
86
67
68
69
32
43
51
33
43
59
113
107
114
217
197
179
210
192
167
166
149
126
152
124
94
139
110
80
63
52
40
53
48
41
47
45
27
32
31
21
56
52
48
107
100
90
146
137
117
100
92
71
65
60
63
131
130
128
160
157
146
121
115
111
101
98
102
86
86
80
20
27
15
6
11
11
10
28
24
13
27
27
7
18
18
3
4
7
5
3
0
2
2
0
0
3
0
2
3
0
2
1
0
3
6
0
2
5
0
3
1
0
4
9
0
2
3
0
4
6
0
1
2
0
4
1
0
2
0
0
4
1
0
5
2
0
5
2
0
4
1
0
4
3
0
2
0
0
2
4
0
7
2
0
6
2
0
4
3
0
4
1
0
4
4
0
7
3
0
7
3
0
5
1
0
2
6
0
5
1
0
2
7
0
2
4
0
4
2
0
4
3
0
2
1
0
5
4
0
7
3
0
8
3
0
8
3
7
6
8
8
2
4
7
2
4
0
0
4
0
1
4
0
1
5
0
5
1
0
5
3
0
4
4
0
3
4
0
2
4
0
4
3
0
6
1
0
5
0
0
4
1
0
4
3
0
4
2
0
4
2
0
5
3
0
5
1
0
5
2
0
3
2
0
7
1
0
4
2
0
2
1
0
5
3
0
0
3
0
1
1
0
3
4
0
1
2
0
3
5
0
2
2
0
4
3
0
5
0
0
7
1
0
6
3
0
5
2
0
4
0
0
6
4
0
7
10
0
2
12
0
3
10
0
2
8
0
4
8
0
5
10
0
7
12
0
8
13
0
6
10
0
2
9
0
2
10
1
104
96
71
162
129
90
101
93
70
160
129
91
2
5
0
3
4
0
1
3
0
7
7
2
5
9
2
8
13
2
9
14
2
10
16
0
12
19
1
18
22
5
24
25
10
23
24
10
14
20
6
11
15
4
4
9
3
4
5
1
1
3
0
2
2
0
6
3
0
7
2
0
4
2
0
5
5
0
14
7
0
12
2
0
7
4
0
4
5
0
7
2
0
1
4
0
22
5
0
14
4
0
2
2
0
2
2
0
0
1
0
5
2
0
11
4
0
15
2
0
4
3
0
6
7
0
81
59
25
255
255
248
255
255
255
188
166
112
77
67
43
58
31
17
45
19
7
31
24
22
16
13
27
40
22
31
42
11
38
20
38
61
57
95
88
132
152
101
163
159
96
161
142
93
203
157
101
235
155
80
255
255
159
255
255
157
143
90
46
60
20
13
48
15
21
58
33
22
36
12
24
24
44
59
197
181
128
228
173
112
255
217
138
255
214
143
11
4
4
18
22
15
18
27
15
8
0
7
5
5
5
15
6
5
19
10
9
27
12
8
64
40
4
93
55
4
131
75
5
157
91
10
151
87
15
120
65
13
93
46
5
99
51
10
101
56
1
68
38
5
39
19
4
41
20
4
61
32
5
72
34
2
62
32
7
42
24
9
36
18
7
28
10
4
37
24
7
43
31
9
29
18
12
23
10
12
41
22
7
45
29
1
35
19
4
24
3
12
33
4
16
39
14
13
36
19
7
34
23
4
28
18
11
24
25
10
19
30
21
25
33
24
28
29
18
0
9
13
27
8
15
22
4
14
10
17
15
22
26
14
45
37
8
94
71
18
150
112
41
182
138
63
186
144
71
182
138
64
175
137
64
165
135
72
107
95
54
13
25
25
48
19
11
54
23
13
53
16
21
43
21
24
56
45
24
76
61
16
58
50
16
62
44
14
42
35
13
22
24
10
29
27
8
82
65
14
107
79
8
87
66
14
50
26
11
16
6
11
20
12
4
37
23
7
50
30
11
45
30
13
70
46
12
63
35
12
39
19
5
47
31
8
14
17
14
38
33
24
51
27
27
84
31
23
105
49
13
105
58
11
119
64
21
139
69
22
149
71
29
181
118
45
236
212
153
255
255
207
255
255
149
255
220
69
235
164
38
241
124
20
249
106
20
246
113
20
255
161
33
255
164
37
255
152
24
255
124
5
216
101
15
147
73
0
58
24
5
97
66
10
109
62
19
55
31
12
65
36
4
132
83
20
165
99
20
158
93
20
95
48
16
64
33
3
77
53
14
105
81
31
117
80
31
80
48
18
97
57
13
133
74
13
148
80
13
137
83
20
157
95
34
132
75
24
86
49
3
92
55
11
75
48
18
82
58
29
62
45
21
62
40
11
67
37
8
55
29
14
71
36
10
99
57
19
74
38
8
75
41
24
69
27
17
53
20
8
15
7
7
58
34
12
90
47
3
119
58
4
156
81
6
168
94
19
179
106
14
156
92
17
129
79
16
87
59
13
54
42
10
26
24
12
47
22
3
30
15
5
43
29
10
255
255
255
255
255
217
52
21
3
46
20
1
66
31
11
67
32
10
31
13
3
21
9
5
34
17
7
34
16
4
50
18
2
65
24
7
54
17
3
48
17
0
65
29
8
38
19
9
8
10
6
22
15
8
7
7
6
32
16
7
73
35
8
94
39
1
97
36
1
92
33
0
85
32
4
88
35
7
104
44
10
125
54
12
131
57
10
119
51
6
107
44
5
110
47
8
115
56
13
97
53
14
67
36
12
47
22
7
33
13
4
30
11
2
18
21
30
66
53
58
53
35
38
25
20
18
36
27
18
38
26
22
82
59
45
64
46
31
46
33
26
112
89
78
128
115
102
108
102
95
58
63
62
5
13
22
34
10
19
25
27
44
12
41
64
58
70
86
75
85
104
130
131
139
174
171
165
196
184
174
200
178
149
120
101
70
29
11
5
79
83
71
78
79
63
23
21
20
51
42
29
41
30
12
19
27
29
79
83
73
90
93
79
90
85
77
131
116
113
155
138
142
135
132
135
111
119
112
64
69
59
7
12
7
11
5
0
9
4
0
9
1
0
10
4
0
9
4
0
7
1
0
5
4
0
4
2
0
3
4
0
1
2
0
2
5
0
0
7
0
4
5
0
8
7
0
7
3
0
1
6
0
3
3
0
3
4
0
2
2
0
4
0
0
0
3
0
2
1
0
3
0
0
2
2
0
5
4
0
2
1
0
3
3
0
3
4
0
2
5
0
4
4
0
6
4
0
4
2
0
5
4
0
7
3
0
3
5
0
5
0
0
3
7
0
2
4
0
4
2
0
3
2
0
4
1
0
3
2
0
1
4
0
2
4
0
3
4
1
3
4
2
1
4
1
1
4
0
2
3
0
2
2
0
2
3
0
0
5
0
4
2
0
0
2
0
2
3
0
5
0
0
8
2
0
4
0
0
4
2
0
2
1
0
1
0
0
4
0
0
7
2
0
6
1
0
2
3
0
2
2
0
2
3
0
3
4
0
3
5
0
2
2
0
2
2
0
2
4
0
3
1
0
5
4
0
0
2
0
3
3
0
1
2
0
4
1
0
5
0
0
1
2
0
2
0
0
2
4
0
1
0
0
1
2
0
2
3
0
5
4
0
3
5
0
3
5
0
1
3
0
2
2
0
1
1
0
1
1
0
3
2
0
3
1
0
3
3
0
64
59
41
185
159
113
47
46
35
181
156
110
16
6
4
7
16
0
9
18
0
10
17
1
8
15
3
9
13
3
7
11
1
2
8
0
5
5
2
8
5
6
13
8
5
16
16
5
24
31
14
36
45
26
44
50
33
42
45
29
35
34
20
29
26
16
20
21
14
13
15
9
8
7
4
3
1
1
6
7
0
6
10
0
10
10
0
10
6
0
11
4
0
14
7
0
24
5
0
5
4
0
0
4
0
5
2
0
7
0
0
9
2
0
16
5
0
15
3
0
1
3
0
8
5
0
244
177
91
255
255
255
255
255
246
69
36
23
21
32
20
37
51
32
83
75
37
112
92
41
115
94
46
97
74
42
80
61
42
106
84
54
145
110
57
152
100
49
153
92
52
158
99
58
50
18
18
178
162
93
255
209
140
144
103
80
6
7
7
62
44
30
64
46
31
60
51
29
67
66
52
135
132
88
178
134
70
65
77
63
229
187
121
81
56
42
17
13
6
30
21
10
47
45
17
53
53
23
48
45
16
22
25
13
24
11
7
51
39
11
22
21
12
3
5
6
34
28
8
39
28
11
60
38
7
62
35
1
52
24
8
65
34
8
37
28
7
45
30
3
8
7
4
17
12
4
16
9
4
38
24
9
30
22
13
65
28
10
78
42
8
48
25
10
29
22
17
16
10
13
24
19
10
32
13
4
22
10
3
13
10
4
7
10
3
12
17
7
18
21
15
7
28
21
18
38
26
29
39
28
36
36
25
27
36
22
37
37
20
47
40
17
68
48
15
88
56
10
97
62
12
99
69
16
106
79
26
109
75
22
95
57
14
122
71
13
159
98
31
163
94
29
158
99
12
165
107
19
149
92
8
124
80
24
112
87
34
114
93
36
83
64
22
38
21
2
19
1
6
14
11
10
17
4
12
43
16
15
38
17
13
46
33
8
19
23
15
22
32
16
39
42
13
46
44
11
40
28
7
88
68
14
84
56
13
77
53
10
89
61
8
68
43
1
52
28
6
50
39
11
72
51
8
34
17
6
45
16
8
78
39
4
94
54
13
97
57
15
40
28
8
44
32
11
39
16
12
71
42
14
70
31
24
40
16
7
15
6
24
25
25
24
31
38
22
4
41
24
57
14
11
85
36
17
74
21
7
103
50
14
101
42
10
88
50
5
75
51
20
44
31
0
65
57
19
57
26
12
70
43
5
123
75
10
103
49
2
120
66
20
87
36
11
17
10
16
38
29
8
82
60
26
12
19
15
42
43
27
39
21
8
54
41
17
46
32
18
4
14
12
59
51
12
69
54
17
60
46
16
32
31
17
32
16
13
42
16
16
68
36
26
32
23
13
56
49
26
71
51
23
11
18
19
43
7
11
59
21
15
52
21
10
53
31
13
72
52
14
107
80
19
149
113
40
112
80
32
36
18
13
30
28
13
98
62
22
130
84
24
157
97
21
130
77
15
86
50
6
40
24
13
29
27
17
47
32
5
12
7
3
20
18
4
19
19
7
38
17
6
98
56
10
105
58
9
63
36
4
58
34
3
255
255
255
255
255
217
14
4
3
6
2
3
34
18
12
26
17
13
63
29
15
72
31
13
82
36
13
111
50
17
119
59
18
98
51
15
58
31
9
23
13
5
57
21
3
65
31
12
24
10
2
8
7
5
10
4
4
35
16
8
27
15
10
25
5
9
42
10
4
33
5
2
9
5
4
25
13
4
29
13
5
18
7
6
29
11
5
50
19
5
54
19
5
37
18
4
24
13
2
34
20
5
17
11
3
20
9
2
12
10
9
19
12
16
28
33
38
69
49
48
45
20
9
13
4
14
32
28
20
67
63
55
100
92
82
94
82
71
106
82
65
94
76
64
48
42
45
63
59
75
133
130
141
205
197
190
218
200
183
164
152
139
68
74
80
99
93
105
149
140
148
143
137
140
89
86
89
97
87
82
92
86
71
79
64
47
79
66
38
37
44
26
48
35
33
104
86
71
130
115
100
165
147
131
158
140
125
147
132
113
107
96
78
27
39
30
77
92
75
77
89
72
43
42
34
32
25
23
10
7
7
4
3
0
3
2
0
4
2
0
2
2
0
3
1
0
0
1
0
2
2
0
3
2
0
3
3
0
4
4
0
4
2
0
3
4
0
2
4
0
5
3
0
5
1
0
5
5
0
4
3
0
5
1
0
4
1
0
1
4
0
2
0
0
5
3
0
4
2
0
4
1
0
5
0
0
5
1
0
4
2
0
2
0
0
2
2
0
3
2
0
4
2
0
6
0
0
2
1
0
4
2
0
5
3
0
5
2
0
2
2
0
0
3
0
3
5
0
3
6
0
1
6
0
3
5
0
3
4
0
3
4
0
5
5
0
5
6
0
2
5
0
0
3
0
0
1
0
0
1
0
3
3
0
1
4
0
2
4
0
3
1
0
3
2
0
2
2
0
5
2
0
2
2
0
1
4
0
4
3
0
2
3
0
2
2
0
2
4
0
4
4
0
6
5
0
6
4
0
6
3
0
4
3
0
2
4
0
5
4
0
5
3
0
2
1
0
4
1
0
0
2
0
5
4
0
1
1
0
1
3
0
1
1
0
1
2
0
3
1
0
4
1
0
1
2
0
2
2
0
3
2
0
4
1
0
5
1
0
3
3
0
1
4
0
3
2
0
4
4
0
2
1
0
3
1
0
0
3
0
2
4
0
5
3
0
3
4
0
29
27
15
178
160
111
31
21
13
178
161
109
62
49
24
1
1
0
3
3
0
2
4
0
2
6
0
4
10
0
7
13
0
7
16
0
8
20
1
15
24
5
19
27
10
19
26
10
12
24
11
7
16
14
13
4
5
22
14
14
30
29
17
36
40
25
40
45
33
43
49
35
49
56
34
52
60
34
47
55
32
38
45
27
26
33
19
11
19
10
4
9
3
20
11
2
23
4
1
2
9
0
7
4
0
11
5
0
7
0
0
10
1
0
17
6
0
11
4
0
7
2
0
17
2
0
255
255
171
255
255
255
255
202
137
36
48
42
32
39
35
51
43
30
58
44
30
70
51
33
67
47
26
67
40
19
62
29
17
61
47
32
81
73
31
65
59
21
62
38
38
58
28
16
107
94
51
158
129
70
124
91
54
75
67
40
33
41
40
27
18
30
37
23
34
23
21
36
75
85
63
114
96
44
41
39
38
149
141
83
115
88
51
33
15
1
84
47
8
117
70
10
151
99
25
166
114
32
152
111
33
127
102
36
77
72
28
60
56
26
28
36
27
24
32
24
35
15
13
76
43
3
56
34
7
11
10
3
34
29
10
18
12
11
56
34
5
41
25
4
6
7
9
17
8
6
21
7
4
11
10
8
23
17
11
20
8
2
29
14
1
55
35
9
73
52
16
60
47
19
62
43
24
17
17
24
21
9
17
18
13
13
2
5
12
8
11
12
17
18
12
15
4
11
38
24
8
32
23
2
14
10
4
32
27
8
55
29
9
49
24
13
55
29
10
86
46
3
108
56
2
86
43
10
57
28
13
47
15
4
31
12
9
61
37
7
67
59
26
67
55
36
82
73
46
90
86
55
77
83
54
81
90
52
97
89
36
75
53
16
30
29
20
56
32
5
88
50
3
93
60
9
73
52
10
54
39
13
26
14
6
43
43
19
62
50
11
105
85
20
103
76
19
46
24
11
39
19
7
63
42
7
35
29
5
56
35
1
70
35
6
77
41
5
93
46
4
102
52
13
76
24
12
55
23
17
69
26
15
98
44
15
112
54
12
101
54
4
84
45
4
27
10
8
11
13
20
75
27
19
86
53
3
29
32
16
36
42
22
54
48
18
35
17
6
33
20
32
55
34
26
103
33
9
160
81
11
176
112
24
134
86
23
67
41
10
39
21
14
36
8
5
37
30
15
58
45
13
75
49
10
94
62
15
99
63
19
110
55
5
122
55
14
152
85
13
164
102
32
98
58
16
42
35
12
57
49
21
54
37
11
62
47
15
70
47
10
88
65
24
92
63
31
89
49
20
84
37
7
84
39
9
88
51
18
114
79
32
164
116
53
185
122
50
161
91
24
119
62
8
105
64
20
92
69
22
76
66
24
58
58
22
61
60
26
93
86
34
101
91
42
32
40
19
29
23
14
50
32
19
45
31
29
35
37
25
56
34
14
24
12
2
55
47
13
65
43
12
61
28
4
50
20
4
50
32
3
50
34
12
47
33
13
47
29
7
55
34
7
35
13
12
5
16
11
26
18
5
26
12
4
255
255
255
255
255
212
76
36
11
93
42
9
113
51
12
131
64
20
115
63
24
49
32
17
23
16
7
14
4
2
50
20
7
79
39
14
67
34
10
35
19
9
13
2
4
62
26
10
48
20
8
41
18
9
19
7
6
29
14
4
33
16
2
24
11
5
21
8
3
4
3
3
24
9
2
15
8
5
31
16
11
54
26
13
48
24
10
42
22
6
69
32
9
89
46
16
87
50
19
49
32
12
2
5
4
34
16
1
47
19
9
28
10
18
37
33
31
51
40
37
37
23
15
26
19
17
25
30
30
42
45
41
11
10
10
44
42
38
105
89
73
176
151
127
218
186
151
202
167
127
159
129
85
46
36
15
81
67
57
155
123
98
144
116
86
174
141
123
183
150
123
136
110
98
174
147
123
200
168
142
184
161
139
126
115
105
94
81
70
90
72
61
79
66
54
34
30
18
49
50
40
46
39
27
15
15
5
8
11
12
77
79
68
103
111
96
48
58
55
87
89
76
65
67
54
1
4
1
4
5
1
4
6
2
4
4
1
5
3
0
1
1
0
4
1
0
4
2
0
3
2
0
1
2
0
2
2
0
0
2
0
2
2
0
0
3
0
1
1
0
3
2
0
2
2
0
4
1
0
2
1
0
2
2
0
2
1
0
1
3
0
2
1
0
4
2
0
2
4
0
4
4
0
3
3
0
4
2
0
4
3
0
4
3
0
3
1
0
1
1
0
4
1
0
3
4
0
1
4
0
1
4
0
1
1
0
2
1
0
1
2
0
1
2
0
4
2
0
1
2
0
3
2
0
1
2
0
2
1
0
2
1
0
2
1
0
3
2
0
3
2
0
0
1
0
1
2
0
2
1
0
1
0
0
1
2
0
2
2
0
3
1
0
2
2
0
5
0
0
2
3
0
0
4
0
1
3
0
4
3
0
2
3
0
1
5
0
2
3
0
4
3
0
3
4
0
2
1
0
4
4
0
5
2
0
6
1
0
5
1
0
1
2
0
2
1
0
6
3
0
7
3
0
5
2
0
4
3
0
3
4
0
2
1
0
3
0
0
3
3
0
2
3
0
3
3
0
5
2
0
5
2
0
4
2
0
2
2
0
1
1
0
2
2
0
1
1
0
5
4
0
4
3
0
4
1
0
2
0
0
3
4
0
0
2
0
3
2
0
8
7
2
145
132
87
103
86
49
145
132
85
111
92
50
2
0
0
3
1
0
2
3
0
2
3
0
1
2
0
5
3
0
4
4
0
4
3
0
3
3
0
7
7
1
14
17
5
23
32
15
34
45
27
38
52
33
31
48
29
24
37
20
15
26
18
2
10
10
18
14
7
32
34
20
46
51
31
59
67
42
68
79
55
76
86
64
79
88
62
76
81
51
60
63
39
27
38
25
11
21
8
14
7
1
9
5
0
4
2
0
7
3
0
11
7
0
6
7
0
8
1
0
94
59
29
255
255
239
255
255
255
97
65
56
54
42
20
67
52
28
62
41
21
57
37
20
20
12
17
40
29
15
22
16
12
26
15
2
63
49
25
113
97
40
92
81
34
64
52
37
49
40
28
65
70
56
80
61
37
94
66
31
86
72
31
38
54
22
27
48
19
50
63
29
92
89
34
116
96
36
68
24
17
57
81
63
87
73
42
53
38
11
79
62
14
40
31
5
26
26
10
33
31
14
26
27
13
27
9
2
94
62
19
74
48
17
19
11
6
15
13
8
28
27
17
19
14
7
21
13
2
38
23
4
39
27
8
37
25
4
81
58
18
62
44
15
48
37
10
26
15
4
15
19
7
34
30
10
37
28
10
19
27
17
21
11
11
32
12
17
18
8
21
21
18
22
55
19
23
74
42
22
25
21
21
22
8
12
28
19
4
27
24
6
25
23
11
15
19
9
32
17
4
27
27
6
34
33
15
46
37
14
54
43
11
65
50
17
34
40
25
23
20
20
33
22
19
41
35
18
59
44
18
51
51
24
50
52
29
19
25
26
33
21
23
53
45
26
23
30
27
23
24
26
17
31
25
14
24
15
17
23
10
5
16
15
31
24
14
77
41
6
115
67
15
115
71
15
137
87
15
165
107
19
172
120
30
122
84
20
95
60
12
120
76
19
120
63
4
132
71
8
150
84
9
182
106
16
196
114
16
167
98
8
152
83
4
179
110
29
219
154
58
234
168
62
200
123
33
168
88
11
155
81
8
154
89
9
153
89
8
143
83
11
111
69
14
100
62
7
87
56
4
48
29
9
71
37
20
77
17
27
61
17
19
72
43
18
101
30
12
153
60
24
176
85
18
151
70
25
159
64
22
181
72
23
156
49
32
123
13
28
119
27
24
132
41
25
125
43
15
94
27
17
65
18
15
73
34
14
73
37
10
105
74
10
126
83
18
98
66
18
70
53
25
23
11
6
46
38
24
55
50
25
75
53
20
21
9
15
42
40
24
22
25
11
44
48
18
74
68
16
72
62
18
24
26
12
82
52
18
138
88
18
145
91
16
142
89
16
158
101
27
151
85
20
148
76
2
175
92
4
173
89
2
125
62
10
103
52
6
106
59
7
146
88
8
222
147
35
255
181
56
248
164
50
216
134
36
167
94
18
87
39
6
32
31
20
45
45
23
40
33
17
30
20
7
7
8
3
37
13
3
53
34
8
58
38
12
18
12
8
64
41
8
57
31
7
76
48
7
118
74
8
129
79
6
110
65
8
255
255
255
255
255
209
49
19
5
49
23
5
62
26
7
51
20
7
25
7
4
43
30
15
25
18
11
11
8
3
4
5
0
42
16
8
84
38
13
91
42
14
46
21
8
33
15
4
19
5
1
19
2
4
34
12
2
33
12
2
53
23
7
38
16
7
19
10
4
8
3
1
24
9
8
48
19
12
52
20
8
34
12
5
29
12
8
21
9
3
56
25
6
42
21
5
21
16
5
21
13
10
20
9
3
23
11
1
24
6
5
57
29
23
80
39
32
45
18
32
14
32
44
47
47
46
48
45
46
57
60
67
65
68
80
68
61
67
62
48
48
84
60
51
84
60
54
119
90
87
195
147
117
223
181
139
236
186
142
185
140
113
127
97
76
157
116
103
243
191
157
146
119
95
45
41
37
54
42
27
91
76
69
137
131
120
117
108
89
67
46
34
35
24
32
29
32
32
52
54
36
28
19
12
17
14
9
10
10
4
28
29
23
72
74
60
103
110
92
102
104
85
41
45
36
5
1
0
5
4
2
2
3
0
4
3
1
9
5
2
8
4
1
2
1
0
1
4
0
1
6
0
0
5
0
2
2
0
0
2
0
3
3
0
2
0
0
0
1
0
3
4
0
3
1
0
2
2
0
3
2
0
4
0
0
3
2
0
5
0
0
3
3
0
1
3
0
1
0
0
4
1
0
1
2
0
4
5
0
2
6
0
5
4
0
1
2
0
4
2
0
2
3
0
4
4
0
3
1
0
3
2
0
4
4
0
1
2
0
4
1
0
3
3
0
2
3
0
2
5
0
2
8
0
5
6
0
5
3
0
5
1
0
2
1
0
2
2
0
3
0
0
5
2
0
6
2
0
4
4
0
2
3
0
2
3
0
3
2
0
4
2
0
0
1
0
4
2
0
1
2
0
3
3
0
6
3
0
6
2
0
2
3
0
2
4
0
2
2
0
4
4
0
3
2
0
4
2
0
5
2
0
1
4
0
3
4
0
1
4
0
2
4
0
2
1
0
2
2
0
1
1
0
4
1
0
3
3
0
3
1
0
2
5
0
0
5
0
2
4
0
0
2
0
0
3
0
4
4
0
1
4
0
3
4
0
3
4
0
4
4
0
6
0
0
7
2
0
4
1
0
3
3
0
1
0
0
5
3
0
3
4
0
2
3
0
3
4
0
6
3
0
107
97
60
142
122
71
103
96
60
142
123
71
3
0
0
3
3
0
5
3
0
1
4
0
5
1
0
7
1
0
4
3
0
7
4
0
7
4
0
2
3
0
5
2
0
1
2
0
3
1
2
14
10
7
21
18
12
29
29
17
34
40
26
38
48
34
40
54
35
40
58
34
37
56
31
21
39
26
11
17
21
34
30
26
62
57
51
75
74
66
71
77
69
63
79
69
57
82
63
48
74
51
39
57
39
30
40
27
18
24
14
10
9
4
4
5
0
4
4
0
255
185
96
255
255
255
255
255
203
62
36
22
57
37
16
49
29
9
26
15
11
34
26
15
28
18
12
53
42
21
35
34
14
26
22
0
24
20
4
75
69
38
101
95
43
72
77
47
81
78
55
66
56
41
77
48
20
51
26
12
49
22
14
82
48
17
85
57
22
89
63
24
96
61
13
67
24
13
10
33
39
70
75
46
60
41
21
31
34
8
42
44
17
38
38
21
15
11
5
50
29
10
89
51
11
108
67
15
100
61
12
90
58
13
68
45
5
41
30
5
18
18
14
27
21
16
29
20
5
50
29
6
66
40
4
75
51
11
45
30
10
57
46
11
48
44
14
18
25
8
29
15
2
8
7
5
4
5
4
17
21
10
43
43
21
44
45
20
13
15
8
43
25
7
55
40
19
34
28
24
40
19
22
36
14
10
10
12
6
13
8
11
32
12
14
32
28
20
18
32
25
40
54
30
15
39
35
18
29
32
35
17
23
65
16
24
89
43
14
106
61
4
110
72
12
96
61
14
50
27
10
19
3
10
26
19
17
35
39
24
52
51
22
60
58
22
59
65
29
31
47
27
18
22
13
13
7
2
17
8
6
19
13
7
29
34
17
43
46
17
49
44
10
31
33
8
29
34
10
31
47
19
76
58
20
71
27
8
66
30
7
62
50
18
50
43
6
73
60
17
56
48
17
14
15
15
84
34
15
104
42
12
109
46
7
97
60
27
41
27
28
45
33
22
31
38
28
36
34
20
16
8
12
8
15
11
17
18
7
26
23
9
33
16
15
49
21
13
68
41
10
32
15
2
37
15
7
35
15
8
63
23
8
70
36
16
131
66
6
102
35
20
48
7
9
61
29
8
105
63
7
139
85
17
161
100
25
141
89
22
113
74
13
146
99
25
202
136
45
195
129
40
152
98
24
140
84
15
143
85
19
154
90
12
138
77
10
135
76
11
173
99
24
203
121
31
178
105
28
103
51
5
31
20
21
45
43
26
41
38
30
22
14
5
49
33
12
69
47
5
55
41
12
82
46
7
88
54
28
37
33
30
17
27
22
55
26
25
64
23
28
66
42
17
47
37
7
29
21
14
66
36
14
72
34
5
99
43
5
115
51
11
96
41
16
62
21
16
66
32
12
81
28
5
110
44
7
105
45
8
101
56
14
108
71
13
126
83
10
152
97
10
148
84
8
97
48
4
9
2
7
36
23
6
61
40
13
11
13
4
54
35
6
39
20
16
41
22
11
25
18
5
24
15
6
23
15
12
255
255
255
255
255
212
83
37
10
57
24
8
18
11
7
23
12
5
51
23
8
53
30
17
6
4
5
18
10
4
18
11
4
22
10
5
38
19
8
76
37
14
53
22
9
35
17
3
54
26
5
64
32
10
56
26
8
48
19
6
73
31
10
81
38
14
66
33
15
62
31
13
80
35
11
48
19
2
22
16
9
25
14
8
19
8
5
10
6
2
46
23
7
49
28
13
50
29
16
48
26
12
25
10
3
5
5
1
3
1
2
40
29
12
56
36
30
41
32
38
21
30
44
19
34
54
24
44
63
34
53
65
43
53
60
63
51
50
72
46
37
53
29
25
56
40
39
75
64
65
61
43
48
70
67
69
82
74
72
53
53
55
42
38
31
54
51
50
118
105
92
78
53
41
26
12
14
29
14
16
15
31
32
65
69
75
119
118
103
83
64
49
44
28
27
40
37
29
50
57
36
55
55
35
64
62
39
60
60
39
21
30
19
18
20
8
18
18
10
17
15
7
1
2
1
4
2
0
3
2
1
4
5
2
3
2
1
3
1
0
8
6
2
3
2
0
2
3
0
3
3
0
1
4
0
3
4
0
3
4
0
5
2
0
1
4
0
4
4
0
5
4
0
5
1
0
4
1
0
4
2
0
5
2
0
6
1
0
4
2
0
3
3
0
0
4
0
1
4
0
4
3
0
1
2
0
1
2
0
3
2
0
4
6
0
7
2
0
2
2
0
4
2
0
4
4
0
4
5
0
2
2
0
2
1
0
3
4
0
2
2
0
5
1
0
2
2
0
5
6
0
4
1
0
6
3
0
4
3
0
6
1
0
5
3
0
4
1
0
1
2
0
2
2
0
2
2
0
4
3
0
1
2
0
5
3
0
9
3
0
8
4
0
5
3
0
5
2
0
5
3
0
6
4
0
5
3
0
3
2
0
3
2
0
3
1
0
3
2
0
2
6
0
4
7
0
3
4
0
3
0
0
4
2
0
5
1
0
4
0
0
2
4
0
1
1
0
3
2
0
4
1
0
7
2
0
5
2
0
4
7
0
1
5
0
1
4
0
4
3
0
2
1
0
1
1
0
3
2
0
2
1
0
2
0
0
2
1
0
2
4
0
2
2
0
0
1
0
3
0
0
5
2
0
3
4
0
4
3
0
2
0
0
1
2
0
0
3
0
5
3
0
72
63
39
166
143
92
53
54
38
164
145
93
14
11
2
4
2
0
4
3
0
4
2
0
5
2
0
4
1
0
4
1
0
8
2
0
7
2
0
4
0
0
8
2
0
8
1
0
10
4
0
10
1
0
9
3
0
4
4
0
2
2
2
10
11
8
18
25
16
29
39
24
43
54
32
50
68
44
56
78
60
58
77
64
49
66
52
38
53
39
17
27
18
18
14
13
43
46
36
50
60
41
50
63
45
47
64
47
41
49
35
24
18
12
7
0
0
19
5
1
255
255
171
255
255
255
242
165
117
58
31
18
55
34
7
49
29
8
32
11
7
42
13
7
62
34
12
55
44
21
27
20
13
9
5
7
6
10
8
53
53
29
62
49
22
55
30
7
76
49
7
91
60
12
85
62
18
28
27
5
48
24
10
72
29
17
89
45
19
86
42
21
40
15
29
10
32
39
26
38
34
55
45
19
67
53
19
106
83
30
82
56
19
73
51
19
69
51
21
55
32
14
62
36
6
97
66
11
96
69
17
48
33
7
19
15
7
31
15
1
22
6
7
15
20
18
37
31
20
44
30
14
27
21
5
59
37
14
47
24
2
30
25
11
37
26
6
36
23
5
10
12
11
16
19
16
29
18
15
44
20
10
72
40
4
120
63
2
166
87
13
178
95
11
168
81
13
155
66
22
147
65
16
149
77
9
170
100
25
211
134
41
255
172
53
255
188
54
255
169
44
220
138
30
140
88
20
73
40
1
58
26
7
59
33
15
63
41
8
57
35
12
40
24
15
37
32
13
50
37
10
55
33
11
39
33
16
40
32
15
73
45
6
116
67
4
138
75
3
143
78
4
137
80
8
127
77
11
138
84
14
163
104
20
182
124
26
177
122
31
146
94
20
111
68
7
116
69
4
141
91
21
114
75
24
47
34
17
28
31
14
41
33
13
24
18
6
18
21
10
47
32
3
81
61
13
77
57
13
31
18
1
32
24
10
6
8
12
70
62
44
89
88
55
97
91
43
133
109
37
160
125
31
180
134
30
180
118
18
174
102
3
177
113
3
161
127
14
113
108
21
53
67
19
28
36
14
15
5
8
58
21
18
17
13
24
86
41
16
131
59
19
107
36
16
69
22
11
56
18
6
55
24
5
80
42
2
118
71
10
129
75
7
105
56
13
77
39
12
68
39
8
67
40
11
73
41
8
46
32
13
59
41
5
76
52
17
81
66
19
71
59
17
51
38
15
18
10
4
95
65
28
91
67
35
91
64
34
65
39
21
52
31
13
24
8
13
35
22
0
8
10
11
47
20
12
84
33
8
102
54
15
91
58
11
93
57
13
48
28
10
50
24
3
43
18
7
30
9
4
29
20
8
30
25
9
45
35
11
55
40
11
41
31
7
42
31
10
64
51
16
81
64
24
110
82
28
91
66
19
45
27
9
27
20
6
68
42
5
73
42
4
80
47
3
110
64
5
94
52
11
53
26
4
71
37
8
60
34
8
51
39
20
92
61
22
67
38
15
23
9
6
36
27
12
11
17
13
255
255
255
255
255
213
78
33
7
66
31
8
44
24
10
37
14
4
49
26
9
53
27
11
28
15
4
59
30
5
66
32
9
73
32
11
86
38
12
87
36
12
37
8
7
26
14
11
46
19
10
15
5
10
16
14
11
21
12
5
5
3
5
8
4
5
18
6
4
8
7
2
32
12
6
51
25
14
53
25
11
22
5
2
1
5
5
8
9
8
17
7
4
22
9
1
3
4
2
20
11
4
9
7
4
0
4
3
15
8
5
30
16
2
50
26
5
55
28
7
45
19
10
35
16
8
61
34
10
102
70
39
121
81
49
126
72
39
122
64
31
135
74
35
117
64
29
45
22
38
25
41
61
33
44
65
50
52
69
38
57
69
12
31
41
86
73
74
127
96
79
80
42
24
46
32
32
32
30
32
30
36
35
80
94
97
141
132
119
65
52
43
17
8
11
26
12
15
26
28
17
10
12
4
42
39
31
77
68
48
71
63
46
13
15
10
9
10
8
21
21
7
13
12
4
6
4
1
5
1
2
5
3
1
6
2
1
9
0
1
2
6
2
31
37
31
86
89
79
123
122
110
128
129
114
117
121
103
83
89
71
36
33
25
4
4
0
5
4
0
1
4
0
2
2
0
4
2
0
1
3
0
2
1
0
2
2
0
2
1
0
2
1
0
1
3
0
2
3
0
3
2
0
6
4
0
5
8
0
2
8
0
5
4
0
4
1
0
7
1
0
3
2
0
2
3
0
4
2
0
6
4
0
6
4
0
4
4
0
0
3
0
4
2
0
2
4
0
4
2
0
6
5
0
2
4
0
5
3
0
2
1
0
3
4
0
1
1
0
1
1
0
2
2
0
1
1
0
3
2
0
2
2
0
4
3
0
4
2
0
6
4
0
6
5
0
7
4
0
7
4
0
5
4
0
3
4
0
0
3
0
3
2
0
3
2
0
4
1
0
5
1
0
6
3
0
3
3
0
2
3
0
2
3
0
5
2
0
2
2
0
3
4
0
5
5
0
4
7
0
2
7
0
4
5
0
5
4
0
0
4
0
2
0
0
0
1
0
5
2
0
1
3
0
1
4
0
2
2
0
1
2
0
4
1
0
5
0
0
4
3
0
4
1
0
4
2
0
2
3
0
3
5
0
4
4
0
4
1
0
1
2
0
1
0
0
1
1
0
3
4
0
36
29
18
182
150
107
18
8
3
177
152
107
48
38
14
4
3
0
2
4
0
5
4
0
4
7
0
4
7
0
8
5
0
4
4
0
5
4
0
2
4
0
10
4
0
7
1
0
7
3
0
10
1
0
12
2
0
12
5
0
4
3
0
5
2
0
7
2
0
7
2
1
13
11
4
14
24
10
26
41
26
44
63
46
54
76
60
63
83
69
62
84
71
52
80
68
40
68
59
27
52
43
14
36
31
22
38
32
47
47
36
31
22
13
3
4
0
129
78
32
255
255
223
255
255
231
97
71
58
31
35
29
21
24
23
35
48
38
48
62
50
72
72
51
82
78
51
111
103
63
149
127
81
162
128
84
173
137
85
161
131
76
111
85
48
78
59
36
54
39
32
43
31
27
65
47
26
86
57
16
46
31
2
13
5
13
34
25
26
49
37
31
60
58
46
53
46
26
51
41
12
20
6
5
35
41
22
19
17
16
52
37
15
100
72
25
127
85
15
106
58
8
61
28
11
32
18
21
33
20
5
23
16
11
17
8
5
5
2
8
21
14
12
21
12
14
17
8
14
23
25
17
79
49
15
80
36
5
67
24
8
102
59
11
73
58
24
7
27
17
26
10
12
14
4
3
32
24
10
53
42
21
59
43
17
48
35
15
22
29
17
20
25
12
38
15
7
66
34
7
79
43
11
97
52
17
118
57
17
139
65
15
141
64
10
115
36
17
113
29
25
178
78
38
203
86
37
181
67
28
159
65
22
117
55
17
74
30
18
64
26
17
78
43
4
89
50
5
97
48
8
95
44
5
89
50
8
114
79
20
104
72
13
21
16
3
22
15
2
11
4
5
25
4
7
72
28
7
105
47
11
97
38
14
89
31
12
107
63
14
110
72
18
77
51
18
47
32
14
39
25
15
37
4
12
69
38
21
84
49
17
83
49
6
76
53
13
39
26
3
17
2
12
35
13
15
49
27
8
61
39
2
45
29
7
22
11
3
67
45
18
40
30
12
54
41
9
72
54
18
35
31
16
74
72
32
122
98
34
136
97
29
129
93
28
97
78
32
70
54
15
64
42
10
91
58
17
127
71
19
186
93
18
228
116
14
239
117
5
203
91
10
137
61
5
78
42
13
22
14
10
26
5
5
37
11
8
51
20
5
73
34
12
74
26
7
70
5
29
73
14
38
76
6
34
66
5
25
26
38
17
70
54
12
63
55
18
41
35
14
21
7
7
17
5
8
30
22
11
116
81
32
105
71
19
74
51
15
50
36
13
60
42
17
33
19
10
40
28
2
31
20
9
30
11
6
71
30
1
83
37
7
100
59
15
142
91
20
144
92
13
109
71
8
73
52
13
63
50
23
77
65
29
88
71
25
68
55
19
36
30
7
24
19
8
11
13
8
48
42
11
53
52
17
31
34
9
32
28
5
17
3
7
28
22
8
27
21
5
19
15
1
37
25
1
80
48
6
79
50
11
16
10
3
15
16
10
93
64
20
77
54
19
14
13
7
45
29
14
33
24
3
77
60
13
62
38
5
255
255
255
255
255
211
41
13
3
56
20
4
89
38
11
104
51
14
82
42
10
38
21
5
28
17
8
51
28
11
65
40
13
76
50
20
100
71
35
145
97
50
183
113
57
184
109
55
156
92
47
117
72
37
96
62
32
94
64
37
108
82
50
108
88
55
107
83
49
90
61
34
59
34
17
51
27
11
59
32
8
37
21
5
8
6
4
9
4
5
14
5
5
29
13
5
17
2
6
15
7
6
21
11
6
48
25
8
69
39
12
68
38
13
63
29
11
58
23
9
35
13
4
40
17
7
65
42
21
62
47
33
39
25
15
94
56
30
109
60
33
74
30
12
31
7
7
36
34
30
53
49
48
67
60
53
31
35
35
7
7
14
25
25
32
85
84
87
108
116
117
66
75
76
24
16
7
12
21
29
21
10
25
81
78
79
133
111
100
43
35
26
27
18
9
36
20
21
44
40
29
14
20
15
57
50
45
29
19
10
80
67
53
38
38
22
9
18
9
8
12
5
16
13
4
11
8
2
4
3
1
6
2
2
7
1
0
2
5
2
4
5
2
42
40
40
80
76
68
72
56
48
88
68
62
78
65
62
82
78
66
91
93
78
123
129
111
99
105
88
42
49
35
5
9
2
2
3
0
4
3
0
2
2
0
0
2
0
2
1
0
0
1
0
3
2
0
1
1
0
4
2
0
4
5
0
4
6
0
4
7
0
4
5
0
1
4
0
5
3
0
6
3
0
5
0
0
3
2
0
3
1
0
5
2
1
7
1
2
7
4
1
6
5
0
5
2
0
1
3
0
5
2
0
5
2
0
2
2
0
0
1
0
2
4
0
3
1
0
1
1
0
5
3
0
5
3
0
4
1
0
4
1
0
1
4
0
2
5
0
1
3
0
1
5
0
4
1
0
3
2
0
1
2
0
5
3
0
4
2
0
1
2
0
4
3
0
2
1
0
5
2
0
1
1
0
3
2
0
3
1
0
5
6
0
0
6
0
3
5
0
3
6
0
5
7
0
4
5
0
1
5
0
0
7
0
6
7
0
1
6
0
3
6
0
4
5
0
2
3
0
3
2
0
2
2
0
3
5
0
4
2
0
5
5
0
1
5
0
2
5
0
5
5
0
3
3
0
1
4
0
0
4
0
5
4
0
5
2
0
3
3
0
2
4
0
3
5
0
3
5
0
5
5
2
164
130
100
86
64
32
158
135
101
89
70
36
2
3
0
4
5
0
4
2
0
0
2
0
2
5
0
7
5
0
6
4
0
7
3
0
7
3
0
11
5
0
9
4
0
6
3
0
8
1
0
7
3
0
9
2
0
5
1
0
11
7
0
9
10
0
7
10
0
11
5
0
10
5
0
13
1
1
13
5
5
6
17
9
1
24
12
18
36
22
30
55
35
32
60
41
32
57
40
34
60
45
40
58
44
46
41
27
19
12
7
2
3
0
255
173
75
255
255
209
255
236
152
198
167
112
242
198
126
240
191
124
220
169
112
224
162
104
250
176
104
255
198
110
244
183
102
187
148
89
171
136
90
176
134
87
164
114
69
150
103
60
128
96
53
91
68
37
58
45
26
74
67
42
41
47
42
24
16
24
45
28
18
48
32
18
62
36
12
37
19
29
30
47
54
74
76
75
78
67
68
27
17
31
77
63
27
134
104
45
125
102
41
52
46
31
46
13
26
37
27
4
14
16
21
39
8
11
49
27
8
54
43
22
19
26
21
16
14
19
21
32
28
76
67
39
110
86
39
77
60
27
20
15
18
68
28
10
117
65
7
111
66
10
65
43
7
31
23
7
14
11
10
15
12
9
27
22
16
60
40
18
107
59
6
164
90
7
177
97
8
163
88
4
137
72
2
114
56
12
104
53
4
115
65
22
164
104
39
218
147
47
244
166
51
223
148
50
139
89
31
67
42
19
38
25
4
50
33
5
86
62
8
89
67
14
77
52
6
42
25
8
27
10
1
55
37
8
67
51
15
38
31
14
61
35
8
115
84
22
65
53
14
48
39
14
63
48
16
107
80
19
172
122
27
205
144
32
182
130
27
159
119
25
151
112
24
114
85
15
36
30
6
28
19
12
52
37
13
63
36
3
102
59
13
151
98
9
183
124
21
208
135
25
210
127
24
179
99
22
127
57
8
102
43
11
118
64
7
111
64
5
73
51
8
71
45
8
41
27
5
32
36
15
89
76
25
129
100
26
155
110
27
160
92
13
165
78
9
187
93
12
200
115
20
183
107
22
175
99
15
186
114
25
184
108
27
181
93
12
189
92
6
199
101
1
197
106
7
179
91
7
132
72
18
83
48
7
82
56
13
126
88
13
154
110
14
123
77
0
63
26
15
43
31
12
81
61
17
96
73
21
97
73
16
98
59
6
79
25
7
24
26
8
83
52
5
39
35
10
73
60
17
123
87
17
181
122
33
229
152
41
237
155
40
228
142
32
202
123
27
180
108
19
174
103
10
156
87
16
123
58
21
82
16
25
92
27
27
87
29
25
51
13
19
9
22
18
34
29
17
29
22
8
27
18
6
47
31
10
35
18
7
9
14
7
17
16
7
28
26
9
25
19
5
30
15
4
102
66
11
138
92
11
113
78
8
89
60
8
28
21
4
25
13
5
28
8
10
46
20
12
50
31
13
44
47
17
54
54
16
80
65
16
127
92
25
201
138
38
203
131
35
159
97
21
117
77
15
114
80
17
107
76
12
255
255
255
255
255
204
66
43
23
40
31
20
31
23
13
15
15
8
4
5
3
17
5
2
15
4
4
25
13
3
37
24
5
48
26
16
56
23
17
58
22
8
58
20
3
58
18
5
64
23
5
64
26
8
67
36
11
29
15
11
36
27
13
46
25
7
58
35
17
56
41
27
45
34
19
19
13
9
21
11
5
28
14
1
20
12
4
32
16
2
49
24
3
64
26
7
54
20
7
60
26
8
87
44
15
113
64
26
130
79
41
144
94
56
132
93
60
110
85
54
101
78
47
66
55
36
33
7
1
131
75
41
130
73
41
69
36
24
58
21
18
85
44
29
101
58
25
88
54
31
38
20
11
15
17
11
31
35
26
23
38
36
26
45
44
53
56
48
70
58
55
84
73
69
53
44
37
27
30
27
38
38
32
77
83
77
151
136
124
135
125
117
101
98
95
84
83
80
86
82
70
72
73
69
96
89
81
63
61
61
99
93
87
118
117
104
126
125
113
140
137
131
161
157
148
151
146
132
101
97
85
47
41
36
27
23
21
27
23
19
15
14
10
34
32
31
83
71
68
82
79
71
69
81
76
107
114
102
78
79
65
39
49
45
12
10
7
67
68
64
54
58
47
10
13
4
6
2
0
4
0
0
0
1
0
2
2
0
3
2
0
1
5
0
4
6
0
3
5
0
5
1
0
4
5
2
16
16
13
47
46
36
82
83
64
101
105
84
111
116
97
128
130
110
143
140
118
154
146
126
166
157
138
167
163
141
137
139
114
86
90
67
43
52
32
35
45
26
48
49
31
48
48
33
29
35
22
12
15
7
4
6
2
3
8
4
7
13
5
9
15
6
5
10
4
1
4
0
3
3
0
5
1
0
5
2
0
1
4
0
3
2
0
3
5
0
2
5
0
0
3
0
2
1
0
2
2
0
0
2
0
4
4
0
2
1
0
7
3
0
1
3
0
8
3
0
6
2
0
7
7
0
2
7
0
5
5
0
3
4
0
3
2
0
7
3
0
6
4
0
0
3
0
3
3
0
7
5
0
7
5
0
8
4
0
4
4
0
1
4
0
3
3
0
0
2
0
2
5
0
3
4
0
2
4
0
5
5
0
1
7
0
4
6
0
2
6
0
0
4
0
1
2
0
3
4
0
3
7
0
1
8
0
3
7
0
3
6
0
2
7
0
5
9
0
123
102
81
128
97
64
121
107
83
124
102
65
2
7
0
2
4
0
2
1
0
3
3
0
2
3
0
5
5
0
2
8
0
4
10
0
1
8
0
7
6
0
13
8
0
11
11
0
10
12
0
13
12
0
11
12
0
5
12
0
8
13
0
7
10
0
9
12
0
14
12
0
11
6
0
3
1
0
3
5
0
0
2
0
4
2
0
1
2
0
8
4
0
5
13
4
10
21
8
15
18
8
24
7
4
23
7
1
9
8
0
3
4
0
255
227
99
255
255
158
185
135
103
212
154
118
255
218
154
255
246
168
255
194
131
209
155
98
174
135
84
141
107
73
120
95
64
108
97
61
133
125
74
187
161
99
255
206
138
255
247
169
255
253
164
255
225
140
213
173
108
213
173
107
217
178
117
185
150
105
108
76
53
93
38
7
142
64
3
160
76
8
184
97
15
232
144
48
255
209
103
255
250
143
255
255
141
255
230
107
215
145
59
78
40
4
57
23
38
89
75
46
63
72
39
60
59
32
32
41
29
22
25
22
36
27
16
34
19
10
18
13
12
61
42
16
49
37
16
54
39
21
39
16
3
49
27
11
62
40
10
16
8
8
59
34
5
96
54
7
78
43
4
40
16
16
12
4
5
12
14
15
19
14
4
43
32
9
16
22
19
47
5
22
68
22
9
87
41
5
109
56
11
100
50
7
70
29
3
62
24
2
77
36
12
104
52
8
134
71
10
145
82
15
141
84
8
115
72
7
76
55
8
29
28
12
60
41
3
59
44
13
11
10
14
49
31
11
98
58
12
101
68
21
60
30
12
58
40
9
58
45
11
113
77
17
163
108
23
188
117
22
205
118
19
231
137
19
233
142
26
198
126
15
166
113
16
156
110
23
149
108
32
124
90
26
60
35
6
41
12
15
52
37
15
37
42
25
30
33
26
13
9
16
34
30
17
58
48
20
66
39
12
70
43
3
76
50
13
97
58
16
85
51
12
121
66
13
150
85
16
142
84
15
119
70
14
89
49
12
39
18
8
37
35
10
82
65
20
118
83
22
122
86
14
98
69
12
85
56
7
101
72
15
126
89
21
134
99
25
137
106
28
159
113
24
185
120
17
189
119
18
178
107
18
159
98
8
150
111
14
154
129
15
165
139
17
175
143
29
149
133
46
121
148
87
136
181
125
156
198
152
159
183
137
168
147
66
178
119
13
164
112
15
139
95
15
82
55
9
52
27
6
56
34
12
28
20
4
42
34
6
20
27
21
14
10
16
36
25
16
33
20
3
41
30
12
74
54
19
90
72
24
81
69
25
103
82
23
100
85
25
89
79
29
63
56
24
30
26
7
13
12
8
21
19
7
17
16
5
27
11
6
43
15
15
58
14
21
45
25
14
44
25
5
57
30
5
39
19
10
17
6
12
35
24
10
65
45
7
54
27
4
30
17
5
27
11
7
54
26
8
98
48
8
113
54
11
100
43
9
63
18
11
27
9
10
37
28
10
46
21
9
44
15
6
64
41
7
90
58
12
74
39
12
255
255
255
255
246
190
140
88
42
157
101
52
176
111
59
181
114
58
161
103
50
104
72
35
24
25
16
31
10
7
63
24
1
103
55
20
162
94
42
213
124
57
225
132
59
185
112
50
131
85
41
84
58
32
58
34
19
43
29
20
74
60
39
113
90
53
135
96
53
143
87
40
132
69
24
118
56
14
110
51
10
86
36
5
51
17
3
34
11
1
40
17
2
59
23
4
58
22
4
45
19
5
55
32
12
60
40
20
27
23
20
22
10
7
68
35
8
83
40
14
60
27
11
31
30
25
64
34
16
63
44
28
112
73
46
66
55
40
61
42
17
80
65
43
49
45
33
42
31
15
68
43
12
99
68
30
109
79
46
117
89
57
129
98
62
124
95
63
87
71
48
28
16
21
55
52
58
36
35
42
32
23
16
40
27
36
137
110
107
196
163
154
180
154
152
157
136
138
155
126
124
171
140
130
182
153
139
164
146
142
166
154
157
180
172
175
218
206
197
233
224
207
219
213
201
209
204
198
218
215
204
224
222
199
223
212
183
201
183
153
168
149
116
104
89
59
80
71
54
65
55
31
42
38
35
74
70
57
33
34
33
72
82
70
51
56
49
81
67
57
167
157
139
180
176
152
173
170
141
175
168
138
173
167
139
160
157
135
153
151
133
144
144
128
106
109
99
87
92
84
122
126
108
135
141
117
138
143
111
148
146
115
128
118
97
89
75
62
82
70
63
109
95
80
92
78
66
86
75
69
144
143
123
165
166
136
150
150
124
106
110
82
34
35
17
13
11
2
28
24
16
30
22
12
31
31
24
9
14
9
4
5
5
5
6
3
26
29
19
47
49
33
42
51
33
15
20
9
3
4
0
2
4
0
2
4
0
4
4
0
4
4
0
3
5
0
2
7
0
3
6
0
2
4
0
2
4
0
2
5
0
3
2
0
5
1
0
7
2
0
3
2
0
8
4
0
3
6
0
9
5
0
2
4
0
6
4
0
4
4
0
0
1
0
2
1
0
4
4
0
2
2
0
3
2
0
4
2
0
3
1
0
2
0
0
6
2
0
2
1
0
3
2
0
5
2
0
8
4
0
8
6
0
7
5
0
5
3
0
5
3
0
7
2
0
7
7
0
3
9
0
3
7
0
4
8
0
5
12
0
7
15
0
6
15
0
4
11
0
4
6
0
4
4
0
79
67
55
155
127
96
68
62
52
157
129
95
15
18
2
3
9
0
3
9
0
3
9
0
3
7
0
6
6
0
1
10
0
3
13
0
7
12
0
5
7
0
3
7
0
5
9
0
7
11
0
7
13
0
8
13
0
11
10
0
18
5
0
19
3
0
12
7
0
13
11
0
19
12
0
20
11
0
19
11
0
22
13
0
22
15
0
19
15
0
20
13
0
19
11
0
14
11
0
12
16
0
11
18
0
12
17
0
13
16
0
12
15
0
255
181
80
255
255
127
255
255
141
255
255
152
255
255
151
255
253
151
255
255
166
255
255
167
255
252
152
255
219
131
255
224
139
255
235
146
255
230
136
255
243
144
255
249
164
255
238
162
255
248
161
255
255
159
255
173
99
205
122
56
221
131
63
255
187
110
255
171
102
136
63
29
74
8
31
35
29
56
51
77
78
119
128
116
114
120
117
30
37
40
86
65
53
231
168
87
255
246
111
255
255
131
255
233
107
255
166
49
148
71
12
93
40
17
94
53
7
102
75
8
71
60
8
34
25
2
28
22
2
56
41
11
68
57
23
66
61
21
80
72
21
76
59
17
7
8
4
73
52
17
39
24
10
66
42
4
141
87
14
197
128
27
196
130
36
126
77
14
61
22
11
102
36
17
174
82
9
221
118
16
233
130
20
204
117
13
136
77
12
73
35
3
46
19
7
36
25
10
38
30
17
40
30
7
47
32
5
55
29
9
47
15
5
14
13
7
16
27
8
23
26
9
41
15
8
94
56
6
37
26
8
38
27
1
27
21
10
41
39
17
8
26
11
19
27
19
11
8
14
78
44
15
78
48
13
46
31
3
38
24
6
54
34
5
57
43
21
34
31
12
23
27
12
42
29
13
28
23
13
106
80
29
101
76
33
73
44
9
63
43
6
25
22
3
17
27
15
7
16
13
28
19
10
54
45
14
77
68
15
88
79
21
101
86
24
146
104
23
173
112
20
178
116
16
179
118
14
195
116
9
211
115
1
212
112
7
210
113
8
225
128
4
225
132
15
205
117
5
198
108
12
197
99
2
206
103
5
222
116
7
231
118
9
232
113
8
225
109
13
229
116
14
254
138
3
255
174
56
255
220
103
255
253
112
255
248
82
255
226
42
255
224
93
255
219
167
255
205
195
255
192
166
255
154
96
239
100
8
208
89
61
186
102
95
163
85
21
130
68
18
90
36
5
38
20
5
22
25
6
54
44
6
56
38
11
75
55
13
59
36
14
48
20
20
31
32
20
12
7
7
40
25
13
50
43
26
49
51
31
30
39
32
20
7
22
39
36
11
35
32
18
27
8
8
47
18
12
41
15
8
34
12
10
35
14
9
60
27
10
91
43
17
99
49
23
89
42
19
50
18
13
27
22
14
72
52
15
64
45
6
20
18
2
43
34
7
55
17
9
71
15
13
77
21
16
70
21
15
61
16
9
55
24
5
38
18
9
25
30
21
41
54
28
73
72
29
74
67
23
62
59
16
62
58
16
42
47
14
2
17
12
255
255
255
250
220
181
7
9
11
16
7
10
29
5
3
41
9
6
66
29
15
101
55
26
95
44
14
95
45
16
74
38
17
52
33
11
57
30
7
27
15
7
42
15
4
63
26
4
43
21
4
55
28
8
60
26
11
43
18
11
36
22
12
55
26
11
80
38
12
81
40
7
58
29
5
36
18
5
24
8
5
31
21
8
27
12
8
17
4
10
18
9
14
32
24
19
53
45
30
73
65
41
90
73
43
96
71
47
81
62
49
78
57
41
93
62
32
53
26
22
60
15
13
50
16
11
88
37
11
99
43
20
95
54
36
32
22
36
45
32
45
73
51
55
61
29
32
50
22
5
35
19
7
45
36
21
31
29
27
13
19
24
13
32
39
39
59
61
73
86
84
84
95
98
77
81
92
77
78
86
33
40
56
72
52
52
86
72
64
142
107
86
221
162
125
232
184
153
185
160
151
167
150
150
150
134
134
119
102
101
105
86
82
96
76
79
99
80
78
82
65
63
79
63
56
102
88
79
155
137
126
213
185
159
218
183
151
187
155
124
179
157
124
181
153
122
170
141
120
144
128
105
140
136
116
157
152
119
120
112
79
69
72
50
132
129
103
147
138
118
168
155
137
186
175
155
183
171
148
203
186
160
230
212
185
233
215
187
204
185
159
163
142
124
144
127
113
152
143
125
176
167
147
175
169
152
169
166
147
149
144
128
108
108
95
84
86
73
78
79
72
74
75
60
75
80
68
25
17
30
108
101
99
121
120
116
128
123
117
68
65
47
86
84
71
95
96
78
94
97
83
116
117
107
153
144
135
170
159
149
174
166
150
149
146
125
104
102
79
56
51
35
50
53
39
17
23
13
21
24
18
30
37
25
19
25
16
1
3
0
5
2
0
4
2
0
2
3
0
4
5
0
5
4
0
5
4
0
5
4
0
6
6
0
8
9
0
5
8
0
5
6
0
7
7
0
7
6
0
7
3
0
3
5
0
7
7
0
7
7
0
5
4
0
5
3
0
5
6
0
3
4
0
3
6
0
1
5
0
2
4
0
2
1
0
3
1
0
5
4
0
6
6
0
5
4
0
4
4
0
1
8
0
6
11
0
9
7
0
5
5
0
2
4
0
5
7
0
6
8
0
5
9
0
2
7
0
0
7
0
2
5
0
5
5
0
6
7
0
5
7
0
4
4
0
38
29
26
172
144
115
23
14
13
182
144
117
58
39
20
4
4
0
4
5
0
6
7
0
7
8
0
4
8
0
1
8
0
4
2
0
2
7
0
4
4
0
2
5
0
1
3
0
4
4
0
2
5
0
2
5
0
2
7
0
1
7
0
1
6
0
4
5
0
4
4
0
5
6
0
11
9
0
11
11
0
9
13
0
8
14
0
10
12
0
15
10
0
16
13
0
13
16
0
12
14
0
8
8
0
2
6
0
7
8
0
10
11
0
129
73
35
255
184
81
255
249
110
255
250
114
255
203
94
255
169
83
255
191
108
255
202
120
255
207
125
255
209
120
255
196
112
255
210
126
255
181
113
200
111
71
166
94
62
147
96
53
196
137
86
255
210
137
255
189
124
146
79
57
60
30
31
97
76
58
187
151
112
145
123
96
60
60
53
90
73
44
104
74
31
147
112
64
215
185
141
200
186
158
137
130
115
36
39
52
129
71
8
254
153
48
255
233
86
255
255
101
255
242
63
255
187
41
236
150
27
232
142
25
255
150
24
229
138
25
138
81
11
85
41
4
100
45
12
153
77
11
227
118
2
255
151
18
255
160
23
200
116
7
150
80
0
122
56
4
117
55
15
130
66
21
128
51
10
199
103
18
205
110
9
190
103
14
204
110
17
220
113
5
209
114
9
208
120
14
215
129
21
177
100
9
118
61
1
92
53
5
79
49
11
31
24
8
18
20
7
27
23
9
33
28
12
57
37
6
62
45
7
72
56
11
48
44
17
31
8
14
83
43
10
87
52
4
80
49
12
93
64
4
87
69
17
50
47
16
42
35
14
83
50
14
80
56
18
66
48
7
80
51
6
114
72
10
156
101
23
194
121
31
198
117
27
156
84
17
123
64
8
151
85
14
194
116
26
189
115
29
132
82
17
62
39
8
20
8
2
15
17
15
28
23
17
50
42
31
66
52
31
67
44
22
56
33
18
89
49
13
145
79
14
185
100
18
205
110
17
188
101
15
154
83
11
146
80
6
137
76
5
103
51
6
43
11
13
25
29
13
66
53
22
79
64
21
74
63
23
55
49
18
27
27
15
15
2
13
53
18
12
86
32
12
142
82
13
194
165
127
207
220
218
160
212
255
119
201
255
113
228
255
110
240
255
101
207
255
92
186
255
86
174
255
85
164
255
60
90
182
41
32
105
58
34
38
66
35
24
46
12
4
64
22
19
79
37
19
62
34
9
20
4
10
11
20
19
39
18
26
84
32
18
66
28
11
22
14
13
7
19
14
37
22
11
41
42
17
28
34
17
8
25
19
17
38
37
14
27
28
18
13
21
45
21
14
59
31
9
81
50
3
102
66
9
104
73
13
107
74
13
118
71
8
111
61
2
78
44
2
46
31
2
41
32
12
36
29
6
42
32
14
30
24
13
37
38
9
41
38
10
23
30
18
12
15
21
56
15
16
85
38
6
89
48
8
69
42
14
44
29
5
55
39
7
57
32
5
40
11
3
47
24
8
57
36
9
49
27
6
38
22
4
255
255
255
255
237
191
70
51
27
79
61
37
89
69
45
97
72
46
104
72
41
100
67
33
57
41
19
34
31
18
22
22
16
47
26
8
73
31
8
72
28
7
78
32
10
52
21
7
10
5
5
14
3
5
28
12
1
39
18
8
41
18
7
39
20
5
40
25
13
39
24
14
40
21
12
48
27
12
74
40
13
117
56
15
118
50
14
107
46
14
99
41
12
96
38
11
96
43
16
87
39
12
68
29
11
54
31
23
45
30
26
52
22
12
107
63
37
100
60
40
45
19
18
6
6
7
35
20
7
63
36
13
118
76
36
147
105
51
121
90
45
59
43
22
42
24
10
51
24
2
60
27
5
74
38
12
87
53
27
92
61
40
102
75
49
116
86
53
102
78
49
75
55
33
71
49
33
81
65
50
38
28
25
52
33
16
91
63
43
68
51
49
30
26
28
78
50
29
95
80
73
78
80
81
44
50
56
53
47
44
70
53
32
56
37
19
57
41
21
63
34
13
71
37
11
72
46
21
66
40
20
30
21
33
69
66
63
57
45
45
29
34
50
86
92
103
117
119
119
98
101
101
103
106
107
145
147
132
194
186
153
169
163
136
161
150
131
112
99
99
68
65
68
86
74
70
90
81
75
76
71
68
63
54
52
68
55
48
88
81
77
96
84
87
45
35
54
44
45
58
95
106
96
82
103
84
66
87
65
78
90
67
77
71
60
26
21
18
31
22
26
36
39
35
71
71
72
47
43
45
65
70
75
120
121
112
93
90
70
81
82
84
165
154
138
166
158
132
63
67
40
27
19
30
24
20
12
74
65
57
128
127
110
166
162
146
127
127
114
80
82
68
65
67
46
8
10
5
36
44
31
32
46
27
53
66
43
39
50
27
21
30
11
8
11
2
4
4
0
8
7
0
10
5
0
7
3
0
4
2
0
6
8
0
8
7
0
4
7
0
4
3
0
7
1
0
8
1
0
3
3
0
1
6
0
4
9
0
6
7
0
5
4
0
4
5
0
5
7
0
7
5
0
5
5
0
2
4
0
4
3
0
2
4
0
3
7
0
5
6
0
4
4
0
2
6
0
2
7
0
1
7
0
3
3
0
3
6
0
3
4
0
1
4
0
2
5
0
1
2
0
3
2
0
4
1
0
2
2
0
4
6
0
3
7
0
3
3
0
3
1
0
1
3
0
11
8
7
165
138
114
96
69
43
170
141
119
111
81
53
7
3
0
5
2
0
4
4
0
4
1
0
2
2
0
3
2
0
3
3
0
4
4
0
2
3
0
3
4
0
2
5
0
3
5
0
1
1
0
3
2
0
3
2
0
2
1
0
2
2
0
2
1
0
4
1
0
1
1
0
3
3
0
4
2
0
5
3
0
5
6
0
7
4
0
5
1
0
4
2
0
4
4
0
7
3
0
8
4
0
8
5
0
5
3
0
2
2
0
3
1
0
7
0
0
22
5
0
47
18
1
70
31
5
70
32
8
44
18
4
12
8
4
31
20
22
92
71
50
25
8
5
45
18
17
97
76
46
19
47
27
110
95
60
90
61
34
130
90
50
214
165
108
255
247
165
255
255
185
255
255
181
255
224
160
255
219
158
255
255
180
255
255
198
255
231
156
144
116
77
51
42
31
67
45
17
112
89
56
91
79
57
116
98
65
163
135
89
168
147
112
55
75
82
142
78
37
255
152
52
255
172
57
241
138
37
185
89
14
193
88
10
250
132
24
255
162
38
252
148
31
234
133
18
217
119
7
173
85
12
135
66
10
194
111
22
249
143
21
213
116
17
124
72
14
8
13
8
118
84
28
142
103
38
58
46
16
32
24
7
18
20
4
69
41
15
97
66
26
76
57
24
48
40
18
39
24
7
106
58
14
146
80
15
178
104
18
237
147
32
247
159
39
176
115
26
129
77
13
142
78
11
166
91
14
182
107
20
215
136
29
236
154
35
217
147
33
168
123
32
100
84
31
42
43
25
58
15
17
88
30
18
95
52
14
100
70
10
96
64
18
77
56
28
52
41
31
36
50
37
25
51
39
18
36
31
14
22
16
7
22
10
24
32
19
17
34
25
19
34
22
69
44
21
119
67
17
131
69
6
135
72
6
128
69
5
87
50
16
38
27
14
7
12
8
22
17
9
49
33
12
30
20
8
46
23
4
71
43
7
68
50
15
62
45
12
60
33
2
53
20
13
45
24
12
14
11
6
20
7
7
55
25
17
57
31
22
28
20
23
4
15
13
15
11
9
27
4
10
24
2
13
31
12
6
34
14
2
70
29
7
113
77
14
78
120
139
76
135
218
127
158
134
129
158
89
110
135
99
133
160
92
178
218
194
203
253
255
199
248
233
161
192
192
114
132
237
60
51
125
21
22
24
73
32
20
91
36
24
127
66
26
154
72
30
131
57
34
84
72
31
108
96
29
131
105
26
126
106
31
146
123
39
139
120
37
93
83
28
51
43
17
54
56
27
45
43
29
32
31
28
6
7
19
45
47
17
70
63
22
60
49
11
26
23
8
8
4
8
20
15
9
9
11
5
18
1
12
27
9
5
42
24
8
55
32
6
64
37
2
81
50
8
84
56
5
58
39
9
24
14
11
12
13
9
18
19
5
26
27
4
41
32
5
56
39
8
50
34
19
39
22
27
30
9
16
45
28
6
76
55
8
75
58
11
66
55
10
69
56
13
74
52
2
67
48
2
55
39
2
255
255
255
255
253
199
39
18
8
26
6
1
1
4
4
18
8
1
48
23
6
58
31
11
46
22
2
58
31
5
48
25
3
20
11
1
29
16
7
27
10
6
17
12
15
22
17
22
25
24
21
45
27
14
65
28
13
73
26
14
76
24
11
83
31
15
87
37
16
85
37
12
92
39
7
105
46
11
119
55
15
114
51
14
83
34
12
74
29
9
49
13
5
19
11
12
36
40
22
82
61
28
115
71
29
141
84
39
169
106
60
175
118
69
148
95
49
117
65
27
110
55
19
116
54
10
114
53
17
86
40
12
60
28
8
57
26
5
69
32
4
70
34
2
64
29
5
42
8
17
26
24
32
38
33
39
39
39
38
25
32
33
27
31
29
28
34
35
42
48
41
34
43
39
26
25
32
65
48
33
59
41
22
47
23
11
35
24
22
73
56
46
94
67
53
57
45
46
10
14
27
21
13
28
15
23
41
18
15
35
42
29
24
32
16
17
41
27
28
46
27
18
45
22
9
41
18
7
15
17
26
33
27
27
67
60
52
77
76
77
80
71
74
40
30
35
19
30
22
52
70
55
49
70
61
27
41
37
41
31
27
94
77
74
102
86
84
72
63
68
50
50
46
43
29
17
53
39
34
13
5
2
31
39
42
78
76
83
136
117
115
82
61
64
21
11
24
13
21
17
25
8
30
42
41
43
18
22
27
37
36
41
46
44
49
53
51
58
80
82
89
121
126
131
138
144
136
112
119
98
45
53
39
38
35
25
48
49
34
110
108
101
125
133
109
142
149
133
146
154
123
145
148
133
138
133
128
138
131
134
141
140
137
95
101
92
106
110
105
110
112
94
52
54
34
5
7
5
29
41
27
34
42
31
14
15
16
14
21
18
20
24
13
27
34
21
17
23
14
6
10
1
5
10
0
5
5
0
4
5
0
4
6
0
4
3
0
4
5
0
2
0
0
4
3
0
6
4
0
2
3
0
2
2
0
1
3
0
2
4
0
2
2
0
4
3
0
2
4
0
2
3
0
3
2
0
4
6
0
7
2
0
9
8
0
5
9
0
1
5
0
3
2
0
3
5
0
4
5
0
4
4
1
2
2
3
5
7
3
6
1
1
5
2
0
5
3
0
6
3
0
5
4
0
2
5
0
4
2
0
1
5
0
6
1
0
1
4
0
2
1
0
1
1
0
1
2
1
133
109
94
155
120
86
126
110
94
151
120
87
7
6
0
4
3
0
1
2
0
5
4
0
5
4
0
2
1
0
1
3
0
2
3
0
2
3
0
3
1
0
0
1
0
2
1
0
0
2
0
2
1
0
1
3
0
4
2
0
2
2
0
2
2
0
4
3
0
5
3
0
5
2
0
5
4
0
4
5
0
5
2
0
5
2
0
5
3
0
4
4
0
5
5
0
5
4
0
5
4
0
2
4
0
5
4
0
5
1
0
3
0
0
2
0
0
5
0
0
7
4
0
22
11
1
43
24
7
46
35
12
45
30
14
59
39
20
78
60
37
4
9
13
16
5
4
149
131
82
127
100
73
188
161
105
187
160
105
131
109
76
36
29
22
81
68
46
117
90
67
105
76
59
113
79
58
152
101
63
231
164
102
255
247
167
255
255
216
255
255
223
255
255
204
155
149
129
61
25
23
174
123
38
211
155
58
222
160
62
232
158
62
219
151
66
152
109
53
90
65
25
64
43
20
82
58
29
90
59
17
134
83
21
124
85
26
71
55
19
13
13
8
15
8
4
26
17
4
65
37
8
72
47
14
57
46
11
14
20
2
100
53
11
198
125
30
210
139
41
132
90
36
29
25
14
74
51
18
56
35
8
45
29
7
65
45
18
122
80
25
139
97
28
119
83
24
120
79
21
113
73
19
81
59
16
40
43
15
25
31
21
84
32
6
160
90
17
168
99
20
135
80
17
92
54
14
57
34
6
54
27
5
79
40
5
101
49
9
131
67
7
187
104
15
230
141
19
208
137
22
133
100
28
47
51
29
76
25
18
173
101
7
235
153
24
255
175
38
255
186
41
255
195
43
255
198
45
255
181
41
224
137
25
162
88
10
123
63
4
106
55
3
111
57
11
105
55
8
41
13
7
47
42
22
111
81
31
126
89
34
73
55
31
33
25
35
33
4
34
73
31
25
94
44
21
79
31
25
58
14
27
60
19
20
44
23
10
32
17
5
41
17
8
55
24
10
54
13
20
80
20
27
117
40
30
143
62
32
146
72
21
130
61
9
131
54
9
142
58
14
157
68
14
152
69
10
123
56
4
114
61
11
82
55
19
21
57
62
59
145
207
39
151
255
20
92
206
14
89
201
52
153
255
44
129
255
22
79
231
11
75
229
35
137
255
74
151
255
96
105
99
85
62
23
73
36
11
93
51
8
140
68
18
168
94
13
197
110
10
198
99
8
139
61
15
142
58
25
135
48
24
80
21
19
49
23
10
62
57
17
25
22
8
47
39
13
66
44
14
41
18
8
24
10
8
43
29
11
45
23
21
34
5
26
42
15
24
32
27
22
26
26
24
41
39
26
47
44
36
47
47
34
36
44
36
9
29
38
7
20
33
5
16
20
24
16
11
14
15
8
13
24
17
9
16
19
22
8
21
37
8
25
59
14
25
94
34
25
123
58
27
139
74
14
136
69
8
119
50
19
129
53
23
148
66
17
151
70
15
146
69
17
146
67
12
150
71
12
145
70
7
255
255
255
255
255
202
101
47
12
98
45
11
79
36
9
60
31
5
65
31
5
31
15
7
62
40
15
96
56
22
103
59
25
109
64
30
124
77
38
137
85
39
131
80
31
111
65
20
89
51
18
80
47
17
82
48
22
91
53
27
110
66
33
136
82
44
161
94
48
172
98
45
171
97
34
162
89
32
132
73
30
97
60
29
88
60
36
115
81
49
146
108
66
160
122
73
158
118
66
145
102
53
130
84
41
123
73
34
117
70
31
106
70
29
91
62
21
81
52
15
71
50
23
28
21
14
16
9
12
23
4
5
25
7
4
15
7
6
22
10
11
56
28
13
50
25
8
24
19
23
61
48
48
62
46
59
30
34
56
15
27
44
20
37
50
88
98
96
103
112
109
79
90
94
62
75
85
97
100
103
91
97
100
67
70
70
35
44
43
23
33
32
26
30
31
51
38
41
56
36
38
43
34
39
36
40
47
33
39
41
23
21
20
30
26
21
44
32
33
75
63
51
86
79
70
134
124
115
154
145
141
127
123
121
44
54
65
47
28
12
76
52
31
83
62
47
75
68
58
54
50
48
38
29
36
64
63
51
95
94
80
123
120
110
146
137
132
164
148
148
166
154
155
140
132
130
88
84
81
63
59
56
66
61
71
97
84
89
95
77
71
59
41
40
10
21
10
26
15
22
85
70
66
125
120
106
116
115
97
105
98
84
66
47
41
20
11
13
40
50
47
59
57
51
36
27
22
9
19
20
58
66
46
28
31
24
45
41
22
44
40
44
131
118
111
104
94
79
43
36
37
84
85
78
101
107
84
42
51
30
74
67
79
150
146
136
124
124
113
61
58
55
35
38
22
8
7
0
10
18
11
31
40
27
43
54
36
38
49
26
20
28
15
4
5
4
13
25
18
2
6
2
1
5
0
2
4
0
4
4
0
3
2
0
0
4
0
3
1
0
2
1
0
3
2
0
7
3
0
3
5
0
2
3
0
1
1
0
1
3
0
2
2
0
1
5
0
1
4
0
3
1
0
2
1
0
3
5
0
6
5
0
5
6
0
3
0
0
4
5
0
3
2
0
2
6
0
1
3
0
1
3
2
1
2
2
7
7
2
7
4
2
3
3
0
4
1
0
1
4
0
5
2
0
3
2
0
5
3
0
6
5
0
5
4
0
5
4
0
5
2
0
5
4
0
6
5
0
86
67
63
184
148
115
71
65
59
177
143
113
13
7
2
4
5
0
3
1
0
0
4
0
2
3
0
0
2
0
2
1
0
3
0
0
2
1
0
4
2
0
1
0
0
4
1
0
5
1
0
6
2
0
6
3
0
5
4
0
4
0
0
5
4
0
1
2
0
4
4
0
3
3
0
1
4
0
1
4
0
3
3
0
3
3
0
5
4
0
1
4
0
2
5
0
3
4
0
6
3
0
4
1
0
4
4
0
2
1
0
2
2
0
3
1
0
3
1
0
7
3
0
32
13
2
63
41
12
74
56
21
63
42
18
31
18
12
29
24
13
43
34
22
48
44
31
164
143
91
89
87
53
71
48
35
181
145
94
231
185
127
213
169
119
149
115
75
173
138
97
194
151
114
203
156
114
226
169
111
255
199
122
225
175
107
143
109
66
86
65
39
173
128
92
255
237
171
255
255
210
219
195
158
61
62
63
54
27
11
111
69
15
133
87
29
103
60
13
154
91
28
211
131
40
194
123
35
144
90
23
137
78
14
177
104
21
212
130
28
219
134
28
196
121
22
153
96
12
109
66
7
86
47
7
111
65
14
140
82
16
138
85
21
85
54
14
67
42
7
101
63
27
55
47
31
10
20
18
46
25
4
31
19
4
81
58
20
61
47
16
80
38
3
75
37
7
64
28
3
90
46
4
138
76
5
174
102
12
210
136
29
191
136
39
87
69
20
11
10
2
31
10
3
49
21
6
89
55
22
105
71
35
103
72
36
97
66
33
116
77
34
155
100
38
198
119
29
235
136
18
255
151
17
255
194
28
255
209
42
223
171
50
107
97
45
42
35
30
100
39
17
117
46
20
103
40
18
106
51
11
120
69
13
111
65
7
101
57
6
88
47
7
61
29
5
49
24
11
44
20
6
85
51
17
87
50
7
97
55
15
79
48
22
38
25
19
17
25
17
26
36
19
27
40
25
23
19
22
37
8
13
59
28
8
47
19
14
44
11
16
48
10
19
36
11
16
28
19
14
50
43
16
74
69
11
105
89
4
117
92
8
119
91
13
136
95
18
144
97
13
126
81
5
94
58
8
57
39
6
59
49
19
40
41
4
42
51
25
34
18
28
104
113
92
118
118
163
128
131
42
165
223
166
199
255
230
204
244
167
200
216
124
192
223
166
157
138
53
73
65
15
29
24
6
41
28
17
76
75
13
104
110
19
88
81
18
78
40
16
124
76
5
155
104
8
158
108
9
117
84
9
83
66
12
28
41
16
52
21
5
117
74
8
127
82
4
111
68
18
81
43
11
56
27
10
59
30
11
60
32
13
57
37
4
48
38
13
27
25
18
28
12
18
3
14
18
29
29
17
38
29
2
44
31
7
20
13
20
13
14
22
14
16
26
32
22
22
18
31
24
22
35
25
23
20
14
25
17
6
27
12
10
31
10
11
50
37
13
81
61
13
86
65
5
85
64
5
94
68
6
82
59
7
46
38
10
10
16
8
17
13
9
27
11
5
23
11
2
14
11
4
255
255
255
255
255
203
33
20
5
15
7
4
38
10
3
25
8
4
18
11
7
52
31
10
68
34
8
55
29
5
53
27
8
52
27
10
50
25
6
61
29
5
71
29
4
64
22
10
71
30
2
107
63
24
133
84
36
128
84
38
107
72
30
104
68
28
113
71
22
114
72
32
102
66
24
100
70
35
110
80
47
117
84
52
117
80
49
114
72
40
118
73
36
127
84
42
137
91
45
146
92
41
148
88
36
136
75
30
110
55
18
82
33
7
61
20
20
69
35
31
90
44
29
85
35
18
62
22
14
29
4
10
10
7
8
32
18
9
27
17
9
14
10
10
23
15
14
8
10
23
73
61
51
80
45
27
10
6
18
27
24
32
21
21
29
75
64
52
44
28
15
69
54
31
46
31
27
102
82
62
77
67
57
105
88
79
97
80
75
76
60
59
74
58
55
99
87
73
109
94
78
70
63
58
52
55
54
42
44
41
25
31
29
22
16
18
9
18
24
16
5
2
53
45
41
92
72
64
84
70
69
110
100
95
162
156
143
136
127
116
65
59
57
33
21
11
41
46
43
91
101
90
135
136
120
120
119
103
73
76
65
34
38
28
19
24
19
14
15
34
101
94
103
176
158
149
153
130
119
92
68
67
69
54
59
34
27
21
59
63
61
106
95
88
82
79
65
69
75
67
134
133
116
94
96
86
36
35
29
95
93
90
137
127
117
146
129
122
181
165
159
216
205
198
231
224
215
247
246
224
239
237
212
185
180
170
169
160
147
194
187
160
185
185
149
162
162
134
159
154
132
140
129
108
61
49
42
68
71
62
72
75
51
49
51
38
36
32
22
8
5
4
29
33
19
13
14
4
2
3
0
3
4
0
3
4
0
5
9
2
16
27
15
17
34
21
11
23
14
5
4
1
4
4
0
2
2
0
1
1
0
2
3
0
4
3
0
3
1
0
1
1
0
3
3
0
4
7
0
1
3
0
1
4
0
3
2
0
2
1
0
4
4
0
4
3
0
5
2
0
7
1
0
6
3
0
2
4
0
1
4
0
4
5
0
5
5
0
3
7
0
3
4
0
2
6
0
1
2
0
2
3
1
0
4
3
4
3
3
10
2
1
10
1
0
7
1
0
5
4
0
5
4
0
4
3
0
2
0
0
3
5
0
4
6
0
5
2
0
4
1
0
0
2
0
2
1
0
42
32
33
194
155
131
5
5
16
193
156
132
48
27
20
4
3
0
1
2
0
4
3
0
7
3
0
6
1
0
2
1
0
3
3
0
3
4
0
2
3
0
4
2
0
8
3
0
5
1
0
4
2
0
2
2
0
2
1
0
1
4
0
5
2
0
1
3
0
1
4
0
3
4
0
1
5
0
3
1
0
0
2
0
5
7
0
3
2
0
4
2
0
3
4
0
4
2
0
5
0
0
4
3
0
3
3
0
3
2
0
3
3
0
7
5
1
18
11
2
29
14
1
35
8
2
69
49
15
98
75
29
77
48
24
100
67
39
147
110
73
208
163
107
185
148
90
96
81
51
107
89
61
48
45
29
14
8
14
81
55
36
187
144
98
209
165
111
68
50
35
130
116
92
214
189
145
175
153
119
72
67
56
69
39
23
123
78
48
173
119
73
157
114
70
58
50
29
103
87
76
248
216
167
198
176
135
82
81
54
63
51
27
77
48
23
99
61
10
128
78
19
90
56
11
27
11
10
36
36
35
53
49
41
24
26
24
20
17
21
28
6
16
50
18
8
49
25
7
63
29
6
113
62
8
143
81
10
140
74
6
154
85
13
199
118
29
214
133
36
159
100
27
89
58
9
62
43
9
61
40
5
63
42
2
37
27
9
82
59
24
94
64
31
66
45
27
41
27
19
52
37
15
64
43
12
35
20
12
40
5
8
100
65
19
102
70
21
71
42
14
82
53
17
84
56
18
85
61
21
38
34
16
52
41
12
44
45
17
40
43
18
19
11
9
79
52
22
80
60
18
30
33
15
32
29
18
71
28
12
116
63
9
127
83
24
113
76
24
62
48
19
44
47
19
18
23
15
42
12
7
87
52
8
124
78
13
149
88
14
168
95
13
164
90
9
136
72
2
108
54
5
83
38
6
70
29
17
87
34
13
75
37
19
33
10
19
13
12
20
52
45
17
65
52
11
61
45
3
56
39
2
59
45
8
38
43
20
35
44
25
44
49
29
42
48
28
19
29
17
17
16
11
41
25
10
51
30
11
44
21
11
31
23
9
16
5
7
49
21
8
80
44
5
111
67
4
114
64
11
83
62
30
26
49
53
18
29
46
55
29
18
128
124
68
140
197
186
107
207
234
65
158
169
30
109
132
85
187
208
158
242
228
213
228
148
226
159
40
211
121
7
215
134
4
204
129
8
205
127
20
193
123
29
177
123
24
138
110
24
101
90
26
62
67
28
36
48
26
33
37
20
27
27
14
21
16
10
38
30
4
17
18
4
45
18
9
62
18
4
47
22
18
41
29
24
35
10
21
81
29
22
124
60
21
143
75
14
150
87
14
161
101
6
176
117
13
178
119
14
165
110
10
160
106
10
149
96
11
140
92
4
148
98
11
155
106
9
140
98
6
117
77
7
89
60
2
68
58
10
54
60
23
41
50
25
35
39
12
51
41
14
39
33
8
41
31
6
38
21
1
29
11
4
27
20
5
14
5
4
14
7
7
22
2
10
32
8
10
29
17
7
255
255
255
255
255
201
57
24
7
47
21
7
27
14
8
36
19
8
41
26
7
29
13
4
12
10
6
46
30
11
71
42
15
84
52
20
98
63
27
114
70
30
114
70
26
95
59
16
81
50
12
80
53
23
67
45
21
77
51
23
89
61
27
110
79
43
122
88
51
120
84
42
109
75
27
93
65
29
63
49
20
41
37
20
43
39
29
54
49
39
67
63
48
79
73
53
83
74
49
79
65
37
76
56
30
84
61
34
99
71
41
112
80
45
117
83
45
117
75
38
98
57
24
70
39
13
57
31
12
45
20
8
41
16
8
21
8
5
35
19
5
86
47
17
95
51
17
110
56
15
102
53
33
79
37
49
28
6
48
42
28
39
46
43
51
99
101
99
108
112
111
51
69
80
73
59
69
109
90
90
56
65
88
33
15
50
90
34
14
122
64
22
137
85
41
140
103
62
143
113
75
115
83
47
48
18
7
33
32
38
37
45
51
37
33
36
51
45
46
50
52
48
76
79
70
128
120
110
168
154
150
160
148
142
101
98
91
61
59
55
57
47
47
85
74
71
95
86
83
98
90
83
87
81
76
69
64
55
46
39
44
30
32
34
15
10
13
44
39
39
85
80
62
74
71
65
122
123
110
103
114
101
79
90
75
56
60
49
41
39
31
86
81
80
86
82
69
83
91
76
130
137
111
73
76
63
64
56
59
46
37
34
102
88
88
122
115
110
123
115
110
146
131
120
136
117
109
94
76
79
82
64
66
97
90
84
81
77
65
63
54
52
38
40
34
27
38
37
57
66
62
51
55
52
34
35
30
78
82
72
126
118
108
131
119
96
102
95
69
58
56
44
60
62
54
95
100
85
101
102
85
70
62
53
56
53
44
105
109
90
143
147
124
154
154
136
150
149
135
137
141
123
111
122
99
90
102
81
111
119
103
140
147
129
147
150
131
137
139
119
106
113
89
63
71
46
63
70
49
75
75
56
50
51
34
14
19
5
12
20
6
8
12
4
4
1
0
2
4
0
1
3
0
0
1
0
2
2
0
1
0
0
4
4
0
2
2
0
5
3
0
5
4
0
3
4
0
2
3
0
1
3
0
1
1
0
5
1
0
4
3
0
4
5
0
7
6
0
5
5
0
4
3
0
2
1
0
3
1
0
5
2
0
5
4
0
8
5
0
7
4
0
5
3
0
7
5
0
18
12
11
179
143
127
89
64
40
181
151
129
104
74
53
2
2
0
2
2
0
6
1
0
1
4
0
3
1
0
3
2
0
2
1
0
3
1
0
3
1
0
4
2
0
4
2
0
6
4
0
8
2
0
3
2
0
3
2
0
2
5
0
4
4
0
2
4
0
2
2
0
2
4
0
2
7
0
3
3
0
3
1
0
5
6
0
1
5
0
4
6
0
4
4
0
2
1
0
4
1
0
3
4
0
4
1
0
3
4
0
2
2
0
7
8
2
22
12
0
28
8
2
25
11
2
40
28
10
107
85
33
83
65
32
87
61
47
214
168
101
255
222
132
255
255
162
255
194
122
91
66
41
58
40
35
60
44
29
51
41
11
30
21
5
80
59
51
210
170
132
226
191
133
47
44
22
182
138
111
255
242
180
255
236
171
255
216
161
255
227
161
215
186
124
135
115
82
68
55
40
181
145
115
253
205
168
181
149
119
66
62
50
73
47
12
134
88
33
123
83
29
56
40
17
57
39
24
33
29
18
93
66
41
150
113
60
183
134
62
180
127
59
118
90
50
46
41
28
5
10
5
30
21
2
64
45
12
89
62
18
91
64
21
91
65
17
65
51
7
34
23
6
58
48
18
41
36
12
61
35
7
93
59
15
83
49
12
71
45
9
47
29
4
48
28
5
88
53
8
96
55
5
63
28
2
22
21
10
9
24
16
70
40
14
105
56
10
162
91
10
185
99
10
216
122
18
255
170
41
255
185
56
235
160
51
190
129
40
159
111
36
128
92
32
108
73
22
72
41
11
74
34
3
107
54
7
143
76
10
163
99
17
153
100
22
80
45
7
38
32
8
108
70
12
113
74
14
75
60
20
31
37
17
4
20
16
13
15
20
16
12
23
32
11
18
39
4
14
28
3
21
27
21
25
34
34
24
71
43
11
83
53
11
47
28
5
43
29
10
66
48
15
24
19
10
10
12
10
28
15
8
60
35
13
60
39
5
56
39
10
61
50
18
78
56
20
44
43
25
41
17
12
63
35
2
102
60
8
153
82
26
165
81
22
140
69
8
106
55
2
78
37
10
58
21
18
89
53
18
79
62
57
18
36
67
36
20
32
65
40
7
107
69
18
143
83
4
157
122
60
198
223
171
224
255
210
254
228
139
255
163
53
253
131
12
233
108
18
198
82
16
205
86
14
241
98
10
249
98
14
218
74
18
215
73
27
215
85
26
188
81
20
168
81
10
152
78
2
126
72
9
94
66
16
46
44
15
31
13
11
73
34
9
97
52
6
95
56
7
94
55
8
57
24
13
23
17
15
37
21
6
48
31
9
58
23
12
82
28
17
110
49
21
122
51
16
132
49
14
158
66
13
187
89
14
196
93
21
172
75
27
139
57
25
93
33
21
46
10
19
31
10
18
29
13
13
25
11
8
24
21
16
22
29
18
1
18
18
42
23
14
57
32
14
56
23
10
75
30
14
83
32
18
69
22
24
42
8
28
25
17
26
14
17
26
18
27
30
17
34
31
255
255
255
255
255
198
3
3
7
32
19
9
59
34
13
60
36
14
31
21
8
15
12
8
16
15
7
18
17
8
8
14
10
14
14
11
24
26
17
44
44
28
55
52
35
52
45
30
43
33
17
28
19
6
27
13
10
24
7
6
22
21
25
10
28
29
7
22
25
30
17
20
35
8
13
62
33
9
94
68
34
121
91
49
131
93
50
126
83
42
115
75
35
112
77
38
118
82
44
129
90
49
144
100
52
148
100
47
130
82
37
114
66
29
118
63
21
124
63
14
117
60
11
103
54
11
69
34
7
29
12
3
14
4
5
10
4
4
49
25
11
60
32
13
39
22
12
53
21
10
58
18
14
23
10
31
28
40
44
59
49
47
36
25
37
44
10
24
65
23
17
85
40
15
98
61
32
64
46
36
48
51
62
73
84
93
71
83
95
43
52
72
38
39
54
41
34
39
60
37
36
107
76
54
60
36
41
50
37
51
54
37
43
25
12
22
10
4
24
11
8
27
15
10
18
9
13
22
61
59
65
116
110
116
110
107
110
61
65
66
26
32
27
28
27
17
17
14
12
13
14
15
7
10
10
35
25
23
68
51
52
60
55
59
20
34
52
47
58
77
115
120
119
94
100
87
66
58
52
54
44
36
24
19
16
41
36
36
132
123
114
156
144
129
54
51
45
136
128
120
157
144
132
107
97
87
14
26
7
114
109
102
148
147
129
170
169
152
206
203
188
248
241
221
243
238
218
202
200
188
178
174
161
164
158
146
194
189
174
197
191
166
147
146
122
99
95
85
71
65
63
78
77
64
142
142
131
215
213
187
223
221
187
190
185
154
175
171
146
197
192
171
236
227
204
255
251
226
255
252
226
246
230
203
190
186
153
204
208
175
215
217
189
225
224
202
232
226
203
216
204
182
202
191
171
216
209
185
194
189
165
151
146
128
146
142
125
155
151
133
160
156
140
139
141
116
88
84
68
47
41
40
59
54
45
31
34
26
57
64
45
54
66
44
24
33
19
19
25
12
12
17
7
3
7
0
0
6
0
3
5
0
3
1
0
0
0
0
0
4
0
2
5
0
4
3
0
3
1
0
1
0
0
2
1
0
2
4
0
7
4
0
7
5
0
0
7
0
4
6
0
2
3
0
2
2
0
4
2
0
1
3
0
3
4
0
3
3
0
3
5
0
2
3
0
3
4
0
2
4
1
141
113
102
154
118
87
137
117
103
153
120
89
4
2
0
5
2
0
5
1
0
1
4
0
1
2
0
2
2
0
3
4
0
5
8
0
8
9
0
6
7
0
4
5
0
6
2
0
4
4
0
6
4
0
4
5
0
2
2
0
4
2
0
1
0
0
0
5
0
2
9
0
3
8
0
0
5
0
1
4
0
5
5
0
5
2
0
1
3
0
3
1
0
3
0
0
4
2
0
1
3
0
3
1
0
4
2
0
1
3
0
4
4
1
21
13
2
37
19
1
24
9
1
22
12
6
64
46
19
108
79
39
158
121
76
194
159
100
145
122
75
120
78
35
255
189
109
255
206
122
255
207
120
255
210
121
241
189
114
215
168
99
211
161
108
255
216
137
255
255
205
255
255
252
255
255
220
255
247
149
185
147
73
107
88
35
100
84
53
40
36
25
27
22
17
11
14
3
75
67
47
122
101
93
141
119
109
150
130
106
169
146
105
133
112
71
55
40
21
52
39
16
58
47
25
38
30
20
27
24
15
30
31
11
27
17
7
47
27
6
70
38
15
34
34
28
13
14
10
36
26
11
58
42
13
32
24
9
22
18
7
48
35
14
43
29
10
69
47
1
32
21
4
60
34
8
89
53
10
89
60
14
96
66
17
119
79
18
122
76
15
99
56
6
43
18
7
19
26
19
71
59
28
107
79
33
96
75
33
27
35
23
30
11
13
40
19
14
16
17
18
23
5
14
78
36
4
117
69
17
97
53
9
102
52
1
143
80
8
149
88
13
96
56
9
40
13
5
47
52
24
57
79
35
81
87
31
99
85
28
83
67
22
27
21
14
49
28
6
63
36
4
32
17
7
53
26
2
41
24
14
20
18
16
17
19
15
26
26
13
33
25
7
42
29
8
75
55
15
92
66
16
63
47
12
50
31
4
70
48
11
18
16
12
34
36
14
39
33
10
18
2
10
34
15
12
28
13
11
16
10
7
19
12
1
58
41
11
51
29
17
89
36
2
81
58
19
41
25
12
75
50
4
82
55
10
37
28
22
87
78
14
84
88
34
38
75
38
34
29
36
74
24
23
65
59
62
42
52
81
44
16
110
59
59
132
42
36
51
15
30
19
76
63
7
43
54
4
65
46
13
132
85
17
183
95
14
104
39
6
30
21
7
76
52
2
68
50
10
82
57
11
99
63
11
94
62
14
97
67
15
108
78
14
111
92
20
109
96
25
73
72
22
23
38
12
21
12
10
81
33
1
152
76
6
195
109
11
158
95
9
74
50
7
22
24
8
14
28
16
50
55
23
51
47
19
16
16
11
45
19
4
82
50
4
108
73
11
138
100
17
167
125
21
173
128
21
136
101
19
87
70
20
85
63
17
84
63
11
82
61
5
97
65
1
102
65
6
87
58
8
64
48
4
48
41
10
31
35
20
6
15
15
29
11
8
17
9
5
24
24
15
13
15
6
10
5
7
13
6
7
22
16
7
30
23
2
17
6
1
8
4
10
28
20
18
15
5
21
255
255
255
255
250
193
35
24
11
23
16
10
11
3
4
9
5
2
4
4
7
13
3
6
29
13
5
52
30
10
67
37
11
75
40
10
90
52
14
105
59
20
112
64
21
105
67
21
89
60
17
78
52
18
81
54
22
91
60
25
97
60
23
93
54
23
83
51
21
82
51
15
68
38
8
44
26
10
21
19
14
25
13
10
49
24
6
77
41
12
99
55
19
101
57
21
89
49
18
78
41
15
77
39
12
67
33
9
51
24
8
43
20
10
57
28
9
45
22
4
30
15
2
32
16
2
43
23
2
49
27
3
46
24
0
62
29
2
101
48
11
135
69
17
137
77
24
125
75
30
125
76
30
125
74
24
102
55
13
48
19
2
15
11
11
33
13
9
32
15
9
36
26
15
42
37
24
55
50
34
72
64
46
76
62
53
70
58
54
73
61
55
84
75
63
94
85
71
92
83
74
94
76
67
60
50
43
28
25
24
42
25
16
50
31
9
29
18
5
8
5
21
12
11
25
12
11
21
18
18
26
15
21
30
45
43
52
56
50
57
81
74
75
111
105
102
141
128
120
167
147
137
186
164
156
186
168
164
180
170
171
180
176
176
140
147
150
112
115
130
128
121
142
157
150
157
163
164
162
151
161
149
138
144
130
143
137
122
141
137
125
124
128
119
104
102
101
109
97
89
97
101
77
88
91
67
52
56
36
18
24
28
28
33
28
60
57
55
60
55
53
37
37
23
24
41
20
87
101
76
81
86
78
69
67
70
116
113
111
101
97
87
116
109
96
138
133
118
165
160
144
187
174
158
111
102
94
42
52
49
140
140
131
126
119
102
98
96
72
77
82
61
80
86
69
92
107
86
81
98
84
100
92
89
41
48
36
99
116
101
101
126
101
96
116
93
85
103
88
121
133
117
94
116
93
81
99
78
104
117
101
132
138
125
136
139
125
127
132
115
104
110
90
65
75
53
65
78
56
78
85
69
48
48
35
37
43
33
28
34
19
44
45
33
9
15
11
2
5
4
20
18
10
4
5
0
1
2
0
1
2
0
5
2
0
5
2
0
4
2
0
2
2
0
0
0
0
1
3
0
4
2
0
7
2
0
5
4
0
4
2
0
4
4
0
4
6
0
2
5
0
2
7
0
1
3
0
4
2
0
6
2
0
5
3
0
1
5
0
4
4
0
3
0
0
2
2
0
3
4
0
94
74
70
186
149
118
80
72
67
181
149
116
17
5
1
6
1
0
3
2
0
3
4
0
5
4
0
6
6
0
6
5
0
7
5
0
4
2
0
1
4
0
5
2
0
10
4
0
6
7
0
7
6
0
3
4
0
0
2
0
4
4
0
3
3
0
2
5
0
3
2
0
1
1
0
2
4
0
1
1
0
1
5
0
7
4
0
5
5
0
1
1
0
4
0
0
3
1
0
0
2
0
2
2
0
5
1
0
5
1
0
3
1
0
11
1
0
31
11
0
41
18
0
41
22
5
63
41
13
104
76
33
171
128
74
172
136
91
161
146
103
170
156
108
64
50
39
225
154
84
255
209
119
254
169
92
245
165
96
255
230
140
255
254
141
255
206
95
216
154
59
255
223
123
255
255
195
255
255
213
255
255
196
255
255
179
255
255
164
255
255
156
255
255
170
255
255
171
255
255
143
252
178
95
142
93
48
76
48
29
93
75
55
96
83
62
35
29
36
19
12
21
68
48
18
95
64
8
145
98
32
185
130
52
211
148
56
210
145
52
195
133
46
159
109
32
142
90
10
149
95
13
143
86
8
131
74
8
144
80
14
177
100
16
187
113
8
136
83
10
50
22
11
45
15
8
112
59
5
146
82
8
118
65
5
80
39
1
29
8
8
23
34
17
44
42
20
30
24
14
37
30
12
19
14
14
48
34
24
75
60
32
93
74
35
110
83
37
112
89
40
103
97
47
76
92
50
38
60
40
31
28
28
29
12
23
17
13
20
40
32
17
62
48
12
50
38
10
54
54
10
45
29
2
50
41
3
109
71
18
119
80
23
139
93
25
130
88
27
94
63
24
65
49
17
100
69
17
132
87
20
140
87
20
120
73
18
82
50
13
52
34
13
36
35
14
42
36
10
35
18
6
20
11
12
68
39
11
68
41
2
8
1
4
49
34
10
43
17
14
43
18
6
41
25
1
7
7
3
12
10
6
36
24
10
34
26
17
41
22
26
73
23
26
129
46
27
145
59
11
146
63
9
165
65
24
217
83
46
255
127
45
255
117
22
255
133
11
255
138
4
255
137
14
255
166
51
255
211
95
255
214
74
255
171
97
255
118
64
253
123
29
255
138
19
230
137
9
206
113
5
160
60
8
132
44
6
88
49
7
93
64
13
115
71
19
73
50
18
18
20
11
60
31
8
52
24
5
48
15
4
55
23
4
40
17
9
26
14
16
21
22
22
43
32
15
59
51
14
85
55
14
125
75
20
162
95
19
189
108
14
181
106
11
168
110
18
155
113
21
131
91
12
93
62
7
63
48
8
38
39
10
18
30
10
24
14
14
64
17
13
83
30
14
80
34
17
74
24
14
82
30
12
111
48
14
79
21
22
40
10
29
28
29
29
28
37
23
14
22
16
2
18
17
11
23
20
6
20
19
27
25
14
6
5
8
32
21
11
10
9
14
21
15
2
13
4
7
34
15
7
50
26
11
46
19
5
36
20
11
36
30
17
44
38
13
66
50
11
255
255
255
255
229
179
127
82
45
113
81
47
65
57
33
10
21
16
5
10
14
7
13
18
18
20
21
4
7
15
10
10
5
28
19
5
26
17
4
76
54
26
108
80
39
105
76
35
103
72
28
120
79
28
138
88
35
145
96
45
140
100
50
130
99
49
120
93
45
100
78
39
84
66
38
83
57
34
88
46
26
90
39
16
85
36
12
82
36
14
87
40
17
99
45
17
104
48
15
97
43
11
83
35
8
72
30
9
71
29
9
62
27
8
46
22
5
27
12
2
15
7
3
18
10
5
21
3
4
42
17
4
31
16
8
9
21
17
22
30
22
30
26
20
46
23
14
32
11
6
32
17
3
29
16
4
25
18
12
32
22
5
21
13
7
36
27
8
56
32
10
77
43
12
90
51
15
84
45
11
62
27
5
48
28
14
49
31
17
62
41
24
91
68
43
118
91
62
137
106
74
140
112
76
116
99
64
101
86
53
94
80
47
78
67
40
59
55
36
48
48
40
49
49
49
37
41
45
14
18
29
13
14
16
51
45
39
79
60
36
85
66
31
58
45
15
44
38
11
55
45
15
64
49
25
57
36
16
29
10
14
49
40
47
87
77
67
63
50
43
45
31
43
67
54
69
64
50
66
23
12
40
23
17
45
102
92
106
210
189
188
255
237
226
215
198
189
113
111
109
33
39
44
18
18
27
65
68
69
123
118
110
131
122
113
141
134
129
173
163
155
210
200
183
231
220
199
204
189
179
171
152
146
167
149
136
188
175
158
193
182
158
204
184
165
175
152
135
97
83
65
32
32
41
133
136
127
190
186
173
208
193
178
176
164
144
175
165
147
195
183
172
227
214
201
255
239
222
255
241
222
228
211
189
178
179
149
182
189
160
202
204
184
214
205
196
219
206
197
210
201
183
192
186
169
209
203
185
190
182
166
147
137
128
140
132
125
150
143
133
141
137
124
117
114
103
81
72
72
36
27
32
21
25
18
53
58
41
26
30
16
33
34
22
36
39
29
14
18
16
10
14
7
5
6
0
2
2
0
4
3
0
4
2
0
5
3
0
5
4
0
3
2
0
2
0
0
4
3
0
3
2
0
2
2
0
5
3
0
8
2
0
7
5
0
1
5
0
2
3
0
1
3
0
0
5
0
1
3
0
2
2
0
3
3
0
5
2
0
3
5
0
4
9
0
4
10
0
2
5
0
52
39
37
193
160
131
5
12
21
189
160
128
42
30
15
2
0
0
3
1
0
4
4
0
4
3
0
2
1
0
1
1
0
3
3
0
2
8
0
4
7
0
6
5
0
5
2
0
2
2
0
2
3
0
4
1
0
4
4
0
4
1
0
2
4
0
2
8
0
3
9
0
5
7
0
5
7
0
4
5
0
3
7
0
2
4
0
5
4
0
4
2
0
2
3
0
3
2
0
4
4
0
6
3
0
4
1
0
2
1
0
3
1
0
7
1
0
17
2
0
35
8
0
59
26
2
97
61
15
124
87
38
142
98
57
95
73
47
49
58
45
126
108
76
173
137
91
118
106
76
79
97
75
67
90
73
64
83
70
47
49
41
93
55
25
98
49
22
72
18
10
46
11
29
47
5
28
95
40
28
164
95
39
220
145
83
222
153
92
186
124
67
143
85
36
113
54
12
125
63
18
178
111
53
220
150
78
240
172
89
243
177
89
179
114
40
128
64
10
155
90
20
193
123
23
182
118
26
124
70
16
83
34
9
94
38
15
120
54
13
117
53
13
70
21
21
48
31
29
42
38
28
24
21
15
10
15
12
62
49
22
68
62
32
45
51
30
33
37
21
18
17
10
63
44
12
46
26
3
52
31
14
26
7
18
49
10
14
78
33
5
100
54
9
118
72
8
142
87
10
166
105
16
166
107
23
146
90
15
123
72
3
112
65
2
105
63
3
79
50
5
31
19
11
23
17
30
29
27
33
16
7
18
42
19
15
88
53
21
106
68
21
75
47
19
34
22
12
13
18
3
52
50
8
89
84
16
98
75
19
48
37
10
16
12
4
7
2
8
18
2
15
14
2
12
21
21
6
64
31
9
110
53
4
114
56
4
89
47
9
43
18
8
4
13
10
24
26
14
45
41
16
58
50
12
67
48
10
46
31
10
16
20
10
56
44
10
65
46
4
67
48
4
72
51
7
50
36
11
33
26
9
54
42
12
68
63
19
58
64
27
49
53
23
18
28
16
27
26
12
85
71
8
87
71
16
64
45
9
87
59
36
62
87
59
37
74
67
125
16
57
195
52
33
219
84
14
213
91
38
218
112
76
232
121
71
240
111
29
255
132
2
255
175
11
255
187
6
255
166
4
255
132
13
190
87
8
171
81
9
229
122
16
244
139
18
217
133
26
197
127
27
187
127
29
139
97
25
82
56
14
38
32
8
25
20
4
3
10
10
32
25
11
71
42
4
61
33
4
37
24
11
87
49
14
117
68
13
103
68
14
73
42
7
42
19
8
27
23
3
69
59
13
98
75
16
88
63
15
41
26
4
29
22
8
69
47
11
54
42
6
20
30
8
37
28
8
67
35
8
99
65
7
90
53
12
56
35
16
43
21
12
44
20
9
54
28
12
54
22
16
47
19
21
36
11
22
34
4
24
51
17
20
51
24
12
10
12
8
106
76
11
172
119
16
218
149
38
255
181
56
255
200
59
255
224
72
255
255
99
255
255
104
255
255
89
255
255
78
255
255
246
213
195
163
74
46
27
96
59
29
135
93
49
138
101
61
134
102
69
122
96
68
94
73
54
69
55
42
54
49
37
48
46
30
31
31
26
33
36
30
8
26
39
6
19
42
25
15
39
40
11
31
48
8
22
60
19
14
64
32
7
61
37
13
49
29
7
39
19
7
48
22
11
39
11
4
21
3
6
27
18
13
31
25
15
36
24
14
38
21
11
24
12
7
8
2
3
28
10
2
34
13
2
25
7
3
16
8
8
25
22
14
53
38
22
83
50
26
100
57
25
116
65
26
144
82
33
182
109
47
209
129
64
228
143
77
244
157
85
240
161
91
225
160
100
214
160
108
200
147
98
160
108
65
98
54
21
36
7
8
5
18
11
14
13
6
19
11
4
25
14
5
28
17
12
29
12
8
45
25
9
62
42
13
86
60
28
96
68
40
94
67
44
94
67
43
94
67
42
73
52
27
46
30
10
45
28
13
54
35
14
51
36
13
31
23
8
19
16
9
21
15
14
22
12
13
17
18
10
39
34
32
64
48
46
44
31
26
21
14
13
60
42
26
104
80
55
123
93
63
124
98
71
110
88
69
104
88
72
98
89
73
60
58
51
50
47
39
54
38
36
78
60
48
100
84
63
118
102
72
129
110
72
146
122
83
114
100
65
18
25
19
102
93
91
190
183
160
215
207
181
175
170
153
154
149
135
115
106
98
80
80
70
79
82
77
105
102
105
137
128
133
145
129
135
115
99
105
75
61
62
74
57
60
105
84
88
107
91
85
104
88
84
94
80
74
100
77
76
95
96
86
90
96
87
69
64
61
80
67
65
83
81
57
51
54
32
32
36
17
24
31
10
7
8
2
14
10
4
12
13
9
17
21
7
7
1
10
28
23
25
44
37
40
49
38
45
32
25
26
12
27
10
27
43
21
21
28
16
10
5
5
17
18
14
27
29
20
17
17
10
4
6
4
11
4
9
5
3
4
47
41
37
57
60
39
36
33
20
31
25
15
47
46
32
43
43
33
2
3
0
5
2
0
4
2
0
3
5
0
6
4
0
5
6
0
3
5
0
4
2
0
4
2
0
3
3
0
1
4
0
2
4
0
1
3
0
4
5
0
6
4
0
3
4
0
4
2
0
4
2
0
2
2
0
2
4
0
4
5
0
3
4
0
1
3
0
7
5
0
5
2
0
3
6
0
2
7
0
19
14
11
173
145
122
77
58
33
173
147
124
93
70
46
4
4
0
4
3
0
1
2
0
5
4
0
4
2
0
2
2
0
1
1
0
3
6
0
7
2
0
5
4
0
4
3
0
4
2
0
3
1
0
4
1
0
6
4
0
3
7
0
4
8
0
7
8
0
7
8
0
6
7
0
6
5
0
4
4
0
3
5
0
6
5
0
5
4
0
1
4
0
4
4
0
6
5
0
6
4
0
5
2
0
11
2
0
12
2
0
7
3
0
15
8
1
29
11
2
54
25
3
110
59
13
177
114
43
202
141
70
150
95
56
65
30
20
42
32
20
152
123
78
136
106
67
80
71
50
162
140
93
145
129
88
111
101
79
86
83
66
124
136
95
186
199
128
174
191
121
114
132
91
68
82
63
49
32
14
78
46
18
83
53
29
81
44
8
80
39
5
72
40
34
54
7
10
83
45
32
119
72
47
122
65
24
100
51
16
68
36
31
47
12
19
75
34
17
88
55
19
40
7
7
46
17
4
42
24
8
26
13
8
14
8
6
19
15
5
30
26
8
76
54
18
107
76
26
70
55
25
24
22
19
51
38
11
75
55
11
45
36
7
11
14
11
11
7
2
32
24
6
44
40
12
7
10
4
42
37
13
29
16
5
63
39
4
55
39
3
50
37
4
38
28
7
30
18
7
33
14
7
74
43
14
106
65
20
120
75
20
122
69
17
115
61
14
115
72
19
125
91
27
121
96
28
105
87
27
94
76
24
108
79
23
114
81
25
116
77
23
145
92
20
177
112
19
177
114
15
171
111
16
152
99
20
116
71
19
110
70
19
139
93
23
163
110
26
173
114
23
174
111
19
175
114
16
174
118
21
149
98
19
109
64
12
93
51
13
46
25
7
12
15
9
25
14
5
52
35
10
72
56
16
95
62
13
114
65
6
135
78
5
150
98
16
134
99
22
103
81
15
70
48
15
26
9
20
21
8
19
27
8
11
48
23
4
48
33
8
56
36
2
48
23
6
62
23
12
57
36
10
95
67
20
115
75
22
23
18
17
85
36
4
138
77
12
131
85
25
110
63
18
127
64
5
163
92
15
179
109
21
134
86
18
61
38
15
33
28
10
42
15
3
10
17
6
42
29
10
55
27
4
87
54
16
76
49
15
61
41
20
10
9
5
49
32
12
45
12
11
26
13
17
38
33
17
88
61
12
74
48
12
4
2
2
35
29
14
51
46
17
85
62
15
121
78
14
143
86
15
142
83
18
138
81
18
125
72
12
106
62
12
79
58
14
48
45
11
59
49
12
62
44
10
44
30
5
66
46
9
66
45
7
31
20
4
41
25
3
22
16
8
46
41
8
87
69
4
100
62
4
78
47
7
75
56
11
75
57
10
50
36
12
20
3
29
41
58
55
115
120
79
160
154
98
205
182
106
253
204
98
255
212
83
255
235
74
255
255
75
255
255
85
255
255
120
255
255
141
255
255
132
255
255
100
255
255
93
255
255
89
255
255
89
255
246
83
255
255
213
226
208
172
97
73
43
72
70
41
14
33
21
42
8
6
70
31
9
83
41
15
97
54
27
119
74
38
118
79
40
114
83
51
157
123
91
227
177
128
255
202
142
255
199
142
253
189
133
235
169
114
207
138
86
172
111
62
137
91
47
107
72
37
85
57
31
70
49
34
66
46
36
55
35
27
67
35
23
91
45
23
108
55
25
109
58
27
104
52
25
99
47
24
96
46
23
95
45
19
98
46
16
102
47
16
110
49
17
122
59
24
138
71
31
158
85
34
177
97
39
193
108
45
204
117
49
197
113
49
170
93
45
142
75
35
124
61
27
124
62
28
137
79
43
150
98
63
170
122
84
187
137
98
170
130
91
149
120
85
135
111
80
127
107
73
113
91
56
86
65
31
65
41
13
43
20
8
18
1
15
3
7
17
10
7
4
13
13
12
3
16
17
9
10
12
20
16
15
7
3
7
7
10
9
19
20
15
35
27
20
50
34
22
52
36
21
60
50
28
69
61
38
60
57
38
53
50
38
53
42
39
29
18
17
37
28
19
40
27
19
43
34
28
70
63
52
75
56
53
101
78
70
126
106
93
145
125
107
159
136
112
155
130
101
117
97
72
71
57
40
23
15
7
20
31
25
42
49
39
21
24
19
53
38
34
152
122
100
199
171
132
173
155
115
78
72
50
52
44
41
67
58
47
81
64
52
67
51
43
71
61
55
67
55
56
51
38
47
59
48
52
44
30
36
49
39
41
43
34
36
43
32
38
51
38
54
54
45
50
33
19
10
47
27
10
68
60
79
149
146
150
187
189
176
191
194
179
215
210
194
244
231
207
231
213
189
194
178
162
174
163
146
168
157
137
144
135
116
136
130
112
152
152
130
171
173
146
160
160
135
108
104
91
51
49
38
38
40
28
58
62
39
65
61
43
67
67
48
85
82
74
137
132
118
140
130
114
106
97
78
51
41
30
28
23
18
36
34
24
48
45
35
51
49
37
24
29
18
28
42
21
33
41
27
35
28
24
69
71
55
98
101
77
83
83
59
31
35
19
2
4
0
2
7
0
1
4
0
1
2
0
3
2
0
1
1
0
2
0
0
2
1
0
4
3
0
2
8
0
6
2
0
4
6
0
5
1
0
3
1
0
4
2
0
4
4
0
2
5
0
1
0
0
2
3
0
3
3
0
6
5
0
5
1
0
3
4
0
6
4
1
136
117
100
138
109
78
132
114
101
140
108
80
6
3
0
5
4
0
2
4
0
5
5
0
4
5
0
2
3
0
4
2
0
6
3
0
5
4
0
1
2
0
1
2
0
4
4
0
6
3
0
5
2
0
1
2
0
5
4
0
5
2
0
2
2
0
1
2
0
0
2
0
1
1
0
2
3
0
5
5
0
7
8
0
5
7
0
4
7
0
5
7
0
6
4
0
4
1
0
7
0
0
6
0
0
3
3
0
7
2
0
27
14
2
38
13
0
62
26
2
79
43
14
123
86
41
158
108
48
99
71
34
128
94
52
188
132
72
255
203
115
223
170
99
73
49
29
58
35
27
127
101
64
114
88
60
47
29
29
77
56
46
83
57
47
107
79
63
151
121
87
194
163
110
191
158
94
138
115
64
53
45
37
25
29
19
38
44
25
38
41
29
10
6
8
49
41
31
116
90
67
151
130
91
128
120
82
93
88
57
89
73
37
100
78
46
83
57
23
21
10
18
15
21
23
35
32
17
34
30
18
21
7
11
19
18
20
12
27
26
51
53
36
86
78
41
68
63
26
60
55
13
62
46
22
59
40
8
65
48
10
84
57
10
95
61
5
78
50
1
48
28
8
41
20
7
59
44
8
32
31
13
38
29
6
16
2
2
49
31
9
66
49
17
90
64
21
101
72
28
94
67
27
65
40
8
37
12
14
19
4
14
11
5
7
10
13
7
38
26
10
65
36
17
70
39
26
77
45
20
105
63
18
127
81
19
121
75
16
108
67
12
99
64
15
104
67
17
113
63
13
92
39
6
66
23
7
57
25
7
44
20
2
21
4
3
5
7
2
22
12
6
20
5
6
47
29
11
76
52
20
61
44
18
23
24
15
40
12
7
80
39
2
99
59
13
99
60
11
96
54
3
115
66
1
141
77
3
161
85
4
176
95
14
192
94
11
220
113
12
223
120
24
173
86
18
128
59
7
91
41
4
58
19
12
53
24
18
90
39
12
109
55
3
127
62
8
154
73
16
144
74
10
106
42
11
28
31
14
22
25
10
57
35
18
70
52
22
25
27
15
10
14
13
31
23
12
74
51
7
116
79
12
107
66
15
58
31
14
63
33
4
58
34
11
29
19
5
24
25
4
42
33
2
52
39
4
93
69
17
124
94
29
127
96
29
134
97
28
158
115
37
164
121
39
129
90
25
91
53
11
63
34
7
63
32
7
77
40
11
98
56
8
104
59
4
92
50
5
88
53
1
93
55
1
94
44
10
77
27
13
56
19
6
41
21
5
26
17
5
63
47
12
27
15
13
39
23
14
53
33
12
21
15
13
47
24
17
28
7
19
17
23
15
68
60
17
106
94
29
178
139
32
251
185
43
255
232
65
255
255
91
255
255
118
255
255
130
255
255
135
255
255
149
255
255
166
255
255
176
255
255
179
255
255
183
255
255
179
255
255
161
255
228
127
255
176
84
219
154
82
178
132
85
131
96
73
119
82
72
141
104
89
138
101
81
243
216
172
241
217
175
36
22
28
29
24
27
39
15
10
68
41
18
108
77
45
125
95
59
106
81
51
77
60
39
61
51
32
54
51
35
58
55
44
27
18
20
25
7
21
55
18
12
95
51
12
126
83
42
146
100
59
163
113
72
181
138
91
198
160
112
202
160
119
192
148
107
188
144
98
186
139
97
172
130
95
157
119
88
155
116
84
170
128
90
191
145
99
204
153
103
210
151
101
204
139
90
185
120
71
150
92
48
92
47
20
32
13
8
35
25
13
49
31
17
43
31
17
36
28
18
44
36
23
73
56
36
95
76
52
108
91
64
117
99
73
114
98
77
116
103
84
117
107
87
94
88
71
57
50
42
28
17
13
48
34
23
54
39
20
45
30
8
52
35
26
37
30
24
23
21
24
33
26
24
23
12
9
15
4
5
17
13
16
24
18
25
10
17
32
14
26
36
23
27
29
6
2
8
10
7
2
4
5
7
14
8
11
10
10
9
8
7
3
19
18
5
16
18
13
4
10
8
15
16
14
34
28
28
21
19
21
12
9
10
33
26
19
82
64
49
112
90
71
116
98
78
99
88
73
75
71
64
63
63
58
52
53
46
31
30
26
17
14
14
18
15
13
32
30
24
48
38
32
90
77
63
129
110
93
152
131
113
149
136
111
105
104
80
87
74
62
113
96
71
61
56
36
25
24
11
45
35
32
23
24
19
13
7
2
26
30
19
20
22
18
50
51
42
105
99
86
117
108
97
81
76
67
24
26
20
26
18
25
81
58
68
40
34
32
25
20
28
45
42
50
111
99
109
175
158
158
181
165
156
148
134
130
141
125
129
155
133
136
167
146
143
178
166
155
200
188
167
210
196
168
175
168
140
120
121
100
103
107
86
123
125
100
150
147
127
102
100
79
100
101
80
112
109
93
126
120
110
151
155
133
156
162
137
145
147
128
136
140
131
166
169
153
148
148
122
102
106
80
75
70
55
78
76
70
87
90
87
81
90
86
89
97
91
110
117
108
128
135
119
135
146
118
104
112
89
114
114
91
62
61
41
5
7
1
1
5
0
2
2
0
2
3
0
4
5
0
3
5
0
4
3
0
3
2
0
5
3
0
0
8
0
2
7
0
5
4
0
5
1
0
4
2
0
2
2
0
4
1
0
2
3
0
3
2
0
2
2
0
1
3
0
1
2
0
1
4
0
1
3
0
3
2
0
99
82
72
171
143
108
84
75
70
172
140
107
15
3
1
3
1
0
4
3
0
4
3
0
7
1
0
6
2
0
4
1
0
2
3
0
1
4
0
4
3
0
5
2
0
5
1
0
2
3
0
4
7
0
4
8
0
4
8
0
3
8
0
3
7
0
4
4
0
4
2
0
4
3
0
1
3
0
1
2
0
4
4
0
2
2
0
2
3
0
3
1
0
4
1
0
1
0
0
4
0
0
7
0
0
6
1
0
3
3
0
22
8
1
41
17
2
60
27
3
101
51
13
180
106
40
255
162
68
255
163
70
222
135
59
176
100
47
250
164
91
255
255
147
255
185
113
232
149
94
255
204
122
255
255
149
255
246
143
255
177
103
212
129
75
206
126
76
202
131
84
203
148
102
193
148
103
185
149
89
123
87
55
95
53
30
153
109
65
195
142
89
176
131
82
128
100
66
83
65
49
42
23
24
72
69
52
50
60
55
47
52
38
52
59
42
87
69
35
58
30
6
53
17
7
75
31
22
89
42
22
76
28
17
72
31
20
78
30
11
97
43
2
120
66
17
132
83
27
115
70
14
78
38
17
48
21
14
42
28
8
25
12
1
12
8
5
16
6
7
32
8
4
28
10
12
43
25
4
53
36
15
75
56
26
76
66
39
24
31
31
25
14
10
11
5
1
72
44
21
130
74
23
153
90
36
130
65
10
126
59
9
147
71
2
178
94
2
200
111
5
206
115
6
197
113
12
180
105
9
163
92
6
141
81
7
112
64
7
122
72
5
168
111
16
187
130
21
158
113
19
105
79
17
55
46
12
38
30
8
52
35
2
72
53
8
75
54
7
70
48
8
72
48
10
84
57
4
76
55
8
52
32
3
43
17
10
45
17
13
30
8
15
23
31
19
43
55
24
33
46
23
18
32
21
15
25
16
23
30
12
51
51
18
53
56
24
15
21
15
106
59
18
132
73
15
142
89
29
153
101
32
136
93
30
88
54
9
40
26
8
12
7
8
33
16
3
41
17
10
21
39
22
49
58
18
102
69
7
99
52
5
136
70
5
190
109
8
193
121
18
165
106
15
128
81
5
106
67
0
117
76
5
166
113
17
213
148
30
210
146
34
171
114
23
150
95
15
172
110
18
200
128
24
197
130
27
194
134
31
203
141
35
216
143
33
210
129
24
186
106
14
175
97
8
178
100
16
159
95
11
121
77
10
91
60
7
69
47
10
49
33
10
50
34
7
85
55
5
117
68
2
120
64
8
128
68
12
158
84
14
173
88
12
147
74
7
81
33
10
14
39
17
97
89
25
187
141
40
255
204
67
255
255
114
255
255
155
255
255
162
255
255
135
255
255
111
255
255
117
255
255
132
255
255
136
255
255
128
255
255
99
255
218
61
255
173
41
255
148
33
255
115
35
229
82
34
196
55
41
184
67
16
191
106
49
192
135
83
162
131
93
103
83
65
26
31
45
24
38
43
36
32
44
98
92
94
105
100
103
99
100
104
93
97
104
176
165
133
241
212
168
37
29
23
14
13
8
15
10
10
36
27
15
54
33
20
72
41
22
113
69
40
149
99
53
157
107
55
169
124
73
193
153
104
210
171
126
205
168
131
178
149
124
130
114
101
72
62
62
22
18
25
15
14
1
48
36
18
80
57
33
103
71
37
124
82
41
147
101
54
170
122
75
175
129
85
169
125
84
168
124
83
173
130
86
178
135
86
180
131
77
171
118
65
150
99
57
114
76
41
90
66
38
70
53
29
37
24
3
19
10
10
61
38
22
100
64
32
130
82
40
151
94
46
155
95
47
149
89
46
144
86
47
140
84
48
133
82
49
133
87
55
146
98
68
161
111
81
171
124
87
170
129
87
158
122
82
145
112
75
140
108
71
138
105
63
127
90
47
100
64
27
77
45
16
60
35
15
46
27
12
36
24
17
39
32
28
33
19
18
20
21
35
44
51
59
50
59
60
32
43
43
17
22
21
32
19
17
39
25
16
25
16
6
22
17
5
31
26
13
26
27
17
22
26
16
35
31
23
51
44
36
74
64
51
97
83
65
126
107
84
159
136
110
186
156
132
199
166
143
199
169
145
189
161
136
164
140
114
117
101
79
69
58
46
42
38
31
47
45
37
65
56
43
57
52
39
62
59
49
81
72
64
116
103
88
147
129
105
124
105
84
50
39
31
29
25
17
64
53
33
88
71
48
67
58
34
28
18
4
13
19
22
42
46
43
55
52
44
44
37
33
48
37
26
68
51
38
77
62
53
23
14
13
66
46
50
65
53
56
98
80
76
97
78
69
73
57
49
51
41
38
51
37
38
40
23
27
43
28
32
63
51
48
84
72
68
98
85
81
102
89
84
107
94
89
93
83
74
81
87
73
88
95
83
71
72
58
62
62
62
116
116
110
129
122
115
97
91
90
63
62
61
28
26
23
35
47
36
99
107
96
122
120
102
81
82
69
38
28
34
71
56
64
109
94
100
124
109
116
96
78
82
66
58
55
19
19
12
5
13
10
11
21
5
35
40
27
15
21
15
97
92
86
122
117
103
69
68
53
11
8
4
3
2
0
4
3
0
2
4
0
6
3
0
4
2
0
4
3
0
4
5
0
1
7
0
3
7
0
2
5
0
0
3
0
2
3
0
4
1
0
4
3
0
3
5
0
4
7
0
4
7
0
1
4
0
3
2
0
2
4
0
3
6
0
2
4
0
60
44
42
186
163
126
17
18
28
188
158
125
47
26
14
4
1
0
2
2
0
2
0
0
2
1
0
1
2
0
2
3
0
4
3
0
1
5
0
5
1
0
2
2
0
1
4
0
3
7
0
4
6
0
4
5
0
1
2
0
3
0
0
2
1
0
1
4
0
1
1
0
3
2
0
1
0
0
1
1
0
5
4
0
3
1
0
4
5
0
1
3
0
4
4
0
2
4
0
1
4
0
8
4
0
30
13
0
49
21
1
56
22
3
40
15
3
6
4
1
10
5
0
20
13
3
59
29
12
74
41
18
41
27
8
77
60
33
153
117
67
187
141
75
117
82
41
103
70
41
71
51
25
39
29
19
55
39
28
104
70
46
142
103
64
120
87
56
79
57
37
117
89
56
148
121
85
131
110
72
124
111
72
45
38
31
94
96
53
64
68
43
49
41
22
51
43
26
17
11
6
46
50
31
101
89
71
67
64
64
30
30
32
67
39
22
29
25
34
90
91
61
114
99
54
98
90
48
96
89
44
83
76
35
95
82
29
134
113
36
163
133
45
170
132
42
161
122
34
143
107
17
132
92
12
140
90
15
163
107
26
195
127
31
231
143
26
255
157
22
253
160
28
213
142
37
150
103
34
96
71
32
71
59
42
87
63
37
79
57
34
29
20
22
21
31
29
78
71
50
45
57
47
41
25
25
87
45
7
111
60
4
125
62
4
133
65
4
149
74
6
170
87
5
192
101
12
226
128
18
252
151
20
241
147
17
214
127
10
193
110
8
175
100
10
163
86
7
149
69
11
146
60
13
176
90
8
179
99
16
137
63
13
113
45
17
107
41
9
85
35
8
61
32
6
78
56
13
88
59
19
78
50
17
69
48
18
70
54
19
58
48
11
52
44
7
66
53
9
78
56
8
81
56
7
80
55
10
87
61
14
89
67
20
86
68
24
62
52
19
66
53
20
81
48
14
75
38
13
73
35
2
82
52
20
81
55
22
66
44
20
59
34
18
70
40
12
70
44
15
41
26
10
39
24
14
74
48
18
110
76
21
96
73
20
27
39
20
37
14
24
88
19
27
139
45
19
189
80
10
230
115
8
248
127
12
255
131
7
255
149
10
255
166
17
255
164
21
255
150
18
217
124
16
168
93
11
130
70
5
121
65
8
123
69
2
107
64
5
67
38
10
37
5
24
29
4
23
30
4
16
23
5
8
18
10
4
23
17
16
58
22
28
75
23
26
64
7
37
37
51
63
72
112
73
155
154
60
207
170
47
233
184
50
255
213
60
255
223
68
255
234
77
255
255
91
255
255
96
255
255
100
255
255
133
255
255
158
255
255
176
255
255
186
255
255
166
255
255
131
255
255
128
255
243
140
255
194
125
191
127
81
100
62
31
36
46
42
76
62
54
45
43
53
74
71
80
156
140
127
209
193
162
210
200
178
143
132
114
28
33
42
20
14
13
76
85
99
36
39
49
80
92
108
70
65
66
58
48
44
46
41
38
53
57
58
130
119
84
249
219
176
22
28
30
40
47
47
45
51
47
35
36
32
37
24
19
33
23
18
29
18
8
43
25
8
48
26
10
76
45
19
95
58
27
98
59
26
102
58
24
110
69
34
118
90
53
134
109
71
148
120
87
154
125
97
157
132
103
165
140
110
173
143
113
156
130
102
126
108
85
112
95
78
110
92
80
107
92
81
101
91
77
101
90
76
105
91
80
113
98
84
125
106
84
125
102
77
106
85
64
70
59
44
38
27
21
43
24
7
50
32
12
38
26
13
32
11
4
43
13
4
46
15
5
49
16
2
62
20
4
73
24
5
85
33
8
97
41
14
98
42
15
103
44
15
112
52
20
115
59
22
120
65
23
112
62
19
78
36
6
41
5
20
17
20
41
38
50
63
58
69
74
53
64
67
35
47
54
26
31
43
17
18
27
20
21
18
42
28
20
44
27
15
14
15
15
25
39
42
49
61
63
69
82
78
58
69
65
33
38
43
31
26
29
29
26
26
40
33
29
58
47
41
78
67
55
97
85
66
110
98
73
127
110
79
124
106
74
75
69
45
22
26
17
24
15
10
50
37
23
69
49
31
89
65
44
119
93
71
147
122
92
159
134
100
166
140
106
161
135
102
136
111
84
99
81
62
77
64
47
62
50
35
51
40
27
46
28
20
57
46
31
55
40
25
58
45
28
68
56
34
54
46
34
37
35
26
19
21
21
34
40
38
39
48
42
43
37
33
74
62
49
104
91
78
86
76
66
39
32
25
26
30
32
8
9
15
52
34
22
29
12
15
27
32
19
42
44
28
28
28
26
26
27
21
23
25
24
20
25
22
41
43
30
50
44
35
37
28
26
26
14
23
37
24
41
116
105
101
141
127
120
133
121
117
142
135
136
149
141
140
176
164
158
139
125
119
69
58
55
62
75
64
85
100
85
53
61
50
4
5
9
7
5
5
45
53
58
88
94
83
96
105
83
67
66
54
58
59
58
96
98
90
128
128
115
122
121
110
132
130
121
138
141
125
132
139
115
103
112
89
57
64
49
68
62
60
81
78
69
12
10
6
0
2
0
3
5
0
6
7
0
2
7
0
3
4
0
3
3
0
1
2
0
5
7
0
5
7
0
5
4
0
7
1
0
6
4
0
2
0
0
3
3
0
3
2
0
3
2
0
4
3
0
5
3
0
3
2
0
2
3
0
2
4
0
2
4
0
24
12
15
174
152
124
68
53
26
174
150
125
94
67
42
4
4
0
3
4
0
5
2
0
4
2
0
2
2
0
1
4
0
4
4
0
3
1
0
4
4
0
5
2
0
5
3
0
4
4
0
4
7
0
5
8
0
2
7
0
4
5
0
2
3
0
3
3
0
5
0
0
5
2
0
3
1
0
4
3
0
5
2
0
2
2
0
4
4
0
5
2
0
1
2
0
3
4
0
3
3
0
16
9
0
32
14
0
30
12
2
49
18
3
62
22
2
60
16
3
67
25
4
92
43
8
93
43
10
111
60
19
132
83
29
141
98
44
180
124
63
181
116
63
152
91
54
153
91
55
221
140
78
255
210
114
255
255
142
255
255
148
255
238
132
255
184
103
213
141
81
154
106
65
103
88
57
86
68
48
101
88
61
98
91
59
76
60
26
145
130
69
102
71
44
65
62
39
48
32
22
76
49
24
144
116
72
170
136
90
183
153
108
185
156
104
167
123
58
175
106
31
218
126
34
255
150
35
255
185
52
255
227
81
255
220
86
255
161
49
236
129
23
222
122
15
197
109
7
173
93
13
142
70
13
104
43
10
82
32
10
74
31
7
59
19
11
60
23
7
111
60
30
178
112
48
206
140
64
173
120
56
106
67
29
77
35
2
95
55
27
104
65
28
94
64
30
28
18
5
52
35
23
54
34
21
43
28
14
62
45
19
104
72
22
147
103
25
164
116
25
149
106
21
118
85
21
84
61
14
51
42
9
46
40
15
41
38
13
48
42
11
83
71
18
115
102
29
96
88
28
52
52
15
21
26
8
50
45
16
58
43
8
60
48
11
66
51
8
73
50
4
82
55
3
105
71
17
98
59
7
105
67
10
103
64
2
98
57
8
79
38
12
62
20
10
72
30
9
97
50
7
122
63
8
129
63
8
125
62
7
123
64
8
152
86
7
202
118
8
222
129
14
214
121
11
215
127
16
226
143
24
228
145
22
201
121
11
154
85
7
116
60
10
89
42
8
59
20
16
15
8
16
34
21
13
63
31
4
79
34
7
123
64
7
154
93
10
134
84
11
107
67
5
98
64
5
93
68
12
81
70
25
63
65
28
49
59
27
46
60
25
26
38
17
31
4
13
48
2
19
38
35
24
52
57
32
33
56
40
50
55
44
46
41
52
35
26
67
67
41
86
51
38
91
14
59
90
8
73
97
10
68
104
23
74
103
13
93
118
46
98
127
82
134
109
230
216
90
255
255
97
255
255
108
255
255
130
255
255
136
255
255
148
255
255
169
255
255
167
255
255
152
255
255
146
255
211
125
219
143
84
158
105
65
100
70
71
106
11
40
143
50
22
154
91
35
119
76
48
37
15
29
49
53
62
47
23
17
126
89
56
164
119
70
131
74
14
96
46
29
54
25
36
59
43
30
71
72
53
26
28
15
98
94
89
167
147
127
122
110
111
60
57
72
35
45
49
83
83
78
96
95
100
54
44
38
4
1
12
27
29
32
23
21
10
97
82
43
248
220
182
29
22
9
15
14
6
19
12
5
24
11
11
31
20
15
34
23
15
25
16
7
26
18
4
29
21
8
12
12
4
12
3
4
36
18
8
66
34
11
98
52
15
125
73
28
144
91
42
150
99
48
150
100
49
157
105
56
168
111
63
175
112
64
192
123
70
224
147
84
246
162
97
247
162
101
240
158
97
226
151
92
201
139
88
177
127
84
166
119
76
160
108
64
152
95
53
134
80
39
108
62
25
88
50
16
85
46
13
97
51
18
94
44
14
77
30
5
58
22
3
43
15
4
39
14
0
44
17
2
42
16
4
41
14
4
59
22
5
81
36
12
80
37
10
68
27
4
49
12
4
25
4
10
33
33
26
49
55
47
47
60
58
71
80
73
100
95
84
103
93
85
84
83
78
73
74
71
73
71
67
61
63
57
34
41
37
5
7
9
48
33
26
68
58
50
65
63
54
37
38
24
8
11
24
42
52
58
44
59
68
17
38
55
10
14
36
28
7
18
46
24
19
44
29
13
38
31
14
26
21
8
12
13
8
50
34
30
60
50
40
48
47
34
29
28
21
13
9
9
21
9
2
34
18
4
51
31
17
80
56
37
107
80
54
116
86
58
104
73
48
82
54
34
74
47
31
77
50
35
69
46
30
44
26
16
21
10
7
23
22
20
36
35
29
52
45
36
48
38
29
16
12
1
26
31
28
54
55
48
74
71
57
66
61
48
30
29
21
14
16
10
17
18
7
23
20
16
21
24
21
14
12
12
34
35
28
32
33
38
53
54
49
41
38
41
36
33
27
15
14
12
7
7
3
20
23
18
19
18
27
63
60
48
102
96
82
83
75
67
49
41
34
22
16
8
48
53
60
123
127
119
146
143
136
139
128
121
92
76
67
51
35
35
82
77
74
119
112
99
98
94
87
70
66
59
88
93
84
87
88
74
59
51
43
72
74
71
71
68
56
95
86
83
148
143
125
160
155
138
153
145
127
105
98
86
38
33
29
7
14
7
12
4
8
65
55
52
103
91
86
129
121
109
120
118
100
67
62
52
10
8
4
1
2
0
3
2
0
3
3
0
4
4
0
4
4
0
3
5
0
4
3
0
4
6
0
7
3
0
7
4
0
6
2
0
7
4
0
4
2
0
1
4
0
1
4
0
0
4
0
2
4
0
1
3
0
2
2
0
1
1
0
6
0
0
7
3
0
4
6
1
137
118
103
134
109
74
134
118
104
139
112
77
9
9
0
9
9
0
6
9
0
3
10
0
4
8
0
2
5
0
4
6
0
7
7
0
8
4
0
8
3
0
8
4
0
4
3
0
7
3
0
7
1
0
6
4
1
7
11
2
7
13
1
4
8
0
0
3
0
3
4
0
2
4
0
5
3
0
3
1
0
3
4
0
3
3
0
4
1
0
3
2
0
0
0
0
3
3
0
20
9
0
33
14
1
40
20
2
43
16
2
17
11
1
67
34
12
153
90
31
194
113
46
201
122
56
193
127
62
187
127
68
193
130
69
153
93
55
69
38
32
67
60
29
54
60
27
86
84
39
147
128
64
120
112
62
167
119
84
255
229
149
255
240
154
229
165
100
212
163
86
232
187
98
208
167
89
115
94
49
51
51
38
65
62
43
37
38
16
110
109
61
77
84
48
83
75
46
80
77
42
47
45
37
55
34
10
175
123
62
255
184
105
225
154
95
90
49
42
33
24
29
56
39
29
86
69
50
42
36
24
63
54
33
67
60
41
64
64
19
126
107
24
180
142
42
192
147
46
171
127
36
139
99
25
117
86
22
133
97
27
164
112
27
187
123
27
206
139
49
196
130
40
159
104
25
125
80
22
94
58
21
78
45
15
84
49
18
76
38
15
74
39
24
72
31
28
67
18
26
92
39
17
114
61
8
125
68
7
129
63
10
137
61
14
152
70
14
172
84
3
181
89
5
182
88
9
170
85
10
141
70
4
104
36
17
77
7
28
101
47
28
142
71
24
124
35
20
105
42
31
118
36
25
152
74
25
151
66
29
138
49
28
148
56
25
137
52
24
116
45
22
131
68
12
151
81
5
144
73
8
127
63
3
115
63
3
107
65
7
131
83
8
170
96
11
189
93
8
191
90
7
198
101
4
209
116
11
220
126
11
245
140
11
255
157
15
255
170
7
255
184
5
255
180
21
255
153
33
255
122
29
250
118
21
249
133
14
224
121
8
186
91
5
144
69
8
110
49
9
125
55
8
174
83
7
203
106
1
200
106
13
189
93
8
186
83
18
170
78
15
159
86
9
143
81
10
121
59
13
105
47
10
86
34
3
106
49
7
128
53
30
86
38
97
36
100
137
48
111
136
69
111
133
96
152
147
172
217
151
239
255
147
255
255
155
255
255
170
255
255
176
255
255
178
255
255
174
255
255
176
255
255
188
255
255
187
255
255
171
255
255
161
255
255
119
255
255
78
255
255
78
255
234
101
255
228
119
255
216
116
255
206
127
231
172
122
117
95
72
51
45
28
84
68
34
96
70
39
39
14
17
63
66
82
119
111
115
124
109
103
86
79
78
36
46
48
83
79
86
116
111
125
158
151
155
120
123
128
50
57
74
23
8
19
24
15
2
7
8
14
31
31
32
55
51
44
79
50
7
80
62
24
44
35
41
107
104
109
109
108
122
45
39
46
11
21
23
36
42
54
32
36
47
11
17
30
34
40
51
14
13
13
87
71
38
255
229
183
86
52
15
72
41
11
63
34
12
51
31
11
35
21
9
24
12
4
16
10
4
7
5
1
9
5
3
12
8
8
9
7
3
18
9
4
42
25
11
63
35
14
77
40
15
78
40
14
76
39
12
90
47
15
110
59
20
115
60
22
111
54
21
120
57
21
131
64
24
131
67
26
131
70
25
137
71
24
143
70
25
143
71
23
138
69
21
132
65
19
120
58
17
111
53
18
111
51
14
122
55
13
130
59
14
132
57
13
121
50
12
89
35
2
61
22
4
49
19
6
49
21
7
49
22
1
43
20
4
35
16
5
35
16
7
44
24
3
53
31
7
49
30
8
24
14
6
27
12
8
42
21
5
48
32
20
41
36
35
34
36
36
49
42
39
27
17
19
16
8
10
36
25
24
51
37
33
57
49
40
67
65
50
82
80
60
81
84
66
63
69
61
45
50
49
15
18
22
32
29
22
37
30
18
36
27
14
31
24
15
25
16
17
19
8
24
18
8
26
32
21
34
32
21
34
32
30
42
28
1
27
65
34
19
53
24
8
28
24
39
52
60
62
66
73
67
64
71
63
63
66
61
66
66
62
71
73
67
68
73
65
53
61
54
45
56
50
47
57
51
39
46
44
24
32
34
11
21
24
15
16
18
17
18
17
7
17
20
2
10
11
15
12
8
11
8
6
35
34
27
39
38
27
30
28
28
29
28
25
8
4
7
39
43
34
38
48
35
7
4
10
35
25
9
34
22
10
15
17
21
20
33
39
18
30
37
21
19
21
17
13
10
27
31
21
31
29
18
18
17
14
14
10
14
22
12
16
48
39
44
78
73
73
49
53
61
72
79
80
70
76
72
46
56
54
37
48
49
33
37
46
26
29
16
53
58
49
56
68
60
55
67
55
72
72
65
46
43
38
100
92
90
121
111
99
47
45
36
36
40
42
62
62
56
53
44
42
169
162
147
232
225
198
203
198
176
142
142
129
99
100
82
51
49
34
79
75
63
146
135
121
173
161
143
125
119
103
57
59
42
24
30
12
15
18
7
12
7
4
7
2
1
4
3
0
5
3
0
1
2
0
2
3
0
1
3
0
2
3
0
3
1
0
4
5
0
3
5
0
1
2
0
1
1
0
4
3
0
6
2
0
2
0
0
1
3
0
1
3
0
2
2
0
4
3
0
1
5
0
4
6
0
5
4
0
5
4
0
6
4
0
93
79
73
171
145
110
86
76
71
171
142
110
11
8
1
5
7
0
4
6
0
4
7
0
5
8
0
6
7
0
5
5
0
4
3
0
6
2
0
8
3
0
5
4
0
2
4
0
5
4
0
7
4
0
5
7
2
5
5
0
4
5
2
4
7
0
2
7
0
2
7
0
2
6
0
5
2
0
2
2
0
3
5
0
2
4
0
3
7
1
9
11
2
7
8
1
4
4
0
20
6
0
38
14
2
39
22
2
27
14
1
29
14
4
82
48
18
132
82
30
98
50
28
104
57
31
144
86
47
190
115
67
254
163
93
255
165
98
230
144
81
206
132
74
184
123
71
118
83
44
66
52
34
191
158
91
225
203
117
113
103
58
92
92
56
111
89
60
110
99
53
134
125
70
85
82
36
71
69
27
62
64
26
83
74
40
80
66
39
12
18
24
46
26
8
72
37
38
133
101
74
141
118
74
133
109
68
135
112
74
107
90
62
133
120
82
153
124
83
163
112
43
225
156
57
255
187
76
255
224
91
255
213
90
233
151
60
176
112
41
158
104
28
145
94
24
126
74
10
106
55
3
74
31
10
57
18
7
64
33
8
48
19
7
33
10
8
63
27
21
141
80
36
215
130
48
237
146
47
208
125
33
163
87
16
124
54
10
105
38
24
93
29
31
67
17
37
51
12
31
60
22
20
59
17
23
47
10
32
32
10
33
14
23
33
13
34
32
28
29
33
57
29
40
81
24
38
80
20
43
68
35
50
61
34
44
61
66
44
88
96
48
130
105
51
62
21
42
86
26
29
99
34
19
84
35
18
52
25
20
35
20
18
32
8
7
23
16
1
56
51
8
72
58
10
56
33
16
48
17
11
70
42
7
81
48
4
65
35
12
68
29
12
77
33
17
100
46
19
120
54
13
122
54
17
109
47
17
93
39
22
104
48
21
127
65
18
131
74
13
103
65
8
44
20
15
54
25
8
51
27
8
58
25
5
101
46
13
136
77
12
134
72
6
153
88
7
193
116
10
239
144
8
255
158
18
254
168
24
237
173
5
195
143
17
136
94
11
109
67
13
137
78
13
180
108
12
174
114
24
103
64
7
40
16
15
43
30
22
107
104
72
255
255
169
255
255
176
255
255
178
255
255
160
255
255
155
255
255
146
255
255
126
255
255
103
255
255
83
255
255
77
255
255
105
255
255
135
255
255
130
255
255
87
255
235
22
255
182
35
255
163
22
255
149
47
226
129
75
123
74
50
58
37
24
9
29
44
44
64
80
96
102
114
76
85
98
179
147
132
131
113
112
139
114
112
103
106
112
115
117
110
136
123
108
141
114
94
136
107
85
144
111
94
73
71
83
130
116
118
92
81
85
126
112
110
95
83
81
53
55
52
32
41
40
14
22
23
20
15
9
40
39
24
43
45
36
18
24
9
10
8
13
28
13
7
34
43
59
106
117
133
103
97
107
29
19
25
11
11
4
25
30
38
28
34
45
36
40
53
30
29
32
89
75
44
255
252
189
82
45
11
75
42
8
77
44
11
86
47
10
94
46
10
83
39
8
66
31
7
60
28
8
56
27
9
50
26
7
50
26
3
49
21
1
42
12
3
35
8
3
35
10
6
43
15
5
61
25
10
73
31
12
64
25
7
53
22
6
48
21
8
42
18
5
23
8
1
13
5
0
11
7
2
9
4
0
24
10
5
41
22
9
65
36
12
72
40
12
70
36
11
53
26
8
30
14
4
17
5
2
17
4
2
24
7
4
25
12
7
14
10
5
3
4
10
15
19
19
22
27
31
27
30
37
25
26
31
8
12
18
7
7
11
25
8
8
50
19
10
64
29
14
50
21
11
41
15
8
41
18
10
19
11
3
20
26
27
49
60
59
70
82
75
57
64
62
56
53
47
49
47
37
46
44
36
50
45
37
43
38
29
13
14
7
28
26
24
39
41
41
50
49
56
69
69
73
81
83
80
76
79
76
57
66
63
38
51
49
32
43
42
43
49
51
64
68
69
93
96
92
115
119
115
121
125
126
118
121
126
122
129
131
119
126
127
113
110
110
106
96
95
108
97
93
117
111
105
121
118
106
114
112
96
105
103
89
102
98
86
104
98
85
113
104
89
116
108
91
115
111
93
124
121
104
135
131
115
126
125
112
97
100
97
74
78
87
78
83
96
93
100
108
87
95
99
56
65
72
40
43
52
39
42
55
36
46
61
52
60
76
79
91
98
103
116
112
89
96
89
47
53
51
12
20
22
18
6
7
17
14
9
14
4
4
33
31
26
14
11
7
32
25
18
15
8
14
16
24
28
43
48
49
80
86
80
104
110
97
65
73
56
10
15
11
37
32
29
8
22
15
9
16
16
19
20
17
46
60
61
140
137
130
183
173
167
211
198
184
205
191
176
213
195
177
202
191
170
183
178
154
156
153
129
126
131
111
85
88
77
24
23
18
43
43
46
87
75
77
145
120
117
185
162
149
165
149
137
115
108
100
64
61
50
77
76
73
121
110
101
84
83
78
159
145
141
122
108
102
37
35
23
17
14
8
35
34
18
31
28
15
12
8
2
7
2
0
5
2
0
3
1
0
3
0
0
3
1
0
2
4
0
3
4
0
4
4
0
4
3
0
4
4
0
4
0
0
3
1
0
3
2
0
1
2
0
3
1
0
3
4
0
4
4
0
5
2
0
5
2
0
3
4
0
3
4
0
2
5
0
53
43
41
189
163
133
18
17
26
191
160
134
41
24
17
1
5
0
0
4
0
0
4
0
1
3
0
3
2
0
4
2
0
4
1
0
4
0
0
5
2
0
3
1
0
2
3
0
2
2
0
4
1
0
4
7
1
5
13
2
4
10
1
4
2
0
4
4
0
5
4
0
5
3
0
2
1
0
1
2
0
3
1
0
5
4
0
8
7
2
2
1
0
5
8
2
2
1
0
11
5
0
41
16
1
63
29
3
59
29
2
46
21
5
110
63
20
125
76
28
93
62
29
131
91
43
125
90
47
106
75
42
161
114
63
121
79
41
141
85
44
144
86
51
135
71
42
184
124
66
143
84
49
197
131
82
255
215
132
255
221
143
175
130
88
132
99
64
23
5
2
98
79
57
60
45
34
10
17
17
31
15
12
89
69
42
55
44
23
31
36
30
15
18
27
123
105
62
151
116
79
173
130
83
214
165
91
255
223
113
255
240
120
255
212
106
232
146
70
158
86
31
158
80
11
167
91
30
144
71
14
130
59
12
124
56
18
99
41
17
58
17
7
34
33
26
20
46
35
7
28
26
40
15
13
58
18
6
66
30
10
58
17
11
54
18
17
42
6
20
39
23
20
33
25
22
14
13
26
34
21
29
51
28
31
44
7
19
32
7
23
12
32
34
8
44
41
17
46
44
15
43
43
4
39
37
11
36
29
18
29
19
19
20
11
5
4
4
9
10
4
34
33
16
13
5
7
60
65
39
53
87
62
45
80
60
130
97
38
113
99
30
187
140
31
59
52
24
21
15
7
38
29
7
25
10
4
11
23
5
45
47
15
25
42
26
75
76
36
74
78
36
41
61
33
46
43
31
43
19
12
62
41
7
78
44
5
72
47
11
51
35
5
25
30
7
27
43
23
17
45
27
9
29
22
24
15
22
36
13
29
53
12
34
77
15
35
115
37
36
163
69
36
177
84
35
159
80
41
140
62
43
138
57
40
130
52
40
91
33
38
51
11
40
24
14
40
24
22
34
56
27
30
43
24
32
12
18
26
27
32
16
46
53
20
41
65
29
62
91
83
51
61
67
52
54
44
243
195
77
255
255
116
255
255
130
255
255
127
255
255
140
255
255
152
255
255
65
255
255
67
255
255
91
255
255
77
255
226
80
255
212
101
255
185
102
255
125
80
174
66
48
119
60
52
98
48
34
76
51
47
73
73
76
127
101
89
139
114
99
128
121
120
85
84
104
44
45
65
35
41
58
65
65
81
69
73
86
61
68
75
100
106
106
129
135
141
143
117
123
19
43
77
96
97
105
120
123
116
96
88
87
68
53
53
42
38
45
89
80
69
114
83
69
82
72
74
103
92
86
75
65
49
46
47
43
53
43
32
25
13
8
17
21
20
32
36
33
44
49
47
15
23
31
38
36
21
74
73
62
70
62
57
42
37
31
24
25
28
58
67
80
116
120
136
101
93
101
32
32
40
47
50
67
55
67
87
26
28
31
26
26
30
105
96
67
255
255
193
25
8
3
15
5
1
25
14
9
23
12
8
17
2
1
27
7
4
34
12
4
39
12
4
39
13
1
34
14
1
26
12
1
21
6
2
15
4
2
11
4
2
11
6
7
15
8
7
24
11
8
13
7
5
3
7
3
4
5
4
7
2
3
4
5
4
7
3
4
7
1
5
5
3
7
17
9
8
14
4
6
10
4
2
15
5
2
34
12
6
57
21
9
72
29
11
73
31
11
65
27
9
53
21
6
53
19
4
63
24
5
65
25
4
56
21
9
47
22
12
40
20
8
65
47
29
105
83
54
123
102
71
128
104
76
142
107
80
129
90
65
80
49
32
30
13
9
10
8
6
34
19
8
39
14
8
20
17
30
36
46
51
30
36
31
31
19
20
58
50
42
70
59
43
81
65
48
92
74
57
93
79
55
89
79
49
70
66
38
50
47
23
40
29
12
27
24
21
41
39
42
48
43
50
82
76
73
131
121
108
151
142
124
136
133
116
104
104
95
85
83
79
73
71
73
51
51
60
52
51
65
83
80
90
94
92
99
83
84
92
77
79
87
78
79
92
92
90
106
97
96
110
103
101
108
112
107
110
132
122
119
148
132
120
117
100
88
69
56
49
50
42
35
58
48
42
82
64
60
114
92
86
136
114
105
140
115
107
141
113
110
148
124
123
149
134
128
148
139
126
144
136
120
125
120
109
113
107
105
127
117
119
149
142
139
160
163
153
160
166
160
149
147
153
143
140
145
140
139
140
141
147
146
148
158
155
145
150
147
140
143
138
151
156
144
172
173
159
200
189
178
220
204
193
242
229
210
255
243
224
255
243
234
248
237
232
253
245
237
255
249
241
248
240
234
243
238
232
255
245
236
255
232
223
186
163
166
175
146
156
187
156
160
162
139
138
144
124
123
188
166
153
208
192
164
173
164
132
157
150
116
161
155
121
178
171
144
228
216
191
252
241
209
219
213
183
190
184
160
141
140
118
77
73
54
71
69
57
176
163
145
169
156
141
20
20
28
159
145
143
87
83
66
31
28
16
13
10
4
25
27
17
14
12
4
2
6
0
1
6
0
1
7
0
0
8
0
0
8
0
3
8
0
2
7
0
2
3
0
1
6
0
1
3
0
1
3
0
1
2
0
3
1
0
3
3
0
5
2
0
6
2
0
1
5
0
2
7
0
1
7
0
1
3
0
4
4
0
4
4
0
24
17
15
179
150
132
74
60
31
180
153
133
99
73
48
1
13
0
0
10
0
0
7
0
2
8
0
4
9
0
2
6
0
5
4
0
4
5
0
4
7
0
7
9
0
6
9
0
2
7
0
4
7
0
4
10
0
5
11
0
5
12
0
5
11
0
6
9
0
4
8
0
1
7
0
0
5
0
1
5
0
3
6
0
5
6
0
10
11
1
13
15
2
7
9
1
3
3
0
1
0
0
5
2
0
20
5
0
47
10
3
89
40
14
152
87
35
164
97
50
144
91
58
169
111
72
186
124
72
111
68
44
91
63
42
29
25
19
48
27
20
70
61
29
44
31
13
113
82
46
71
51
30
108
84
45
183
145
74
160
120
70
74
39
30
112
67
40
206
144
81
247
178
102
205
146
84
148
104
64
103
67
48
97
71
50
65
45
30
72
56
34
103
88
54
106
95
61
23
24
28
38
24
15
50
18
2
60
11
6
75
26
13
71
26
17
47
15
17
22
28
26
9
45
38
26
56
42
7
38
23
10
22
16
21
23
25
23
20
31
28
15
27
19
22
27
19
25
28
29
26
24
22
7
15
28
15
20
36
29
20
36
3
14
53
22
17
57
18
17
44
6
23
25
21
32
11
37
38
3
35
38
24
14
25
36
5
13
36
19
16
44
13
14
52
12
15
47
8
23
39
16
31
38
10
26
43
15
22
46
8
24
50
11
24
53
24
20
48
30
5
76
62
18
102
70
14
219
185
75
217
172
64
165
127
63
94
69
42
74
63
32
119
110
27
224
167
35
255
193
25
228
163
16
125
93
4
94
70
4
107
75
10
106
76
12
41
33
4
80
64
8
130
101
15
101
54
24
85
20
31
88
29
29
91
27
27
90
25
33
94
22
43
107
26
47
135
44
41
157
60
34
159
63
34
143
50
42
123
30
51
116
26
53
125
35
52
127
38
51
58
11
62
75
98
81
143
144
95
98
125
100
52
95
93
34
64
62
23
39
32
63
54
17
118
95
24
189
149
35
255
205
52
255
255
55
255
255
68
255
255
100
255
255
109
255
255
107
255
255
130
255
255
189
255
255
220
255
255
210
255
255
195
255
255
161
255
255
155
255
255
155
255
193
99
140
73
28
52
20
13
60
24
10
57
33
14
87
74
52
126
108
80
149
122
97
156
128
107
134
113
98
88
68
58
25
8
6
81
78
78
89
65
67
120
91
66
97
91
83
44
26
7
89
62
56
77
78
86
83
87
92
64
62
74
48
39
40
40
31
16
57
50
41
38
29
37
45
22
14
84
50
19
83
55
27
84
69
40
102
88
52
104
80
41
104
71
38
101
69
34
57
30
15
22
11
8
46
43
35
74
68
50
68
58
39
19
7
15
26
25
31
29
32
23
31
28
17
16
10
4
22
21
23
33
39
41
27
25
24
33
30
31
66
68
69
59
53
46
28
35
41
80
84
94
126
125
139
80
72
79
36
37
43
27
28
28
18
28
33
25
33
37
114
109
79
255
255
193
15
3
1
12
5
1
17
9
7
17
8
7
10
4
2
3
2
3
10
5
4
11
4
4
10
3
2
15
5
1
17
5
2
12
6
2
5
7
3
10
9
4
21
12
7
23
11
5
13
6
5
10
5
5
4
4
4
10
5
3
8
5
3
5
4
3
8
1
2
15
2
4
21
5
4
24
6
3
13
3
2
10
1
4
16
5
4
19
6
3
24
7
2
29
10
3
33
11
5
43
15
7
55
22
5
69
30
5
82
37
7
91
43
8
81
35
4
51
13
11
22
5
25
36
36
42
47
43
36
14
1
3
52
33
25
99
77
60
111
107
91
103
111
98
74
91
88
72
86
84
55
68
66
29
45
48
44
44
50
49
49
55
53
57
61
82
83
76
113
107
84
115
110
83
91
91
73
57
63
56
41
46
44
28
27
28
8
5
4
26
19
15
44
26
20
71
46
37
83
61
49
71
63
41
63
61
38
42
34
25
39
29
27
50
39
33
43
31
24
31
17
13
50
38
36
38
24
17
46
37
19
56
44
24
58
43
30
67
59
51
90
87
76
103
97
90
109
98
90
126
109
99
150
125
117
157
131
126
155
131
128
152
131
130
155
139
132
168
151
137
170
151
136
146
130
119
121
108
101
116
104
95
121
110
98
114
107
92
80
73
62
59
49
43
61
48
47
60
50
47
55
43
40
42
28
29
43
35
33
42
34
30
36
26
23
40
21
28
74
58
64
115
97
99
140
117
120
138
117
120
113
105
102
102
98
94
86
85
83
64
65
64
76
73
71
132
115
111
177
151
146
199
175
164
197
173
160
163
134
128
147
122
120
146
126
126
148
133
134
146
131
134
155
138
141
175
154
157
187
162
157
137
123
109
42
46
36
3
6
4
20
21
7
1
5
3
17
18
11
33
29
15
15
4
4
25
10
10
38
24
18
50
41
27
57
46
36
89
69
68
155
127
121
183
156
145
146
128
115
84
73
61
34
24
18
12
10
5
48
46
41
148
138
136
138
135
115
129
124
116
116
104
85
21
22
11
35
35
18
31
34
14
15
14
2
7
8
0
5
7
0
2
5
0
2
4
0
2
4
0
5
3
0
4
4
0
2
5
0
0
6
0
3
2
0
5
5
0
3
1
0
5
1
0
3
3
0
7
5
0
2
4
0
3
4
0
4
2
0
6
1
0
6
3
0
8
2
0
9
5
0
10
5
2
143
116
107
146
117
80
135
121
106
146
119
81
3
4
0
2
5
0
2
4
0
7
7
0
7
5
0
8
5
0
7
6
0
5
7
0
4
5
0
7
4
0
5
4
0
5
5
0
4
5
0
5
5
0
5
2
0
7
4
0
7
7
0
5
5
0
5
4
0
4
5
0
4
6
0
4
6
0
3
7
0
0
7
0
2
4
0
3
2
0
6
2
0
7
4
0
11
4
0
16
4
0
25
8
1
54
15
3
103
45
15
147
83
37
140
83
45
102
62
49
161
98
65
166
100
62
123
69
51
119
65
47
119
67
46
147
80
52
162
86
59
167
90
63
223
136
83
255
168
96
255
175
98
228
149
87
135
69
50
85
35
29
89
48
33
89
57
38
58
43
33
7
23
5
32
33
16
21
11
19
31
29
20
34
45
21
41
52
28
60
66
42
60
65
41
43
50
35
35
44
34
38
50
35
43
47
27
39
40
20
31
32
22
25
24
21
25
21
11
36
33
14
42
32
12
33
21
11
22
10
12
19
15
15
5
10
9
10
19
15
21
32
22
18
30
19
24
23
16
10
10
10
22
16
13
50
41
19
77
53
18
95
65
20
107
71
17
112
70
15
113
69
15
117
74
12
129
85
14
150
101
17
171
115
21
196
138
39
209
150
50
181
129
46
129
81
24
92
51
17
77
38
14
68
34
7
57
34
2
49
34
7
46
37
15
58
51
15
169
131
31
255
223
55
255
236
77
255
143
32
220
119
25
128
79
49
108
66
43
102
62
30
242
162
39
239
174
45
241
169
32
221
148
29
247
150
36
193
101
17
160
82
5
134
64
7
167
107
35
244
179
70
233
178
70
160
128
48
217
168
50
255
236
70
255
255
95
255
255
96
255
240
77
198
183
62
123
135
51
102
123
53
175
175
75
255
246
99
255
255
113
255
255
110
255
255
109
255
255
125
255
255
129
255
255
132
255
255
148
255
255
152
255
255
152
255
255
153
213
250
145
186
213
131
255
251
114
255
255
101
255
255
92
255
255
99
255
255
120
255
255
115
255
255
111
255
255
142
255
255
167
255
255
99
255
208
22
209
74
21
84
12
36
80
30
31
81
43
42
74
31
22
74
42
21
43
26
16
16
27
26
43
48
51
64
68
69
20
31
40
11
31
35
12
31
32
11
22
32
17
8
13
35
28
14
93
83
80
78
49
53
89
41
28
138
94
73
112
71
41
96
59
29
59
40
10
42
26
14
11
7
17
69
55
48
62
45
46
59
53
36
98
84
70
86
73
54
89
76
57
95
84
64
108
96
73
109
93
72
100
81
57
85
61
38
72
54
31
44
33
18
29
24
15
30
22
17
49
36
24
50
40
22
43
47
35
15
16
17
57
58
48
18
12
10
28
22
20
39
36
36
43
43
44
24
27
26
19
16
17
49
52
55
98
92
80
10
15
24
69
70
68
84
82
94
125
119
135
70
67
79
24
23
23
9
14
17
21
18
11
107
102
74
255
255
191
10
4
2
1
2
3
6
4
4
12
5
5
17
7
5
18
5
2
22
9
2
31
13
5
33
13
5
29
13
4
26
15
4
28
16
4
28
15
4
24
12
4
20
9
7
18
6
4
18
6
2
21
8
3
27
14
6
29
15
4
31
17
3
34
18
3
39
19
2
43
20
5
40
19
9
38
19
9
41
20
7
39
19
5
37
17
5
32
12
7
32
10
7
27
9
5
7
3
2
18
8
5
21
9
5
16
4
3
10
2
2
18
6
4
39
18
7
57
26
10
62
23
6
39
10
18
24
44
50
48
69
64
74
79
70
101
90
78
49
51
47
35
22
9
66
55
41
103
91
68
141
120
93
150
125
102
89
76
64
30
19
19
39
31
14
29
24
7
20
18
15
27
16
9
50
38
22
60
40
28
72
56
41
77
68
50
78
75
58
64
65
48
46
50
31
34
40
21
19
15
13
27
17
20
80
68
50
86
70
52
52
38
29
18
17
15
17
14
15
17
12
7
33
31
36
54
57
63
53
58
65
42
52
61
30
47
56
18
41
47
3
30
38
7
21
41
4
22
47
19
24
44
17
24
38
3
23
35
7
23
33
15
10
16
59
34
33
99
73
66
113
86
78
115
92
83
107
90
80
76
69
63
60
61
56
82
86
73
104
113
85
107
114
85
109
105
84
104
92
82
103
91
87
110
102
96
117
115
103
126
123
103
133
122
100
130
109
92
121
105
86
115
108
88
108
102
89
112
97
91
98
76
76
81
56
60
73
55
60
61
52
55
40
34
35
63
48
48
63
49
50
61
59
45
47
45
33
7
4
3
43
36
33
31
22
19
21
18
13
23
21
18
22
20
21
26
24
26
57
51
37
30
26
19
26
25
18
7
11
16
22
18
18
15
17
10
18
17
10
21
17
9
4
2
2
7
5
3
9
9
3
4
8
1
4
8
0
7
5
0
8
7
0
3
7
1
3
5
2
3
3
1
0
4
0
2
2
0
3
2
0
56
46
52
122
117
106
126
126
106
81
66
55
2
5
0
4
3
0
6
4
2
15
16
6
19
21
7
19
21
6
21
23
7
22
22
7
17
16
4
10
8
1
7
7
0
10
9
0
9
10
0
8
7
0
4
7
0
10
5
0
5
5
0
9
1
0
4
3
0
5
1
0
3
4
0
3
5
0
4
5
0
4
4
0
4
1
0
1
0
0
2
2
0
100
83
73
181
146
109
89
86
72
177
147
108
8
4
0
5
3
0
4
2
0
7
5
0
4
3
0
8
6
0
6
7
0
5
4
0
3
3
0
6
2
0
3
4
0
4
2
0
4
4
0
5
3
0
1
2
0
2
1
0
0
4
0
2
3
0
1
3
0
6
3
0
8
2
0
6
4
0
3
5
0
4
3
0
5
3
0
5
3
0
3
0
0
11
5
0
11
5
0
8
4
0
38
14
3
73
29
5
96
49
18
150
87
48
138
84
49
130
85
53
123
83
46
45
31
19
49
33
12
75
50
20
98
73
33
97
85
30
74
69
23
67
61
21
51
51
16
24
37
5
62
57
25
66
56
29
40
41
18
61
55
32
62
54
37
52
45
31
38
41
26
42
37
23
66
60
38
94
90
58
96
95
56
92
96
58
84
90
55
56
64
44
39
45
32
33
43
32
27
53
34
20
51
30
13
22
6
94
56
39
174
125
75
183
136
81
141
91
47
123
58
2
137
54
16
156
65
14
165
74
12
163
69
19
180
84
7
216
121
19
241
147
33
255
177
46
255
226
72
255
255
87
255
255
91
255
255
91
255
255
83
255
255
85
255
255
92
255
245
83
255
204
54
255
176
29
255
187
26
255
199
25
255
194
23
255
183
33
255
170
19
255
184
25
255
196
33
255
211
34
255
238
44
255
238
44
255
207
29
255
201
27
255
224
36
255
255
46
255
255
79
255
255
100
255
165
69
216
100
25
226
103
5
213
118
20
223
131
41
248
138
36
214
105
24
164
99
41
222
140
53
255
205
87
255
255
119
255
255
136
255
255
133
255
255
129
255
255
130
255
255
124
255
255
121
255
255
86
255
255
82
255
255
93
255
255
100
255
255
103
255
255
97
255
255
69
255
255
57
255
255
79
255
255
83
255
255
66
255
255
63
255
255
89
255
255
117
255
255
115
255
255
81
255
252
50
255
245
25
255
255
24
255
255
21
255
255
33
255
255
49
255
255
59
255
249
63
255
209
45
255
174
21
245
117
24
170
65
58
153
35
42
165
41
38
155
38
43
103
63
83
118
95
107
91
87
101
81
84
96
67
78
99
78
84
109
120
110
119
156
137
131
123
117
119
42
57
73
21
24
28
23
18
14
59
58
51
27
27
38
26
37
47
25
38
51
28
41
60
32
42
60
21
26
48
74
74
78
81
80
88
50
50
62
48
46
57
16
9
31
23
12
29
8
10
22
32
18
13
37
18
5
47
31
27
71
58
57
25
26
29
38
31
29
49
37
31
44
34
26
39
30
24
31
22
17
28
19
17
54
49
44
63
59
51
53
48
42
50
43
37
35
29
28
33
26
25
37
33
32
39
36
34
65
64
55
70
73
62
66
65
55
35
28
24
27
24
20
38
38
37
24
24
24
5
5
7
29
28
29
13
11
14
92
86
73
56
51
44
58
63
58
40
36
40
99
92
103
107
100
112
15
12
21
10
13
15
14
13
20
104
100
76
255
255
190
3
4
2
6
3
4
7
3
3
11
6
5
15
10
5
12
8
4
6
3
4
2
1
4
8
4
4
15
5
3
19
7
3
16
7
1
10
7
0
21
12
4
25
12
7
22
8
4
28
10
7
28
11
7
28
15
8
16
10
7
10
4
1
19
7
1
26
9
1
38
12
3
53
17
3
67
24
4
75
30
8
74
33
11
75
36
11
72
33
7
68
29
4
71
29
7
77
32
10
80
34
10
82
35
7
86
38
7
84
39
7
76
36
5
66
30
5
47
19
4
20
6
3
5
5
5
19
7
1
24
7
7
17
17
23
56
56
55
93
95
87
91
100
92
81
93
87
86
91
83
73
73
65
14
28
24
47
41
30
41
28
20
46
37
25
20
16
8
30
25
17
59
53
39
55
55
42
32
39
33
26
38
33
25
36
34
29
24
19
78
60
40
106
87
59
112
90
65
102
85
62
70
63
43
43
40
28
61
54
36
30
16
14
26
15
10
34
23
8
49
32
18
59
31
11
72
41
17
82
53
28
86
55
30
73
42
21
55
32
17
50
32
21
44
30
25
43
33
30
54
43
38
78
65
61
107
94
91
125
113
109
127
117
114
132
125
120
154
146
135
168
159
144
153
150
136
131
133
121
120
123
110
117
121
106
108
114
100
92
97
86
80
81
73
66
68
61
43
46
42
28
28
25
15
15
17
46
44
39
56
44
38
47
35
36
40
35
32
20
22
16
10
8
5
13
13
2
42
34
27
74
60
54
103
87
76
119
99
85
122
101
90
94
86
74
60
58
51
49
42
46
64
55
44
41
40
28
30
25
15
72
66
51
87
86
61
98
96
72
104
99
78
107
99
85
121
106
98
153
132
115
179
160
127
175
159
127
160
143
124
160
142
123
176
156
125
182
160
122
153
132
96
108
92
63
89
79
49
67
61
34
40
36
15
28
23
8
12
9
4
4
1
0
5
0
0
7
7
0
12
4
0
12
4
0
8
0
0
4
3
0
10
5
7
24
9
17
29
11
17
16
3
8
7
4
0
7
2
0
5
8
4
7
9
4
5
3
2
15
8
1
23
19
5
27
27
7
31
28
8
23
19
5
12
7
1
10
7
0
8
5
0
11
7
0
8
2
0
6
2
0
2
2
0
8
8
0
1
6
0
2
2
0
4
3
0
3
1
0
1
3
0
2
0
0
6
1
0
6
1
0
2
1
0
60
50
43
196
163
127
22
30
31
196
166
125
40
22
12
3
4
0
2
1
0
6
4
0
2
1
0
3
3
0
6
3
0
7
4
0
2
4
0
5
4
0
1
3
0
0
1
0
1
3
0
2
1
0
2
2
0
1
2
0
2
4
0
2
4
0
1
4
0
2
3
0
0
2
0
3
5
0
6
2
0
3
6
0
3
2
0
3
2
0
3
2
0
8
3
0
12
4
0
15
5
0
45
19
3
72
37
8
100
57
31
173
104
63
147
95
55
145
95
59
144
93
56
43
28
23
38
21
22
58
33
30
65
43
30
65
50
28
47
34
21
47
26
18
58
33
22
85
52
33
111
69
43
112
68
48
125
85
57
143
118
71
123
109
65
117
109
60
127
125
73
136
135
88
136
141
94
104
114
72
60
69
37
35
49
24
41
62
37
20
50
28
60
28
16
144
101
65
169
127
79
168
122
65
204
145
71
255
187
97
255
176
91
238
166
97
191
130
80
162
90
29
185
107
26
212
133
46
231
153
64
223
149
64
233
155
63
255
196
75
255
220
84
255
214
82
255
222
87
255
238
91
255
239
83
255
225
75
255
203
71
255
178
70
255
172
70
255
187
80
255
209
94
254
172
79
156
91
32
149
78
18
204
120
38
207
121
46
149
70
15
114
49
19
143
75
14
197
126
50
225
153
73
220
153
72
193
135
50
193
145
33
243
188
43
255
217
63
225
167
78
157
99
64
179
78
50
103
66
49
230
112
29
199
104
7
255
168
21
255
163
40
230
101
23
210
99
36
255
151
55
255
184
84
255
184
95
255
252
111
255
255
110
255
211
76
238
116
14
171
57
40
255
132
44
255
173
30
255
158
35
173
84
21
24
16
20
41
25
15
174
113
60
255
192
76
255
222
79
255
255
115
255
245
119
255
171
110
207
137
98
255
157
99
255
162
93
248
125
69
158
89
51
103
72
41
86
56
27
111
49
36
138
37
37
155
33
50
255
80
44
255
127
33
255
133
22
172
113
55
150
115
77
121
94
59
81
46
10
77
26
27
98
31
25
119
42
17
136
50
19
121
49
25
72
29
11
60
40
21
48
37
28
15
8
13
22
8
31
40
31
50
111
95
106
117
127
139
76
92
106
25
38
52
36
39
39
21
15
20
9
11
23
6
10
27
7
9
24
5
9
13
13
15
26
54
53
58
81
83
80
62
52
40
37
24
13
36
23
18
26
17
19
15
6
3
21
9
1
37
19
10
34
15
5
29
26
31
50
51
51
18
14
14
24
21
14
23
21
17
18
17
18
23
23
27
27
25
32
36
31
39
52
46
53
56
51
56
56
51
51
53
49
45
52
49
46
45
45
47
37
32
39
18
13
22
31
26
31
45
39
36
21
13
12
8
8
5
30
34
37
16
14
17
14
12
12
26
27
26
16
15
8
54
50
43
68
66
61
75
73
69
48
48
46
45
44
53
92
85
94
74
72
77
60
62
58
64
56
46
135
127
99
255
255
191
33
13
2
25
12
3
16
10
1
13
9
2
10
5
2
18
6
2
25
11
3
36
18
8
51
26
7
56
28
6
54
26
5
48
22
3
42
19
3
44
18
5
39
15
5
21
8
1
10
5
1
13
6
4
30
13
9
22
13
8
11
10
8
9
8
6
8
7
3
8
4
4
4
4
5
10
8
7
12
7
6
15
5
2
31
13
0
49
21
3
60
25
3
64
24
3
74
28
6
80
31
5
77
31
3
71
27
2
70
24
1
79
29
2
89
34
3
93
33
1
96
37
2
97
44
7
89
43
6
68
34
6
46
24
7
38
19
8
46
23
13
68
42
31
91
67
51
111
90
69
137
112
90
109
94
81
61
57
53
41
36
34
34
30
23
49
45
30
73
60
36
80
61
29
63
46
18
44
32
19
23
15
5
30
26
24
71
62
48
71
50
30
63
34
22
50
24
16
46
28
14
62
45
25
37
24
18
53
44
25
22
16
11
19
11
5
44
23
14
44
20
10
34
11
11
41
8
6
49
20
7
59
31
8
72
39
17
54
25
14
33
29
36
33
41
57
52
57
74
62
69
77
60
73
74
56
66
67
52
63
69
40
54
64
24
41
52
22
36
46
27
45
47
37
54
50
35
50
47
41
50
46
32
37
35
5
5
12
40
29
18
56
42
31
59
41
32
64
46
38
78
65
56
78
62
55
82
70
63
84
75
60
80
67
53
77
62
50
85
69
55
80
68
52
63
54
45
50
42
40
40
29
32
22
15
15
2
7
2
40
26
24
33
22
22
24
13
22
40
30
33
44
36
27
28
24
17
23
21
12
50
47
42
64
56
48
34
29
22
19
15
17
22
17
21
28
26
25
30
32
28
32
33
25
36
38
28
38
41
35
36
41
34
28
37
22
28
34
23
64
56
45
28
20
18
11
5
9
40
34
27
14
8
5
30
25
12
45
41
24
82
72
50
127
106
81
159
134
103
182
157
116
205
176
131
218
185
143
211
180
141
181
160
122
147
134
97
123
112
77
97
87
57
65
60
34
36
33
17
14
9
6
1
7
2
10
15
6
19
19
6
24
25
8
19
17
7
21
15
5
16
16
5
5
4
2
7
8
0
7
9
0
5
7
0
2
5
0
5
7
0
8
7
0
5
8
0
4
5
0
4
7
0
2
4
0
3
1
0
2
1
0
2
3
0
3
1
0
4
3
0
2
4
0
25
21
17
180
155
123
69
50
24
182
158
125
94
70
42
8
4
0
8
1
0
7
3
0
4
3
0
7
4
0
7
2
0
5
3
0
4
2
0
1
5
0
2
5
0
2
3
0
1
1
0
1
0
0
2
3
0
4
2
0
4
2
0
1
4
0
2
5
0
4
3
0
4
4
0
5
2
0
4
3
0
2
4
0
4
4
0
3
1
0
3
2
0
4
2
0
11
5
0
22
13
1
24
11
2
59
28
6
138
76
32
220
126
63
255
154
78
255
175
90
255
194
103
255
174
92
172
119
61
125
86
46
115
79
45
110
79
45
95
68
39
60
42
27
55
47
24
72
62
28
76
69
29
87
90
45
106
121
66
108
131
71
66
88
46
24
38
16
41
41
37
46
31
32
66
29
25
129
94
66
240
190
125
255
255
161
255
255
192
255
255
207
255
255
208
255
255
187
255
255
159
255
211
123
198
154
76
95
54
22
29
47
38
46
49
46
89
81
78
43
50
54
64
47
34
70
66
56
79
87
84
115
120
106
79
88
82
71
59
43
36
25
21
61
41
25
99
74
41
46
34
21
11
8
10
38
30
18
87
63
30
61
35
8
37
32
20
63
48
20
123
91
40
183
134
70
148
116
70
87
81
47
110
100
69
91
99
74
124
117
76
64
73
52
43
50
42
86
84
66
51
52
45
73
63
52
62
67
37
79
83
22
73
86
41
106
93
73
116
76
72
136
70
44
207
96
29
88
52
34
189
106
55
180
87
36
175
73
24
170
78
44
145
84
56
129
74
47
130
68
39
68
31
25
59
75
70
62
81
74
48
63
62
96
81
63
107
82
49
123
89
52
101
77
41
35
29
4
65
43
29
11
16
22
126
47
18
108
60
29
124
51
32
58
45
33
66
56
37
108
68
51
78
38
34
99
65
48
114
81
62
65
36
32
26
6
11
30
20
20
50
35
39
55
51
46
59
58
55
39
38
49
47
33
25
86
58
37
112
61
39
97
42
21
62
37
36
42
46
30
41
19
13
71
50
48
100
73
49
88
64
34
80
55
27
76
53
38
67
46
41
73
49
48
75
45
37
65
39
23
66
50
38
60
44
34
48
16
13
55
24
15
24
15
28
49
45
59
104
105
114
91
99
109
58
61
70
27
18
20
12
11
5
27
25
30
76
67
65
80
70
65
41
37
42
69
71
73
69
72
72
26
23
28
44
38
13
51
46
25
40
42
32
27
26
15
32
27
16
32
28
15
22
20
12
16
15
10
43
43
39
34
31
29
16
16
15
17
20
17
31
33
36
51
52
59
56
58
63
43
45
49
40
45
48
48
54
57
60
63
63
57
53
50
48
44
43
49
49
49
63
61
60
40
36
38
33
27
26
24
18
21
12
18
22
12
5
7
34
36
38
33
31
28
43
41
37
45
46
40
27
31
27
30
30
29
50
48
47
59
49
44
49
36
31
31
23
25
39
32
41
47
41
49
11
8
19
33
29
31
134
124
95
255
255
192
9
7
3
23
6
4
31
11
4
30
11
3
26
9
2
27
8
4
28
12
5
21
11
6
11
4
2
4
6
2
4
7
3
7
4
3
9
4
3
24
8
3
33
13
4
31
16
3
19
14
2
17
14
4
34
19
10
38
20
10
29
14
9
24
13
7
20
13
6
15
10
6
9
6
6
11
10
8
14
14
11
8
12
10
10
13
10
15
16
12
19
18
11
8
13
10
3
12
12
5
7
13
7
4
10
5
7
7
5
10
5
7
8
4
3
9
6
3
8
9
14
9
11
24
3
15
33
2
17
46
8
13
60
20
9
65
21
8
59
19
7
46
14
9
27
7
10
19
4
8
59
37
26
83
54
38
97
62
45
117
81
59
129
95
70
101
84
77
58
86
117
36
72
110
8
31
73
10
8
32
3
13
5
37
36
24
66
57
47
50
39
32
15
22
13
17
26
20
25
28
26
21
13
11
24
15
7
24
24
13
23
21
12
34
27
23
7
3
12
20
14
4
26
19
14
4
7
9
16
11
11
6
6
10
29
21
25
57
44
38
57
49
32
43
36
19
56
47
19
58
45
19
25
16
15
25
32
52
58
63
75
70
75
85
77
81
95
84
87
105
105
103
118
121
116
124
108
108
115
95
97
108
108
106
112
120
116
114
117
114
112
117
117
117
115
121
116
121
129
122
138
136
130
133
123
116
104
96
92
56
58
60
26
31
38
18
23
30
31
31
33
14
21
29
18
23
27
15
22
26
18
22
31
23
19
22
6
5
11
34
33
29
65
64
54
95
85
68
82
74
51
53
49
30
23
23
17
18
21
17
50
51
42
97
91
77
126
116
102
143
130
111
150
135
117
147
130
117
128
113
102
110
100
89
122
110
97
139
125
112
128
116
106
128
114
102
141
123
103
111
96
79
75
67
53
67
66
44
41
44
27
19
19
7
12
5
6
34
25
23
89
70
52
106
81
69
130
106
86
164
144
113
207
180
146
249
211
175
255
232
194
255
247
207
255
255
211
255
250
206
255
241
201
255
226
188
220
199
160
191
172
138
170
151
122
134
122
99
91
85
69
50
46
39
21
18
17
15
11
8
11
12
5
14
14
6
12
11
4
5
4
1
1
2
0
3
4
0
5
4
0
2
5
0
3
8
0
5
4
0
4
5
0
3
4
0
5
3
0
3
4
0
2
1
0
4
4
0
1
5
0
2
3
0
2
1
2
143
122
104
141
113
76
129
112
100
143
123
87
37
38
21
19
11
5
10
0
0
11
4
0
11
7
0
7
6
0
3
5
0
4
4
0
5
5
0
3
4
0
4
2
0
6
2
0
5
1
0
6
1
0
8
2
0
7
1
0
7
2
0
7
0
0
5
0
0
4
2
0
2
4
0
1
3
0
3
2
0
4
5
0
5
5
0
2
9
0
1
7
0
14
7
0
34
20
5
36
26
13
31
32
17
38
26
15
92
39
19
146
61
32
218
106
64
255
149
95
255
189
122
255
225
140
255
236
143
255
237
142
255
248
146
255
255
151
255
255
148
255
247
140
255
217
122
255
193
111
255
179
115
255
189
130
255
237
141
255
245
138
255
226
132
246
209
134
222
198
138
192
178
125
178
167
114
193
165
110
125
98
63
99
83
60
110
94
76
67
46
53
73
68
41
138
126
75
132
126
73
190
173
93
224
191
93
232
179
89
213
152
71
178
116
48
162
101
45
165
93
25
191
123
50
183
126
50
92
56
26
48
49
60
131
112
84
164
138
89
202
163
94
194
148
80
136
95
47
124
81
40
156
110
65
168
127
78
197
142
77
191
140
78
166
121
71
161
112
61
225
152
75
255
216
107
255
203
103
215
156
87
170
117
57
212
144
69
215
156
73
201
144
58
228
158
65
220
143
49
204
129
53
207
125
47
204
112
49
179
86
42
160
65
42
122
34
27
153
75
25
176
93
32
63
41
29
90
56
39
99
48
34
75
34
37
79
57
67
88
74
81
86
73
72
81
65
59
74
58
43
47
35
25
64
57
53
14
9
12
106
69
54
142
104
84
136
108
87
144
115
94
150
116
96
153
117
98
144
110
95
232
138
100
217
123
85
118
66
65
43
36
50
62
47
41
59
49
19
113
107
78
154
143
117
142
134
104
104
104
76
82
75
63
67
64
60
44
45
55
100
102
106
90
90
100
30
39
60
25
23
35
59
32
25
70
35
21
41
14
11
10
19
27
51
57
55
97
80
56
56
37
11
43
47
47
69
69
66
48
44
39
39
35
35
41
37
30
52
46
39
27
22
14
41
44
53
53
64
67
50
62
67
17
30
40
18
22
32
17
21
17
23
33
21
32
35
39
66
67
77
101
101
107
80
77
84
29
28
36
57
54
55
96
82
76
86
77
74
112
106
100
122
116
111
72
63
65
37
32
29
12
8
10
12
16
21
17
19
20
14
10
8
22
18
12
23
21
12
33
34
23
31
32
27
30
27
25
29
30
29
31
36
32
18
20
18
29
28
34
35
31
35
22
17
11
20
20
14
33
41
42
35
40
43
39
46
51
43
48
48
28
27
26
30
32
30
56
54
49
71
70
65
62
62
55
42
41
36
40
39
34
33
37
30
20
21
20
49
37
35
27
26
25
30
31
31
41
40
45
51
54
59
50
49
53
34
27
33
38
25
31
46
32
34
38
31
32
34
38
47
31
29
36
41
35
28
129
119
90
255
255
192
21
10
4
8
8
4
16
4
3
25
4
1
32
9
3
38
13
5
33
11
2
19
5
3
9
5
7
8
5
7
8
1
4
17
7
3
21
8
5
14
7
2
5
5
2
5
4
3
3
2
4
2
1
1
13
7
4
23
13
4
17
10
5
13
6
4
15
7
2
16
10
3
12
5
4
7
4
4
8
5
4
8
10
6
4
7
5
10
10
8
10
11
8
8
7
12
7
15
16
23
28
20
30
32
20
20
24
14
9
15
7
10
16
8
16
22
12
17
20
11
19
22
12
18
26
17
17
28
21
12
27
23
13
26
26
21
30
31
29
39
35
43
48
38
44
50
40
47
55
45
48
58
45
29
46
36
12
28
26
13
13
18
75
50
33
77
25
49
34
32
72
34
34
47
44
44
73
55
46
74
44
31
29
53
38
28
53
42
33
56
38
28
34
19
14
5
5
9
26
17
13
18
12
10
22
18
20
26
22
24
35
31
27
34
31
26
26
29
24
27
17
15
41
24
15
61
39
20
70
51
25
80
61
31
80
62
34
63
43
29
51
39
30
1
3
20
31
22
35
42
35
35
40
25
27
32
22
20
23
20
23
29
27
33
17
19
26
5
7
11
31
27
17
14
17
13
22
23
17
2
12
17
12
14
17
30
29
31
19
14
8
18
15
10
19
5
1
34
24
25
46
29
27
39
20
21
37
24
26
38
27
24
23
26
23
4
19
12
26
19
21
50
46
45
50
45
42
50
48
45
48
46
46
35
31
32
14
13
17
9
11
17
40
41
35
53
46
34
44
41
28
38
36
24
34
32
16
14
13
7
11
7
7
24
21
8
7
7
3
21
19
14
27
27
21
25
20
16
29
18
17
5
5
3
41
36
23
19
20
11
52
51
29
52
55
29
43
50
22
37
42
19
52
49
29
88
77
52
97
87
58
59
55
34
20
18
5
38
35
28
91
76
57
104
86
76
101
94
76
117
107
84
151
130
107
133
119
97
85
84
64
32
42
25
34
18
28
86
67
70
139
114
111
200
165
156
240
203
183
252
217
191
255
229
202
255
246
214
255
248
213
249
232
200
231
215
185
211
192
167
192
176
154
186
175
149
180
170
142
164
154
127
139
129
104
100
93
70
57
51
30
27
25
9
15
19
4
10
16
1
11
13
0
7
9
0
3
4
0
4
2
0
3
4
0
7
4
0
7
4
0
5
4
0
5
5
0
105
88
80
178
145
111
56
45
52
150
127
104
78
77
55
53
50
29
17
13
4
7
8
0
5
8
0
5
7
0
7
5
0
7
5
0
5
7
0
4
5
0
7
4
0
10
5
0
12
5
0
10
3
0
6
4
0
5
7
0
6
7
0
5
5
0
6
4
0
8
5
0
6
6
0
3
6
0
4
7
0
5
5
0
5
6
0
2
2
0
3
4
0
12
7
1
40
21
10
28
17
10
3
4
3
8
7
5
17
10
6
28
13
7
40
13
10
53
19
13
86
33
26
123
55
42
134
51
26
151
57
30
186
86
52
223
111
60
255
148
71
255
204
101
255
226
115
255
230
110
255
255
127
255
255
164
255
255
188
255
255
173
255
244
134
241
197
110
188
173
104
166
164
102
121
121
82
83
74
49
59
21
7
120
76
37
187
128
59
229
157
77
249
164
88
222
139
76
186
115
62
150
83
39
73
10
14
27
37
5
17
17
31
37
5
32
13
43
17
72
103
72
111
125
84
99
99
57
125
102
50
210
151
63
255
186
78
255
165
67
193
110
36
130
66
19
124
76
36
152
107
66
156
113
80
138
107
85
161
123
91
143
104
73
79
58
42
66
52
36
50
44
34
82
58
42
109
60
34
123
65
29
96
44
10
108
56
32
164
100
44
160
96
34
113
48
22
113
48
37
164
70
25
176
92
60
163
86
67
147
56
31
106
19
17
50
21
45
52
60
70
91
72
63
12
18
21
37
27
18
47
31
20
60
45
41
85
66
55
59
46
48
49
47
60
27
30
54
73
71
77
149
125
105
162
132
105
145
118
104
161
131
110
213
162
126
225
169
125
213
161
117
184
142
106
148
119
95
104
83
72
113
71
60
159
93
74
182
128
102
178
142
116
147
119
103
96
86
82
63
64
60
29
21
17
87
65
68
95
75
78
98
76
77
136
112
102
125
111
108
102
97
94
15
12
26
67
62
39
73
60
46
46
27
22
46
31
32
48
30
42
29
21
40
19
10
44
59
56
58
93
85
62
47
42
27
41
48
49
74
72
53
89
81
61
91
82
70
79
73
67
65
67
67
85
87
86
62
66
62
53
55
49
40
35
24
36
34
29
43
38
38
79
76
72
85
82
74
40
34
24
41
48
55
107
108
112
124
119
122
104
100
103
75
65
68
17
21
32
41
39
52
40
32
39
14
16
8
49
48
32
27
21
14
30
32
28
26
21
16
24
19
14
21
21
15
13
18
11
14
19
11
24
27
22
26
27
21
34
41
39
44
48
45
32
29
31
25
21
22
14
12
20
19
26
36
9
19
29
40
45
55
43
45
52
49
55
65
60
73
80
37
41
39
11
14
11
12
11
10
46
48
47
60
63
66
56
59
60
55
53
49
58
49
42
39
34
26
11
5
10
59
49
46
60
55
51
38
44
52
47
52
56
43
49
54
47
57
65
63
74
79
69
78
80
58
62
64
31
27
32
16
15
27
4
13
24
124
114
81
255
255
193
38
16
4
19
8
4
1
2
3
13
7
0
18
9
1
28
15
4
40
22
7
40
22
8
29
17
7
11
9
5
17
8
4
30
13
4
35
10
5
37
10
4
40
12
3
43
15
2
47
19
2
56
27
6
63
32
8
60
27
8
52
21
8
41
14
4
26
8
4
17
5
4
12
7
4
4
5
3
9
7
2
13
9
3
11
11
4
9
9
5
4
8
4
5
4
1
18
10
6
20
14
6
10
15
8
17
17
15
23
11
9
25
5
3
20
10
6
7
3
2
18
9
1
33
14
4
31
11
5
31
14
2
39
20
3
49
26
5
52
29
4
52
31
9
39
21
8
34
17
7
42
22
9
44
22
7
48
26
9
51
24
5
65
36
19
64
21
33
20
31
68
16
44
65
27
29
33
43
29
63
78
63
62
83
63
44
46
35
23
30
20
14
26
19
18
21
17
11
18
13
9
26
23
14
19
20
8
27
25
14
33
30
18
25
21
15
29
23
19
39
29
22
6
13
11
13
15
13
27
22
19
21
20
13
15
15
11
18
18
15
47
39
35
7
12
21
22
12
14
16
12
19
30
28
39
43
37
49
37
39
50
34
40
49
40
43
55
30
33
51
41
39
55
48
43
56
29
28
45
15
19
39
26
31
42
38
36
41
36
32
38
42
41
47
41
46
47
49
57
58
75
78
78
89
86
85
84
78
78
66
60
67
60
59
64
34
28
37
43
53
52
27
23
13
33
29
18
30
25
18
22
17
9
15
17
9
17
16
14
7
13
10
45
45
31
42
30
15
7
4
3
13
8
5
30
27
11
6
7
0
8
7
5
28
26
13
24
22
5
34
32
15
21
23
10
32
31
17
63
53
34
86
71
45
70
58
35
41
36
21
50
45
27
45
39
26
31
28
17
32
29
15
39
29
20
35
26
23
8
8
8
32
28
27
36
33
18
16
11
10
57
44
34
99
72
62
123
96
82
161
134
110
209
176
145
255
212
178
255
228
194
255
239
200
246
226
187
220
199
170
200
180
156
147
137
113
83
86
65
34
39
29
15
17
18
77
68
65
138
124
118
166
148
144
177
158
154
205
185
172
223
202
183
219
197
180
206
186
171
195
177
159
184
166
147
173
156
137
146
129
107
123
104
84
105
88
66
80
68
45
60
54
31
59
52
28
56
46
24
38
31
15
17
16
7
11
7
3
12
5
2
11
7
2
13
9
1
66
53
54
182
156
129
21
21
15
130
108
94
57
55
42
47
45
32
17
8
6
1
3
0
8
7
2
14
14
4
8
11
2
2
4
0
5
5
0
5
3
0
7
2
0
5
4
0
7
5
0
4
4
0
2
4
0
3
4
0
2
5
0
0
4
0
2
4
0
4
4
0
5
4
0
4
4
0
7
4
0
38
25
15
45
35
22
29
19
15
3
4
0
10
3
2
29
15
10
28
20
9
27
29
16
17
24
17
10
20
17
20
24
18
35
14
10
33
11
5
51
27
12
93
63
44
120
69
35
123
67
32
140
82
38
136
83
41
83
48
24
83
47
24
126
85
49
61
43
22
92
64
17
108
74
23
80
46
27
106
66
42
190
129
60
228
159
67
207
148
62
198
146
57
205
153
47
182
131
20
137
100
27
104
83
15
72
76
13
90
100
27
118
122
43
136
136
56
187
174
62
255
239
69
255
255
73
255
255
71
255
255
84
255
255
73
255
253
37
255
188
33
255
186
56
255
217
57
255
198
43
233
134
36
129
65
44
38
38
43
87
60
30
97
55
19
46
25
17
41
15
26
108
67
34
115
76
41
75
45
21
49
37
23
22
14
13
21
27
29
50
53
49
65
57
51
70
64
56
66
70
58
45
50
44
48
49
46
6
17
28
49
15
9
36
11
19
36
17
9
82
56
30
106
71
43
113
83
62
105
92
82
83
72
69
89
71
59
82
52
35
72
49
42
39
32
29
45
31
30
80
61
54
94
78
62
68
56
39
40
33
22
55
46
36
49
44
47
67
61
63
113
101
96
132
111
104
100
83
79
77
68
60
82
73
62
86
74
67
66
52
49
55
41
44
58
45
46
58
50
48
55
52
50
51
50
50
57
48
48
67
53
47
83
71
60
110
99
88
151
132
117
177
153
130
101
86
60
42
34
11
19
17
7
12
5
11
33
27
25
32
24
17
28
19
8
63
51
27
50
38
37
34
36
31
64
62
54
68
55
48
33
37
32
24
31
35
35
45
49
85
89
82
127
122
102
115
115
96
101
94
80
35
29
28
49
42
38
54
47
42
51
49
44
32
32
35
40
43
34
45
45
37
31
23
20
54
49
40
64
66
67
73
69
73
69
64
66
81
81
73
75
75
58
21
26
20
37
30
31
42
37
35
18
21
26
25
21
23
41
37
25
45
44
32
28
25
20
27
28
20
42
38
27
7
8
17
29
31
28
29
28
22
29
30
29
26
28
31
13
14
13
11
11
14
10
11
7
25
30
31
35
35
37
31
30
28
15
14
11
8
13
18
18
18
21
24
29
38
53
62
76
54
60
70
33
28
24
54
59
67
50
50
55
26
24
24
10
16
20
29
34
33
22
24
19
33
32
34
34
29
34
38
32
34
43
39
40
53
52
54
24
27
32
60
52
56
74
76
74
14
27
19
13
14
6
23
19
25
20
24
23
22
27
31
38
43
45
41
43
48
24
25
36
19
32
41
127
114
79
255
255
191
32
21
10
22
15
7
12
10
4
10
7
4
2
5
3
3
5
2
5
5
4
13
7
3
18
10
3
20
12
3
25
15
4
21
17
5
5
8
8
2
6
10
2
8
10
5
11
11
8
11
10
10
11
7
12
10
7
8
11
9
7
14
11
2
15
10
2
13
6
4
11
4
6
11
4
5
5
4
7
2
3
10
3
2
11
4
2
11
4
3
7
2
7
0
10
12
18
18
15
23
22
19
8
13
20
19
13
14
25
16
10
20
6
4
14
5
8
16
10
14
24
11
16
23
4
15
29
1
15
32
1
17
35
7
18
36
12
20
24
13
23
16
23
25
0
29
31
16
41
43
36
57
52
36
60
53
26
50
50
14
36
44
32
42
44
64
58
39
92
63
25
93
59
23
73
51
18
59
54
60
79
79
77
95
85
74
101
91
79
112
103
83
126
111
85
130
110
84
107
91
70
63
54
45
38
34
31
29
27
28
19
21
21
12
17
14
30
20
15
26
23
19
14
10
10
14
13
7
36
26
26
23
18
18
16
14
17
14
22
21
41
34
31
12
17
17
29
20
17
43
31
18
62
45
32
78
55
40
87
60
41
90
62
40
97
67
48
107
76
61
114
89
71
114
92
71
101
82
62
80
66
50
54
43
33
27
18
16
7
11
7
20
25
25
8
15
17
9
0
1
20
8
12
27
19
18
29
25
21
37
28
25
38
26
22
36
27
25
67
61
59
29
31
28
19
23
14
21
22
14
1
2
6
16
19
9
20
22
14
35
38
22
61
56
36
33
25
12
9
5
2
12
8
5
31
25
12
24
25
12
25
24
10
37
32
16
48
36
18
26
21
12
7
4
0
13
6
1
19
11
3
19
11
5
18
12
7
32
28
17
34
34
25
43
40
26
43
39
20
40
35
18
55
46
31
90
74
53
97
83
57
68
59
36
33
29
15
17
16
5
13
16
7
43
36
24
34
29
22
25
21
15
24
22
12
25
16
21
45
24
33
75
49
52
89
69
64
88
65
64
110
84
79
117
92
83
93
70
62
86
69
60
90
81
70
99
96
82
75
73
61
57
54
47
37
38
32
27
33
28
8
18
14
18
5
9
44
32
34
58
46
46
60
50
50
95
80
83
133
122
115
152
134
125
160
136
126
162
142
128
161
144
129
149
135
116
134
123
99
131
120
98
135
128
107
142
135
115
149
141
119
144
137
113
124
120
96
88
86
64
136
116
102
41
34
16
136
116
103
75
62
45
22
22
17
19
13
8
11
7
5
11
8
3
4
6
0
11
11
4
8
5
0
8
4
0
8
4
0
5
4
0
2
4
0
4
4
0
3
5
0
0
2
0
0
4
0
4
2
0
1
1
0
4
1
1
12
15
11
27
27
21
37
33
27
39
33
31
55
42
37
24
21
23
50
40
29
3
4
1
8
10
1
20
15
7
24
8
3
69
32
10
101
56
28
120
62
32
115
60
31
92
53
29
81
46
32
99
50
34
137
74
44
153
75
35
158
75
36
183
104
60
195
110
67
201
112
63
173
96
55
190
115
62
150
81
39
151
83
43
134
75
40
93
58
48
29
34
73
44
41
98
111
48
103
132
49
100
105
17
104
129
23
108
161
42
107
159
59
110
138
42
110
132
34
103
178
65
59
239
117
38
255
143
53
255
159
38
255
169
24
255
150
21
255
140
8
222
111
19
219
103
34
204
84
25
172
62
52
160
86
104
221
122
96
175
71
15
87
27
27
63
54
56
168
100
64
186
102
57
176
106
60
124
94
69
110
104
97
118
119
124
124
120
127
106
103
109
56
66
77
19
46
58
15
44
53
6
25
39
31
16
28
35
31
36
42
39
39
29
10
8
70
48
36
44
26
12
66
45
28
92
76
58
109
102
78
76
72
53
34
27
20
33
20
14
78
65
51
102
91
80
91
80
76
93
80
72
102
89
78
89
78
71
86
75
73
87
75
71
68
52
49
53
35
34
55
35
34
65
43
33
69
51
35
57
49
36
54
49
49
51
52
63
56
51
56
27
18
17
5
1
5
13
11
14
31
28
31
40
37
40
40
37
37
46
42
42
49
44
43
39
35
32
27
27
30
11
4
2
27
18
17
47
35
30
51
34
39
108
97
97
116
97
92
94
72
63
100
78
63
123
102
81
117
102
87
87
77
70
49
49
49
29
22
21
74
60
40
45
29
12
63
64
55
66
60
63
78
78
80
74
76
66
37
43
27
8
5
17
55
51
48
52
48
43
13
13
16
60
52
39
82
72
61
67
64
51
49
52
41
52
55
46
77
73
64
96
87
77
82
77
69
57
56
51
71
72
70
41
41
45
40
43
41
47
47
49
35
31
25
32
30
32
89
86
77
95
91
80
69
64
60
51
44
46
50
42
45
54
45
48
56
51
52
50
48
49
36
33
33
13
10
11
12
12
21
18
22
27
15
17
19
20
12
17
38
34
34
7
7
7
20
18
10
38
31
22
58
48
43
65
53
52
42
33
29
9
11
16
14
13
9
8
9
16
44
49
59
81
90
106
61
71
81
40
48
58
24
26
30
30
29
30
7
2
4
34
43
43
24
32
34
39
42
42
48
43
38
26
20
9
17
24
38
55
56
67
82
78
82
51
49
48
60
58
60
29
28
27
41
46
39
65
72
65
74
79
70
62
63
59
42
45
41
37
42
34
34
34
35
45
50
52
140
127
94
255
255
187
15
8
5
18
11
8
11
9
6
10
9
7
10
8
7
21
5
3
34
13
4
35
14
4
32
13
4
27
13
1
21
12
1
11
8
3
11
8
4
5
6
5
1
4
5
9
5
4
21
10
5
35
14
5
50
23
8
62
30
12
67
33
14
63
32
13
49
25
7
29
17
5
14
15
5
2
4
2
8
1
1
10
5
5
13
1
2
22
8
2
37
11
3
49
15
4
49
16
2
36
11
5
23
5
10
30
1
10
50
13
3
61
21
4
54
19
5
31
10
7
12
4
9
22
11
9
9
7
7
8
4
5
16
7
5
14
11
7
4
12
9
7
17
13
13
18
16
10
13
13
12
12
13
14
16
17
20
18
21
29
21
22
48
33
26
69
47
31
76
55
33
82
58
31
93
59
21
108
73
44
128
101
75
147
123
97
151
126
102
144
116
95
140
110
91
145
115
95
159
129
105
153
131
104
143
123
98
140
118
96
131
113
91
110
95
77
108
91
75
123
100
84
110
89
72
84
72
55
83
67
54
77
64
52
61
51
41
27
20
18
41
33
28
10
2
10
33
28
26
12
9
22
10
12
27
27
31
40
38
49
53
50
64
63
52
68
69
47
62
69
33
50
61
12
24
38
24
7
13
44
24
10
58
38
21
67
48
29
63
50
32
49
40
20
50
39
24
47
30
13
40
17
15
30
12
8
38
21
12
59
41
25
59
45
25
62
54
32
89
77
60
87
73
60
72
62
48
66
58
38
38
35
24
3
4
4
22
23
18
34
31
22
26
22
12
40
36
25
55
45
32
41
33
21
3
4
3
20
13
8
24
14
7
21
12
7
17
11
7
15
7
3
7
6
1
16
8
3
8
7
2
9
1
1
10
3
2
19
16
4
4
5
2
18
10
2
7
7
2
5
4
3
3
1
0
4
2
0
10
7
5
9
8
4
8
9
6
0
2
3
16
11
2
29
22
10
57
44
34
28
14
12
37
19
15
57
41
29
67
50
39
66
56
48
73
68
58
69
60
58
87
75
74
92
82
76
77
75
72
66
63
64
36
32
36
17
20
20
38
37
31
23
18
14
18
18
15
37
36
25
54
51
34
49
43
27
31
26
15
36
32
31
23
22
25
32
29
32
54
51
55
72
71
74
96
91
95
123
112
114
137
119
119
113
97
99
63
58
51
55
45
40
79
64
60
100
84
80
124
106
102
145
125
121
159
140
132
161
145
132
133
116
107
84
68
62
140
117
113
166
142
120
109
101
80
65
58
41
38
32
19
8
8
4
8
9
4
5
4
2
10
3
0
2
6
0
3
6
0
4
3
0
2
2
1
5
4
5
26
17
17
55
41
39
77
62
58
84
72
63
83
74
65
96
89
85
124
123
115
140
143
136
138
144
141
135
140
139
123
128
134
110
115
127
127
121
122
108
96
92
105
89
83
108
92
82
105
82
72
128
94
75
129
93
80
128
88
75
132
91
80
123
98
100
133
110
115
146
118
122
163
135
139
156
135
153
129
124
154
105
125
164
92
129
183
142
166
206
140
166
199
120
133
167
89
107
146
115
118
132
119
93
97
66
63
102
57
67
149
26
65
149
52
55
135
91
69
139
34
55
137
59
49
113
62
19
83
127
41
69
169
49
56
162
36
79
144
41
86
157
39
65
195
69
38
204
79
20
131
35
20
62
9
28
67
48
34
18
15
8
56
41
36
84
48
45
119
68
39
97
57
42
158
111
99
60
55
55
69
52
52
64
51
59
72
49
72
25
24
78
124
65
80
84
51
64
48
27
45
88
43
31
82
36
37
52
26
65
33
35
71
12
33
63
14
26
53
17
24
37
40
18
11
75
54
31
76
61
36
80
65
55
110
91
71
128
106
86
97
76
63
72
57
52
65
48
52
67
50
55
64
52
42
30
17
3
16
16
25
25
14
4
32
27
33
24
13
9
34
33
30
42
39
36
49
46
47
32
29
27
27
20
25
35
24
31
44
31
37
41
26
31
40
26
26
50
38
38
51
42
43
42
31
34
38
36
41
39
31
38
32
38
53
38
48
65
36
38
47
22
21
18
11
10
20
36
39
50
29
35
44
22
25
31
33
36
38
8
5
20
26
31
44
37
49
65
31
41
62
31
30
36
80
76
63
79
72
65
75
69
64
92
84
81
122
112
103
132
115
103
117
98
88
98
85
78
72
63
57
32
25
28
41
44
48
101
96
94
124
110
101
109
95
84
92
80
68
84
69
56
77
60
44
59
47
33
23
18
17
33
30
28
34
37
32
13
16
11
7
5
6
42
36
29
59
48
47
57
53
53
71
69
65
49
52
50
56
51
52
2
8
4
30
28
29
25
21
24
8
7
4
54
60
60
63
61
57
58
55
52
64
60
61
69
62
63
68
58
58
60
48
49
68
57
58
87
79
76
86
82
76
59
60
58
21
25
30
10
15
20
7
7
3
20
18
19
34
31
29
38
36
32
18
22
24
13
19
24
31
38
42
66
63
59
46
41
37
18
24
29
33
38
48
42
48
55
34
46
51
54
59
66
33
29
32
17
17
20
14
12
13
21
18
20
13
14
14
22
26
33
15
24
31
38
46
48
34
34
45
30
37
51
24
28
36
16
12
19
33
30
26
44
34
22
60
49
40
60
48
36
64
58
47
76
64
57
100
86
74
113
98
84
115
100
84
113
92
76
122
94
77
147
121
99
217
192
148
255
255
189
43
25
10
40
23
8
30
20
5
22
15
4
18
9
5
18
9
5
5
2
2
8
4
1
10
2
1
8
4
3
9
9
4
1
9
4
7
11
4
11
12
5
7
11
7
13
9
4
4
8
4
5
4
3
11
4
3
8
8
1
7
8
4
24
3
7
46
8
4
62
17
5
67
26
10
49
20
5
27
13
3
14
11
6
8
9
3
13
5
5
11
4
4
8
5
5
15
8
3
21
15
5
22
19
4
26
21
5
27
22
7
24
21
8
21
17
8
21
13
9
16
10
1
27
10
3
34
13
2
40
18
2
49
24
3
63
32
6
68
33
9
63
27
10
57
24
9
50
23
7
48
23
9
49
24
14
46
24
15
46
23
14
46
18
13
38
14
11
26
11
5
18
4
5
11
2
11
7
8
8
10
6
10
13
13
22
25
16
23
27
13
22
27
16
24
32
23
27
53
39
36
67
57
51
73
70
67
78
77
71
87
81
71
105
92
78
126
109
87
136
119
94
142
126
103
151
135
110
160
140
112
168
144
115
172
147
118
167
140
117
165
139
117
151
129
104
106
91
70
60
54
37
38
38
24
39
41
27
26
23
17
27
21
19
24
20
23
41
34
36
79
69
65
107
95
87
112
101
90
102
92
82
82
76
69
56
59
56
16
29
31
32
19
12
58
43
33
64
51
32
91
74
52
122
99
75
132
110
83
109
91
68
70
55
42
45
30
19
60
43
30
86
59
49
98
69
62
115
91
74
128
110
83
106
93
72
74
64
48
58
50
31
20
18
11
32
27
18
23
18
9
37
27
19
23
16
13
2
5
0
6
7
1
14
6
2
13
4
1
14
7
3
13
11
3
15
8
4
4
6
1
10
1
2
0
4
0
12
15
3
11
5
3
11
11
7
28
20
11
45
34
23
70
54
43
88
71
56
99
83
64
105
88
70
103
85
69
101
86
67
101
90
69
80
72
57
30
26
19
21
12
14
22
24
18
54
46
42
50
43
41
53
49
47
87
80
79
82
78
77
65
59
56
48
39
38
43
37
40
39
33
36
59
63
58
65
75
65
44
53
48
31
31
34
34
33
39
50
51
55
40
50
54
22
34
37
7
23
31
24
36
47
46
55
66
64
70
79
64
68
78
52
58
66
43
48
55
35
39
47
34
34
48
87
82
95
76
74
82
33
29
41
4
5
17
34
30
31
38
37
39
40
39
46
76
67
78
108
95
106
109
101
105
80
76
76
92
83
86
159
139
136
165
152
150
144
137
135
150
144
133
150
145
126
138
132
117
138
127
120
135
124
118
112
108
99
93
90
85
112
110
107
164
163
159
220
214
207
245
233
225
233
220
213
214
203
196
204
191
186
199
182
183
203
189
191
201
192
192
188
181
189
185
179
186
174
167
167
156
151
145
157
155
150
174
173
173
192
189
189
247
232
229
255
253
248
249
234
232
194
197
205
129
155
174
89
128
147
94
125
140
129
155
172
163
192
212
155
201
233
112
171
222
66
131
193
22
104
176
4
92
173
32
75
160
27
76
158
17
103
181
37
106
187
54
68
160
60
47
143
56
44
131
70
34
123
103
2
83
107
54
8
122
87
47
169
118
73
159
113
70
109
80
54
67
39
30
65
32
28
95
52
34
103
54
27
64
18
19
45
8
31
76
37
23
95
56
35
99
77
62
124
95
73
137
112
89
127
104
87
139
111
90
150
103
87
152
93
74
141
91
66
81
45
37
31
36
40
31
42
58
53
25
31
134
64
12
186
100
33
168
95
38
122
85
53
100
79
63
106
88
78
97
72
62
79
52
35
62
39
22
61
42
17
58
42
14
25
15
9
26
29
37
46
52
56
54
63
64
83
81
91
48
42
39
49
39
37
39
55
57
80
91
89
72
77
70
25
26
25
63
59
55
70
64
53
26
18
4
3
12
28
31
37
49
22
22
39
52
52
66
72
75
87
67
72
86
12
16
28
21
18
14
26
25
23
18
20
16
24
25
24
29
27
30
44
37
43
35
25
27
19
12
8
28
37
49
69
66
89
62
59
73
69
72
85
115
121
130
121
124
137
134
141
158
150
154
171
138
139
158
87
91
108
56
60
83
55
59
86
76
80
105
100
100
117
91
90
96
55
56
58
30
35
41
24
26
34
36
37
39
48
49
48
34
32
24
67
62
50
78
65
53
77
62
53
83
71
65
84
77
73
77
70
65
60
50
45
39
35
37
43
34
38
50
37
38
71
53
48
77
61
46
65
56
42
48
45
37
16
20
19
26
21
19
51
49
44
55
55
42
65
58
45
55
48
47
29
32
28
52
49
43
63
63
68
91
91
97
88
94
98
83
83
86
96
93
97
102
99
102
70
69
72
51
49
49
20
18
21
49
52
52
62
66
71
70
75
86
79
85
95
83
88
96
84
87
96
88
90
101
98
95
104
79
79
83
45
50
53
43
52
58
53
65
72
44
55
59
47
50
47
43
45
43
67
70
67
98
95
95
92
86
89
61
63
74
64
72
89
83
94
110
88
101
112
92
109
120
99
114
127
74
87
98
59
67
79
43
45
58
28
29
43
36
47
60
50
69
83
39
54
72
46
55
70
49
48
54
14
10
8
49
47
31
73
65
51
90
75
57
80
64
43
78
64
43
102
81
58
128
99
69
136
100
64
141
107
68
151
120
80
160
129
90
163
130
91
158
120
78
146
103
61
255
222
160
255
255
191
19
9
5
11
8
3
4
7
2
17
15
6
16
15
6
9
10
2
3
7
2
11
10
2
17
13
1
20
15
3
12
8
3
5
5
2
8
10
3
12
12
4
9
8
5
23
5
5
43
11
4
55
13
2
62
14
1
67
17
5
69
20
4
67
23
5
57
24
5
38
21
6
18
15
5
18
8
3
10
2
2
14
6
5
24
11
5
22
11
7
6
7
5
15
4
7
28
10
8
38
15
6
42
16
2
46
14
5
58
21
2
69
33
6
67
36
9
54
31
7
45
27
2
48
26
2
53
26
1
54
25
0
55
24
0
56
24
4
57
24
4
56
23
1
47
18
5
38
11
9
34
7
8
30
5
6
26
6
5
22
2
2
20
1
1
16
4
5
31
20
10
39
25
1
58
36
17
60
36
4
51
31
14
28
14
7
18
15
10
15
16
11
22
21
18
29
25
20
32
27
22
19
19
17
8
4
1
13
11
13
15
13
11
18
15
11
18
14
11
17
14
13
30
25
26
55
45
46
77
63
61
92
75
69
106
89
75
129
109
89
143
119
100
148
123
106
151
123
109
138
111
98
109
87
72
108
89
67
122
100
72
128
107
74
128
106
79
108
91
75
80
70
59
47
44
31
23
25
14
5
7
2
17
16
20
51
47
45
94
85
72
126
118
93
142
132
101
143
126
99
124
104
86
89
82
69
74
74
63
43
48
40
34
31
31
10
2
2
34
19
12
55
36
25
70
48
40
81
58
50
103
80
63
118
105
79
117
102
83
117
97
74
63
51
37
32
26
20
22
22
15
41
32
22
49
37
26
39
28
18
43
30
21
61
46
32
67
51
32
50
41
22
36
32
16
28
20
12
24
13
8
23
14
7
26
21
9
40
30
18
72
51
41
112
88
68
145
123
97
182
159
135
208
181
157
208
179
156
200
171
150
191
162
145
177
150
138
162
136
128
146
122
117
142
120
115
146
127
120
143
129
115
133
120
110
100
92
90
69
69
68
55
61
62
112
115
122
86
96
102
60
69
75
31
29
35
47
38
48
57
60
63
57
59
64
68
62
67
53
49
44
14
11
12
10
11
10
22
22
18
28
24
17
13
11
8
11
12
17
13
18
21
8
5
10
27
26
13
28
25
9
32
32
20
29
23
10
26
13
3
6
7
24
55
59
81
125
120
141
135
127
142
108
105
115
106
105
110
93
90
92
75
71
74
64
59
69
43
41
59
19
24
43
7
22
34
29
30
32
75
63
72
143
129
136
181
170
176
206
195
198
219
205
206
232
215
217
247
225
228
255
236
236
255
253
244
255
252
238
249
228
221
231
208
208
220
203
205
217
208
210
197
193
196
158
157
161
176
165
165
217
190
186
192
170
172
139
130
142
115
106
127
126
112
131
139
125
137
139
120
117
136
119
112
147
136
134
179
163
164
217
185
181
189
166
168
162
159
169
126
144
159
101
128
145
69
111
135
38
90
118
46
88
118
51
72
105
21
49
91
11
51
83
28
41
63
29
36
55
13
36
56
25
11
27
49
22
4
75
45
21
76
42
17
97
55
27
115
48
39
109
14
58
89
0
58
62
20
25
59
44
25
32
29
22
62
48
55
140
101
93
133
90
76
71
52
43
54
41
34
73
66
58
93
76
61
92
68
55
68
48
38
55
44
34
54
39
23
57
47
44
101
89
90
116
101
101
96
82
81
71
67
65
85
78
77
66
42
47
84
58
54
93
69
55
84
62
46
89
65
48
98
76
58
73
59
50
41
27
32
52
33
36
72
59
54
52
39
38
50
39
39
55
47
47
52
46
40
26
26
18
44
55
50
64
78
78
50
59
69
50
56
66
82
85
84
119
115
106
181
174
164
175
167
161
83
82
93
52
61
71
28
31
52
95
100
109
88
88
90
5
9
11
48
45
45
47
40
29
42
37
26
42
37
34
21
18
22
30
41
48
68
76
89
109
112
131
101
105
125
81
90
109
67
77
94
63
69
83
73
74
81
70
70
77
58
55
66
23
26
41
48
51
65
86
87
103
107
103
120
65
62
63
31
35
29
39
49
58
94
103
120
105
105
127
67
61
83
76
72
94
84
81
99
68
70
85
48
55
67
41
43
50
22
15
29
42
35
38
61
55
53
43
45
52
43
48
55
59
68
77
77
84
91
41
45
48
15
18
16
43
44
37
6
6
8
41
37
34
49
42
47
43
39
43
27
31
29
44
46
45
46
50
46
36
37
33
37
36
34
46
44
41
61
54
47
71
63
48
51
46
36
39
37
26
47
47
32
30
25
17
80
75
64
64
61
52
20
17
13
29
26
25
90
97
108
110
116
132
107
120
137
105
109
122
95
94
104
94
97
106
86
91
99
56
60
66
39
43
45
33
38
38
43
49
58
73
84
102
97
111
130
100
112
129
94
103
121
94
101
122
104
109
130
124
127
144
120
126
141
112
122
139
99
108
124
89
99
111
77
86
91
64
71
74
69
73
80
64
59
70
40
37
50
21
23
40
27
28
45
26
30
32
17
18
23
24
24
31
15
14
20
20
30
22
26
31
32
37
34
35
28
17
11
30
31
29
31
29
31
17
18
14
57
58
51
109
91
76
108
86
70
92
75
52
78
64
40
60
46
27
36
20
9
37
16
7
68
45
31
90
62
37
81
49
25
70
41
20
68
37
19
78
45
27
84
51
31
73
43
21
54
27
6
255
246
171
255
255
187
49
22
12
52
26
12
49
26
12
37
19
7
26
10
2
20
5
2
18
2
6
24
4
6
30
4
3
29
1
3
30
8
4
35
12
5
37
7
4
36
10
4
33
16
5
26
19
7
27
19
5
27
19
5
20
17
6
26
15
5
41
16
4
57
19
4
69
20
4
78
20
3
76
18
2
58
13
2
40
9
4
32
9
5
28
11
0
21
11
4
8
6
3
12
4
2
27
15
7
37
20
11
37
20
12
29
19
12
24
21
14
17
22
17
7
14
16
5
4
13
13
3
11
19
10
8
26
16
4
30
16
2
20
7
7
4
8
11
6
8
12
25
24
23
40
40
39
39
44
44
25
34
37
12
21
25
21
17
11
36
17
17
53
13
34
50
14
50
55
25
60
61
34
62
32
22
49
5
23
43
34
29
48
47
8
35
55
27
22
54
39
25
48
45
33
41
41
30
40
40
36
37
42
43
28
40
47
16
32
40
5
17
23
4
7
12
4
2
8
9
2
7
10
5
6
11
5
1
19
10
8
24
14
13
26
17
16
38
30
27
43
34
29
38
28
24
56
38
37
89
66
65
65
53
55
31
27
29
26
18
21
29
20
7
49
40
22
80
62
42
100
76
61
100
77
62
117
91
73
137
110
85
137
118
88
123
113
84
122
113
82
122
112
76
85
76
48
32
27
15
33
25
26
96
76
70
146
121
104
159
134
109
144
119
93
120
96
75
93
74
60
59
46
42
24
19
19
7
4
6
24
11
11
32
22
17
74
58
53
140
116
97
162
138
110
169
147
116
166
145
119
174
158
140
199
186
173
201
183
171
191
170
156
203
183
163
212
185
159
211
179
144
204
179
139
193
173
134
176
156
124
169
150
121
176
156
125
169
147
118
148
128
104
119
102
85
97
83
79
120
106
105
120
107
101
123
111
104
129
113
106
119
100
97
116
97
98
128
113
112
135
120
117
150
131
127
172
148
148
176
153
157
164
149
152
146
137
141
126
115
125
95
89
100
109
108
119
63
54
67
83
77
95
118
108
123
141
135
144
123
121
130
92
83
98
78
62
86
78
65
71
42
30
34
32
26
24
15
12
13
21
28
24
16
26
16
23
27
24
14
8
13
30
34
36
25
32
38
30
38
39
12
17
12
15
15
21
32
33
40
43
40
44
63
44
43
68
50
51
90
72
73
58
46
52
70
58
63
48
34
41
38
26
28
55
48
51
53
50
48
50
54
59
26
35
51
57
56
51
75
73
83
106
88
96
93
78
92
78
63
83
107
90
105
140
124
134
145
133
146
139
130
154
152
140
171
174
159
181
156
134
148
87
59
69
11
28
27
51
50
46
26
27
24
34
25
30
75
50
42
57
45
50
70
52
51
40
36
38
4
5
14
27
28
22
29
27
48
71
68
86
88
77
90
80
67
75
44
33
41
57
35
21
75
55
49
83
48
42
51
29
28
25
9
4
55
55
56
78
84
85
50
65
72
26
38
48
27
18
17
8
2
11
9
6
13
35
19
15
58
35
24
72
52
34
61
46
32
72
56
43
93
81
67
93
77
62
81
51
42
74
39
31
63
35
28
26
15
8
32
36
35
88
84
73
105
101
79
64
64
44
31
42
40
44
44
45
65
60
62
53
46
54
57
47
49
67
61
56
73
70
59
45
43
39
59
51
42
41
36
45
33
27
34
18
24
17
41
45
41
77
84
84
78
81
84
25
28
33
20
29
22
16
16
11
6
9
17
24
10
16
13
11
12
44
35
18
51
47
26
78
64
41
79
63
45
65
59
42
85
83
74
99
93
86
111
104
82
111
98
76
86
70
68
60
47
48
43
44
42
18
17
21
77
75
67
110
105
87
31
32
21
110
101
96
113
104
93
24
18
7
59
66
52
17
18
28
99
101
110
101
105
114
111
114
121
87
90
92
34
37
40
24
20
23
44
38
33
54
53
50
22
19
18
46
51
65
59
57
72
82
83
105
90
94
115
82
83
99
98
93
102
111
104
114
128
117
131
104
97
119
102
96
118
89
85
102
73
70
77
43
43
43
30
33
43
21
18
26
39
32
23
50
45
31
81
78
67
86
79
68
57
52
40
43
39
31
41
40
37
45
35
34
20
11
11
32
34
30
64
61
53
46
52
52
56
67
63
26
33
26
45
49
58
57
58
65
32
31
32
70
72
68
47
46
54
87
89
96
69
74
91
64
70
90
41
46
60
41
41
46
60
65
63
70
78
73
63
67
65
50
50
48
47
41
38
59
51
42
67
60
52
68
63
56
74
71
63
54
55
46
29
24
26
86
83
71
89
83
70
69
64
60
101
106
120
88
90
105
47
54
58
73
82
91
69
78
85
64
73
78
64
71
73
35
41
48
14
17
22
16
15
20
27
32
44
42
45
53
28
24
19
15
8
10
2
6
7
7
14
11
14
17
25
41
40
48
38
34
38
11
12
21
13
14
14
38
35
45
48
48
53
20
23
28
14
13
21
35
31
23
57
55
45
78
76
62
112
106
90
140
132
111
136
127
103
131
123
100
143
136
113
163
150
124
175
152
122
180
149
110
182
148
101
195
162
113
217
183
131
230
185
133
230
177
125
205
151
99
156
108
61
142
98
51
156
109
55
166
117
59
163
112
57
148
98
47
142
99
46
141
94
35
125
78
25
117
72
22
126
75
18
142
82
20
146
82
22
143
83
28
143
92
37
255
255
184
255
255
186
44
25
7
36
20
4
27
13
4
22
8
5
15
7
5
12
8
5
10
5
2
4
3
1
8
1
1
20
5
1
22
7
1
18
10
2
6
15
6
16
16
7
36
17
5
54
16
5
58
11
3
59
11
2
52
8
3
35
6
4
17
13
5
7
15
5
14
15
4
21
13
1
29
13
1
38
16
3
45
20
4
56
25
8
70
31
7
76
36
9
74
39
11
67
38
13
55
32
13
41
24
10
31
21
9
23
21
10
10
12
8
4
4
4
13
11
5
15
11
5
11
7
1
8
7
8
21
24
20
26
32
25
22
24
19
7
11
11
8
5
7
40
27
20
37
26
22
10
11
12
15
23
26
32
29
32
78
31
30
107
37
35
106
41
34
102
44
29
91
33
31
62
20
41
25
6
41
19
6
32
37
14
18
45
18
34
36
13
42
43
27
46
53
13
39
53
14
35
58
47
48
55
56
51
42
48
48
16
27
28
18
24
26
29
18
17
41
16
5
35
9
5
14
7
17
10
21
29
20
29
33
20
30
29
20
24
17
13
8
7
23
27
32
23
30
26
25
32
29
48
36
36
73
60
61
44
39
40
9
4
16
1
5
3
11
10
8
18
13
5
42
31
26
30
23
17
11
11
11
39
37
32
65
59
47
75
66
56
48
42
36
21
10
9
59
45
29
95
78
54
127
104
77
141
118
91
115
105
79
65
67
46
23
24
15
50
33
27
119
91
70
154
122
93
149
119
91
119
99
75
71
70
46
31
35
26
29
21
27
56
43
47
97
82
77
119
105
107
127
124
136
147
157
179
190
195
214
234
234
243
255
249
249
249
240
241
233
225
227
209
188
185
180
151
143
167
139
126
159
132
117
161
136
118
167
142
125
159
135
123
141
124
113
114
106
95
80
75
68
70
66
61
55
47
40
38
32
25
48
43
39
59
61
53
63
68
66
77
84
86
92
96
107
99
101
118
104
109
125
105
111
122
99
98
102
105
98
95
117
107
100
105
92
87
93
85
84
97
85
87
134
115
109
185
142
132
159
125
115
114
97
87
74
65
59
78
72
79
95
94
103
82
78
88
79
74
85
79
76
84
63
56
63
65
58
61
55
55
50
43
37
38
68
54
53
74
60
57
86
78
82
103
99
107
108
109
117
101
96
105
81
68
78
66
51
52
36
36
34
76
63
57
56
51
48
52
46
43
31
31
31
38
36
24
57
58
58
42
41
30
74
76
62
75
84
79
43
38
33
73
78
83
25
16
15
52
42
30
12
10
10
45
43
37
21
24
34
20
12
8
60
44
21
86
69
41
77
63
34
33
24
21
41
40
54
29
19
19
46
46
49
15
14
10
43
36
37
68
51
47
53
42
40
31
21
15
60
43
23
44
50
39
48
58
66
80
87
77
76
65
44
30
23
20
33
38
44
44
53
49
21
31
34
55
47
49
96
78
72
90
78
68
105
76
61
58
62
76
48
56
85
47
60
86
64
74
91
108
96
90
88
79
74
79
55
35
79
66
40
92
74
49
81
61
46
50
34
25
35
24
17
36
32
29
32
17
13
35
22
13
45
24
19
67
43
37
89
68
57
84
74
59
45
38
24
24
31
34
67
66
45
37
29
8
36
29
34
34
29
32
16
11
10
8
6
4
19
15
19
43
33
31
31
29
31
34
35
35
44
47
54
43
39
33
92
84
74
109
110
104
100
107
112
46
55
70
47
41
44
42
36
26
37
26
14
16
24
18
33
27
11
15
17
3
42
29
23
52
46
30
18
19
21
78
69
59
37
29
23
36
31
44
41
39
42
59
52
42
27
16
17
51
63
58
112
123
124
126
133
135
108
115
114
103
102
99
140
128
120
170
155
141
106
99
89
76
66
58
79
77
58
29
26
27
65
65
57
13
13
2
59
58
72
94
95
103
99
100
103
96
97
92
48
53
51
15
21
26
40
36
35
57
53
47
71
76
77
82
84
80
78
87
82
53
66
64
37
47
41
57
57
43
37
38
28
34
30
31
81
76
78
52
45
55
8
17
3
55
63
53
61
68
60
12
18
13
23
24
16
33
36
27
52
48
49
56
52
57
37
29
30
28
19
19
41
33
30
44
44
38
61
60
53
71
53
46
59
59
43
128
122
101
44
37
34
63
62
67
72
72
75
80
82
87
79
76
83
69
67
70
80
81
79
98
99
96
95
98
95
53
52
49
59
57
57
66
64
71
56
52
55
54
50
53
55
55
58
52
55
59
43
47
53
49
53
59
66
67
71
75
71
74
63
56
62
56
48
54
69
65
62
43
44
34
27
20
21
79
70
61
104
96
85
149
147
147
161
162
168
99
94
99
65
63
65
46
46
41
44
45
35
86
80
67
115
99
77
120
98
71
124
100
68
105
86
69
85
78
76
84
84
89
104
105
107
133
133
126
157
150
141
164
149
138
158
142
127
168
151
128
180
161
135
183
166
136
172
159
124
177
162
118
177
159
109
179
157
111
185
158
114
191
158
114
187
146
104
179
130
92
185
137
92
202
155
100
211
162
104
203
151
99
209
151
102
241
172
110
255
186
108
253
181
100
239
177
104
249
186
117
255
188
117
234
163
92
197
136
65
188
126
57
208
136
63
231
149
66
240
157
69
249
169
76
245
168
72
227
152
63
216
141
54
209
135
49
211
135
48
211
137
49
200
130
47
183
118
46
172
112
51
171
113
55
255
255
207
255
255
189
49
25
5
49
24
5
49
23
6
45
21
4
42
18
4
43
15
5
45
13
6
49
17
4
54
22
1
57
25
0
59
28
0
60
32
1
58
33
4
51
29
5
34
21
5
8
10
2
23
4
2
47
16
2
67
26
6
81
33
8
81
34
7
68
26
5
49
13
4
25
5
4
8
16
8
17
22
11
22
23
12
20
19
11
17
13
6
19
9
4
27
10
4
38
17
4
50
25
5
61
29
7
67
31
9
63
31
11
57
32
15
55
35
21
46
30
22
34
21
18
21
12
15
26
19
18
24
17
15
24
8
7
32
15
7
33
18
8
15
14
13
65
52
41
59
49
40
35
32
26
16
16
17
19
14
40
87
21
47
74
25
28
45
29
22
43
43
40
60
63
56
66
63
50
71
57
34
59
43
21
18
19
20
27
8
24
13
8
13
30
30
28
10
24
48
16
32
69
48
70
101
61
55
43
92
89
71
99
96
88
98
96
82
90
92
76
64
76
70
39
61
62
48
64
65
68
79
76
84
91
85
90
96
87
72
85
80
46
60
52
50
67
67
78
81
72
80
76
71
60
63
59
55
53
48
69
67
53
49
59
37
41
55
28
36
46
28
63
65
47
65
65
53
74
66
58
113
93
78
141
118
93
152
127
97
141
111
87
149
116
88
171
138
99
173
144
99
160
136
91
127
116
75
72
78
47
19
26
12
48
33
31
130
104
88
172
145
129
146
137
133
114
118
123
65
81
93
15
34
60
58
59
80
71
89
111
50
76
98
36
62
88
62
79
107
64
83
117
53
74
108
52
71
100
60
58
73
37
37
60
25
30
58
12
7
35
18
32
60
45
60
91
74
75
92
78
77
83
48
48
55
43
37
41
36
27
33
37
28
34
45
34
40
60
47
50
74
66
62
81
80
75
75
74
73
42
41
47
27
26
35
32
41
53
49
65
80
38
53
81
21
34
70
29
41
73
42
59
82
44
58
80
22
34
52
7
7
19
54
48
40
49
50
43
53
61
65
95
92
103
64
37
38
48
16
4
12
32
32
11
13
21
37
31
32
60
44
38
27
26
24
13
15
36
31
32
51
69
72
86
86
87
100
88
84
91
69
71
76
60
69
79
79
80
92
83
72
86
64
60
79
51
50
68
52
52
60
52
48
55
50
49
51
4
6
21
24
21
22
36
26
29
22
21
32
11
11
16
9
4
18
20
13
8
41
41
43
49
51
49
37
37
40
64
68
63
48
47
44
100
98
99
100
94
105
76
67
78
57
47
55
82
75
73
65
59
59
80
71
61
83
78
80
83
79
85
85
79
75
70
56
44
15
25
38
32
39
49
56
60
66
55
52
55
81
75
74
64
60
61
46
40
34
19
22
19
62
46
38
94
88
67
51
49
30
37
44
38
68
61
59
60
60
57
38
50
54
56
68
75
76
77
80
122
107
108
142
110
103
87
76
72
106
104
119
48
44
64
69
40
11
64
47
17
69
59
37
99
67
30
51
55
72
147
117
88
64
43
30
53
45
37
37
31
26
40
34
29
58
55
48
58
47
41
47
30
19
38
26
13
33
21
9
35
26
19
46
29
15
73
55
42
100
78
61
100
71
50
82
58
45
69
55
36
56
46
37
23
25
24
40
37
36
17
22
24
33
28
21
42
35
30
47
51
62
21
33
41
63
77
87
62
67
71
54
57
65
18
25
44
39
31
32
53
44
28
49
42
41
24
34
32
34
39
31
22
16
13
43
35
22
61
56
46
93
86
77
134
120
103
119
106
84
63
50
30
77
67
49
93
84
71
117
110
101
119
111
92
108
101
81
118
105
102
110
100
102
100
95
95
68
60
60
40
29
33
26
18
22
70
56
55
96
86
73
104
100
82
61
62
48
38
33
35
25
26
31
66
65
69
61
61
64
53
54
48
28
29
22
45
41
41
76
68
61
31
33
34
7
3
3
32
26
23
55
61
64
82
82
86
111
115
125
131
135
151
119
120
131
120
117
118
124
115
112
109
99
97
52
43
48
41
42
27
40
37
34
40
35
28
72
71
65
85
89
82
50
51
45
31
36
37
30
37
42
37
41
43
30
33
31
0
5
7
34
33
30
20
27
28
59
65
63
128
125
113
115
122
111
91
75
69
87
82
63
14
17
18
46
51
63
58
57
74
54
52
65
39
41
47
20
24
27
43
48
43
29
29
20
8
9
22
7
4
10
41
46
41
57
65
63
49
49
51
41
38
42
41
43
47
52
60
68
65
70
81
64
65
71
67
63
65
72
68
73
65
66
73
69
69
74
65
69
68
73
79
76
67
73
74
29
35
41
66
61
65
153
145
134
203
179
152
228
197
160
236
203
157
239
202
151
230
190
135
208
166
109
210
161
101
251
195
125
255
223
146
255
226
146
255
205
136
239
186
129
245
191
131
255
195
134
255
201
135
255
201
129
231
172
108
183
131
81
184
130
82
197
139
84
195
143
84
203
150
80
222
164
85
218
153
74
201
130
53
192
115
39
196
116
41
199
125
53
197
130
62
198
132
64
215
142
65
225
148
68
215
139
63
219
134
56
233
141
53
227
141
52
201
130
49
186
122
47
195
124
45
189
116
39
157
96
32
141
86
30
136
82
29
132
81
28
133
83
29
120
77
29
94
56
24
84
47
13
61
31
20
45
32
19
15
28
22
50
57
38
86
82
43
94
83
38
79
68
29
255
255
210
255
255
190
7
2
1
14
5
2
20
8
2
24
10
0
18
8
1
12
7
3
10
7
4
11
7
4
17
4
2
25
6
2
30
9
1
36
11
3
39
13
3
39
15
2
45
17
1
52
19
3
54
20
4
51
20
4
38
16
4
7
3
5
34
15
4
61
29
5
78
39
8
88
43
8
85
41
8
65
33
5
36
17
4
15
5
5
6
5
2
7
6
5
6
4
5
3
1
4
2
1
3
2
2
0
2
1
2
8
2
2
19
7
5
32
13
5
39
16
4
34
12
3
27
8
4
38
20
15
59
40
31
68
50
37
68
49
30
66
43
19
74
53
27
86
60
39
65
48
36
91
74
49
133
103
72
127
98
89
69
35
74
54
19
14
22
6
18
16
23
35
30
25
43
20
24
47
18
19
31
49
31
24
36
6
28
8
31
60
27
38
57
11
8
26
36
19
4
35
29
44
51
75
94
55
71
94
123
80
56
187
148
117
205
177
160
218
188
166
234
197
161
216
181
150
175
151
128
146
130
109
125
116
101
114
103
96
103
102
107
89
103
111
100
109
112
108
97
94
89
81
78
88
85
78
91
90
74
97
83
61
57
44
26
56
47
19
49
48
32
69
62
36
51
46
21
48
29
17
55
40
48
63
64
78
93
94
104
128
120
126
149
134
139
140
135
137
131
136
142
122
132
149
69
91
114
24
28
47
68
45
20
83
66
42
81
70
69
62
63
91
150
142
160
190
180
194
187
178
193
156
160
178
113
131
151
90
110
129
50
75
103
41
66
98
53
63
94
29
46
74
36
36
46
38
32
35
34
23
22
22
22
17
52
44
39
76
69
67
95
88
81
83
67
50
51
31
20
65
59
51
13
25
38
62
71
78
81
93
98
83
92
95
48
51
60
11
11
28
12
19
38
43
52
75
50
61
87
35
53
79
26
41
61
11
28
48
26
11
17
49
31
13
60
43
26
62
49
38
59
58
44
36
37
25
9
13
31
23
24
39
57
56
57
32
36
49
58
66
81
87
88
99
74
50
27
108
65
43
121
78
51
107
85
64
97
83
68
86
67
54
58
53
44
57
53
39
61
61
44
58
58
41
44
41
22
38
33
12
29
23
1
34
28
35
13
33
48
43
44
40
31
30
29
41
44
64
35
51
75
16
29
46
42
45
49
48
49
53
50
50
52
42
38
39
41
38
37
55
50
48
42
36
28
38
29
23
54
48
45
68
60
59
64
58
52
73
74
63
39
38
42
54
49
50
98
89
93
116
104
104
92
80
80
90
80
84
87
83
87
33
29
8
98
83
51
98
74
48
71
58
45
66
63
55
3
6
12
24
17
15
52
43
30
67
55
39
26
20
25
31
36
38
19
20
21
76
69
54
82
79
62
56
55
42
36
25
20
41
48
48
43
35
47
55
50
44
93
83
55
115
99
71
115
82
49
45
10
17
92
101
113
132
131
136
71
80
95
33
21
11
68
56
61
91
78
88
126
111
118
176
148
130
128
90
56
105
88
82
76
69
59
24
21
18
2
6
7
17
20
21
24
27
26
16
11
9
30
21
13
45
36
26
47
40
27
30
24
11
16
7
8
21
11
1
42
30
22
67
52
34
65
50
23
29
20
10
19
29
42
18
25
25
39
34
35
44
35
27
14
8
13
24
36
45
38
38
48
62
53
39
40
31
25
20
8
10
37
28
18
49
38
19
52
48
40
62
60
59
41
44
44
9
11
8
7
11
11
25
24
16
49
52
43
55
51
48
37
32
29
34
25
29
100
90
84
90
79
70
74
63
57
41
29
32
64
53
61
72
61
69
65
55
58
73
61
64
48
44
42
13
3
4
20
19
15
28
19
19
28
25
27
43
39
44
17
17
17
45
44
42
36
35
41
30
29
35
34
28
26
52
49
54
71
67
70
80
78
83
105
105
107
91
96
95
45
47
44
31
26
22
17
20
21
7
7
8
28
36
41
75
80
91
48
49
68
49
45
50
83
80
90
93
95
108
88
91
102
117
117
119
128
121
117
69
66
66
30
21
18
15
25
19
29
37
23
36
48
41
2
7
14
29
38
43
58
61
72
80
82
90
94
96
101
85
88
94
76
81
89
61
68
79
65
72
82
102
101
109
164
154
152
130
130
125
31
34
31
71
73
66
24
25
41
16
9
14
49
39
25
56
47
31
56
53
43
35
33
24
41
41
33
49
41
28
59
48
35
66
55
37
79
69
44
84
70
42
72
58
34
64
51
27
73
62
34
86
71
38
98
75
42
110
80
36
138
95
40
204
139
63
249
168
65
246
159
29
225
134
4
205
110
13
216
121
26
254
157
30
255
214
88
255
255
129
255
245
135
255
200
125
179
145
101
93
78
53
38
25
14
79
50
32
117
76
33
214
144
70
255
201
105
255
222
118
255
207
107
255
187
89
255
173
75
255
182
79
255
192
85
254
171
71
196
128
48
167
108
38
170
107
37
128
69
19
75
31
11
65
24
4
77
38
13
70
46
25
29
15
3
41
34
23
31
27
24
29
24
23
16
18
21
68
50
32
98
73
45
86
60
33
67
40
18
52
33
12
71
41
10
108
68
10
117
78
15
95
64
19
62
37
16
35
18
11
12
5
3
45
34
17
91
72
37
112
90
44
122
84
29
118
74
22
149
99
39
192
129
53
228
151
61
250
161
66
255
165
63
255
150
50
235
136
41
225
134
41
255
255
196
255
255
189
18
14
5
17
12
4
15
8
3
16
7
0
24
10
0
36
14
0
45
20
3
50
26
4
50
27
1
44
24
0
32
17
2
18
11
3
7
5
2
3
1
2
1
1
2
6
1
2
19
5
2
37
14
0
52
22
4
62
30
8
61
32
8
52
26
7
34
17
4
7
5
2
31
15
5
60
31
7
75
40
9
71
37
12
55
27
11
30
16
7
11
5
1
4
2
3
2
2
2
4
2
2
5
3
2
7
4
3
9
4
5
10
5
4
9
2
3
14
5
1
17
6
2
17
7
3
14
5
2
12
4
3
17
10
7
25
12
8
69
52
31
125
89
57
150
106
73
126
95
68
76
52
46
62
50
81
66
66
87
22
17
11
4
7
16
30
20
19
29
17
15
10
12
25
5
14
13
63
41
32
29
43
58
57
63
65
48
52
47
35
40
49
24
38
41
42
52
51
24
12
11
84
98
116
103
130
159
50
56
74
64
33
14
67
32
19
62
18
28
81
29
20
86
39
5
73
38
11
47
20
13
41
18
19
58
35
17
74
45
23
73
28
13
59
27
34
37
14
43
29
22
58
4
53
82
69
111
129
119
156
167
105
141
156
81
112
134
96
121
144
123
156
186
170
194
222
224
229
248
251
247
255
255
255
255
255
255
255
255
252
255
249
248
255
235
234
239
230
224
228
243
239
240
255
255
254
220
221
210
163
164
155
123
126
134
80
96
111
53
62
76
34
33
52
42
32
47
61
47
55
16
12
18
40
42
41
37
34
24
32
29
12
54
44
32
34
35
30
55
48
42
87
71
60
50
41
32
33
29
23
49
44
41
67
68
71
55
55
59
84
71
66
97
79
64
59
46
26
23
19
30
84
75
76
70
68
74
76
77
83
102
105
99
106
113
106
93
104
112
69
79
103
36
45
68
11
22
49
10
17
38
44
31
8
72
58
41
70
58
55
61
51
55
62
51
53
71
64
64
91
87
78
83
79
63
31
29
20
38
39
38
59
68
68
58
67
67
23
21
38
55
53
46
53
36
12
75
40
19
122
78
48
125
89
59
84
63
47
71
62
60
92
79
80
105
87
81
108
90
76
107
87
73
102
83
74
88
79
74
89
88
77
67
50
34
59
54
51
32
15
25
68
30
44
54
59
74
66
65
80
51
56
60
63
65
62
27
24
36
15
15
27
20
21
29
20
13
21
14
16
7
11
12
15
32
29
24
29
30
30
34
30
37
63
66
67
51
62
67
28
32
41
31
18
19
53
55
64
78
77
77
50
50
38
94
89
83
105
100
94
84
91
82
89
96
88
69
72
65
21
25
26
29
24
21
53
42
42
63
50
54
99
84
82
103
86
74
29
16
7
59
57
58
55
46
44
74
65
61
73
68
67
47
46
47
57
62
56
91
90
78
99
90
85
105
95
94
117
106
103
121
96
88
139
109
88
86
64
41
8
13
36
52
36
24
75
66
59
53
53
55
55
52
61
54
46
58
95
86
106
113
99
95
57
39
31
58
60
55
37
34
34
38
34
38
38
35
39
21
15
18
14
17
16
8
16
17
5
14
17
2
4
6
12
7
6
15
8
7
9
2
9
16
17
12
24
28
19
27
20
26
60
65
76
78
86
97
96
97
105
79
76
75
40
41
42
11
19
29
12
20
30
28
28
16
61
63
53
89
86
72
92
85
72
86
78
66
71
68
59
45
41
39
46
44
41
61
57
53
78
79
70
69
71
58
47
47
35
25
27
27
26
24
33
41
42
44
39
43
39
2
8
8
49
41
44
46
43
43
29
25
30
17
14
16
42
33
41
43
36
44
54
48
51
27
22
21
7
7
5
15
12
7
31
35
26
45
45
43
66
65
62
32
35
35
30
31
35
36
30
31
43
38
34
33
24
18
25
25
28
45
41
40
70
77
85
112
122
138
157
164
182
145
158
175
89
106
121
41
57
71
21
34
45
5
14
20
53
52
56
94
96
110
76
78
98
26
27
42
15
15
17
37
42
57
52
61
74
100
101
111
102
104
120
59
68
87
35
46
59
24
36
46
21
37
50
28
46
55
38
50
60
60
60
73
36
32
46
31
31
41
18
21
44
18
27
52
2
12
41
3
8
35
18
24
35
12
10
21
76
77
81
46
50
62
63
57
55
88
70
46
139
118
81
166
141
101
168
140
99
167
139
98
189
159
115
222
184
129
247
197
128
255
230
150
255
255
176
255
255
177
255
255
162
255
255
148
255
255
143
255
255
152
255
254
154
255
231
137
255
218
129
255
235
142
255
255
149
255
237
127
255
220
110
255
244
118
255
255
125
255
252
109
255
204
81
255
171
67
254
161
68
255
165
71
250
167
72
203
143
74
153
111
69
113
76
48
154
110
58
190
138
62
159
118
53
122
89
52
98
72
50
53
41
30
34
31
20
95
83
53
114
102
69
95
90
72
37
54
62
86
70
65
11
38
57
17
26
38
45
25
9
43
27
8
68
39
17
55
22
15
62
38
37
41
12
39
60
31
36
43
11
23
6
16
28
20
31
31
60
39
22
68
38
19
38
17
7
64
34
10
116
69
10
148
95
21
155
100
26
176
111
30
211
132
37
210
129
35
162
100
26
119
73
19
120
77
35
149
99
46
165
107
44
132
82
34
99
59
22
103
63
30
110
60
23
82
40
22
59
39
33
36
31
43
4
49
53
48
66
54
51
58
46
255
255
198
255
255
186
13
10
8
3
4
7
3
2
5
4
2
3
5
5
1
10
8
1
13
6
2
15
5
3
22
8
2
27
11
0
31
16
1
35
19
3
32
18
4
22
13
4
15
9
3
16
10
2
18
13
1
16
12
2
4
5
5
11
4
6
27
11
2
38
17
0
49
25
1
61
32
3
62
32
3
44
25
1
17
13
2
22
10
3
43
20
7
52
27
11
49
27
8
42
23
7
30
15
6
18
8
4
11
5
3
7
2
2
8
3
4
7
2
1
4
3
2
2
0
3
1
1
1
5
5
2
4
2
2
4
2
3
10
10
4
14
19
4
30
26
6
57
32
17
71
39
52
91
78
103
133
126
155
74
95
136
41
41
45
8
10
22
14
4
21
33
18
4
22
14
18
15
22
33
20
21
21
37
14
7
28
17
29
17
25
50
17
28
43
45
39
24
43
29
14
25
25
30
26
52
63
75
82
86
165
174
183
181
196
203
155
167
172
146
162
173
140
164
181
122
156
183
81
129
164
51
102
143
45
95
138
33
81
124
3
57
102
14
48
96
15
47
100
26
50
102
16
49
104
30
69
117
74
105
138
95
127
150
101
124
147
111
133
166
134
161
197
146
176
202
143
171
194
142
157
176
127
137
159
120
126
146
121
128
143
121
132
148
115
128
148
101
111
133
74
83
96
21
25
38
19
18
29
79
79
93
102
101
114
82
84
96
98
103
121
102
116
123
72
86
83
49
64
55
51
60
50
75
74
65
60
55
48
22
14
8
16
17
25
5
8
17
34
25
22
74
70
65
81
74
77
42
40
49
46
46
44
28
27
21
59
51
41
117
112
104
96
90
81
55
62
56
77
83
84
116
119
125
117
120
121
76
76
75
40
30
19
31
19
16
10
17
24
34
40
51
26
31
55
18
27
46
10
18
27
6
9
21
29
33
40
43
36
35
34
26
24
29
25
23
13
12
11
30
21
17
13
12
14
37
28
36
61
57
61
78
75
73
55
58
60
38
41
43
29
35
42
61
64
70
77
71
82
94
82
80
92
78
64
86
69
54
87
64
43
89
69
51
90
72
62
74
56
52
62
45
40
63
46
39
71
52
49
72
55
59
69
57
67
84
84
94
58
51
48
20
12
22
14
27
45
37
32
57
97
31
10
99
56
49
50
36
38
27
36
38
70
69
71
44
39
38
29
28
24
39
36
23
41
35
27
29
29
32
30
27
24
47
43
45
48
39
43
46
47
49
76
81
92
76
78
92
103
88
101
139
129
148
147
133
144
166
153
151
99
89
93
109
108
103
31
22
19
50
39
36
52
34
24
28
18
8
25
26
26
50
40
48
35
31
35
53
48
59
100
90
90
93
81
69
64
49
44
42
44
50
26
44
44
41
60
51
49
70
62
48
55
37
42
33
30
60
51
60
55
49
56
46
41
46
44
37
41
98
85
81
121
107
96
103
97
85
89
83
76
83
79
72
53
50
53
57
53
62
37
36
39
47
46
57
80
83
95
50
48
45
64
72
75
66
62
66
37
30
34
39
35
38
52
50
55
54
53
56
24
19
16
2
5
10
5
12
17
15
15
20
20
19
21
28
30
28
35
41
32
25
32
32
61
66
72
77
75
74
29
18
26
30
31
48
58
54
67
64
63
69
31
30
36
39
36
33
74
76
77
71
68
68
71
68
62
83
80
74
78
73
70
57
51
45
24
22
17
32
37
33
12
15
13
29
23
21
42
37
35
34
31
29
14
22
26
31
38
43
41
41
46
52
48
44
41
38
36
19
23
20
20
20
21
18
16
18
16
16
18
30
29
31
52
54
64
73
75
86
67
69
82
61
61
71
47
48
50
32
36
33
37
38
39
72
72
73
66
65
69
55
53
60
49
43
45
41
33
34
22
18
20
19
25
29
33
43
47
59
70
84
58
65
82
45
48
60
66
67
89
62
68
86
43
37
45
66
46
17
80
61
19
80
61
21
106
91
70
133
121
107
137
125
115
111
106
94
94
88
74
80
70
47
60
50
27
60
52
43
52
41
43
53
32
23
47
28
19
36
17
27
55
29
10
95
69
24
136
110
71
159
134
92
176
149
100
182
149
95
191
155
99
216
172
109
253
195
117
255
220
129
255
242
143
255
235
134
255
190
92
245
172
80
255
196
111
255
198
121
251
180
108
255
202
124
255
223
136
255
230
144
255
224
145
255
207
135
255
192
128
236
173
118
198
138
100
145
97
74
111
68
52
99
55
38
79
39
25
56
34
22
33
21
22
5
5
13
67
56
25
129
104
47
159
125
49
161
119
31
145
97
14
98
56
21
47
16
30
23
7
32
24
18
29
44
25
25
84
48
31
170
109
48
236
160
72
255
211
105
255
240
126
255
224
117
222
163
85
101
84
52
76
64
39
84
66
40
89
71
50
89
69
46
110
69
29
161
101
34
224
144
58
235
157
69
223
157
74
183
125
55
159
104
61
71
28
31
22
20
34
35
41
34
25
28
23
40
37
30
77
64
42
80
64
37
72
56
29
77
57
29
77
55
31
58
40
22
26
14
11
33
17
5
39
25
10
52
34
16
84
51
7
124
77
7
129
77
7
86
46
7
22
8
12
45
35
13
55
44
16
86
69
40
123
98
55
143
112
54
160
115
49
161
106
41
175
119
51
201
140
63
224
156
70
248
173
77
255
177
76
244
162
67
241
156
58
239
154
51
255
255
224
255
255
184
12
10
4
9
5
6
3
4
3
6
4
3
29
13
8
48
19
15
58
22
17
55
19
14
57
24
7
51
25
3
28
18
3
12
8
3
18
9
4
22
11
8
25
13
11
27
12
15
27
10
19
26
10
15
41
19
10
79
36
17
100
44
19
84
38
14
47
28
2
13
13
3
8
3
1
27
7
3
39
15
4
38
18
4
24
14
2
7
3
5
21
10
8
40
23
7
53
32
5
54
34
4
57
32
5
55
26
5
39
17
5
25
11
5
17
8
4
7
6
1
8
10
4
21
18
6
39
22
10
51
23
12
49
23
11
40
21
11
85
32
19
156
55
29
173
60
34
151
45
53
106
21
62
47
35
63
8
23
55
18
14
36
18
12
36
34
24
20
7
11
11
20
17
14
19
19
13
11
28
37
7
35
58
25
55
81
26
59
87
27
58
82
38
64
85
45
72
89
48
68
78
38
51
51
71
77
89
117
131
141
96
103
118
46
53
76
8
19
37
21
10
28
28
42
60
21
56
85
26
57
82
8
41
69
9
46
74
8
52
77
13
34
56
15
27
49
24
33
56
43
45
60
65
60
59
45
44
46
5
5
28
6
8
30
8
20
44
29
25
42
9
9
22
47
36
25
53
38
27
48
36
27
37
36
24
24
18
12
21
17
9
8
7
15
64
59
59
74
76
67
36
47
45
33
33
47
49
49
64
20
38
58
58
66
90
41
53
65
18
21
34
17
27
37
33
44
52
72
78
85
115
115
117
112
109
102
70
65
58
58
48
43
77
67
64
68
63
70
41
42
41
86
72
51
80
63
50
63
47
29
52
39
25
64
64
64
94
87
79
73
58
55
57
44
52
45
40
49
32
27
20
17
21
23
14
17
17
30
21
4
43
35
22
38
29
10
40
29
24
34
32
38
29
32
43
31
35
41
36
35
35
36
31
27
18
17
19
39
38
38
12
12
14
28
31
27
58
53
50
52
45
49
35
33
37
59
53
50
76
69
65
91
86
80
110
102
94
108
96
89
79
72
82
84
82
97
87
85
91
65
56
55
55
38
37
58
39
36
48
34
27
27
17
13
10
7
12
8
5
5
24
18
28
42
38
48
62
58
62
86
86
99
89
88
94
69
64
55
48
40
27
28
32
43
29
29
47
24
8
5
69
68
88
89
95
108
89
97
112
83
82
87
40
33
36
40
35
37
26
23
22
36
34
32
37
34
29
39
36
34
67
61
59
60
62
61
65
68
76
96
93
103
117
97
98
67
61
79
33
31
39
60
54
70
91
94
96
57
57
47
14
19
35
42
39
27
31
31
32
21
14
13
35
37
35
71
61
70
34
30
32
25
24
32
52
43
52
82
70
72
86
75
75
62
53
52
33
24
16
42
46
43
25
31
45
68
68
62
69
72
65
20
21
11
9
13
17
24
28
31
18
24
27
42
35
36
79
72
65
130
126
122
136
132
136
103
99
103
71
66
74
47
43
52
24
27
30
22
25
28
65
67
84
45
37
42
62
66
76
28
19
24
30
32
33
55
57
57
25
25
29
63
67
75
47
44
46
32
28
24
17
15
9
19
21
32
12
18
23
9
6
8
22
33
35
55
69
75
64
71
74
48
43
39
38
27
17
21
9
7
8
24
36
52
57
64
69
70
75
85
87
94
68
66
71
49
37
46
41
29
30
36
28
24
43
41
41
59
60
57
51
53
45
57
61
56
26
25
21
10
5
3
17
12
13
51
51
53
76
79
83
75
78
80
49
50
52
49
46
43
47
41
35
39
43
37
19
18
14
11
13
6
15
13
20
21
23
22
76
86
98
91
100
118
90
101
127
101
114
139
96
110
134
73
83
103
62
66
89
69
72
94
76
79
91
57
62
72
31
39
53
29
35
52
21
26
50
24
27
54
36
39
60
26
31
48
44
41
40
111
105
96
142
132
116
144
132
105
122
109
76
100
84
47
88
71
32
87
67
28
109
88
53
145
124
91
173
146
118
183
152
128
185
158
130
194
167
131
217
182
143
221
179
140
207
167
120
200
164
107
190
159
101
167
143
90
146
128
80
130
111
73
117
92
67
110
82
58
110
84
57
98
78
63
92
76
69
114
85
71
162
120
88
219
168
118
255
206
146
255
212
151
255
200
139
244
189
127
227
174
116
184
136
93
141
102
73
128
98
75
124
102
84
98
90
80
54
59
61
7
20
41
45
20
19
77
43
7
79
39
15
78
38
33
63
19
33
56
14
32
50
15
27
60
29
21
64
19
20
68
19
19
91
39
7
138
79
27
168
103
48
184
112
46
220
132
47
253
153
52
227
135
41
180
101
23
146
76
9
119
60
4
107
58
1
79
46
9
30
23
10
24
16
20
54
40
27
45
31
22
15
13
12
16
12
9
55
34
12
118
74
25
180
119
51
228
166
81
254
197
103
255
209
114
231
188
109
176
154
97
175
155
97
177
158
98
186
161
104
194
151
75
216
149
51
207
133
41
178
112
33
172
106
28
182
112
25
185
115
24
168
106
21
134
84
14
106
65
15
100
62
15
97
61
13
85
55
11
91
64
13
127
94
25
163
119
32
177
123
35
183
125
34
193
133
37
207
140
38
205
136
33
189
124
29
178
118
32
197
134
48
214
146
52
204
137
46
176
114
37
151
94
31
144
87
29
128
70
22
103
47
11
101
38
8
97
26
22
78
15
37
65
16
34
255
255
229
255
255
193
255
255
184
255
255
187
255
255
188
255
255
189
255
255
191
255
255
193
255
255
195
255
255
196
255
255
196
255
255
196
255
255
196
255
255
196
255
255
196
255
255
197
255
255
200
255
255
203
255
255
203
255
255
202
255
255
204
255
255
207
255
255
208
255
255
208
255
255
209
255
255
211
255
255
212
255
255
212
255
255
213
255
255
215
255
255
215
255
255
214
255
255
216
255
255
219
255
255
220
255
255
221
255
255
223
255
255
225
255
255
228
255
255
230
255
255
230
255
255
231
255
255
232
255
255
233
255
255
234
255
255
233
255
255
232
255
255
230
255
255
228
255
255
234
255
255
247
255
255
255
255
255
255
255
255
255
255
255
245
255
255
225
255
255
226
255
255
229
255
252
235
255
255
250
255
255
255
255
255
249
255
255
248
255
255
255
255
255
251
255
255
233
255
255
239
255
255
254
255
255
255
255
255
255
255
255
255
255
255
255
255
255
237
255
255
233
255
255
239
255
255
245
255
255
237
255
250
229
255
249
229
255
250
224
253
240
211
244
231
204
241
228
204
236
220
201
229
215
197
234
221
203
255
246
223
255
255
244
255
255
255
255
255
255
255
255
255
255
255
255
255
255
255
255
255
255
255
255
255
255
255
255
255
255
255
255
255
255
255
255
255
255
255
255
255
255
255
255
255
251
255
255
237
255
250
219
244
228
196
230
215
186
254
239
217
255
255
255
255
255
255
255
255
255
255
255
255
255
255
255
255
255
237
255
242
213
240
224
196
243
223
196
255
239
213
255
255
241
255
255
255
255
255
255
255
255
255
255
255
255
255
255
255
255
255
255
255
255
224
255
246
210
255
255
231
255
255
255
255
255
255
255
255
255
255
255
243
255
255
230
255
255
234
255
255
242
255
255
247
255
255
255
255
255
255
255
255
255
255
255
255
255
255
251
255
248
229
240
224
206
231
215
196
237
218
198
242
221
198
239
220
191
229
210
180
220
197
171
221
196
172
238
215
187
255
232
197
246
224
187
221
207
178
200
190
175
196
187
181
198
191
187
197
190
184
199
192
182
197
191
178
198
190
178
201
190
180
196
185
177
190
181
171
187
181
163
191
181
156
207
197
180
233
226
219
246
241
233
249
244
233
245
236
221
229
216
196
216
201
173
246
231
211
255
255
247
255
255
255
255
255
238
255
244
210
255
248
210
255
255
217
255
248
211
237
217
184
225
204
174
251
228
199
255
253
225
255
255
228
255
247
216
255
253
219
255
255
247
255
255
255
255
255
255
255
255
255
255
255
248
255
255
255
255
255
255
255
251
243
254
243
235
255
249
237
250
234
222
215
205
187
208
199
183
218
207
196
234
222
214
248
238
228
255
251
236
255
255
239
255
255
255
255
255
255
255
255
255
231
226
214
201
195
185
202
197
191
203
200
194
199
197
191
208
205
198
222
215
212
234
223
222
246
236
230
242
235
229
220
216
210
197
195
184
182
179
164
185
182
167
212
210
203
233
226
222
225
215
211
198
189
179
192
188
176
188
184
174
171
165
155
184
183
177
203
202
198
214
213
209
219
218
213
214
213
204
202
197
185
195
186
173
192
181
171
203
194
187
237
234
228
255
255
255
255
255
255
255
255
255
255
255
255
255
255
255
255
249
244
231
225
219
195
187
178
171
165
152
176
167
155
177
165
153
188
178
167
214
208
199
231
228
220
231
227
219
226
219
211
220
212
204
216
209
202
229
224
218
248
243
236
255
253
243
255
255
247
255
250
239
230
225
216
200
198
191
191
186
181
191
187
181
183
181
171
181
178
165
179
178
169
150
146
130
132
128
107
134
132
114
146
143
133
156
151
145
154
149
142
150
146
138
151
145
136
149
142
131
149
144
133
157
152
143
165
158
150
163
153
146
158
145
138
150
133
124
148
129
113
156
142
118
177
163
136
217
197
166
255
231
195
255
251
211
255
255
218
255
255
216
255
245
207
255
235
195
241
218
177
214
195
155
206
189
148
213
193
153
213
191
156
215
192
158
233
206
166
255
229
182
255
247
196
255
255
202
255
255
210
255
255
221
255
255
223
255
255
214
255
255
214
255
255
218
255
255
217
255
255
223
255
255
240
255
255
252
255
255
255
255
255
255
255
255
255
255
255
255
255
255
255
255
255
255
255
255
255
255
255
255
255
255
255
255
255
255
255
255
255
255
255
255
255
255
255
255
255
255
255
255
254
255
255
237
255
255
218
255
255
210
255
255
207
255
250
202
255
242
201
255
237
199
255
230
192
255
230
190
255
250
206
255
255
231
255
255
250
255
255
255
255
255
255
255
255
255
255
255
255
255
255
255
255
255
255
255
255
255
255
255
255
255
255
255
255
255
255
255
255
255
255
255
255
255
255
255
255
255
255
255
255
255
255
255
255
255
255
255
255
255
252
255
255
230
255
255
215
255
254
204
255
238
194
255
245
198
255
255
226
255
255
254
255
255
255
255
255
255
255
255
255
255
255
255
255
255
255
255
255
255
255
255
255
255
255
255
255
255
255
255
255
255
255
255
255
255
255
255
255
255
255
255
255
255
255
255
252
255
255
248
255
255
247
255
255
252
255
255
255
255
255
255
255
255
255
255
255
255
255
255
255
255
255
255
255
255
255
255
255
255
255
255
255
255
255
251
255
255
246
255
255
243
255
255
241
255
255
240
255
255
240
255
255
240
255
255
242
