P2
# TP2-INF110, by AGS
400 263 255
137
133
130
126
122
118
116
114
114
114
116
116
116
117
118
118
119
119
120
120
120
121
122
122
123
123
124
124
124
125
125
125
126
126
127
127
127
128
128
129
129
130
131
131
131
132
132
132
133
133
133
134
134
135
135
136
136
137
137
138
138
139
139
140
140
140
141
141
141
142
142
142
143
143
144
144
145
145
146
146
146
147
147
148
148
149
150
151
151
151
152
152
153
153
153
154
154
155
155
155
156
156
156
157
157
157
157
158
158
159
160
160
161
161
161
162
162
163
163
164
164
165
165
166
167
168
168
169
170
171
172
173
174
174
175
175
176
176
176
177
177
178
178
179
178
178
178
178
177
178
177
177
177
177
177
177
178
178
178
179
179
180
180
180
181
181
181
181
181
182
182
183
184
184
183
183
184
184
185
185
185
185
185
185
186
186
186
187
187
187
187
187
188
188
188
189
190
190
190
191
191
191
192
192
194
195
195
195
194
194
195
194
194
194
194
194
194
194
194
195
195
195
195
196
196
197
197
197
198
198
199
199
199
199
199
199
199
200
200
200
201
201
201
201
201
202
202
203
203
204
205
205
205
205
205
205
206
206
206
207
208
208
209
210
211
211
212
212
212
212
212
212
212
212
212
212
212
212
212
212
212
212
212
212
212
213
213
213
213
213
213
212
212
211
211
210
211
211
211
211
211
211
211
211
210
210
210
210
209
209
209
209
208
207
206
206
205
205
204
203
202
202
201
199
199
198
198
197
197
197
196
196
195
194
193
193
193
193
193
193
193
192
193
193
193
193
194
194
195
196
196
195
194
193
192
189
188
188
187
188
188
188
189
189
189
189
188
188
188
187
185
183
181
180
179
179
179
179
179
179
179
178
177
175
175
174
173
173
171
169
168
166
164
163
162
162
161
160
159
158
111
111
112
113
113
114
115
116
116
117
117
118
118
119
119
120
120
121
121
121
122
122
123
124
124
125
125
125
126
126
126
127
127
127
128
128
128
129
129
130
130
131
130
131
132
132
133
133
133
133
134
135
135
136
136
136
137
137
138
139
139
139
140
140
141
141
141
142
142
142
143
143
144
144
144
145
145
145
146
147
147
148
148
149
150
150
151
151
152
152
152
153
153
154
154
155
156
156
156
156
157
157
157
158
158
158
158
159
159
160
161
161
162
162
163
164
164
165
165
166
166
167
168
168
169
170
171
172
173
173
174
175
177
177
178
179
179
179
179
180
180
181
182
182
182
182
181
181
180
180
180
180
180
180
179
179
179
180
181
181
181
181
182
182
182
182
182
183
184
184
184
184
185
187
187
187
186
186
187
188
188
190
191
191
191
191
191
191
192
192
192
191
192
192
193
194
194
194
194
193
195
195
195
195
197
199
199
199
199
199
199
199
199
199
198
198
198
197
198
199
199
200
199
200
200
200
200
201
201
201
202
202
202
202
202
202
202
202
202
202
203
203
203
203
204
204
205
206
206
207
207
208
208
208
208
208
209
209
209
210
211
211
212
213
213
214
214
215
215
215
215
215
214
214
213
213
213
214
214
214
213
213
213
213
213
213
214
214
214
214
213
212
211
211
211
211
210
210
211
211
211
211
211
211
211
211
211
210
210
209
209
209
209
208
207
207
206
205
205
204
203
202
202
201
200
200
200
199
199
198
198
197
197
196
196
195
195
195
196
195
195
194
194
194
194
194
195
195
196
196
196
196
195
194
193
191
190
189
189
188
188
188
188
189
189
188
188
188
188
187
185
184
183
182
182
181
181
181
181
181
181
180
180
178
177
176
175
174
173
171
169
168
167
166
165
164
163
162
162
161
112
113
114
114
115
115
116
117
118
119
119
119
120
120
121
122
122
123
123
123
124
124
125
125
125
126
126
127
127
127
128
128
128
128
128
128
129
130
130
131
131
132
132
132
133
133
133
134
134
135
135
135
136
136
137
137
138
138
139
139
140
140
140
141
141
141
142
142
143
143
143
144
144
145
145
146
146
147
147
148
149
149
149
150
150
151
151
152
153
154
154
155
155
155
156
156
156
157
157
157
158
158
159
159
160
160
160
161
161
162
162
163
164
164
165
166
166
167
167
168
168
169
169
170
170
171
172
174
175
176
176
177
178
179
180
180
180
181
181
182
182
182
183
184
184
184
183
183
183
182
182
183
183
183
182
182
182
182
182
183
183
183
184
184
184
184
184
184
185
186
186
187
188
189
190
189
189
190
191
192
194
195
196
197
196
196
195
195
196
196
196
196
197
197
198
198
199
200
199
198
198
198
199
199
200
202
203
203
203
203
203
203
202
202
202
202
201
201
201
201
202
202
202
203
203
203
203
203
203
203
204
204
204
204
204
204
204
204
204
205
205
205
205
206
207
207
208
209
209
209
210
211
212
212
212
212
212
213
213
213
213
214
215
215
216
216
217
217
218
218
217
217
216
216
215
215
214
214
214
214
214
214
214
214
214
214
214
214
214
214
214
213
212
212
211
211
211
211
211
211
211
211
211
211
211
211
211
211
210
209
209
209
209
209
208
207
206
206
206
205
204
203
203
202
202
201
201
201
201
200
199
199
198
198
198
197
198
198
198
197
197
196
196
196
197
197
196
197
198
198
198
198
197
196
195
194
193
192
192
191
190
190
190
189
189
188
188
188
188
188
187
185
185
184
184
183
183
182
182
182
182
182
181
180
179
178
177
175
175
174
172
171
170
169
168
167
167
165
164
163
114
116
116
117
117
117
118
119
119
121
121
121
122
122
124
124
124
124
125
125
125
125
126
125
126
126
127
128
129
129
129
129
129
130
129
130
130
131
132
132
132
133
133
133
133
134
134
135
135
136
136
137
137
137
138
138
139
139
139
140
141
141
141
142
142
142
143
143
144
144
145
145
146
146
147
147
148
148
149
149
149
150
150
151
152
152
153
154
155
155
156
156
156
157
157
157
158
158
158
159
159
160
160
161
161
161
161
162
163
163
164
165
165
166
167
168
169
169
169
170
170
170
171
172
172
172
174
175
177
177
178
179
179
180
180
181
181
182
182
182
183
183
184
185
186
185
185
184
184
184
184
185
184
184
184
184
184
184
184
185
185
185
186
186
187
186
186
187
188
188
190
192
192
193
194
193
194
195
196
197
199
200
201
201
201
202
201
201
201
201
201
200
201
202
202
202
202
203
203
202
202
202
203
203
203
204
204
204
205
205
205
205
205
204
204
205
204
204
204
204
204
205
205
205
205
205
205
205
205
205
206
207
207
207
208
207
207
207
208
208
208
208
209
209
210
210
211
213
213
213
214
215
216
215
215
216
216
216
217
217
217
217
218
218
219
219
220
220
220
220
219
219
218
217
217
217
217
217
217
217
216
215
214
214
214
214
214
214
214
214
214
214
214
213
212
212
211
211
212
212
212
212
212
212
212
211
211
211
211
211
210
210
210
210
209
208
208
208
207
207
206
205
205
204
204
203
204
203
203
202
202
202
201
201
200
201
201
201
201
200
199
199
199
199
199
199
200
201
201
201
201
201
201
200
199
198
197
196
195
195
194
193
193
192
191
191
191
191
191
190
189
188
187
187
187
186
185
184
183
183
183
182
182
182
181
180
179
177
176
175
174
174
173
172
171
170
169
168
167
165
116
117
117
118
118
119
120
121
121
122
122
122
123
124
125
125
126
126
126
126
126
126
126
126
127
127
128
128
129
129
129
130
130
130
131
131
132
132
132
132
133
133
133
134
134
134
135
135
136
136
137
137
138
138
139
139
139
140
140
141
141
141
142
142
143
143
144
144
145
146
147
146
147
148
148
149
149
149
150
150
151
151
152
153
154
155
155
155
156
156
157
157
157
158
158
159
159
159
160
160
161
161
162
163
162
163
163
164
164
165
166
166
167
167
168
169
170
171
171
172
172
173
173
174
174
175
176
176
177
178
178
179
180
180
181
182
182
183
183
183
184
185
185
186
187
187
187
187
187
187
187
188
187
187
187
187
187
188
188
188
188
189
190
190
191
191
191
192
192
193
194
196
197
198
199
199
199
200
201
202
203
204
204
204
205
206
206
205
205
204
204
204
204
204
204
203
203
204
204
204
203
204
205
205
205
205
205
205
206
207
207
206
206
206
206
207
207
206
206
206
206
207
207
207
208
208
208
208
208
208
209
209
209
209
209
209
209
209
209
210
210
210
211
212
213
214
215
216
216
217
218
218
219
219
219
219
220
220
221
221
220
220
221
221
221
221
222
222
222
222
221
220
220
220
219
219
220
220
219
219
217
216
215
215
214
215
215
215
214
214
214
214
214
214
214
214
214
214
214
214
214
214
214
214
214
213
213
213
213
212
212
212
212
212
211
211
210
210
209
209
208
207
207
206
206
205
205
205
204
204
203
203
203
203
203
203
203
203
203
203
202
202
202
202
202
203
203
203
204
204
204
204
203
202
202
201
200
199
198
198
198
196
196
195
195
194
195
194
194
193
193
192
191
191
190
190
189
188
187
187
186
185
185
184
184
183
182
181
180
179
177
177
176
175
174
174
173
172
171
169
117
117
118
119
120
121
120
121
122
122
122
123
123
124
124
125
125
125
125
126
126
126
126
127
128
128
129
129
129
129
129
129
130
130
131
131
132
132
132
133
133
134
134
135
135
136
136
136
137
137
138
138
138
139
139
139
140
141
141
141
142
142
143
143
144
145
145
146
147
147
147
148
149
149
150
150
150
151
152
152
153
153
154
155
155
156
156
156
157
157
157
157
158
159
160
160
160
161
161
161
162
162
163
163
164
164
165
165
166
166
167
167
168
168
169
169
171
172
173
174
174
174
175
175
175
175
176
177
178
179
179
180
180
181
181
183
183
183
184
185
186
187
187
187
189
189
190
190
190
191
192
192
192
192
192
192
192
192
192
192
193
193
194
194
195
196
196
197
198
198
199
200
201
202
203
204
203
204
205
206
206
206
207
207
207
207
207
205
205
206
206
206
205
204
205
204
204
205
205
205
205
205
206
207
207
207
207
207
208
208
208
208
208
208
208
208
207
207
207
207
208
208
209
209
209
209
209
209
209
210
210
210
211
211
211
211
211
210
211
211
212
212
213
214
215
217
217
218
219
221
221
221
221
221
222
222
222
224
224
224
223
222
222
222
222
222
222
222
222
222
222
221
222
221
221
221
220
220
220
220
218
216
216
215
215
215
216
215
215
214
214
214
214
215
215
215
215
215
216
216
216
216
216
216
216
216
216
215
215
214
214
213
213
213
213
211
211
210
210
210
209
208
208
208
208
207
206
206
205
205
205
205
205
205
205
204
204
205
205
204
204
204
205
205
205
205
205
205
206
206
205
206
205
205
204
203
202
202
202
201
200
200
199
198
198
198
198
198
197
196
196
196
195
195
195
194
193
192
192
191
191
191
190
189
189
189
189
187
186
185
184
183
182
182
181
180
178
177
175
174
117
118
119
120
121
121
121
121
122
122
122
123
123
124
124
125
125
125
125
125
126
127
127
128
128
128
128
129
129
129
129
129
130
130
131
132
132
133
133
133
134
135
135
136
136
136
137
137
138
138
138
139
139
139
139
140
141
141
142
142
142
143
143
145
145
146
146
147
147
148
149
149
150
151
151
152
152
153
153
154
154
155
155
156
156
156
157
157
157
158
158
158
159
160
160
161
161
161
162
162
162
163
163
164
165
165
166
166
166
167
168
168
169
169
170
170
171
172
174
174
174
175
175
176
176
177
177
178
179
180
181
182
182
183
183
183
185
186
187
188
188
189
190
190
191
192
193
194
195
195
195
196
196
196
197
197
197
198
197
197
197
198
198
199
199
200
202
202
202
203
202
203
203
204
206
207
207
207
208
208
208
208
208
208
208
207
207
206
205
205
205
206
205
205
205
204
205
205
205
205
205
206
207
208
209
209
209
209
209
209
209
209
208
208
207
207
206
207
207
207
208
208
209
209
209
209
210
210
211
211
211
211
211
212
211
211
211
211
211
212
213
213
214
215
217
219
220
220
221
222
223
222
222
222
222
222
223
224
225
224
224
223
223
222
222
222
222
222
222
222
222
222
222
222
222
222
221
221
221
220
219
219
218
218
218
218
219
219
218
216
216
217
217
218
217
216
217
217
218
218
219
219
219
218
218
217
217
217
216
215
215
214
214
213
213
212
211
211
210
210
209
209
209
209
208
208
207
207
207
207
207
207
206
207
207
206
206
206
206
207
207
207
208
209
208
208
209
209
209
208
208
208
208
207
207
206
205
205
205
204
204
204
203
203
203
202
202
202
201
201
201
201
200
200
199
199
198
197
196
196
196
196
196
196
196
196
195
193
192
190
189
189
188
187
187
186
184
183
181
180
118
119
119
119
120
120
121
121
122
122
123
123
123
123
124
124
125
125
125
126
126
128
128
128
128
129
128
129
129
129
129
130
130
130
132
133
133
134
134
134
135
136
136
136
136
137
137
138
138
138
139
139
139
140
140
141
141
142
142
143
143
144
145
145
146
146
147
148
149
149
150
150
151
152
153
154
154
154
154
155
155
156
156
156
157
157
157
158
158
158
158
159
160
160
160
161
161
162
162
163
163
163
164
164
164
165
166
166
167
168
168
169
170
170
170
171
172
173
174
174
174
175
176
177
178
179
180
180
181
182
182
183
184
185
186
186
187
188
189
190
191
193
193
194
194
194
196
197
198
197
198
199
200
201
201
200
201
202
201
201
200
201
202
203
203
204
205
205
205
205
205
205
205
205
206
208
208
208
208
208
208
208
207
207
207
206
205
205
204
204
204
205
205
205
205
205
205
205
205
205
206
206
208
209
209
209
209
209
209
209
209
208
208
207
206
206
206
206
207
207
208
209
209
209
210
210
211
211
212
212
212
211
212
212
211
211
211
211
212
213
214
214
216
218
220
221
222
222
222
223
223
222
222
222
222
222
222
223
224
223
223
222
222
222
222
222
222
222
222
221
221
222
222
222
223
223
223
223
223
222
222
221
220
220
221
221
221
221
219
219
219
220
220
220
220
219
219
221
222
222
222
222
222
221
220
220
218
218
218
218
217
217
216
215
215
214
214
213
212
212
212
212
211
211
210
209
209
209
209
209
208
208
208
209
208
208
208
208
209
209
210
210
210
211
211
211
211
211
211
211
210
210
210
209
209
209
208
208
208
208
208
208
207
206
206
205
204
204
204
203
203
203
203
203
202
202
202
201
201
200
200
200
201
201
202
201
199
197
196
195
194
193
192
191
191
189
188
186
185
183
118
118
119
119
120
120
120
121
121
123
123
124
124
124
124
124
125
126
126
127
127
128
128
128
129
129
129
129
129
129
130
130
131
131
133
134
134
135
135
136
136
137
137
138
138
138
138
139
139
139
140
140
140
141
141
142
143
143
143
144
144
145
146
146
146
147
148
149
150
150
151
152
154
154
155
155
155
155
155
156
156
156
157
157
157
158
158
158
158
159
159
159
160
160
161
161
162
162
163
163
163
164
164
165
165
166
166
167
167
168
169
170
170
171
172
172
173
174
174
175
175
176
177
179
180
181
182
182
183
183
183
184
186
187
188
188
189
191
191
192
193
194
195
196
196
197
197
198
200
199
199
200
202
202
202
202
202
202
202
202
202
203
204
205
205
205
206
206
206
206
206
206
206
207
207
208
208
207
206
206
206
205
205
205
204
204
203
203
203
203
203
204
205
205
205
205
205
205
205
205
206
206
207
207
208
209
209
209
209
209
209
208
208
208
208
208
208
207
208
208
209
209
210
211
211
212
212
213
214
214
214
214
214
214
213
213
213
213
214
214
215
217
219
220
222
222
222
222
222
222
222
222
221
220
220
220
221
222
222
223
223
222
222
222
222
222
222
222
222
221
222
223
223
224
224
225
225
224
224
224
223
222
222
222
223
223
223
222
221
221
221
221
221
222
221
222
222
222
222
223
224
224
223
223
222
221
219
219
218
219
219
218
218
218
218
217
217
216
216
215
215
214
214
214
213
212
212
212
211
210
211
210
210
210
210
210
210
210
210
210
210
211
212
213
213
213
213
213
213
213
212
212
211
211
210
209
209
209
208
208
209
208
208
208
208
208
206
206
205
205
205
204
204
204
204
204
204
203
203
203
203
203
203
203
204
203
202
201
199
198
197
196
195
194
193
191
189
188
187
186
118
118
118
119
121
121
121
122
122
123
124
124
124
125
125
125
126
127
127
128
128
129
129
129
129
130
130
131
131
132
131
132
132
133
134
135
136
136
137
137
137
138
138
139
139
139
139
140
140
140
141
141
142
142
143
143
144
144
145
145
147
147
147
147
148
148
149
150
151
151
152
153
154
155
155
155
155
155
155
156
156
156
157
157
158
158
158
158
159
159
159
160
160
161
161
161
162
162
163
163
164
164
165
166
166
167
167
167
168
169
170
171
172
172
173
174
174
175
175
176
176
177
178
179
181
182
183
183
183
183
183
185
186
187
189
189
190
191
192
192
193
193
195
196
196
197
197
197
199
200
199
200
201
202
202
202
201
201
202
202
202
203
204
205
206
205
205
206
205
205
205
205
205
206
206
206
205
204
203
203
202
202
202
202
202
202
202
202
202
203
204
204
205
205
205
206
205
206
206
206
206
206
206
207
208
209
209
210
209
209
209
209
209
209
209
209
209
209
209
209
210
210
211
212
212
214
215
216
216
217
218
218
217
216
215
215
215
215
216
216
217
218
220
221
222
222
222
222
222
222
221
221
220
220
220
220
220
221
222
222
222
223
222
222
222
223
224
224
223
223
223
224
225
225
226
225
225
224
223
222
222
222
221
222
223
223
223
222
222
221
221
221
221
222
222
221
220
221
221
222
223
223
222
222
222
220
219
219
219
218
218
219
220
220
220
221
221
220
219
218
218
217
216
216
214
214
214
214
213
213
213
212
212
211
211
210
211
211
211
211
211
211
212
213
214
214
213
214
214
214
214
213
212
211
210
210
209
209
208
208
208
209
209
208
208
208
208
207
207
206
206
206
205
204
205
205
205
205
205
205
205
204
204
204
204
203
202
201
200
199
198
197
196
194
193
191
190
189
188
186
118
119
119
120
122
122
122
123
123
124
124
124
125
125
126
127
128
129
130
129
128
129
129
130
130
131
132
133
134
134
134
134
134
135
135
135
136
136
136
137
138
138
139
140
140
140
140
141
141
142
142
143
143
144
145
146
147
147
147
148
148
148
148
148
149
149
150
151
152
152
153
153
154
155
154
155
155
155
156
156
156
157
157
157
157
158
158
158
159
159
159
160
160
161
161
162
162
162
163
163
164
165
166
167
167
168
169
169
169
170
171
172
173
173
174
175
175
175
176
177
177
178
179
180
181
182
183
183
183
183
184
186
186
187
188
188
189
190
191
192
193
193
194
195
195
195
195
196
197
198
198
199
200
201
201
201
200
200
201
201
201
202
202
204
204
204
204
204
204
204
204
203
203
203
203
202
202
201
200
200
200
200
200
200
201
202
202
203
203
204
205
205
205
206
207
206
207
207
207
207
207
207
208
208
209
210
210
211
211
211
211
211
211
210
210
210
210
210
210
210
211
212
212
213
214
216
217
218
219
221
222
221
220
218
217
216
216
216
216
217
217
218
220
220
220
221
220
220
220
220
220
220
220
220
220
220
220
220
220
221
221
221
222
222
222
223
224
223
223
223
223
223
222
221
220
221
221
220
219
218
218
218
218
219
219
219
219
219
219
219
220
219
220
220
220
219
218
218
219
220
221
222
221
221
221
220
220
219
219
219
219
220
220
221
223
223
224
223
222
220
219
218
217
216
214
214
215
214
214
213
213
213
212
211
211
211
211
211
211
211
210
211
212
212
213
213
213
214
214
214
213
214
213
212
211
210
210
209
209
209
209
209
209
208
209
208
208
208
208
208
208
207
206
205
206
206
206
206
206
206
205
204
204
204
203
202
201
200
200
199
199
197
196
194
192
191
190
189
187
185
121
121
122
123
123
123
124
124
124
125
126
126
127
127
128
128
130
131
130
129
128
128
129
131
132
133
134
135
135
135
135
135
135
135
135
136
136
137
137
137
138
139
140
141
141
141
142
142
142
142
143
143
144
146
147
147
147
148
148
148
149
149
149
149
149
150
150
151
152
152
153
153
153
154
154
155
155
155
156
156
156
157
157
157
157
157
158
158
158
159
159
160
160
161
162
162
163
163
164
164
165
165
166
168
169
169
169
170
170
171
172
173
174
175
175
175
175
176
177
177
179
179
179
180
181
182
182
182
182
183
183
185
186
186
186
187
188
189
190
191
192
193
193
194
194
194
194
194
195
195
197
197
198
199
200
200
200
199
200
201
201
202
201
202
202
201
201
200
201
201
201
200
200
200
200
199
199
199
199
199
199
200
201
202
202
203
204
205
205
205
206
207
207
207
208
208
208
208
208
208
208
209
209
209
209
210
211
212
213
213
212
212
211
211
212
212
212
212
212
212
212
213
213
214
215
217
219
220
222
223
224
223
221
219
218
216
216
216
216
216
217
217
218
220
219
219
219
218
218
218
218
220
220
219
219
218
219
219
220
220
220
220
220
221
221
222
222
221
220
220
220
220
217
215
215
215
215
215
216
216
216
216
216
216
215
216
216
216
217
217
217
218
219
219
219
218
218
217
218
218
218
218
218
218
219
219
219
219
219
218
219
219
219
220
221
222
223
222
222
220
219
218
216
214
212
212
213
213
213
212
212
212
212
212
211
212
212
212
211
211
211
211
212
212
213
214
215
215
215
215
215
215
214
213
212
211
211
210
210
210
210
211
210
211
210
210
210
210
210
209
209
209
208
207
207
207
206
206
206
206
205
205
204
204
202
201
200
200
198
198
198
197
196
194
192
190
190
189
187
185
124
124
124
125
125
126
126
126
127
128
130
130
130
131
131
132
132
133
131
130
129
130
130
131
133
135
135
136
136
136
137
136
135
135
135
135
136
136
137
137
138
139
140
141
141
141
142
142
143
143
143
143
144
146
147
147
147
147
148
148
149
149
150
149
150
150
150
151
151
152
152
153
153
154
154
155
155
155
156
156
156
157
157
157
157
157
158
158
159
159
159
160
160
161
162
163
163
163
164
164
165
166
167
167
168
169
170
171
171
172
173
173
174
175
175
175
175
175
175
176
178
178
178
179
180
180
181
182
182
182
183
183
184
184
185
185
187
189
189
190
191
191
191
191
192
192
193
194
195
195
196
197
197
198
199
200
200
199
198
199
200
199
198
199
199
199
199
199
199
200
200
200
200
200
201
201
201
201
201
201
202
203
203
204
205
206
206
206
206
206
207
208
208
209
209
209
209
209
208
208
209
209
210
210
211
212
212
213
214
214
213
213
213
213
213
213
213
213
213
213
213
214
214
216
217
218
220
221
223
223
223
223
222
220
218
217
216
216
216
216
217
217
218
220
220
219
219
218
218
218
218
219
218
217
217
217
217
218
219
220
222
222
222
222
223
224
224
223
222
222
222
221
218
216
214
214
214
214
214
214
214
214
214
215
215
215
216
216
217
217
217
218
219
219
218
217
218
217
217
217
217
217
217
217
217
218
218
218
218
217
217
217
218
218
218
218
219
219
219
218
218
218
216
214
213
213
213
213
212
212
212
212
212
213
213
213
214
214
213
213
213
213
214
215
216
216
218
218
217
218
218
218
217
216
214
213
212
212
212
212
212
213
212
212
212
212
213
213
212
212
212
211
211
211
210
209
208
208
208
208
207
207
207
206
205
204
203
201
201
200
199
198
197
196
194
193
192
191
190
188
126
126
127
127
129
130
131
132
133
133
134
134
134
135
135
136
136
136
133
132
130
131
130
132
134
136
137
137
137
137
137
136
135
135
135
135
135
136
136
137
138
139
139
140
140
141
141
142
142
143
142
143
144
145
146
146
146
147
147
147
148
149
149
149
149
150
150
150
151
151
152
153
154
154
154
155
155
156
156
156
156
157
157
157
157
158
158
158
159
159
160
160
161
162
162
163
163
163
164
165
165
166
166
167
168
168
170
171
171
172
172
173
174
174
175
174
174
174
174
175
175
175
175
176
177
177
178
179
180
181
181
181
182
183
183
184
185
187
188
189
190
190
191
192
192
193
194
195
196
196
197
197
198
198
199
199
198
197
196
197
198
198
197
197
198
199
199
200
201
202
202
202
203
203
203
203
204
203
203
204
204
205
205
206
207
207
207
207
207
207
208
208
208
209
209
209
209
209
209
209
210
210
211
212
213
213
214
214
214
214
214
214
214
214
214
214
215
215
215
215
215
215
216
217
219
220
221
222
222
222
222
222
221
220
218
217
217
216
218
218
218
219
220
222
223
221
221
220
220
220
219
219
219
219
218
217
218
220
221
222
222
221
222
222
223
224
224
224
224
223
222
219
217
216
214
214
214
213
213
213
214
214
214
215
215
215
216
217
217
217
218
219
220
220
218
218
218
217
217
216
216
217
217
217
218
218
218
218
218
218
218
217
217
217
217
217
217
216
217
217
217
217
216
216
215
216
216
216
214
214
213
213
214
215
215
215
216
216
216
216
216
216
218
219
219
219
221
222
222
222
222
223
222
220
218
217
215
215
215
214
214
214
215
215
216
216
217
217
217
217
216
215
215
215
214
213
212
211
211
211
211
211
210
209
209
208
207
206
205
205
204
203
202
200
199
198
197
195
194
194
130
130
131
132
133
135
136
136
137
137
137
138
137
138
139
139
139
138
135
134
131
133
133
133
134
137
137
137
136
136
135
135
134
134
134
135
135
136
136
137
138
138
139
139
140
140
141
141
142
142
142
142
143
144
144
145
146
146
147
147
148
148
148
149
149
150
150
151
151
151
152
153
153
154
154
155
156
156
156
156
157
157
157
157
157
158
158
158
159
159
160
160
161
161
162
162
162
163
163
164
164
165
165
166
167
167
168
169
170
170
171
172
172
173
173
173
173
173
173
173
173
173
174
174
175
175
176
178
178
179
180
181
182
182
183
184
185
187
189
190
190
191
192
193
194
194
195
196
197
197
198
198
198
198
198
197
198
197
197
197
198
199
199
199
200
201
201
202
202
203
204
204
204
205
206
206
206
206
206
206
206
206
207
207
208
208
208
208
208
208
209
209
209
209
209
209
210
210
211
211
211
212
213
213
214
214
215
216
216
216
215
215
215
215
216
216
216
216
216
217
217
218
218
219
219
220
221
221
222
222
222
222
221
220
220
219
218
219
221
221
222
222
223
224
224
223
224
223
223
223
223
222
223
223
221
220
221
222
222
222
220
220
221
221
220
221
221
221
220
219
218
216
216
216
215
215
215
215
214
215
215
215
216
216
216
217
217
217
217
218
219
220
220
219
219
217
217
217
217
217
217
217
217
218
218
219
219
219
219
218
217
217
217
216
216
216
216
216
216
216
216
216
216
217
217
218
218
218
215
214
214
215
216
217
217
217
217
217
217
217
217
219
221
222
224
225
225
226
226
226
226
226
225
224
223
221
220
219
219
219
219
218
219
219
221
222
222
222
222
222
221
220
220
220
219
218
217
216
216
215
215
215
214
214
213
212
211
211
210
209
209
208
207
205
204
203
201
199
198
197
134
135
136
137
138
139
139
140
140
140
140
139
139
139
140
140
140
139
137
134
133
135
135
134
134
135
136
137
136
135
134
134
134
134
134
135
135
136
136
137
138
138
139
139
140
140
141
141
142
142
142
142
143
144
144
145
146
146
147
147
148
148
148
148
149
149
150
151
151
152
152
153
154
154
155
155
155
156
156
156
156
157
157
157
157
157
157
158
158
159
160
160
160
161
161
162
162
162
163
163
163
164
165
165
166
167
167
168
169
170
170
170
171
171
172
171
172
172
172
173
173
173
174
174
175
175
175
177
179
179
180
181
181
183
183
185
187
188
189
190
191
192
193
193
194
194
194
195
197
197
197
197
198
198
197
198
199
199
199
199
201
201
202
202
203
203
203
203
204
205
205
206
207
208
208
208
208
208
208
208
208
208
208
208
208
208
209
209
209
209
209
210
210
210
211
211
211
212
213
213
213
213
214
215
216
216
216
217
217
217
216
216
216
217
217
218
218
218
218
218
218
219
220
220
220
220
220
221
222
223
223
222
221
221
221
221
221
222
224
224
224
224
225
225
225
225
226
226
226
226
225
225
226
225
224
223
224
224
224
224
224
222
221
220
220
219
220
219
219
218
217
217
218
218
217
217
217
217
216
216
217
217
218
219
219
219
219
219
219
219
219
219
220
219
219
219
218
218
218
218
218
219
219
219
220
220
221
221
222
221
220
219
219
219
218
219
218
218
219
219
220
219
218
218
219
220
220
218
217
215
215
216
216
216
217
217
217
217
218
218
218
220
222
223
225
226
227
228
229
230
230
230
228
227
226
225
224
224
223
222
222
223
223
224
224
225
226
226
226
225
224
224
224
223
223
222
222
222
220
219
218
218
217
215
216
215
214
213
211
211
210
210
209
208
207
206
204
202
201
200
138
139
140
140
140
141
141
141
141
141
140
139
139
140
140
140
139
140
138
136
135
135
134
134
134
134
135
135
135
134
133
133
133
134
134
134
135
136
136
137
138
138
139
139
140
140
141
141
141
142
142
142
143
144
144
145
146
146
147
147
147
148
148
148
148
149
150
151
151
151
152
153
153
154
154
155
155
156
156
156
156
156
157
157
157
157
158
158
158
159
159
160
160
160
161
161
162
162
162
163
164
164
165
165
166
166
167
168
169
169
170
171
172
172
172
172
172
173
173
173
174
174
175
175
176
176
177
179
180
181
181
182
183
183
184
186
187
188
188
189
190
190
192
193
193
193
193
194
195
195
195
196
197
197
198
199
200
200
201
202
202
203
203
204
205
206
206
207
207
208
208
208
209
209
209
209
208
209
209
209
209
208
208
209
209
210
210
210
211
211
211
212
212
212
212
212
213
213
213
213
214
214
215
216
216
216
216
217
217
216
216
216
216
217
217
217
217
218
218
218
219
219
220
221
220
220
221
221
223
223
223
223
223
223
223
222
222
224
225
226
226
226
226
226
226
227
227
227
227
226
227
228
228
226
225
225
225
225
226
225
224
221
220
219
219
219
219
219
218
218
218
218
218
219
219
218
218
218
218
218
219
219
219
220
220
219
219
219
219
219
219
220
220
221
221
220
220
220
220
220
220
221
222
222
223
223
224
224
225
225
224
223
223
222
221
222
222
222
222
223
223
223
223
223
223
224
222
221
219
218
218
218
218
219
218
218
219
219
219
219
219
220
220
222
223
224
225
225
226
229
231
232
232
230
229
228
228
227
226
224
224
222
223
224
224
224
226
227
227
227
226
225
224
223
223
223
224
223
223
221
219
218
217
216
216
216
215
214
212
211
211
212
211
210
209
208
206
205
203
203
139
140
141
141
141
141
141
140
141
141
140
139
138
138
138
138
137
138
137
136
135
134
133
133
133
133
134
134
134
133
133
133
133
134
134
135
135
136
136
137
138
138
139
139
140
140
141
141
141
142
142
142
143
144
145
145
146
146
147
147
148
148
148
148
149
149
150
151
151
151
152
153
153
154
154
155
155
155
156
156
156
156
156
157
157
157
158
158
158
159
159
160
160
160
161
161
162
162
163
163
163
164
165
165
166
166
167
168
169
170
171
172
172
173
173
172
172
173
174
174
175
175
176
176
177
178
179
180
181
182
182
183
183
184
185
186
186
187
187
188
188
189
190
191
191
191
192
193
193
194
194
195
196
197
198
200
201
201
202
204
205
205
206
207
208
208
209
209
209
209
210
209
210
210
210
209
209
209
209
209
209
208
208
209
210
211
211
211
212
212
212
212
213
213
213
213
213
213
213
213
214
214
215
216
216
216
216
217
216
216
216
216
217
217
217
217
217
217
217
218
218
219
220
220
220
220
223
223
223
224
224
223
223
223
223
223
224
225
226
227
227
228
228
228
229
229
228
227
227
227
227
227
226
226
225
225
225
225
224
222
220
220
219
218
218
218
217
217
217
217
218
218
218
219
219
219
219
218
218
219
219
219
219
219
219
219
219
218
218
218
219
220
220
220
220
220
220
220
220
220
221
222
223
223
223
223
223
223
224
225
225
225
224
224
223
222
222
221
222
222
223
223
223
224
224
225
223
221
220
219
219
219
219
219
219
219
218
219
219
219
218
219
220
220
220
221
221
222
223
224
226
228
230
231
230
229
229
228
227
224
223
222
223
222
223
223
223
225
225
225
225
224
224
224
224
224
224
224
224
224
223
220
220
219
219
218
217
216
215
214
213
213
212
212
211
210
208
206
205
205
138
138
139
139
139
139
139
139
140
140
139
138
136
136
137
135
135
136
135
134
133
133
132
132
131
132
133
133
133
132
132
133
133
134
134
135
135
136
136
137
138
138
139
139
140
140
141
141
141
142
142
143
143
144
145
145
146
146
147
147
147
148
148
149
149
149
150
151
151
152
152
153
153
154
154
155
155
155
156
156
156
156
156
157
157
157
158
158
158
159
159
159
160
161
161
161
162
162
163
164
164
165
165
166
166
167
168
168
169
170
171
172
173
173
174
173
173
173
174
174
175
175
176
176
178
179
180
181
181
182
182
183
183
184
185
185
185
185
185
187
188
188
189
190
191
191
192
193
193
194
195
196
197
198
200
201
202
203
205
206
207
207
208
208
209
209
209
209
209
209
210
210
210
210
210
210
210
210
210
210
210
210
210
210
211
211
211
212
212
212
212
213
213
213
213
213
213
214
214
214
215
216
216
216
217
217
217
217
216
216
216
217
217
217
217
217
217
218
217
218
218
218
218
219
219
219
220
222
224
224
224
222
222
222
222
223
224
224
224
225
226
228
229
229
230
229
227
226
226
226
225
224
223
222
221
221
220
220
219
218
218
218
217
217
217
217
217
217
217
217
217
217
217
217
217
218
217
217
216
217
217
217
217
217
218
218
217
217
217
218
218
219
219
219
219
220
220
220
221
221
221
222
222
221
221
220
220
220
221
221
222
223
222
220
219
218
218
217
218
218
219
218
218
218
218
218
217
217
217
217
217
216
217
217
216
216
216
216
217
217
218
218
218
217
218
219
219
220
220
221
223
223
225
228
229
229
228
228
226
224
224
224
223
222
222
221
220
221
222
222
222
223
223
224
224
224
224
224
226
225
224
224
224
223
221
220
220
219
218
216
215
214
214
213
212
210
209
208
206
206
135
135
134
135
134
134
135
135
135
136
136
135
134
134
134
133
133
133
132
132
131
131
131
130
130
130
132
132
132
132
132
133
133
134
134
135
135
136
137
137
137
138
139
139
140
140
141
141
142
142
142
143
143
144
145
145
146
146
146
147
147
147
149
149
149
150
150
151
151
152
152
152
153
154
154
155
155
155
156
156
156
156
156
157
157
157
158
158
158
158
159
159
160
161
161
162
162
163
164
164
164
165
166
166
167
167
167
168
169
170
171
171
172
173
173
173
173
174
174
174
175
175
176
176
177
179
180
180
180
181
182
183
183
183
184
185
185
185
185
186
188
188
189
190
190
191
193
194
194
195
196
197
198
199
201
202
204
205
206
206
207
208
208
209
209
209
209
209
208
209
209
209
210
210
210
211
211
211
211
211
211
211
210
211
211
211
212
212
212
212
212
212
212
213
213
213
213
213
213
214
215
215
215
216
216
216
216
216
216
216
216
216
216
216
216
216
216
216
216
216
216
216
216
217
217
217
218
219
219
219
218
217
217
217
217
218
218
218
219
220
221
221
222
221
221
219
218
218
219
218
217
217
216
215
215
215
214
214
214
213
213
213
213
213
213
213
213
213
214
214
214
214
215
215
214
214
213
214
214
214
214
215
215
215
215
215
215
215
215
216
216
216
216
216
216
217
218
218
219
219
219
219
218
217
217
217
217
217
218
218
218
218
217
216
215
215
216
215
216
216
216
216
215
215
214
214
214
214
214
214
214
214
214
214
214
214
214
214
215
215
215
215
216
216
216
217
217
218
219
220
220
221
222
224
225
224
225
224
224
223
224
224
223
222
221
219
217
217
216
217
216
218
218
219
220
220
220
221
222
224
224
224
224
224
223
223
222
221
220
218
216
215
214
213
213
212
212
211
210
208
131
132
131
130
130
130
131
131
131
132
131
130
131
130
130
130
130
129
129
130
130
129
129
129
129
130
131
131
132
132
132
133
133
134
134
135
135
136
136
137
138
138
139
139
140
140
141
141
141
142
142
143
143
144
145
145
146
146
146
147
147
148
148
149
149
150
151
151
151
152
153
153
153
154
154
155
155
155
156
156
156
156
157
157
157
157
158
158
159
159
159
160
160
161
161
162
163
163
164
165
165
165
166
167
167
167
168
168
169
170
171
171
171
172
173
173
174
175
175
175
175
176
176
177
178
179
179
179
179
181
181
182
182
183
184
184
185
185
186
187
188
189
190
191
192
193
194
195
196
197
198
199
200
200
201
202
202
203
204
205
205
206
207
207
207
207
207
207
208
208
208
208
208
209
209
209
210
210
210
210
210
209
210
210
210
210
210
210
210
210
210
211
211
210
210
210
211
211
211
211
211
212
213
213
213
213
213
213
213
214
213
213
213
213
213
213
213
213
213
213
213
213
213
214
213
213
213
213
213
212
212
212
212
212
212
212
212
212
213
213
213
212
211
211
211
211
211
212
213
213
213
214
214
213
212
211
211
211
211
211
212
211
211
211
211
211
212
212
212
212
212
213
213
213
213
213
213
213
213
213
213
213
214
214
214
214
214
214
214
214
214
214
214
215
215
216
216
216
216
216
216
216
216
216
216
216
216
216
216
216
216
216
215
215
214
215
214
214
214
215
215
214
214
214
214
213
213
213
213
214
214
214
214
214
214
215
215
216
216
216
216
216
217
218
218
219
219
219
219
219
219
221
221
221
223
223
223
223
223
223
223
223
221
220
217
217
216
215
214
214
214
214
214
214
215
215
216
216
216
217
220
223
224
226
226
227
226
224
223
220
218
216
215
214
213
212
212
212
212
212
126
127
128
127
126
126
126
127
127
127
128
127
127
127
127
127
127
127
127
128
128
129
129
129
129
130
130
131
131
132
132
133
134
134
135
135
135
136
137
137
138
138
139
139
140
140
141
141
142
142
143
143
143
144
145
146
146
146
147
147
148
148
148
149
149
150
150
151
151
152
152
153
153
154
154
155
155
155
156
156
157
157
157
157
157
158
158
158
159
159
160
160
160
161
161
162
163
164
165
165
165
166
166
167
167
167
168
168
169
169
170
171
172
172
173
174
174
175
175
176
176
177
177
178
179
179
179
180
180
180
181
182
183
183
183
185
185
186
187
188
189
189
190
192
193
194
195
197
197
197
199
200
199
199
199
199
200
201
201
202
202
203
204
204
204
205
205
206
205
205
205
205
205
206
207
208
208
208
208
209
209
208
208
208
209
208
208
208
208
207
207
208
208
208
208
208
209
209
209
209
209
209
210
210
210
210
210
210
210
211
210
210
210
210
209
209
209
210
210
210
211
211
211
211
211
211
211
211
211
211
211
211
211
211
211
211
211
211
211
211
210
210
210
210
211
211
211
212
213
213
213
213
213
213
212
212
212
212
212
211
211
211
210
210
210
210
210
210
211
211
211
212
212
213
214
214
212
212
212
212
212
213
212
213
213
213
213
213
213
213
213
212
213
213
214
214
214
215
215
216
216
216
217
217
217
217
217
218
218
217
217
216
216
215
215
215
215
214
215
215
216
216
215
215
216
215
215
215
216
216
217
218
218
220
219
220
222
223
223
223
222
222
222
223
223
223
222
221
220
220
219
220
222
223
224
224
224
223
224
224
224
222
220
218
217
216
215
214
214
214
214
214
214
214
215
214
214
213
212
213
214
216
219
222
225
226
227
227
226
224
221
220
217
215
213
211
210
210
210
210
121
122
123
124
123
123
123
123
123
124
125
125
125
125
126
126
126
126
127
127
128
128
128
129
129
129
130
131
132
132
133
133
134
134
135
135
135
136
137
137
138
138
138
139
140
140
141
141
142
142
142
143
143
145
145
146
146
147
147
147
148
148
149
149
149
150
150
151
151
152
152
153
153
154
154
154
155
155
156
156
156
156
157
157
157
157
158
158
159
159
159
160
160
161
162
162
163
164
165
165
165
166
166
167
167
168
168
169
169
170
171
172
173
173
174
174
175
175
175
176
176
176
177
178
179
179
179
180
180
181
182
182
183
183
184
185
185
186
187
188
188
188
189
191
192
193
195
196
195
195
196
197
196
196
196
197
197
197
198
199
200
201
202
202
202
203
204
204
204
204
204
204
205
205
206
206
206
206
206
206
206
206
206
206
206
206
205
205
205
205
206
207
207
207
207
207
207
208
208
208
208
208
208
208
208
208
209
209
209
209
209
208
208
208
208
209
209
209
209
209
209
209
210
210
211
211
211
211
211
211
211
211
211
211
211
211
211
211
210
211
211
211
211
212
212
212
213
213
213
213
213
213
214
213
213
213
212
213
213
213
212
212
211
211
212
212
212
212
212
211
211
212
212
212
212
213
213
212
212
212
212
213
214
214
214
214
214
212
212
213
212
212
212
212
213
213
213
214
214
214
215
216
216
217
217
218
218
218
218
218
218
217
217
216
215
216
216
216
215
216
217
216
216
216
217
216
216
217
219
221
224
225
225
225
225
226
227
228
228
228
227
227
226
225
224
223
223
222
220
220
219
219
219
220
221
222
222
221
221
220
219
219
218
216
215
214
213
212
212
211
211
211
210
210
211
210
209
209
209
209
208
209
211
213
215
215
217
221
224
224
224
222
220
217
213
211
209
207
208
208
119
119
119
120
120
121
121
121
122
122
122
123
124
125
125
125
126
126
126
127
127
128
128
129
129
130
130
131
132
132
133
134
134
134
135
135
136
136
137
137
138
138
139
139
140
141
141
141
141
142
142
143
144
144
145
146
146
146
146
147
147
147
148
148
149
150
150
151
151
151
152
152
153
153
154
155
155
155
156
156
156
156
157
157
157
157
158
158
159
159
160
160
161
162
162
163
164
164
164
165
165
165
166
167
167
168
169
170
170
171
172
173
174
175
175
175
175
175
176
176
176
176
177
177
178
178
179
179
180
181
181
182
183
183
184
185
185
186
186
187
187
188
188
189
190
192
193
193
193
192
193
193
193
194
194
195
195
195
196
197
198
199
200
201
201
202
203
202
203
202
203
203
203
203
203
203
204
204
204
204
205
205
205
204
204
204
204
204
205
205
206
205
205
205
205
206
206
207
208
208
208
208
208
208
209
209
209
209
209
209
209
208
209
209
209
209
210
210
210
210
210
211
211
211
211
211
211
211
211
211
212
212
212
212
211
211
211
211
211
211
211
212
212
212
213
213
212
212
212
212
213
213
213
213
213
213
213
213
213
214
214
214
214
216
217
217
217
215
214
214
213
213
214
213
214
214
214
214
214
214
214
215
217
218
217
217
216
213
212
212
212
211
211
211
211
211
211
211
211
212
212
212
213
213
214
214
215
215
215
215
215
214
214
213
214
214
214
213
213
213
213
213
213
213
213
213
214
216
218
221
225
226
227
228
228
228
228
229
228
228
227
226
226
225
224
224
224
222
217
215
214
213
213
213
213
214
214
214
214
213
211
210
208
207
206
205
205
204
204
203
203
203
202
202
202
201
201
201
200
199
199
199
201
202
203
203
204
207
213
220
222
221
219
217
215
213
210
208
205
205
118
118
119
119
120
120
120
121
121
122
122
123
124
125
125
125
126
126
126
127
127
128
128
129
129
129
130
131
132
133
133
134
134
135
135
135
136
136
137
137
138
138
139
140
140
140
141
141
142
142
142
143
144
144
145
145
146
146
146
147
147
148
148
148
149
150
150
151
151
151
151
152
152
153
154
154
155
155
155
156
156
156
156
157
157
158
158
158
158
159
160
160
161
161
162
163
164
164
164
164
165
166
167
167
168
169
170
171
172
173
174
174
175
175
176
176
176
176
177
177
177
178
178
179
179
179
180
180
181
181
182
183
183
184
184
185
185
186
186
187
187
188
189
189
189
190
191
192
191
191
191
192
192
192
193
194
194
194
195
196
196
197
198
199
200
200
201
202
202
202
202
202
202
202
201
201
202
202
202
202
203
203
203
203
203
203
203
204
204
204
204
204
204
204
205
205
206
207
207
208
208
209
209
209
210
209
209
208
209
209
209
209
209
210
210
210
210
210
210
210
211
211
210
211
211
211
211
212
212
211
212
212
212
211
211
211
211
211
211
211
212
212
212
212
212
211
211
211
211
211
211
211
212
211
212
212
213
213
213
214
214
214
214
214
215
215
215
214
214
214
214
215
214
215
214
214
214
214
214
215
215
216
218
219
218
217
214
212
211
212
211
211
210
210
209
209
209
210
210
210
210
210
210
211
212
213
214
215
215
215
214
213
212
211
211
212
211
211
210
210
210
211
211
211
211
212
215
216
217
217
219
220
222
226
227
228
229
229
228
227
226
225
225
224
223
223
221
218
214
212
211
210
209
209
208
208
207
206
206
205
204
203
203
203
202
202
202
202
202
201
201
201
201
200
200
200
200
200
199
198
197
197
197
197
197
197
198
198
202
208
212
215
216
216
215
212
210
208
205
203
117
118
119
119
120
120
121
120
122
122
122
124
124
124
125
125
126
126
127
127
127
128
128
129
129
130
131
131
131
133
133
134
134
134
135
136
136
136
137
137
138
138
139
139
140
140
141
141
142
142
142
143
144
144
145
145
145
146
146
146
147
147
148
148
149
150
150
151
151
151
152
152
152
153
153
154
154
155
155
155
156
156
156
156
157
157
158
158
159
159
160
160
161
162
162
164
164
164
165
165
166
167
167
168
169
171
172
172
174
174
175
176
176
177
178
178
178
179
179
180
181
182
182
183
183
183
183
183
183
183
183
183
184
184
184
184
185
186
186
187
187
188
187
188
189
189
189
190
190
190
191
191
191
192
193
193
194
194
195
195
195
196
197
197
198
198
199
199
199
199
200
200
200
200
200
200
200
200
200
201
201
201
201
202
202
202
202
202
202
202
202
202
202
203
203
203
205
205
206
207
208
208
209
210
210
209
209
208
209
209
209
208
208
208
208
209
209
209
209
210
210
210
209
209
209
209
209
209
209
209
209
210
210
210
210
210
210
210
211
211
211
210
210
210
210
210
210
210
210
211
211
211
211
211
211
211
212
212
212
212
212
212
212
212
212
212
212
212
212
212
212
212
212
212
212
212
212
212
212
212
213
213
214
215
214
213
212
211
211
211
211
210
210
210
210
210
211
212
211
211
212
212
213
214
215
216
217
217
217
216
215
213
212
211
212
211
211
210
210
210
210
211
211
211
211
213
217
218
218
218
218
221
221
224
225
227
227
226
226
225
225
225
224
223
223
221
218
215
212
210
208
206
206
205
205
204
204
204
204
204
204
203
203
203
203
203
203
202
202
202
202
202
202
202
202
202
202
202
201
200
200
200
200
200
201
201
201
201
202
203
205
208
211
213
213
212
210
207
205
203
118
118
119
119
120
120
121
121
122
122
123
124
124
125
125
126
126
126
127
127
128
128
128
129
129
130
131
131
132
132
133
134
134
134
135
135
136
136
137
137
138
138
139
139
140
140
141
141
142
142
143
144
144
144
145
145
146
146
146
147
147
147
148
148
149
150
151
151
152
151
152
152
152
153
154
154
154
155
155
155
156
156
156
156
157
158
158
159
159
160
161
161
162
162
163
163
164
165
166
167
167
168
168
169
170
171
172
173
174
175
176
177
177
178
179
180
180
180
180
181
181
182
183
184
184
183
183
183
182
182
182
182
183
183
183
183
183
184
185
186
186
187
187
187
188
188
188
188
189
190
190
191
191
192
192
193
193
194
195
195
195
195
195
196
196
197
197
197
197
198
199
199
199
200
199
199
199
199
200
200
200
200
201
201
201
201
202
202
202
202
202
202
202
202
203
203
204
204
205
205
206
207
209
209
208
207
206
206
206
206
205
205
205
205
206
207
208
208
207
207
206
206
206
206
206
207
207
207
207
207
208
208
208
208
208
208
208
208
208
208
208
208
208
208
209
209
209
209
209
209
209
210
210
210
211
211
211
212
212
212
212
212
212
212
212
212
212
213
213
213
212
210
210
210
211
210
210
210
210
210
211
211
211
211
211
210
211
211
211
211
211
211
213
214
215
214
214
214
214
214
215
216
217
218
219
219
218
217
216
215
214
213
212
212
212
211
210
210
210
210
210
211
211
212
212
214
216
219
220
219
221
222
223
223
224
224
222
222
223
224
224
223
222
222
223
222
217
212
210
207
205
205
205
205
205
205
205
205
205
205
205
205
206
206
206
206
205
205
205
205
206
206
206
206
207
207
206
206
205
205
204
203
203
203
202
203
203
202
202
202
202
203
205
208
208
208
207
205
203
202
117
118
119
119
120
120
121
121
122
123
123
124
124
125
125
126
126
127
127
127
128
128
128
129
129
130
131
132
132
133
133
134
134
134
135
135
136
137
137
137
138
139
139
140
140
141
141
141
142
143
143
143
144
144
145
145
146
146
146
147
148
148
148
149
149
150
151
151
152
152
152
152
153
153
154
154
155
155
155
156
156
156
157
157
158
158
159
159
160
161
161
162
163
163
164
164
165
165
166
167
168
168
169
170
171
172
173
173
174
174
175
175
176
177
177
177
178
178
179
179
179
180
181
181
182
181
181
181
181
181
181
181
182
182
182
183
183
184
185
185
186
186
186
187
188
188
188
188
189
190
190
191
192
193
194
194
194
194
194
195
195
195
195
194
195
196
196
197
197
197
198
198
199
200
200
200
200
200
200
200
201
201
201
201
201
202
202
202
202
202
202
202
202
202
202
202
203
203
204
204
204
205
206
205
204
204
204
204
204
203
204
204
204
205
206
207
207
206
205
205
205
204
204
205
205
205
205
205
205
205
206
206
205
205
205
205
205
205
206
206
207
208
208
208
207
208
208
208
207
207
207
207
208
209
209
209
209
209
209
209
209
209
210
210
210
210
210
210
210
210
210
209
209
209
210
209
209
210
210
210
211
211
211
211
212
212
212
212
213
214
215
215
216
217
217
217
217
217
217
218
217
217
217
219
219
217
216
215
214
213
213
213
212
212
211
212
211
212
212
212
212
212
213
214
216
216
216
218
219
221
222
223
224
223
223
222
221
221
221
222
223
223
221
222
223
219
215
212
209
208
208
208
208
207
207
207
207
207
207
208
208
208
209
209
208
208
207
208
208
207
206
206
205
205
205
205
206
205
205
204
203
202
202
202
202
202
201
200
200
201
201
201
202
202
203
202
203
202
200
200
118
118
119
119
120
120
121
122
122
123
124
124
125
125
125
126
126
126
127
127
128
128
128
129
129
130
131
132
132
133
133
134
134
135
135
136
136
137
137
138
138
139
139
140
140
141
141
142
142
143
143
143
144
145
145
146
146
146
147
147
148
149
149
149
150
150
151
151
152
152
152
153
153
153
154
155
155
156
156
156
157
157
158
158
159
159
160
160
161
161
162
163
164
164
164
165
166
167
168
169
169
170
171
171
172
173
173
174
174
175
175
175
176
176
177
177
178
178
178
179
179
180
180
180
179
180
180
180
181
181
181
181
181
182
183
183
184
185
185
186
186
187
187
189
190
189
190
190
191
191
191
192
194
196
196
196
195
194
193
193
193
194
194
193
193
193
194
194
195
195
196
196
197
197
198
198
199
199
199
199
200
200
200
200
201
201
201
201
202
201
201
202
202
202
202
202
202
202
202
202
203
204
203
203
202
202
202
202
202
202
203
203
204
204
205
205
205
204
204
204
203
203
203
204
204
204
204
204
204
204
204
204
205
205
205
205
205
205
206
207
208
208
207
206
206
206
207
206
206
206
207
207
207
208
208
208
208
208
208
208
208
208
208
208
208
208
208
208
208
208
208
208
208
209
209
210
210
211
211
210
210
211
211
212
212
212
213
213
214
215
216
216
216
217
217
217
217
217
217
217
217
216
217
217
217
217
216
216
216
216
216
216
215
215
216
217
217
217
217
217
217
217
218
218
218
219
219
219
220
220
221
223
223
223
223
222
221
220
221
222
223
223
223
221
218
216
213
212
211
210
209
209
209
209
208
207
207
207
207
207
207
207
206
206
206
205
204
204
204
203
203
202
202
202
202
202
202
202
202
201
200
199
198
198
199
199
199
199
199
199
199
200
200
200
200
199
198
197
196
197
118
119
119
120
120
120
121
122
123
123
124
124
125
125
125
126
126
127
127
127
128
128
129
129
129
130
131
131
132
133
133
134
134
135
135
136
136
137
137
138
139
139
139
140
140
141
142
142
142
143
143
144
144
145
146
146
146
147
148
148
148
149
149
149
150
151
151
152
152
153
153
153
154
154
155
155
156
156
157
157
158
159
159
160
160
160
161
162
163
163
164
164
165
166
166
167
168
169
170
170
171
171
172
172
173
173
174
174
175
175
176
177
178
178
179
179
179
179
181
180
181
181
180
180
180
180
180
180
180
181
181
181
181
182
183
183
183
183
184
185
185
186
188
189
189
189
190
191
191
192
193
194
195
196
196
197
198
196
194
193
193
193
193
193
193
193
193
193
193
194
194
195
196
196
197
197
197
198
198
198
198
198
198
198
198
199
199
199
200
199
200
200
200
200
201
201
201
200
200
201
201
201
200
200
200
200
201
201
201
201
202
202
203
203
203
203
203
202
202
202
202
202
202
202
203
203
203
203
203
204
205
205
205
205
205
205
205
206
206
206
206
206
205
205
205
206
206
206
207
207
207
208
208
208
208
208
208
209
209
208
208
208
208
208
208
208
208
207
207
207
207
208
208
209
209
209
210
209
209
209
209
209
210
210
211
211
212
212
212
213
214
214
214
215
215
216
217
217
217
217
217
217
218
218
219
219
218
218
218
219
219
220
220
220
220
219
219
218
218
218
218
218
218
218
218
220
221
221
220
220
221
221
221
220
220
221
220
220
220
222
222
221
218
215
213
211
211
211
210
209
208
207
207
206
206
205
205
205
205
204
204
203
203
202
202
201
201
200
200
199
199
199
198
198
198
198
197
197
197
197
196
195
194
194
194
194
195
195
194
194
193
193
192
191
190
188
188
187
187
186
118
119
120
120
120
121
122
122
123
124
124
124
125
125
126
126
126
127
127
127
128
128
129
129
130
130
131
131
132
133
133
134
134
135
136
136
137
137
138
139
139
139
140
140
141
142
142
142
142
143
143
143
144
146
146
147
148
148
148
149
149
150
150
151
151
151
151
152
153
154
154
154
155
156
156
156
157
158
158
159
160
161
161
162
162
163
163
164
165
166
166
167
167
168
168
169
170
171
172
171
171
171
172
173
173
174
174
175
176
177
178
178
179
179
180
180
180
181
182
182
182
181
180
180
180
180
180
181
180
181
181
181
182
182
183
183
183
183
183
183
184
184
186
186
187
187
189
189
189
191
193
193
195
195
195
196
197
197
195
193
193
193
193
192
192
193
193
193
193
193
194
194
195
195
196
196
196
196
197
197
197
197
197
198
198
199
198
198
198
198
198
199
198
198
199
199
199
199
199
199
198
198
198
199
199
200
200
201
201
201
202
202
203
203
203
202
202
201
201
201
202
202
202
202
203
203
203
203
203
203
203
203
203
203
203
204
204
204
204
204
205
205
205
206
206
206
207
207
207
208
208
208
208
208
208
208
208
208
208
208
208
208
208
207
207
207
208
207
207
206
206
206
206
206
207
207
207
207
207
207
208
209
209
209
209
210
211
211
211
212
212
212
213
214
215
217
218
218
218
218
216
216
217
217
218
218
218
218
218
218
217
217
217
216
216
216
215
215
216
215
215
215
216
216
217
218
220
219
218
218
219
217
217
218
218
218
218
218
217
216
215
213
211
209
208
207
206
206
205
204
204
204
204
203
203
203
203
203
202
202
201
201
201
200
200
199
199
198
198
198
198
197
197
197
197
197
196
196
195
195
194
193
192
192
191
191
191
190
189
188
188
187
187
186
186
186
185
185
184
183
119
120
120
120
121
121
122
122
123
124
124
125
125
125
125
126
126
127
127
127
128
128
129
129
130
131
131
132
132
133
134
134
135
135
136
136
137
138
139
139
140
140
141
141
141
142
142
143
143
144
144
144
145
146
147
147
148
149
148
149
150
150
151
151
152
153
153
154
155
155
156
156
156
157
158
158
159
159
160
161
162
163
164
165
166
167
168
169
170
171
171
171
171
171
172
172
172
173
173
172
171
172
173
174
174
175
175
176
176
177
177
178
178
179
180
180
180
180
180
180
181
181
180
180
180
181
181
181
181
181
181
181
182
182
183
182
182
182
182
182
183
183
184
185
186
186
186
187
188
189
189
190
191
191
192
192
193
193
193
193
195
195
193
193
193
192
192
192
193
193
193
193
194
194
195
195
196
196
196
197
197
197
198
199
200
201
200
198
198
198
198
198
198
198
198
198
198
198
198
197
197
197
198
198
199
200
200
201
201
202
202
202
202
202
202
201
201
201
201
201
201
202
202
202
202
202
202
202
202
202
203
203
203
203
204
204
204
205
205
205
205
205
205
205
205
205
205
205
205
205
205
206
206
206
206
207
207
207
208
208
208
208
208
208
208
208
208
208
208
208
207
207
207
207
207
208
208
208
209
209
209
209
209
210
210
211
211
211
211
212
212
213
214
215
216
217
217
217
216
215
215
215
217
216
216
215
214
213
213
212
212
212
212
211
212
212
213
214
214
213
213
213
214
215
215
217
217
217
217
217
217
217
217
217
215
214
213
212
210
209
207
206
205
204
204
204
204
204
203
203
203
203
202
202
202
202
201
201
200
200
199
199
199
199
198
198
198
197
197
197
196
196
196
196
195
195
194
194
193
193
193
192
192
191
191
190
189
189
189
188
187
187
186
186
186
185
185
185
184
183
119
120
120
120
121
122
122
122
123
124
124
125
125
125
125
126
126
126
127
127
128
128
129
129
130
131
131
132
132
133
134
135
135
136
136
137
138
139
140
140
140
141
141
142
142
142
143
143
144
145
145
145
147
147
148
149
149
150
150
151
151
152
152
154
155
155
155
156
156
156
157
158
159
160
161
162
163
164
165
166
166
167
169
170
171
171
171
171
172
173
172
173
173
173
173
172
172
172
172
172
173
173
174
174
174
175
175
175
175
175
175
176
176
177
178
178
178
178
179
180
180
181
181
181
180
181
181
180
181
181
182
182
182
182
183
182
182
182
182
183
183
184
185
186
186
186
186
186
187
187
187
188
188
189
189
190
190
191
193
193
193
193
192
192
192
192
192
193
193
193
193
193
194
195
195
196
196
196
197
198
198
199
199
200
201
200
199
199
198
198
198
198
198
198
198
198
198
198
197
197
197
198
198
199
200
200
200
201
202
202
202
201
201
201
200
200
200
200
200
200
200
200
200
201
201
201
201
202
202
202
202
202
202
202
203
203
202
202
202
203
203
203
203
203
203
204
204
204
204
204
204
205
205
205
205
205
205
205
206
206
207
207
207
207
208
208
208
209
209
209
209
208
208
208
208
209
209
210
210
211
211
211
212
213
213
214
213
214
214
214
216
217
218
219
219
219
218
218
217
216
216
216
217
217
217
216
215
213
212
211
211
211
210
210
211
212
212
213
214
214
215
214
214
214
215
215
215
214
214
213
211
210
210
209
208
207
206
206
205
205
204
204
204
204
204
204
203
203
202
202
202
202
202
201
201
200
200
200
200
200
199
199
199
198
198
198
197
197
197
196
196
196
196
196
195
194
194
194
193
193
193
192
192
192
191
190
189
189
189
188
188
187
187
186
186
185
185
184
184
183
119
120
120
120
120
121
122
122
123
124
124
125
125
125
125
125
126
126
127
127
128
129
129
130
130
131
132
132
133
134
134
134
136
137
138
138
139
140
140
140
140
141
141
142
142
143
144
145
145
146
147
147
147
149
150
150
151
151
152
152
153
154
154
155
156
156
156
157
158
159
159
160
162
164
165
166
167
168
169
170
170
170
171
172
172
173
173
173
173
173
173
173
174
174
174
174
174
174
175
175
175
176
176
176
176
176
176
176
176
176
177
177
178
178
177
177
177
177
177
178
178
180
180
180
180
180
180
180
180
180
181
181
182
182
182
182
183
184
184
184
184
185
185
185
185
185
185
186
186
186
186
186
187
187
188
189
189
190
192
192
192
192
192
192
192
192
192
192
193
193
193
193
193
194
195
195
195
196
196
197
197
198
197
198
198
198
198
198
198
198
198
198
198
198
198
198
198
198
198
199
199
199
200
200
200
201
201
201
201
200
200
200
199
199
199
200
199
199
199
199
199
200
200
201
201
201
201
201
201
201
201
201
201
201
201
201
201
201
201
202
202
202
202
202
202
202
203
203
203
204
204
204
204
204
205
205
205
205
205
205
205
205
205
206
206
206
206
206
207
207
208
208
207
207
207
208
209
209
210
210
211
211
212
212
213
214
214
214
214
215
218
220
221
222
222
221
219
219
219
217
216
216
217
218
218
218
217
216
215
214
212
211
210
210
211
212
214
214
214
213
212
212
210
209
209
209
209
208
208
207
206
206
205
205
205
204
204
204
204
204
204
204
204
203
203
203
203
202
202
202
202
201
201
201
200
200
200
200
200
200
200
199
199
198
198
198
198
197
197
197
196
196
196
195
195
194
194
194
194
194
193
193
193
192
191
190
189
189
188
188
188
187
187
186
186
185
185
184
184
183
119
120
120
120
121
121
123
123
123
124
125
125
125
125
126
126
127
127
127
128
128
129
129
130
130
131
132
133
133
133
135
135
136
138
138
139
139
140
141
141
141
142
143
143
144
145
146
147
146
147
147
148
149
150
151
152
152
152
153
154
155
155
156
156
156
157
158
159
160
161
162
163
164
166
167
167
168
169
170
171
171
171
171
172
173
173
173
173
174
174
174
175
175
176
177
177
177
177
178
179
179
179
179
179
178
178
178
179
178
178
178
178
177
177
177
177
176
176
177
178
179
179
180
181
181
182
181
181
181
181
181
182
182
182
183
184
186
186
186
186
186
185
185
184
185
185
185
186
186
186
186
186
186
186
188
189
189
189
190
190
190
191
191
192
192
192
192
192
193
193
193
193
194
194
194
194
195
195
195
196
196
196
196
196
196
196
197
197
198
197
197
198
198
198
198
198
198
199
199
199
200
200
200
200
201
201
200
200
200
200
200
200
200
200
200
200
200
200
200
201
201
201
201
201
202
201
201
201
201
201
201
201
201
201
201
201
201
201
201
201
202
202
202
202
202
202
202
202
202
202
203
203
203
203
203
204
204
204
205
205
205
205
206
206
206
206
206
206
206
206
206
206
206
206
206
206
208
209
209
210
210
211
211
213
215
215
216
215
215
216
218
219
219
219
219
219
218
218
217
217
216
216
216
216
215
214
212
211
210
209
209
209
209
210
210
209
209
209
208
209
210
209
207
207
207
208
206
206
206
206
205
205
205
204
204
204
204
204
204
203
204
203
203
203
203
203
202
202
202
202
202
201
201
201
200
200
200
200
200
199
199
198
198
198
198
198
197
197
197
196
196
195
195
195
194
194
194
194
194
194
194
193
193
191
190
189
189
189
189
188
188
187
187
186
186
185
185
184
184
183
120
120
121
121
121
122
123
124
124
124
125
125
126
126
126
127
127
128
128
128
129
129
130
131
132
132
133
133
134
135
135
136
137
138
139
139
140
141
141
142
143
144
146
147
147
147
148
149
149
148
149
150
151
152
153
154
154
154
155
156
156
157
158
158
158
159
159
159
160
161
162
163
164
165
166
167
168
168
169
170
170
170
170
171
171
172
173
173
173
173
174
174
175
176
176
177
177
177
177
178
178
178
179
178
179
179
179
179
178
178
178
178
177
177
177
177
177
177
177
178
179
179
179
180
180
181
181
182
182
182
183
184
184
184
185
185
185
186
186
185
185
185
184
184
184
184
184
185
186
186
186
186
187
187
187
188
188
188
189
190
190
190
191
191
192
193
193
194
194
194
195
195
194
194
194
194
194
194
194
195
195
195
195
195
195
195
196
196
196
196
197
197
197
197
198
197
197
198
198
198
199
199
199
199
199
199
199
199
199
199
199
199
200
200
200
200
200
200
200
200
200
201
201
201
201
201
201
201
201
201
202
202
202
202
202
202
202
202
202
202
202
202
202
203
203
203
203
203
203
204
203
203
203
203
203
203
203
203
204
204
205
205
205
205
205
205
205
205
205
205
205
205
205
206
206
207
209
211
212
212
212
213
214
216
218
217
217
216
216
216
215
215
212
210
210
210
209
208
208
208
208
208
208
208
207
206
206
206
206
206
206
206
206
206
206
206
206
206
206
206
206
206
206
206
206
206
205
205
205
205
204
204
204
204
204
204
204
204
203
203
203
203
203
203
203
203
203
202
202
202
202
201
201
201
200
200
200
199
199
199
198
198
198
198
197
197
197
197
196
196
196
195
195
194
194
194
194
194
194
194
193
193
192
191
190
190
189
189
188
188
187
187
186
186
186
185
184
184
183
183
120
121
121
122
122
123
124
124
124
125
125
125
126
126
127
128
128
128
129
129
129
130
131
132
132
133
134
134
134
135
136
137
138
138
139
140
141
142
142
144
145
146
147
148
148
148
149
151
151
151
150
151
153
154
155
155
156
156
156
157
158
159
159
159
159
159
159
159
160
161
162
163
164
165
166
166
167
167
168
168
168
168
168
169
170
171
172
172
173
173
173
174
174
174
175
175
175
175
175
177
177
178
178
178
178
178
179
179
179
179
179
179
179
179
178
177
177
177
177
177
177
177
178
178
179
180
181
182
183
183
184
184
185
185
185
184
185
185
184
185
185
185
185
184
185
185
185
186
186
186
187
187
187
188
188
188
188
188
189
190
190
190
191
192
193
193
193
194
194
194
194
194
194
194
194
193
194
194
194
194
194
194
194
195
195
195
196
196
196
197
198
197
198
198
198
197
197
197
197
197
197
197
197
197
197
197
198
198
198
198
198
198
198
198
199
199
199
200
200
200
200
200
200
200
200
200
200
200
201
201
201
201
201
201
201
202
202
202
203
203
203
204
203
204
203
204
204
204
204
204
204
204
204
204
204
205
205
205
205
205
205
205
205
205
205
205
205
205
205
206
206
206
207
208
209
210
211
213
215
213
213
214
214
214
211
208
207
207
207
206
206
205
205
205
205
205
205
205
205
205
205
206
206
206
205
205
205
205
205
206
206
206
206
206
206
205
205
205
205
205
205
205
205
205
205
205
204
204
204
204
205
204
204
204
204
204
204
203
203
203
203
203
203
203
203
203
203
203
202
202
202
201
201
200
200
200
199
199
199
199
198
198
198
198
198
197
197
197
196
196
196
195
195
195
194
194
194
194
194
194
194
193
192
191
190
190
189
189
188
188
187
187
186
186
186
185
185
184
184
183
121
121
122
123
123
123
124
124
125
125
125
126
127
127
128
128
128
129
129
129
130
131
131
132
133
134
134
135
135
136
136
137
138
139
140
141
142
142
144
145
146
145
146
147
147
147
148
149
149
150
151
151
152
153
154
155
155
156
156
156
156
157
157
157
157
158
158
159
159
159
160
161
162
163
165
166
166
167
167
168
168
169
169
170
171
171
171
172
172
173
174
174
174
174
174
174
175
175
175
176
176
177
178
178
179
179
180
180
179
180
179
179
179
179
178
178
178
178
179
179
179
179
180
180
181
181
182
182
182
183
183
184
185
185
185
185
185
185
185
186
186
186
186
186
186
186
186
187
187
187
188
188
188
188
188
188
188
189
189
190
190
190
191
192
192
192
192
193
193
193
193
193
193
193
193
193
193
193
193
194
194
195
195
195
195
196
196
197
197
198
198
199
199
199
198
197
196
196
197
197
197
197
197
197
197
197
197
197
198
198
197
197
197
197
198
198
198
198
198
198
198
198
198
198
198
199
199
200
200
201
200
200
201
201
201
201
202
202
202
203
203
203
204
204
204
204
204
204
205
205
205
205
205
206
205
205
206
206
206
206
206
206
206
206
206
207
207
208
208
208
208
208
208
209
210
210
210
210
208
206
206
206
206
205
204
204
203
204
204
204
204
204
204
205
205
204
204
204
204
205
205
205
205
205
205
205
205
205
205
206
205
205
205
205
205
205
205
205
204
205
205
205
204
204
204
204
204
204
204
204
204
204
204
204
204
204
204
204
204
204
203
203
203
203
203
203
202
202
202
202
201
201
201
201
200
200
199
199
199
198
198
198
198
198
197
197
197
196
196
196
195
195
195
195
194
194
194
194
194
194
194
193
192
191
190
189
189
189
189
188
187
187
187
186
185
185
185
184
184
183
121
121
122
122
123
123
124
124
125
125
126
126
127
127
128
128
129
129
129
130
130
131
131
132
134
134
135
135
136
136
137
138
138
139
140
140
141
142
143
143
143
144
145
146
146
147
147
147
148
149
150
150
151
151
152
153
153
154
154
154
154
155
156
156
156
156
157
158
158
158
159
160
161
163
165
167
167
168
169
169
169
170
170
170
171
171
172
172
172
173
174
174
174
174
174
175
175
175
176
176
176
176
178
178
179
179
180
180
181
181
181
181
181
181
181
181
180
180
180
181
181
181
181
181
181
182
182
182
183
184
185
185
186
186
186
186
186
186
187
187
188
187
187
187
187
187
187
187
187
187
187
187
188
188
188
188
188
188
189
189
188
189
189
190
190
191
191
192
192
192
192
192
193
193
193
193
194
194
195
195
195
196
196
196
196
197
198
198
199
199
199
198
198
198
197
197
197
197
197
197
197
197
197
197
197
197
197
197
197
197
197
197
197
197
197
197
197
197
197
197
197
197
197
198
198
198
198
198
198
198
199
199
199
199
199
199
200
200
200
200
200
200
201
201
202
202
203
203
203
203
203
203
203
203
203
203
203
203
203
204
204
204
204
204
204
205
205
205
205
205
204
204
204
204
204
204
205
204
203
203
203
203
203
203
203
203
203
203
204
204
204
204
204
204
204
204
204
204
204
205
205
205
205
205
205
205
205
205
205
204
204
205
204
204
204
205
204
204
204
204
204
204
204
204
204
204
204
204
204
204
204
204
204
204
204
204
204
204
204
204
204
203
203
203
203
202
202
202
202
202
202
201
201
200
200
200
199
199
199
198
198
198
198
198
197
197
196
196
196
196
195
195
195
195
195
194
194
194
194
194
193
192
192
191
191
190
189
189
188
188
187
186
186
186
185
185
185
184
183
183
121
121
122
122
123
123
124
124
125
125
126
127
127
127
128
128
129
129
129
130
130
131
132
133
134
135
135
135
136
136
137
138
138
138
139
140
140
141
141
142
142
143
144
145
145
146
147
147
147
148
148
149
149
149
150
150
151
151
151
152
153
154
155
155
156
156
156
157
158
158
159
160
161
164
165
166
167
169
169
170
170
170
170
170
171
171
172
172
172
173
173
174
174
175
175
176
176
177
177
176
177
177
178
178
179
179
180
181
182
182
182
183
182
182
182
182
182
181
181
181
182
181
181
182
182
182
182
183
184
185
185
186
186
186
187
187
187
187
188
188
188
188
188
187
187
187
187
187
186
187
187
186
186
187
187
186
187
187
187
187
187
187
187
187
188
188
189
189
190
190
191
192
193
194
194
194
195
194
194
195
195
195
196
196
196
196
197
197
197
197
196
197
197
197
196
196
196
196
196
196
196
197
197
197
197
197
197
197
197
198
198
197
197
197
197
197
197
197
197
197
197
197
197
198
198
198
198
198
198
198
198
198
198
198
199
199
199
199
199
199
199
199
199
200
200
200
201
201
201
201
201
201
201
201
201
201
201
201
201
201
201
202
202
201
202
202
202
202
202
202
203
203
203
203
203
203
203
203
203
203
203
203
203
203
203
203
204
203
203
203
204
204
203
203
204
204
204
204
204
205
205
204
204
204
204
204
204
204
204
204
204
204
204
204
204
204
204
205
205
204
205
204
204
204
204
204
205
205
205
205
205
205
205
205
204
204
204
204
203
203
203
203
203
202
202
202
202
202
202
202
201
201
201
200
200
200
200
199
198
198
198
198
198
197
197
197
196
196
195
195
195
194
194
194
194
194
194
194
194
193
193
192
192
191
190
189
189
189
188
187
187
187
186
186
185
184
184
184
183
183
121
121
122
123
123
124
125
124
125
125
126
127
127
127
128
129
129
130
129
130
131
132
132
133
134
134
135
136
136
137
138
138
138
139
139
139
140
141
141
142
142
142
143
143
143
145
145
146
147
147
148
148
148
148
149
150
150
151
152
153
154
155
155
156
156
157
158
158
159
160
160
162
163
164
165
166
166
167
167
168
169
169
169
170
170
171
171
172
172
173
173
175
175
175
175
176
176
176
176
176
176
176
176
176
177
177
178
179
180
180
181
181
182
182
182
182
181
181
181
181
181
181
182
182
182
183
185
185
185
186
185
185
185
185
185
186
186
186
187
187
187
188
188
187
187
187
186
186
186
186
186
186
187
187
187
186
186
186
186
186
186
186
186
187
187
188
188
189
189
190
191
192
193
193
193
193
194
194
194
194
194
195
196
196
196
196
196
196
196
197
197
197
197
197
197
198
198
198
197
197
197
197
197
197
197
197
197
197
197
197
197
197
197
197
197
197
197
197
197
197
197
197
198
198
198
198
198
198
198
198
198
198
198
199
199
199
199
199
200
200
200
199
199
200
201
201
201
201
201
201
201
201
201
201
201
201
201
201
201
201
201
201
201
201
201
201
202
201
202
202
202
202
202
202
202
203
203
203
203
203
203
203
203
203
203
203
203
203
203
203
203
203
203
203
203
204
204
204
204
204
204
204
204
204
204
205
204
204
204
204
204
204
204
205
205
205
205
205
205
205
204
204
205
205
204
205
205
205
205
205
205
204
205
204
204
204
204
204
204
204
203
203
203
203
203
202
203
202
202
202
201
201
201
200
200
200
199
198
198
198
198
197
197
197
197
196
196
195
195
195
194
194
194
194
194
194
194
194
193
193
192
191
191
190
189
189
189
189
188
187
187
186
186
185
185
184
184
183
183
183
121
122
122
123
124
124
125
125
126
126
126
128
128
128
128
129
129
130
131
132
132
132
133
134
134
135
136
136
137
137
138
138
138
138
139
139
140
140
141
141
141
142
142
143
143
143
144
145
146
147
148
148
149
149
150
151
151
152
153
154
155
156
157
157
158
160
160
160
161
162
163
164
164
164
165
166
166
166
167
168
169
170
170
171
171
171
172
172
173
173
174
174
175
175
175
175
175
175
175
175
175
175
175
175
175
175
175
176
177
178
179
180
181
181
181
182
181
181
181
181
181
181
182
182
183
185
187
186
185
185
184
183
183
183
183
184
184
184
185
185
186
186
187
188
188
187
187
187
187
186
187
187
187
188
187
187
187
187
187
187
187
188
188
188
188
189
189
189
189
190
191
192
192
193
193
193
193
193
193
193
194
194
194
195
195
196
196
197
198
198
198
198
198
198
198
198
198
198
197
197
197
197
197
197
197
197
197
197
197
197
197
197
197
197
198
197
197
197
197
197
197
197
197
197
197
197
197
197
197
198
198
198
198
198
198
199
198
199
199
199
199
200
200
201
201
201
201
202
201
201
201
201
201
201
201
202
202
201
201
201
201
201
201
201
201
201
201
201
202
202
202
202
202
202
202
203
203
203
203
203
203
203
203
203
203
203
203
203
203
203
203
203
203
203
203
203
204
204
204
204
204
204
204
204
204
204
204
204
204
205
205
205
205
204
204
204
204
205
205
204
205
205
205
205
204
204
205
205
204
204
204
204
204
204
204
204
204
204
204
204
203
203
203
203
203
203
202
202
202
201
201
201
201
200
199
199
199
198
198
198
198
197
197
197
196
196
196
195
195
195
195
194
194
194
194
194
194
194
193
193
192
191
191
190
189
189
189
189
188
187
187
186
186
185
185
184
184
183
183
183
122
122
123
124
124
125
125
126
127
126
127
127
128
129
130
130
131
132
132
132
132
133
134
134
135
135
136
136
137
137
137
137
138
138
139
139
140
140
140
140
141
141
141
142
142
143
144
145
146
147
148
148
149
150
151
151
152
152
153
154
155
155
157
157
158
159
160
161
162
162
162
163
163
163
164
165
165
165
166
167
168
169
170
170
170
170
171
172
171
171
171
172
173
173
173
173
174
174
174
174
175
175
175
174
174
174
175
175
175
176
176
177
178
178
179
179
180
180
180
180
180
181
181
181
181
182
184
184
183
183
182
182
182
182
182
182
183
183
183
183
184
185
186
187
187
187
187
187
187
187
187
187
187
187
187
187
186
186
185
186
187
187
187
187
187
187
187
187
187
188
189
189
190
190
191
192
192
193
193
193
194
194
194
195
195
196
196
197
198
198
198
198
198
198
198
198
198
198
198
198
198
199
199
199
198
198
198
198
198
198
198
198
198
198
198
198
198
198
198
197
197
197
197
197
197
197
197
197
198
198
198
198
198
198
198
198
198
199
199
199
200
200
200
200
200
201
201
202
201
201
201
201
201
201
201
201
201
201
201
202
201
202
201
201
202
202
202
202
202
202
202
202
202
202
203
203
203
203
203
203
203
203
203
203
203
203
203
203
203
203
203
203
203
203
203
203
203
204
204
204
204
204
204
204
204
204
204
204
204
205
205
205
205
205
205
204
204
204
204
204
204
204
204
204
204
204
204
204
204
204
204
204
204
204
204
204
204
204
204
203
203
203
203
203
203
202
202
202
201
201
201
200
200
200
199
199
198
198
198
198
197
197
197
197
196
196
196
195
195
195
194
194
194
194
194
194
194
194
193
192
192
191
191
190
189
189
189
188
188
187
187
186
186
185
185
184
184
183
183
183
123
123
123
124
124
124
125
126
126
126
127
127
128
129
129
130
131
131
131
131
132
133
133
134
135
135
136
137
137
137
137
137
138
138
139
140
140
140
140
141
141
141
142
142
143
143
144
145
146
147
147
148
148
149
150
150
151
152
152
153
153
154
155
155
156
157
157
158
158
159
159
159
160
160
161
162
162
163
163
164
165
166
166
167
168
168
169
169
169
169
169
170
171
172
172
172
172
172
173
174
174
174
173
173
173
173
173
173
174
174
175
175
175
175
176
176
177
177
178
178
178
178
178
178
178
179
180
180
179
179
179
180
180
180
180
180
180
180
180
181
181
182
182
183
183
183
183
183
183
184
184
184
184
184
184
184
184
184
184
184
185
185
186
186
186
186
186
186
186
187
188
189
189
190
190
191
192
193
193
193
194
194
195
196
196
197
197
197
198
198
198
198
198
198
198
198
198
198
198
198
198
198
198
199
199
198
198
198
198
198
198
198
198
198
198
198
198
198
198
198
197
197
198
197
197
198
198
198
198
198
198
198
198
198
198
199
199
199
199
200
200
200
201
201
201
201
202
202
202
202
202
202
202
202
202
202
202
202
202
203
203
202
202
202
202
202
202
202
202
202
202
202
202
202
202
203
203
203
203
203
203
203
203
203
203
203
203
203
203
203
203
203
203
203
203
203
204
204
204
204
204
204
204
204
204
204
204
204
205
205
204
205
205
205
204
204
204
204
205
204
205
205
205
204
205
205
204
204
204
204
204
204
204
204
204
204
204
203
204
203
203
203
203
203
203
202
202
202
201
201
200
200
199
199
199
198
198
198
198
198
197
197
197
197
196
196
195
195
195
194
194
194
194
194
194
194
194
193
193
192
191
191
191
190
190
190
189
188
188
187
187
186
186
185
185
184
184
183
183
183
123
124
124
124
125
125
125
126
126
127
127
128
128
129
129
130
130
130
130
130
131
132
133
134
135
136
136
137
137
137
138
138
138
139
139
140
140
140
140
140
140
141
141
142
142
143
143
143
145
146
147
147
148
148
149
150
151
151
152
153
153
153
154
155
156
156
157
157
158
158
159
159
160
160
160
161
162
162
163
163
164
164
165
166
166
167
167
167
167
167
167
167
168
168
168
168
169
170
170
172
172
172
172
172
173
173
174
174
175
175
175
175
176
176
176
176
176
176
176
177
177
177
178
179
179
178
179
179
178
178
178
178
178
178
178
178
177
177
177
178
178
178
179
180
180
181
181
181
182
182
182
183
183
183
183
183
183
183
183
183
183
184
184
184
184
184
185
185
186
187
187
188
189
189
189
190
191
191
192
193
193
194
194
195
196
196
196
196
196
196
196
196
196
196
196
196
196
196
197
196
196
196
196
197
197
197
198
197
198
197
197
197
197
197
197
197
197
197
197
197
197
197
197
197
197
197
197
198
198
198
198
198
198
198
198
199
199
199
199
199
200
200
200
201
201
201
201
201
201
202
202
202
202
202
202
202
202
202
202
202
203
203
202
202
202
202
202
202
202
203
202
202
202
202
202
202
203
203
203
203
203
203
203
203
203
203
203
203
203
203
203
203
203
203
203
203
203
204
204
204
204
204
204
204
204
204
204
204
205
205
205
205
205
205
205
205
205
205
205
205
204
205
205
205
204
204
204
204
204
204
204
204
204
204
204
204
204
204
203
203
203
203
203
203
202
202
202
201
201
201
200
200
200
199
199
198
198
198
198
198
197
197
197
196
196
196
195
195
195
194
194
194
194
194
194
194
193
193
193
192
192
191
191
191
190
190
189
188
188
187
187
186
186
185
185
184
183
183
183
183
123
124
124
124
125
125
126
126
127
127
127
128
128
129
130
130
129
129
130
130
131
132
133
133
134
135
136
138
137
138
138
138
137
138
139
139
139
139
140
140
140
141
141
142
142
143
144
144
144
145
146
147
147
147
148
149
148
150
151
152
153
154
154
155
156
156
157
157
158
158
159
159
160
161
161
161
162
162
163
163
163
163
163
163
164
164
165
166
165
166
166
166
167
167
168
169
170
171
171
172
173
172
172
172
172
173
174
174
175
175
175
175
175
175
175
175
175
174
175
175
176
177
178
178
178
177
177
176
176
176
176
175
175
176
176
176
176
176
176
176
176
177
177
178
178
179
179
180
180
181
182
183
183
183
183
183
183
183
183
183
184
184
184
184
184
185
185
185
186
186
187
187
188
189
189
189
190
190
191
191
192
192
193
193
193
194
194
194
194
194
194
194
194
194
194
194
194
194
195
195
194
195
195
195
195
195
196
195
195
195
195
195
195
195
195
196
196
196
196
196
196
196
196
196
196
196
197
197
197
197
198
198
198
198
198
198
198
198
198
198
198
199
199
200
200
201
200
200
200
201
200
201
201
201
201
201
201
201
201
201
202
202
202
202
202
201
202
202
203
202
202
202
202
202
202
202
202
202
202
202
203
203
203
202
202
202
203
203
203
203
203
203
203
203
203
203
203
203
204
204
204
205
204
204
204
204
204
204
204
205
205
205
205
205
205
205
205
205
205
205
205
205
205
204
205
205
205
205
205
204
204
204
204
204
204
204
204
204
203
203
203
203
203
203
203
202
202
202
201
201
201
200
200
199
199
199
198
198
198
198
197
197
197
196
196
196
195
195
195
195
194
194
194
194
194
193
193
193
193
193
192
191
191
191
190
190
189
189
188
188
187
186
186
185
185
184
184
183
183
183
123
124
124
124
125
125
126
126
127
128
128
128
128
129
130
129
129
129
129
130
130
131
132
133
134
135
137
138
138
138
137
138
138
138
138
139
139
140
140
140
141
142
142
143
143
144
145
145
145
145
146
146
146
146
146
147
147
148
149
150
150
151
153
154
154
155
155
156
157
157
158
159
159
160
160
160
161
161
161
162
162
162
163
163
164
164
165
165
166
166
167
168
169
170
170
171
171
172
172
173
173
173
174
173
172
173
173
174
174
175
175
175
174
174
173
173
173
173
173
173
174
175
176
176
175
175
175
175
175
175
175
175
175
175
175
175
175
175
175
176
176
177
177
178
178
179
179
180
180
181
182
182
182
183
182
183
183
183
183
183
183
183
184
184
184
185
185
185
185
186
186
187
187
188
188
189
189
189
189
190
190
190
190
190
191
192
192
192
192
192
192
192
192
192
192
192
193
193
193
193
193
193
194
193
194
194
194
194
194
194
194
194
195
195
195
195
195
195
195
195
196
195
195
195
195
195
195
195
195
196
197
197
197
197
197
197
198
198
198
198
198
198
198
199
199
199
199
199
199
200
200
200
200
200
200
200
200
200
201
201
201
201
202
201
201
201
202
202
202
202
202
201
202
201
201
201
201
201
201
202
202
203
202
201
202
202
202
203
202
203
203
203
203
203
203
203
203
203
204
204
204
205
206
206
205
204
204
204
204
205
205
205
205
205
205
205
205
205
205
205
205
205
205
205
205
205
205
204
205
204
204
204
204
204
204
204
204
204
203
203
203
203
203
203
203
203
202
202
201
201
201
200
200
200
199
199
198
198
198
198
198
197
197
197
196
196
195
195
195
195
194
194
194
194
193
193
193
193
193
193
192
192
191
190
190
189
189
188
188
188
187
186
186
185
185
184
183
183
183
182
123
123
124
124
125
125
126
126
127
127
127
128
128
129
130
129
129
129
129
129
130
130
131
133
134
135
136
137
138
138
138
138
139
139
139
139
140
140
141
141
142
142
143
143
144
145
146
147
147
147
145
145
145
145
146
146
146
148
148
149
150
151
152
153
154
155
156
157
158
158
159
160
160
161
162
162
162
162
162
163
163
164
164
165
165
165
165
166
166
166
166
168
168
170
170
171
171
172
172
173
173
173
174
173
172
171
171
172
172
173
173
173
172
172
172
172
171
171
171
171
172
172
173
174
174
174
174
174
174
174
174
174
174
174
174
175
175
176
176
177
177
178
179
179
179
179
180
181
180
181
181
182
182
182
182
181
181
182
182
182
182
183
183
183
184
184
185
185
186
186
186
187
187
187
188
188
188
189
189
189
189
189
189
189
190
190
190
190
190
190
191
190
190
190
190
190
191
191
191
192
192
192
193
193
194
194
194
194
194
194
194
194
194
194
194
195
195
195
195
195
195
195
195
195
195
194
195
195
195
195
196
196
196
197
197
197
197
197
197
197
197
197
198
198
198
198
198
198
198
198
199
198
199
199
199
199
199
200
200
200
200
200
201
201
201
201
201
202
202
201
202
202
201
201
201
201
201
201
201
201
202
202
202
201
201
202
202
203
203
203
203
203
203
203
203
203
203
203
204
204
204
205
206
205
205
204
204
204
204
204
204
205
205
205
205
205
205
205
205
205
205
205
205
205
205
205
205
205
205
204
204
205
204
204
204
204
204
204
204
203
203
203
203
203
203
203
202
202
202
201
201
200
200
199
199
198
198
198
198
198
197
197
197
197
196
196
195
194
194
194
194
194
193
193
193
193
193
193
193
193
192
192
191
190
190
190
189
189
188
188
187
186
186
185
185
184
183
183
183
182
123
124
124
124
125
126
126
127
126
126
126
127
128
129
130
129
129
129
130
130
130
131
132
133
134
135
137
137
138
139
138
139
139
139
139
140
140
141
142
142
142
142
143
143
143
144
145
145
146
146
146
144
144
144
145
146
146
147
148
148
149
150
151
152
153
154
155
156
157
158
158
159
159
159
159
160
160
161
161
162
162
162
162
163
163
164
164
164
164
164
165
166
166
169
169
170
169
170
170
171
170
170
171
170
170
169
169
169
169
169
170
169
169
170
170
170
170
169
170
170
170
171
171
172
172
172
172
172
172
172
173
173
173
174
174
175
175
175
176
177
177
178
178
178
179
179
180
181
181
181
182
182
183
182
182
181
180
181
181
181
181
182
182
183
183
183
184
184
185
185
186
186
186
187
187
188
188
189
189
189
189
189
189
190
190
190
190
190
190
190
189
190
189
189
189
190
190
191
191
191
192
192
192
193
193
193
193
193
193
193
194
194
194
194
194
194
195
195
196
195
195
196
195
196
195
195
195
195
195
196
196
196
196
196
197
197
197
197
196
197
197
197
197
198
198
198
198
198
198
198
198
198
198
198
198
199
198
199
199
199
200
200
200
200
200
200
200
201
201
201
201
202
202
201
200
201
200
200
201
201
202
202
201
201
202
202
202
203
203
203
203
203
203
203
203
203
203
203
203
204
204
205
205
204
204
204
204
204
204
204
204
204
205
205
205
205
205
205
205
205
205
205
205
205
205
205
205
205
205
205
205
205
205
205
204
204
204
204
204
203
203
203
203
203
203
203
202
202
202
201
201
200
199
199
199
198
198
198
197
197
197
197
197
196
195
195
195
194
194
194
194
194
193
193
193
192
192
192
192
192
192
192
192
191
191
190
190
189
189
188
187
187
186
186
185
184
184
183
183
182
124
124
125
125
126
126
127
127
126
126
127
127
128
130
130
130
131
131
131
132
133
133
134
134
135
136
137
137
138
138
139
139
139
140
140
140
140
141
141
141
142
142
142
142
142
142
143
143
144
144
145
144
145
145
144
145
146
146
147
147
148
149
150
151
152
153
155
155
156
157
157
157
158
158
158
158
158
159
159
160
160
161
161
161
161
162
162
163
163
163
163
164
164
165
166
166
167
167
168
168
168
168
168
168
168
167
167
167
167
167
167
167
167
168
168
168
169
169
169
170
170
170
171
171
172
171
171
171
172
172
172
172
172
173
174
175
175
175
176
176
177
177
177
178
178
178
179
180
181
181
182
181
181
182
181
181
181
182
181
180
181
182
182
182
183
183
183
184
185
185
185
185
185
186
186
187
188
189
189
189
189
190
191
192
191
192
192
192
191
190
190
190
189
189
189
190
190
190
190
191
191
192
192
192
193
193
193
193
193
193
194
194
194
194
194
195
195
196
196
196
195
196
196
196
197
196
195
196
196
196
196
195
196
196
196
197
197
197
197
196
197
197
197
197
197
197
197
197
197
197
197
197
197
197
198
198
198
198
198
199
199
198
198
199
200
199
200
200
200
200
200
201
201
201
200
200
200
200
201
201
202
202
201
201
202
202
202
203
203
203
203
203
203
203
203
203
203
203
203
204
205
204
204
204
204
204
204
203
204
203
204
204
204
204
204
204
205
205
205
205
206
206
206
206
206
206
206
206
206
206
206
205
206
205
205
205
204
204
204
204
203
203
203
203
203
203
202
202
201
201
200
200
199
199
198
198
198
197
197
197
197
197
196
196
195
195
195
194
194
194
194
194
193
193
193
192
192
192
192
192
192
192
192
191
191
190
190
189
188
187
187
187
187
186
185
185
184
184
183
182
126
125
125
126
126
126
127
127
127
127
128
129
130
132
133
132
132
133
133
134
135
136
136
136
137
138
138
138
139
140
140
141
140
141
141
141
141
142
142
142
143
142
143
143
143
142
142
143
143
144
145
144
144
145
144
145
146
146
147
147
148
149
150
151
152
153
154
155
156
157
157
157
157
157
157
158
158
158
159
159
159
159
159
160
161
161
162
163
163
163
164
164
165
165
166
166
166
166
167
166
167
167
167
167
167
168
167
167
167
166
166
166
167
168
167
168
169
169
170
170
171
171
172
171
171
172
172
172
172
172
172
172
173
174
175
175
176
176
176
177
177
177
177
177
177
177
178
178
179
181
181
180
181
180
181
181
182
182
182
181
181
182
182
182
183
183
184
185
186
186
187
186
186
185
185
186
188
188
188
188
189
189
191
191
190
191
192
192
191
192
191
190
190
190
190
190
190
190
190
190
190
191
192
193
193
194
194
194
194
194
194
194
194
195
195
195
196
197
197
197
196
196
196
196
196
195
195
196
196
196
195
195
195
195
196
196
196
196
197
197
197
196
196
196
196
196
196
196
196
196
196
196
196
196
196
196
197
197
197
198
198
198
198
198
198
198
198
199
199
200
200
200
201
201
200
200
200
200
200
201
201
202
201
201
202
202
203
203
203
203
203
203
204
204
204
204
204
204
204
204
205
205
204
204
204
204
204
204
204
203
203
204
203
204
204
204
204
205
205
205
206
206
206
206
206
206
206
207
206
206
206
206
206
206
206
205
205
205
205
204
204
204
203
203
203
203
202
202
201
201
200
200
199
199
199
198
198
198
197
197
197
196
196
196
195
195
195
195
195
194
194
194
194
193
192
192
192
192
192
192
192
192
191
191
190
189
189
188
187
187
186
186
186
185
184
184
184
184
183
183
125
125
125
125
125
126
126
127
127
127
128
130
131
132
133
133
133
134
134
135
136
136
137
137
137
138
138
138
139
139
140
140
140
140
141
140
140
140
141
141
141
141
142
142
143
142
142
142
142
143
143
144
144
144
145
145
145
146
146
147
148
149
150
151
152
153
154
155
155
156
156
156
157
157
157
158
158
158
158
159
159
159
160
160
160
162
162
163
163
164
164
164
165
165
165
165
165
165
166
166
166
165
166
166
166
166
166
166
166
167
167
166
167
167
167
168
168
169
170
171
171
172
172
171
171
172
172
172
172
172
173
173
174
175
175
176
176
177
177
176
176
175
175
176
176
176
177
177
177
177
178
178
179
179
180
181
181
181
181
182
182
182
183
183
183
183
185
186
186
187
189
188
186
185
185
185
185
186
186
186
187
187
187
187
186
188
189
190
191
191
192
191
189
189
191
190
189
189
190
191
191
192
193
194
195
197
198
197
195
194
194
194
194
194
195
195
196
197
197
196
195
195
195
195
196
196
195
195
196
196
196
196
196
195
195
196
195
195
196
198
197
197
197
196
196
196
196
196
196
196
196
196
196
196
196
197
197
197
197
197
198
198
198
198
199
199
199
199
199
200
199
200
200
200
199
199
199
199
200
200
201
201
201
201
202
203
204
204
204
204
205
205
205
205
205
205
205
205
205
205
205
205
205
205
205
205
204
205
204
204
204
204
204
204
204
204
204
204
204
205
205
206
206
206
206
206
206
207
207
206
206
206
206
206
206
206
205
205
205
205
205
204
204
203
203
202
202
202
201
200
200
200
199
199
199
198
198
198
197
197
197
196
196
196
195
195
195
195
194
194
194
193
193
192
192
192
192
192
192
192
192
191
191
191
190
190
189
189
188
187
187
186
186
186
185
184
184
184
183
183
125
124
125
125
125
125
126
127
127
128
128
130
131
133
133
134
133
134
135
135
136
136
137
137
137
137
138
138
138
138
138
139
140
140
140
140
139
139
139
139
140
140
140
141
141
142
142
142
142
142
143
143
144
144
144
144
145
145
146
147
148
149
150
151
151
152
153
154
154
155
155
156
156
157
157
158
158
158
158
159
160
160
161
161
161
162
162
162
164
163
164
163
164
164
164
163
163
163
164
164
165
165
165
165
164
164
165
165
166
166
167
167
168
168
168
168
168
169
169
170
170
171
171
171
171
172
171
172
173
173
173
173
174
175
176
177
177
178
178
177
177
175
175
175
176
176
176
176
176
176
177
177
178
179
179
180
180
179
179
179
180
180
181
182
183
183
185
186
186
187
188
188
186
185
185
185
184
184
184
183
184
184
184
185
186
188
189
190
190
191
191
190
189
188
189
189
189
190
191
192
192
192
193
194
195
197
200
199
199
197
197
197
197
196
195
195
195
196
196
197
195
195
194
194
194
195
195
196
197
197
198
198
198
197
198
197
196
195
196
196
197
198
198
198
197
197
197
197
197
197
196
196
196
196
196
197
197
197
197
198
198
198
198
198
199
200
200
199
200
200
200
199
199
199
199
199
199
199
199
200
200
201
202
203
203
203
204
205
205
206
206
206
206
206
206
206
206
206
206
206
207
207
207
206
206
206
206
205
205
204
204
203
203
203
203
203
203
204
204
204
205
205
205
206
206
206
206
206
206
206
206
206
206
206
205
205
205
205
205
205
205
205
204
203
203
202
202
201
201
200
200
200
199
199
199
199
198
197
197
197
196
196
196
195
195
195
195
195
194
194
193
193
193
192
191
191
191
191
191
191
191
191
191
191
190
190
190
190
189
189
188
188
187
186
186
186
185
185
184
184
124
124
124
125
125
125
126
127
127
128
128
129
129
132
133
134
134
134
135
135
136
136
136
137
137
138
137
138
137
137
137
137
138
138
139
139
138
138
138
138
139
139
140
140
140
141
141
142
142
142
142
142
143
143
143
144
144
145
146
147
148
148
149
150
151
152
152
153
154
154
155
156
156
157
157
157
158
158
159
160
161
162
162
162
162
162
162
162
162
162
162
161
162
162
162
161
162
162
162
163
163
163
163
163
162
163
163
164
165
165
166
166
167
168
168
168
168
169
169
169
169
170
170
170
171
171
172
172
172
172
172
173
173
174
175
175
176
176
177
177
177
176
174
174
175
175
175
175
175
176
176
177
177
178
179
179
179
178
177
177
177
177
178
179
181
182
185
186
185
185
185
184
183
183
183
182
182
183
183
183
184
184
184
185
186
187
188
188
188
188
188
189
189
188
189
190
191
191
192
193
193
194
195
195
196
198
200
200
199
199
199
199
198
196
195
194
194
194
193
194
195
195
195
195
195
194
195
195
196
196
197
198
199
199
199
198
198
197
196
196
196
196
197
198
198
198
198
198
198
198
198
198
197
197
197
197
197
197
197
197
198
198
198
199
199
200
200
199
200
200
200
199
199
199
199
199
199
200
200
201
202
203
204
204
204
204
205
205
205
205
205
205
205
206
206
206
207
206
205
205
206
207
207
207
207
206
205
205
204
203
203
203
203
203
203
203
203
203
203
203
204
204
205
205
205
206
206
207
208
208
207
207
206
206
205
205
205
205
204
204
205
204
204
203
202
202
202
201
201
200
200
200
199
199
199
198
198
197
197
196
196
196
196
195
195
195
195
195
194
194
194
193
193
192
191
192
191
191
192
191
191
191
191
191
191
191
190
190
190
190
189
189
188
188
187
187
186
186
186
185
123
123
124
125
125
126
126
126
127
127
127
127
128
129
130
130
131
132
132
133
134
135
135
136
136
137
136
136
136
136
136
136
136
137
137
137
137
137
138
138
138
138
139
140
140
140
141
141
141
141
142
142
142
143
143
144
145
145
146
147
148
148
148
149
150
151
152
153
153
154
154
155
156
156
157
158
158
159
160
160
160
162
162
162
162
161
161
161
160
159
159
159
159
159
159
160
160
160
160
161
161
161
161
161
161
162
162
163
163
164
164
165
166
167
168
168
168
169
169
170
170
170
170
171
171
171
171
171
172
171
171
172
172
172
172
172
172
172
173
174
174
174
173
173
174
174
174
174
175
176
176
176
176
177
178
178
178
178
178
177
177
176
176
176
177
178
180
181
182
182
182
181
180
180
180
180
180
181
181
182
183
184
184
184
185
185
186
187
187
188
188
189
191
191
191
193
194
194
194
195
195
196
196
196
196
198
201
201
201
201
199
196
195
194
193
192
192
192
193
193
193
194
194
194
194
195
195
195
196
196
196
196
197
198
199
200
198
198
198
197
197
198
198
197
197
198
198
198
199
199
199
199
198
198
198
198
198
198
198
198
198
198
198
198
198
198
199
199
200
200
199
199
199
199
199
200
200
202
202
203
204
204
207
207
206
207
207
207
208
207
207
207
206
206
207
207
208
209
207
207
206
206
206
206
206
205
205
205
203
203
203
202
202
202
202
203
203
203
203
203
203
204
204
204
205
205
206
207
209
209
208
208
208
207
206
206
206
205
205
205
204
204
203
202
202
202
201
201
201
200
200
199
199
199
198
198
197
197
197
196
196
196
196
195
195
195
195
195
194
194
194
193
193
193
193
192
192
191
191
191
191
191
191
191
192
192
191
191
191
190
190
190
190
189
189
189
187
187
186
186
123
124
125
125
125
125
126
125
126
126
126
127
128
128
128
129
129
129
130
131
133
134
134
135
134
135
135
135
135
134
135
135
136
135
136
136
136
136
137
137
137
138
139
139
139
140
140
140
140
141
141
142
142
143
143
144
144
145
145
147
147
148
149
149
150
151
152
152
153
153
154
155
155
156
157
157
157
158
158
158
159
159
159
160
160
159
159
158
158
158
158
157
157
157
158
158
158
158
158
159
159
159
160
161
161
162
162
163
163
164
165
166
166
166
167
168
168
168
169
170
170
170
170
170
170
170
169
170
170
170
169
169
169
170
170
169
168
168
168
168
168
170
170
171
171
172
173
174
174
175
175
175
176
176
176
175
175
175
175
176
176
176
176
175
175
175
175
176
177
178
178
178
179
179
179
179
179
179
180
180
181
182
183
184
185
186
187
187
188
189
190
192
192
193
194
194
195
195
195
195
195
197
197
197
199
200
202
202
200
198
195
192
191
191
190
191
191
191
191
191
191
192
192
192
192
193
194
195
195
195
195
195
195
196
197
197
198
198
198
198
198
198
198
198
198
198
198
198
198
198
198
198
198
197
197
197
197
197
198
198
198
198
198
198
198
198
199
199
199
199
199
199
199
200
201
202
204
204
204
205
206
206
208
211
210
212
212
212
213
212
211
211
210
210
210
208
208
209
207
207
207
207
207
207
207
207
206
205
204
202
202
202
202
202
202
203
203
203
203
204
203
204
204
205
205
205
206
208
209
209
210
210
210
209
209
209
207
206
206
204
204
203
202
202
202
203
202
202
202
202
201
200
199
199
198
198
197
197
196
196
196
196
195
195
195
195
195
194
194
193
193
193
193
194
193
194
193
192
192
191
191
191
191
191
191
192
192
191
191
190
190
190
190
190
190
191
191
189
188
188
123
123
124
125
124
125
125
126
126
126
126
126
127
127
127
128
128
128
129
129
130
131
131
132
132
133
133
133
133
134
134
134
134
135
135
135
136
136
137
137
137
137
138
139
139
139
140
140
141
141
141
142
142
143
143
144
145
145
146
147
147
148
148
149
150
150
151
152
152
153
154
154
155
155
155
156
156
157
157
157
157
157
158
158
157
158
157
157
157
157
157
157
157
157
157
157
157
158
158
158
159
159
160
161
162
162
163
163
164
164
165
166
166
167
166
167
167
168
168
168
169
169
170
169
169
168
168
168
168
167
167
167
168
168
167
167
167
166
166
166
166
167
168
169
170
171
172
173
174
174
174
175
174
175
174
173
172
171
171
171
172
173
173
173
172
172
172
173
175
176
176
176
177
177
178
178
177
178
179
180
182
183
183
184
185
186
186
187
188
190
190
192
192
192
194
195
195
195
196
196
196
197
198
198
198
198
197
197
197
194
192
190
190
189
189
190
189
190
190
190
190
191
191
191
192
193
193
194
194
193
193
194
194
194
195
195
196
196
197
197
197
197
198
197
198
198
198
199
199
198
198
198
198
197
197
198
197
197
197
198
198
198
199
199
198
197
198
198
199
200
200
201
203
204
206
207
209
209
209
209
209
209
210
212
211
212
212
212
211
211
210
209
208
208
207
206
206
207
207
206
207
208
209
208
207
206
204
203
202
202
202
202
202
202
203
204
205
205
205
204
204
204
204
204
205
205
206
207
207
207
207
208
210
210
210
210
209
208
207
206
205
204
203
203
202
203
203
203
203
203
202
201
200
199
199
198
197
197
196
196
196
195
195
195
195
195
194
194
193
192
192
192
192
192
192
193
194
193
193
192
192
192
192
192
192
193
193
192
192
191
191
190
190
191
193
194
194
194
191
191
122
122
123
123
123
124
125
125
125
125
126
126
126
126
126
127
127
128
128
129
129
129
130
130
130
131
131
132
133
133
133
133
134
134
135
135
136
136
137
137
137
138
138
139
139
139
140
140
141
141
142
142
143
143
143
144
145
145
146
146
147
147
148
149
150
150
151
152
152
152
153
153
153
154
154
154
154
155
155
155
155
156
156
156
156
156
156
156
156
156
156
156
157
157
157
157
158
158
159
159
159
160
160
161
161
162
162
163
164
164
165
165
166
165
166
166
165
165
166
166
167
167
167
167
167
167
166
167
166
166
166
165
165
166
166
166
166
165
165
165
165
166
167
168
168
169
170
171
171
172
172
172
172
172
172
171
170
169
169
169
169
170
171
171
171
171
171
172
174
175
175
175
176
176
177
177
176
178
179
181
182
181
181
181
181
183
183
184
186
187
189
190
191
192
193
193
193
193
193
193
193
193
193
192
191
191
191
191
192
191
190
190
189
189
189
189
189
189
189
190
190
190
190
190
191
191
191
192
193
193
193
193
193
193
193
194
195
195
195
196
196
197
197
196
197
166
154
171
182
189
194
197
198
198
199
199
198
197
198
198
198
198
199
199
198
198
198
199
200
200
201
202
203
205
206
208
209
208
208
209
208
209
210
210
210
209
209
210
208
207
206
205
205
205
205
205
205
207
208
209
210
210
208
205
204
203
202
202
202
202
203
203
203
203
203
204
206
206
207
206
205
204
204
205
205
206
206
206
205
205
206
207
208
208
207
206
206
207
206
206
206
206
206
206
205
205
205
205
205
204
204
204
202
202
201
200
199
198
198
197
196
196
196
195
195
195
194
193
193
193
192
192
192
192
191
191
191
192
192
192
193
193
192
192
193
193
193
192
191
191
192
191
191
191
192
192
193
193
193
191
120
121
121
121
122
123
124
124
125
125
125
126
125
126
126
126
127
127
127
128
128
128
129
129
130
130
130
131
131
132
133
133
133
134
135
135
136
136
136
137
138
138
138
139
139
139
140
140
141
141
142
142
143
143
144
145
145
145
146
146
147
147
148
148
149
149
150
151
150
151
151
151
151
152
152
152
153
153
154
154
154
154
155
155
155
156
156
156
156
156
156
156
157
157
157
158
158
159
159
159
160
160
161
161
161
162
162
163
163
164
164
164
163
163
164
164
164
164
164
164
164
164
164
164
164
164
164
164
164
164
164
164
163
163
164
164
164
164
165
165
165
166
167
167
167
168
168
168
168
169
169
169
169
169
168
168
169
169
169
169
169
169
169
170
171
171
171
172
173
174
174
174
174
175
175
175
176
176
176
177
178
178
179
178
178
179
181
182
184
185
187
188
189
190
191
191
190
190
190
190
189
189
189
189
189
188
188
188
188
188
188
188
188
188
188
188
188
189
189
189
189
189
190
190
190
190
190
191
191
191
192
192
193
193
193
194
194
194
195
195
195
195
195
195
196
121
32
40
39
45
59
77
95
112
127
139
150
160
168
176
183
189
194
197
198
199
199
199
200
191
201
202
202
203
204
205
205
204
204
205
205
206
206
206
205
205
205
205
204
204
203
203
203
204
205
206
208
209
209
209
210
211
208
205
204
204
204
204
204
204
204
203
203
203
203
203
205
207
207
205
205
205
205
205
205
205
205
205
205
206
206
206
206
207
206
206
206
206
206
206
206
206
207
206
206
206
205
204
204
204
203
203
202
202
202
202
202
201
200
199
198
198
198
196
196
196
195
195
194
194
193
193
192
192
192
192
191
190
190
190
191
190
191
192
192
191
191
190
190
190
190
190
190
191
191
191
191
191
190
190
119
120
120
121
121
122
122
123
123
124
124
125
125
125
126
126
126
126
126
127
127
128
128
129
130
130
130
130
131
131
132
133
133
134
134
135
135
136
137
137
137
138
138
139
139
139
140
140
141
141
142
143
143
143
144
145
145
145
145
145
146
147
147
147
148
148
149
149
150
150
150
150
150
151
151
152
152
152
152
153
153
154
154
155
155
156
156
156
157
157
157
157
157
157
157
157
158
158
159
159
160
160
160
160
161
161
161
161
162
161
162
162
162
162
162
162
162
162
162
162
163
163
163
162
162
162
162
163
163
163
163
163
163
163
163
163
164
164
164
165
166
166
166
166
167
166
167
167
167
167
167
167
167
167
168
168
168
168
168
168
168
169
169
170
170
170
171
172
172
173
172
172
172
173
173
173
174
175
176
176
176
176
176
176
177
178
180
182
184
185
186
187
187
188
189
190
190
190
190
189
189
189
188
187
187
187
187
187
187
187
187
187
187
187
188
188
188
189
189
189
189
189
190
190
190
190
190
190
190
190
191
191
192
192
193
193
194
194
194
194
194
194
194
195
195
121
16
28
23
24
21
20
20
19
19
20
20
22
23
23
27
37
51
67
85
99
112
122
123
55
187
202
202
203
203
203
202
203
203
204
204
204
205
204
204
203
203
202
202
202
202
203
204
205
206
207
209
210
210
209
209
210
208
207
206
206
205
205
205
205
204
205
205
205
204
205
205
205
204
204
205
205
205
204
204
204
205
205
204
204
205
206
206
206
206
206
206
206
206
205
205
206
206
206
206
205
205
205
205
204
204
203
202
201
201
201
202
201
201
200
200
200
202
200
198
200
201
199
196
195
194
194
194
193
192
192
191
191
191
191
191
191
191
192
192
191
191
190
190
190
190
190
190
190
190
190
190
191
191
191
118
119
119
120
120
121
121
122
122
123
123
123
124
124
125
126
126
126
126
127
127
127
128
129
129
130
130
130
131
131
132
133
133
134
135
135
136
136
136
137
137
138
138
138
139
139
140
140
141
142
142
143
143
144
144
145
145
145
145
146
146
146
147
147
147
148
148
149
149
150
149
150
150
150
151
151
152
152
152
153
154
155
156
156
157
157
157
158
158
158
159
159
159
158
158
158
158
158
159
159
159
159
159
159
159
159
159
159
160
160
160
161
161
161
161
161
161
161
161
161
161
161
161
161
161
161
161
162
162
162
162
162
162
162
162
163
163
164
164
165
165
166
166
166
166
166
166
166
166
166
166
166
166
167
167
167
168
168
168
168
168
168
168
169
169
170
170
171
171
171
171
171
171
172
172
172
173
173
174
174
174
175
175
176
176
178
180
182
183
184
185
186
186
186
187
188
188
189
189
188
189
188
187
187
187
187
186
186
186
186
186
186
186
187
187
186
186
187
187
187
188
188
188
188
189
189
189
189
189
190
190
190
190
191
192
192
193
193
193
193
193
193
193
193
193
100
20
30
18
15
18
16
18
17
17
17
16
17
17
16
16
16
17
17
18
18
20
21
22
27
174
202
203
203
203
202
202
202
203
204
204
204
204
203
203
203
203
203
204
204
204
205
207
208
209
210
210
211
211
210
207
207
208
207
207
206
205
205
205
205
205
205
206
205
205
204
203
203
203
204
204
204
204
204
204
204
205
204
204
204
204
204
205
205
205
205
205
204
204
204
204
204
204
204
204
204
205
205
205
204
204
203
202
201
200
200
200
200
199
199
200
202
203
203
201
201
201
200
199
197
196
195
195
194
193
193
193
193
193
193
192
192
191
192
192
191
191
190
190
191
191
190
190
191
191
191
192
191
190
189
118
118
119
119
120
120
121
121
122
122
123
124
124
124
125
125
126
126
126
127
127
127
128
129
129
130
130
130
131
132
132
133
133
134
135
135
135
136
136
136
137
138
138
138
139
139
139
140
141
142
142
143
143
143
144
144
145
145
145
146
146
146
147
147
147
148
148
149
149
149
150
150
150
150
151
151
152
152
153
154
156
156
157
157
158
159
159
159
160
161
160
159
159
159
159
159
159
158
158
158
158
158
158
157
157
158
158
158
158
159
159
159
159
159
160
160
160
160
160
160
160
160
160
160
160
161
161
161
161
161
161
161
161
162
162
163
164
164
164
164
165
165
165
165
166
166
165
166
166
166
166
166
166
166
167
167
166
167
167
167
167
168
168
168
168
169
169
169
169
169
169
170
170
171
171
171
172
172
173
173
173
174
175
175
176
177
178
180
182
184
184
185
186
186
186
187
187
187
187
188
187
187
186
186
186
185
185
185
185
185
186
186
186
186
186
186
186
187
187
187
188
188
188
188
189
189
189
189
190
190
190
190
191
191
192
192
191
191
192
192
191
192
192
191
192
73
27
31
27
10
12
15
17
17
16
15
15
16
16
15
15
16
15
16
15
16
17
17
19
29
177
202
202
202
202
203
202
202
203
204
203
203
203
203
203
204
204
205
206
206
206
208
209
209
210
210
210
210
209
209
208
207
208
208
207
206
206
206
205
205
204
204
203
203
202
202
201
202
202
202
203
203
204
204
204
204
204
204
204
204
204
204
205
205
205
204
204
204
204
204
204
204
205
205
205
205
205
205
204
204
203
202
202
202
201
200
199
199
199
200
201
204
204
204
205
204
202
200
199
199
198
196
196
195
195
194
193
193
193
193
192
191
191
191
191
191
191
191
190
190
191
191
190
191
191
191
190
189
188
187
118
119
119
119
120
120
121
121
122
122
123
123
124
125
125
125
125
126
126
126
127
127
128
128
129
130
130
131
131
132
132
133
134
134
135
135
135
136
136
137
137
137
138
138
139
139
140
141
141
142
142
143
143
143
144
144
144
144
145
145
146
146
146
146
147
147
148
148
148
149
149
149
149
150
150
151
152
152
153
154
155
156
156
156
157
157
158
158
159
159
158
158
159
158
158
158
159
158
157
157
157
157
157
157
157
157
157
157
157
157
157
157
157
157
157
157
158
158
158
158
159
159
159
159
159
159
160
160
160
160
161
162
162
162
163
163
163
164
164
164
164
165
165
165
165
165
165
165
165
165
165
165
165
165
165
165
166
166
166
166
167
167
168
168
168
168
169
169
169
169
170
170
170
171
171
172
172
173
173
174
174
175
175
176
176
177
178
179
181
183
184
184
185
185
185
186
185
185
185
186
186
185
184
184
184
184
184
185
185
185
186
186
186
186
186
186
186
187
187
188
188
188
188
188
189
189
190
189
190
190
190
190
191
191
191
191
191
191
191
191
191
191
191
191
185
43
34
32
31
22
8
10
13
16
16
15
15
16
16
15
14
14
14
14
14
15
16
17
19
26
174
198
198
199
199
200
200
201
202
203
203
203
203
203
204
204
205
206
206
206
206
206
207
207
207
206
206
205
205
205
205
205
205
204
204
203
203
202
202
201
201
201
201
201
201
201
201
202
202
202
203
203
204
204
204
204
204
204
204
204
204
204
205
205
205
205
205
205
205
205
206
205
206
205
205
204
204
203
203
203
203
203
203
202
201
201
201
202
202
203
205
207
207
206
206
205
203
200
200
200
199
198
196
196
195
194
194
194
194
193
192
192
191
191
191
190
190
190
190
190
190
190
190
190
189
188
187
186
185
183
119
119
119
120
120
120
121
121
122
122
123
123
124
124
125
125
125
126
126
127
127
127
128
129
129
130
130
131
131
132
132
133
134
134
135
135
135
135
136
136
137
137
138
139
139
139
140
141
141
142
142
143
143
143
143
144
144
144
145
145
145
145
146
146
147
147
148
148
148
148
148
149
149
149
151
151
151
152
152
153
153
154
154
155
155
156
156
156
157
157
156
156
157
157
157
157
157
157
157
157
157
157
156
156
156
156
156
156
156
156
156
156
156
156
156
156
157
157
158
158
158
158
158
159
159
159
159
160
160
162
162
162
162
163
162
162
163
163
163
164
164
164
164
164
164
164
163
163
164
164
164
164
164
165
165
165
165
166
166
166
167
168
168
168
168
169
169
169
169
170
170
171
171
172
172
173
174
174
175
175
176
176
176
176
177
177
178
179
180
181
182
182
183
184
184
185
185
185
184
185
185
185
184
183
183
183
184
185
186
187
188
188
189
189
189
189
189
189
188
188
188
187
187
187
187
188
188
189
189
189
189
189
189
189
190
190
191
191
191
191
191
191
191
191
171
32
38
34
32
30
17
8
9
11
13
15
15
15
17
14
14
13
13
13
14
15
16
16
18
23
177
196
197
198
199
199
199
200
200
201
202
202
203
203
204
204
204
204
204
204
203
204
204
204
204
204
203
203
203
202
202
202
203
203
202
203
203
203
203
203
203
202
202
203
203
203
203
203
203
203
204
204
204
205
205
205
205
205
205
205
205
206
206
207
207
207
207
207
207
207
207
206
206
206
206
206
206
206
206
205
205
205
204
204
204
204
204
205
205
207
209
209
207
206
206
205
203
202
201
200
200
199
198
197
196
196
195
195
194
193
192
192
191
191
191
191
190
191
191
191
190
189
189
187
186
185
184
183
182
181
119
120
120
120
121
121
121
122
123
122
123
123
124
124
125
125
125
126
126
127
127
128
128
129
129
129
130
130
131
132
132
133
133
133
134
135
135
135
136
136
136
137
137
138
138
138
139
140
140
141
142
142
142
143
143
143
143
144
144
144
144
145
145
146
146
147
147
147
148
148
148
148
149
149
150
151
151
151
151
152
152
152
153
153
154
154
154
154
155
154
154
155
155
155
155
155
155
155
155
155
155
155
155
155
155
155
155
155
155
155
155
156
156
156
156
156
156
157
158
158
158
158
158
158
159
159
159
160
160
160
161
161
161
161
161
161
162
162
163
163
162
163
163
162
163
163
163
163
163
163
164
164
164
165
165
165
166
166
167
167
167
168
168
168
169
169
169
169
170
171
171
172
172
172
173
174
174
174
175
175
176
177
177
177
177
177
178
179
179
180
180
180
180
180
182
182
183
184
184
184
186
186
185
184
183
182
183
184
185
186
187
188
188
189
189
189
188
188
188
188
188
187
186
186
186
187
187
187
187
188
188
188
188
188
189
190
190
190
190
190
190
190
191
191
167
39
37
38
35
32
29
13
7
8
9
11
14
16
17
16
14
14
13
15
15
15
16
17
18
25
187
197
198
199
199
199
200
200
201
201
201
202
202
202
203
203
204
204
204
204
204
204
205
205
206
205
206
206
206
206
206
206
206
207
207
207
208
208
209
209
208
208
208
209
209
208
208
208
208
207
207
208
208
208
208
209
210
210
211
211
211
211
211
211
211
211
212
212
211
212
211
210
209
208
208
208
207
207
207
206
206
206
206
206
207
207
208
209
209
209
207
206
206
206
205
203
203
202
201
200
198
197
196
195
195
195
195
195
194
194
194
194
193
193
192
191
191
190
188
187
186
186
185
185
185
184
184
184
184
183
120
120
120
120
121
121
121
122
122
122
123
123
124
125
125
125
125
126
126
126
126
127
127
127
128
128
129
129
130
131
131
132
132
133
133
134
134
135
135
135
136
136
137
137
138
138
139
139
140
141
141
141
142
142
143
143
143
143
144
144
144
144
145
145
146
146
147
147
148
148
148
149
149
149
150
150
151
151
151
151
151
152
152
152
152
153
153
152
153
153
153
153
153
153
153
154
153
154
154
154
154
154
154
154
154
154
154
154
155
155
155
156
156
156
156
156
157
157
157
157
158
158
158
158
158
158
158
159
159
159
159
160
160
161
161
161
162
162
162
162
161
162
162
162
162
162
162
163
163
163
163
164
164
165
166
166
167
167
167
168
168
168
169
169
169
169
170
170
171
172
172
172
172
172
173
174
175
175
176
176
176
177
177
177
178
178
178
178
178
178
177
177
178
178
178
179
180
181
181
181
182
182
181
182
182
182
182
181
181
182
183
184
185
185
185
184
184
185
184
184
184
184
184
184
184
185
185
185
186
186
187
187
187
188
188
188
189
190
190
190
190
190
190
189
107
28
36
37
37
35
32
27
9
7
7
7
11
13
14
16
16
16
14
14
15
16
18
17
19
42
196
199
200
200
200
200
201
201
201
202
202
203
203
203
203
203
204
204
204
204
205
205
206
206
207
207
207
208
209
209
209
210
210
211
211
211
211
211
211
211
211
212
212
212
212
212
212
212
212
212
213
214
214
215
215
215
216
216
216
216
216
216
216
216
216
216
217
217
216
216
215
214
211
211
211
210
210
209
209
208
209
209
209
209
209
209
209
208
208
208
206
205
203
203
201
200
199
199
198
198
197
197
196
196
196
195
194
194
193
193
192
192
191
190
190
190
189
189
187
187
187
187
186
185
185
185
184
184
184
183
118
119
119
119
119
120
120
120
121
121
121
122
122
123
123
124
124
125
125
126
126
127
127
127
127
128
128
129
129
130
130
131
131
132
133
133
133
134
135
135
135
136
136
137
137
138
138
139
139
140
141
141
142
142
142
143
143
143
143
144
144
144
144
145
146
146
146
147
147
148
148
148
148
149
149
149
150
150
150
150
151
151
152
151
152
152
152
152
152
152
152
152
152
152
152
152
153
153
153
153
153
153
154
153
154
154
154
155
155
155
155
156
156
156
156
157
157
157
157
157
158
157
158
158
158
158
158
159
159
159
159
160
160
160
160
160
160
161
160
160
161
161
161
161
162
162
162
163
163
163
164
165
165
166
166
167
167
168
168
167
168
168
168
168
169
170
170
169
170
171
171
171
172
173
174
175
175
176
176
176
176
176
177
177
177
177
176
176
176
176
176
176
176
177
177
177
177
178
178
178
178
179
178
179
179
179
180
180
179
180
180
181
181
181
181
181
181
180
181
181
181
182
182
182
183
184
184
185
185
186
186
186
186
187
187
187
188
189
189
189
189
189
188
188
100
15
22
35
38
37
35
31
23
8
7
6
6
12
12
13
15
17
16
16
16
17
17
18
19
60
200
201
201
202
202
202
203
203
203
203
203
203
203
203
203
203
204
205
205
205
205
206
207
206
207
207
207
208
208
209
210
210
210
211
211
211
211
211
211
211
212
213
213
213
214
215
215
216
216
216
216
216
217
218
219
218
217
217
218
218
218
218
218
218
218
219
218
218
217
217
215
215
214
213
212
211
210
210
210
210
210
210
210
210
209
208
208
207
205
204
203
202
201
200
200
199
199
198
197
196
196
195
194
194
193
192
192
192
191
190
190
189
189
188
188
188
187
187
187
186
186
185
185
185
184
184
183
182
182
181
115
116
116
117
118
118
119
119
120
120
121
121
122
122
123
123
123
124
124
125
126
126
127
127
127
127
128
129
129
130
130
131
131
132
132
133
134
134
135
135
135
136
136
137
137
138
138
138
139
140
141
141
141
142
142
142
143
143
143
143
143
144
144
144
144
145
145
145
146
147
147
148
148
148
148
149
149
149
150
150
150
150
150
151
151
151
151
151
152
152
152
152
152
153
152
152
152
153
153
154
153
153
153
153
153
154
154
155
155
155
155
155
156
156
156
156
157
157
157
157
158
158
158
158
158
158
158
158
159
159
159
159
159
159
159
160
160
160
161
161
161
161
162
162
162
163
163
163
164
165
165
165
166
166
167
167
167
167
167
167
167
168
168
168
168
169
169
169
169
170
171
171
172
173
173
174
174
174
174
174
174
175
175
175
175
175
174
174
174
174
174
174
174
174
174
174
175
175
175
175
175
175
176
176
176
177
177
177
177
177
178
178
178
179
179
179
179
179
180
180
181
181
182
182
183
183
183
183
184
184
184
184
185
185
185
186
187
188
188
188
187
187
187
186
78
12
13
21
34
37
37
32
31
17
7
7
6
6
8
9
9
9
13
13
13
13
15
17
18
83
201
202
203
203
203
203
204
203
204
204
204
204
205
205
205
205
205
206
206
206
207
208
209
209
209
209
210
210
210
211
211
211
212
212
212
212
212
212
213
214
216
216
215
216
216
217
217
217
217
217
217
218
218
218
218
218
217
218
218
218
218
218
218
218
217
216
215
215
215
214
213
212
211
210
209
209
209
210
210
210
209
209
208
206
205
204
203
202
201
200
198
198
197
196
196
195
195
194
194
193
193
192
192
192
191
191
191
190
190
190
189
189
188
187
187
187
186
186
185
185
184
183
183
182
181
181
180
180
179
178
114
115
116
117
117
118
119
119
120
120
121
121
121
122
123
123
123
124
125
125
126
126
127
127
127
127
128
129
129
129
130
130
131
131
131
132
133
134
134
135
135
135
136
136
137
137
138
138
139
140
140
140
140
141
141
142
142
142
143
143
143
143
143
144
144
144
145
145
146
146
146
146
147
148
148
148
148
149
149
149
150
150
150
151
150
151
151
151
151
151
151
152
152
152
152
152
152
152
152
153
153
153
153
153
153
154
154
155
155
155
155
156
156
156
157
157
157
157
157
157
158
158
158
158
158
158
158
158
158
158
159
159
159
160
161
161
162
162
162
162
162
162
162
162
162
162
162
163
163
163
164
164
165
165
165
165
166
165
165
166
166
167
167
168
168
169
169
169
169
170
170
170
170
171
171
171
171
171
171
171
172
172
172
172
172
172
172
172
172
172
172
172
172
172
172
172
172
172
172
173
173
173
174
175
175
175
176
176
177
177
177
178
178
178
178
178
179
178
178
179
179
179
180
181
181
181
181
181
182
182
182
182
183
183
183
184
184
185
185
185
186
186
187
188
80
13
10
12
20
33
36
36
31
29
11
6
6
8
7
6
7
6
8
8
9
9
11
12
13
131
201
202
203
203
203
203
203
203
204
204
204
204
205
206
206
206
206
207
207
207
207
208
208
209
209
210
210
211
211
212
212
213
213
213
213
213
214
214
215
215
215
215
215
215
215
215
215
215
215
216
216
216
217
217
216
216
216
216
215
215
214
214
213
212
212
212
211
211
211
210
210
210
209
209
209
208
207
207
206
205
204
203
202
201
200
198
197
197
196
196
195
194
194
193
193
192
192
192
192
191
191
191
190
190
190
189
189
188
188
187
187
187
186
186
185
185
185
184
183
183
182
181
181
180
180
180
179
179
178
178
115
115
116
117
117
118
119
119
119
120
120
120
121
121
122
123
123
124
125
125
126
126
127
127
127
127
128
128
129
129
130
130
130
131
131
132
133
133
134
135
135
135
136
136
137
137
137
138
139
139
140
140
140
141
141
141
142
142
142
143
143
143
143
143
144
144
144
145
145
145
146
147
147
147
147
147
148
148
148
149
149
149
149
150
150
150
151
151
151
151
151
151
152
152
152
152
152
152
152
153
153
153
153
153
153
154
154
155
155
155
155
155
156
156
156
156
157
157
157
157
157
157
157
157
158
158
158
159
159
159
159
159
160
160
160
160
160
160
160
160
160
160
161
161
161
161
162
162
162
163
163
163
163
164
164
164
165
165
165
165
165
166
166
167
168
168
168
168
169
169
169
169
169
169
170
170
170
170
170
170
170
171
170
171
171
171
171
171
171
171
172
172
171
171
171
171
171
172
172
172
172
172
173
174
174
174
175
175
176
176
177
177
177
177
177
177
177
177
177
178
178
179
179
179
179
180
181
181
182
182
182
182
182
183
184
184
185
185
186
187
187
188
189
178
49
24
9
8
11
19
30
35
34
30
25
7
7
9
7
7
7
5
6
7
8
7
8
10
28
186
200
200
201
202
202
203
203
204
204
204
204
205
206
206
206
206
206
207
207
207
207
207
207
208
209
209
209
210
210
211
211
212
212
211
211
211
211
211
211
211
211
211
211
211
212
213
212
212
212
213
212
212
212
212
211
211
210
210
210
210
210
210
210
210
210
210
210
209
209
208
207
206
205
205
204
203
202
202
202
201
200
199
198
198
197
196
196
196
195
194
194
193
192
192
191
191
191
191
191
190
190
189
189
188
188
188
187
187
187
186
186
185
185
185
185
184
183
183
182
182
182
181
181
181
180
179
179
178
178
178
114
115
116
116
117
118
118
119
119
119
120
120
121
121
122
123
123
124
124
125
126
126
126
127
127
127
128
128
129
129
129
130
130
131
131
132
132
133
134
134
135
135
135
136
136
137
137
138
138
139
139
140
140
140
141
141
141
142
142
142
143
143
143
143
143
144
144
144
145
145
145
146
146
146
147
147
147
148
144
148
149
149
150
150
150
151
151
151
151
151
152
152
152
152
152
152
152
153
152
153
153
153
153
153
153
154
154
154
154
154
154
154
155
155
155
156
156
156
157
156
156
157
157
157
158
158
158
158
158
158
158
159
159
159
159
159
159
159
159
160
160
160
160
160
160
160
161
161
162
162
162
163
163
163
164
164
164
165
165
165
165
165
165
166
166
167
166
166
167
167
167
167
168
168
168
168
169
169
169
169
169
169
169
170
170
170
170
170
170
171
171
171
171
171
171
171
171
172
172
171
171
172
172
172
173
174
174
175
176
176
176
177
177
177
176
177
177
177
178
178
178
179
179
180
181
181
182
183
183
184
184
185
185
185
185
186
186
187
187
187
187
188
189
175
36
32
15
8
8
10
16
27
34
31
30
21
6
7
6
7
7
6
6
8
8
9
9
10
101
198
198
199
200
201
202
203
204
204
204
204
204
204
204
205
205
205
205
205
205
205
205
205
205
206
206
206
206
207
208
208
208
208
208
209
209
209
209
209
209
209
210
210
209
209
209
209
208
208
208
208
207
207
208
208
208
208
207
207
207
207
207
206
206
206
206
205
205
205
205
204
204
204
203
202
202
201
201
200
200
199
198
198
197
197
196
196
195
195
195
194
193
192
192
191
191
191
191
191
190
190
189
189
189
188
188
187
187
187
186
186
185
185
185
184
184
183
183
182
182
182
181
181
180
179
179
179
178
178
179
178
114
115
115
116
117
117
118
118
118
119
119
120
120
121
122
122
123
123
124
124
125
125
126
126
127
127
127
128
128
129
129
130
130
130
131
131
132
132
133
134
135
135
135
136
136
136
137
138
138
138
139
139
140
140
140
141
141
141
142
142
142
143
143
143
143
144
144
144
145
144
145
146
146
146
147
147
148
147
113
116
130
140
146
149
149
150
150
150
150
151
151
151
151
151
151
151
152
152
152
152
152
153
153
153
153
153
154
154
154
154
154
155
155
155
155
155
155
156
156
156
156
156
156
156
156
156
156
157
157
157
157
158
158
158
158
158
158
158
158
159
159
159
160
159
160
161
161
161
162
162
162
162
162
162
162
163
163
163
163
163
163
163
164
163
164
164
164
164
164
164
165
165
166
166
166
166
167
167
167
167
168
168
168
169
169
169
169
170
170
170
170
170
170
171
171
171
172
172
172
172
172
173
173
174
175
175
176
176
177
177
177
178
178
179
179
180
180
180
180
180
181
181
182
183
183
184
185
185
185
185
185
185
185
186
186
186
186
187
187
187
187
188
188
167
38
33
25
10
8
8
9
12
25
32
30
29
13
7
6
8
6
7
8
9
8
8
9
11
103
196
197
199
199
199
199
201
202
203
203
202
202
202
202
203
203
204
204
204
204
204
204
204
203
203
204
205
205
206
206
206
206
206
206
206
206
207
207
207
207
206
206
206
206
206
206
206
206
206
206
205
205
205
205
205
205
206
206
206
206
206
206
206
206
206
206
205
205
205
205
205
204
204
203
203
202
201
201
200
200
199
199
198
198
197
197
196
195
195
194
194
193
192
192
191
191
191
191
190
189
189
188
188
188
187
187
186
186
186
185
185
185
185
184
184
184
184
183
183
183
182
182
181
181
181
180
179
179
179
179
178
114
114
115
115
116
117
117
118
118
118
119
120
120
120
121
121
122
123
123
124
125
125
125
126
126
127
128
127
128
129
129
129
130
130
131
131
132
132
132
134
134
135
135
136
136
136
137
138
138
138
139
139
139
140
140
141
141
141
142
142
142
143
143
143
143
143
144
144
144
145
145
145
146
146
147
147
147
147
101
41
51
59
74
99
136
150
150
151
151
151
151
151
152
152
152
152
152
152
153
153
153
153
153
153
153
153
153
153
153
153
153
153
153
154
154
154
154
154
154
154
154
155
154
155
155
155
156
156
156
156
156
157
157
157
157
158
158
158
158
159
159
159
159
159
159
160
160
161
161
161
161
161
161
161
161
161
161
162
162
162
162
162
162
162
163
162
163
162
163
163
164
164
164
165
165
166
166
166
167
167
168
168
168
169
169
169
170
170
170
170
170
171
171
172
172
173
173
174
174
174
174
175
175
176
176
177
177
178
179
179
179
180
180
182
182
182
182
183
183
183
183
184
184
184
185
185
185
186
186
186
186
187
187
187
187
187
187
187
187
187
187
187
188
154
34
29
28
16
9
8
7
8
10
19
31
31
28
8
6
7
6
7
9
8
8
9
9
13
104
196
197
197
197
197
198
199
200
201
201
200
200
199
199
199
200
201
201
201
201
201
201
202
201
201
202
203
203
204
204
204
204
204
204
204
204
204
204
204
204
204
204
204
204
204
204
204
205
205
204
204
204
204
204
204
204
204
205
205
205
205
205
205
205
205
205
205
205
204
204
204
204
203
203
202
202
201
200
199
198
198
198
197
197
196
195
195
193
193
192
191
191
191
190
190
189
189
188
188
188
188
187
187
187
187
186
186
186
186
185
185
185
185
185
185
185
185
185
184
183
182
182
182
181
181
181
180
180
180
179
178
113
114
115
115
116
116
117
117
118
118
119
119
120
120
121
121
122
123
123
124
125
125
126
126
126
127
127
127
128
128
129
129
130
130
131
131
131
132
133
133
134
135
135
136
136
137
137
137
138
138
139
139
139
140
140
140
141
141
141
142
142
142
143
143
143
144
144
144
145
145
145
146
146
147
147
147
147
147
97
49
49
49
50
51
57
117
149
150
151
151
151
151
152
151
151
151
152
151
152
152
152
152
152
152
152
152
152
152
152
152
152
153
153
153
153
153
154
154
154
154
154
154
155
154
155
155
155
156
156
156
156
157
157
157
157
157
158
158
158
158
158
158
159
159
160
160
160
160
161
161
160
161
161
161
161
161
161
161
161
161
161
162
162
162
162
163
163
163
163
164
164
164
164
165
165
166
166
167
167
167
167
168
169
169
170
170
170
170
171
172
172
173
173
173
174
174
175
175
175
176
176
176
176
177
177
178
178
178
179
180
181
182
182
183
184
184
185
185
184
184
184
184
185
185
185
186
186
187
187
187
187
187
187
187
187
187
187
187
187
187
187
188
189
153
27
28
24
18
13
9
8
7
9
8
15
28
29
20
5
8
6
8
8
9
9
9
9
22
82
190
192
192
192
192
192
193
193
194
194
194
193
193
193
193
194
194
195
195
195
195
195
195
195
195
195
195
196
196
196
196
196
196
196
196
197
197
197
197
197
197
197
197
197
197
198
198
198
198
198
198
198
199
199
199
199
199
199
200
200
200
200
200
200
200
200
201
201
201
200
200
200
200
199
199
198
198
197
197
196
196
196
196
196
194
193
193
192
191
191
191
191
190
190
190
189
189
188
188
188
188
188
188
187
187
186
186
186
186
185
185
185
184
184
184
184
184
183
183
183
182
182
182
181
181
181
181
181
181
180
180
113
114
114
115
115
116
117
117
118
118
119
119
120
121
121
121
122
122
123
124
125
125
126
126
126
127
127
127
127
128
128
129
130
130
131
131
131
132
132
134
135
135
136
136
137
137
138
138
138
139
139
139
140
140
140
141
141
141
142
142
143
143
143
143
144
144
144
145
145
145
146
147
147
147
148
148
148
147
93
75
78
74
69
62
55
48
99
143
149
149
149
150
150
150
150
150
150
150
150
150
150
151
151
151
151
151
151
152
152
152
153
153
152
153
154
153
153
153
154
154
154
154
154
155
155
155
155
156
156
156
156
156
156
157
157
157
157
157
158
158
158
158
159
159
160
160
160
160
160
160
161
160
160
160
161
161
161
161
162
162
162
162
162
162
163
163
163
163
164
164
164
165
165
165
166
166
166
167
167
167
168
168
168
169
170
170
170
171
172
172
173
174
174
174
174
175
176
175
176
176
176
177
177
177
178
178
178
179
180
180
181
181
182
183
184
184
185
185
185
185
184
185
184
184
185
185
185
185
186
185
185
185
185
185
185
185
185
185
185
185
185
185
186
144
9
9
8
9
11
13
12
13
9
8
9
11
22
26
13
7
7
8
8
8
8
9
9
27
51
165
186
186
187
187
187
187
188
188
188
188
188
189
189
189
189
190
189
189
190
189
190
190
190
190
191
191
191
191
191
192
192
192
192
193
193
193
193
193
194
194
194
194
194
195
195
196
196
196
196
197
197
197
198
198
198
199
199
199
199
199
199
199
199
199
199
199
199
199
199
199
199
199
198
197
197
197
196
197
197
196
196
196
195
194
193
193
192
192
191
191
191
191
191
190
189
189
189
188
187
187
187
187
186
186
186
186
186
186
185
185
185
184
184
184
184
183
183
183
182
182
182
180
180
179
179
178
178
178
177
176
113
114
115
115
116
116
117
118
118
118
119
119
120
120
121
122
122
122
123
123
125
125
126
126
126
127
127
127
128
128
129
129
130
130
131
132
132
133
133
134
135
135
136
137
137
137
138
138
138
139
139
140
140
140
141
141
141
141
142
142
142
143
143
143
144
144
145
145
145
146
146
146
146
146
147
147
147
147
83
71
80
82
81
80
78
92
101
111
125
128
147
149
149
149
150
150
150
150
150
151
150
151
151
151
151
151
152
152
152
152
152
152
152
153
153
153
153
153
153
153
154
154
154
154
154
155
155
155
155
156
156
156
156
156
157
157
157
157
158
158
158
158
159
159
159
159
159
160
160
160
160
160
160
161
161
161
162
161
162
162
162
162
162
162
163
163
163
164
164
164
164
165
165
166
166
167
167
167
167
168
168
169
169
169
170
170
171
171
172
173
173
173
174
174
174
175
175
176
176
176
176
177
177
178
178
178
179
179
180
180
180
181
181
182
182
182
183
183
183
182
182
182
181
181
181
181
181
181
181
181
181
181
181
181
182
182
182
182
182
182
183
183
184
126
9
9
9
8
6
11
14
13
24
13
8
9
9
15
18
10
7
8
7
7
8
8
11
34
127
181
185
186
186
186
186
187
187
187
187
188
188
188
188
188
189
189
189
189
189
189
190
190
190
190
191
191
191
191
191
192
192
192
192
192
192
193
193
194
194
194
194
195
195
195
196
196
196
197
197
197
197
198
198
199
199
199
199
199
199
199
199
199
199
200
200
200
200
199
199
199
199
199
198
198
198
197
196
197
197
197
196
196
196
195
194
194
193
193
192
192
191
191
191
190
189
189
188
188
187
187
187
187
187
186
186
185
185
185
184
184
184
183
183
183
182
181
181
180
180
179
179
179
178
178
177
177
176
176
175
175
114
114
115
115
116
116
117
117
118
119
119
120
120
121
121
122
122
123
124
124
125
125
126
126
127
127
127
128
128
129
129
130
130
131
131
132
132
133
133
135
135
136
136
137
137
137
138
138
138
139
139
139
140
140
140
141
141
142
142
142
142
143
143
143
144
144
144
144
145
145
145
145
145
146
146
146
147
145
69
34
39
48
57
63
66
78
122
116
109
111
146
149
149
149
149
150
150
150
150
150
150
150
150
151
151
151
151
152
151
152
152
152
152
152
153
153
153
153
153
153
153
154
154
154
154
155
155
155
155
155
156
156
156
156
156
157
157
157
157
158
158
158
159
159
159
160
160
160
160
160
160
161
161
161
162
162
162
162
163
163
163
163
163
163
163
164
164
164
164
165
165
166
166
166
167
167
167
168
168
168
169
169
169
170
170
171
171
172
172
172
173
173
173
174
174
174
175
175
176
176
177
178
178
178
178
178
179
179
179
180
180
180
180
180
181
181
181
181
181
181
180
180
180
180
180
180
180
180
180
180
180
180
180
180
180
180
181
181
181
182
183
184
184
110
10
9
8
8
8
9
8
13
14
27
19
7
8
8
10
10
9
7
7
7
8
8
15
50
177
185
186
186
186
186
187
187
187
187
188
188
188
188
189
189
189
189
189
189
189
190
190
190
190
191
191
191
191
191
191
192
192
192
192
192
193
193
193
193
194
194
194
195
195
196
196
196
197
198
198
198
197
198
199
199
199
199
199
199
199
199
199
199
200
200
200
200
200
200
199
200
199
199
199
198
198
198
198
198
197
197
196
196
195
195
194
193
192
192
192
192
190
190
190
189
189
189
188
188
188
187
187
187
187
186
186
185
185
185
184
184
183
182
182
182
181
180
180
180
179
179
178
178
178
177
177
176
176
175
174
173
114
114
115
115
116
116
117
118
119
119
120
120
120
121
122
122
122
124
124
125
125
126
126
126
127
127
128
128
128
129
129
130
131
131
132
132
132
133
133
134
135
135
136
136
137
137
137
138
138
138
139
139
139
140
140
140
141
142
142
142
142
142
143
143
143
144
144
144
145
145
145
145
145
145
146
146
146
143
61
33
34
34
34
34
34
35
46
75
120
133
129
138
148
149
149
149
149
149
149
150
150
150
150
150
151
151
151
151
152
152
152
152
152
152
153
153
153
153
153
154
154
154
154
155
155
155
156
156
156
156
156
156
156
156
156
156
157
157
158
158
159
159
159
159
160
159
160
159
160
160
161
161
161
162
162
163
163
163
163
163
164
164
164
164
164
164
164
164
165
165
166
166
167
167
168
168
168
169
169
169
169
170
170
170
171
171
171
171
172
172
173
173
173
174
174
174
175
175
176
176
177
178
178
178
178
179
179
180
180
180
181
181
180
180
180
180
180
179
180
180
180
180
180
180
180
180
180
181
180
180
180
180
180
180
180
181
182
182
182
183
184
186
186
87
9
9
8
8
8
9
8
8
13
15
27
25
14
8
8
7
8
9
8
12
13
11
24
107
186
186
186
186
187
187
188
188
188
189
189
189
189
189
189
189
189
189
189
190
190
190
190
190
190
190
190
191
191
191
193
193
192
192
192
193
193
193
193
194
194
194
195
195
196
196
196
196
197
198
198
198
198
198
198
198
199
199
199
199
199
199
199
199
200
200
200
200
200
200
199
200
199
199
199
198
198
198
198
197
196
196
196
195
194
194
193
192
192
192
192
191
191
190
190
190
189
189
189
188
188
188
187
187
187
186
186
185
185
184
184
183
183
182
181
180
180
179
179
178
178
178
177
177
176
176
175
175
175
174
173
172
114
115
115
115
116
117
118
118
118
119
120
120
120
121
122
122
123
123
125
125
126
126
126
127
127
128
128
128
129
129
130
131
131
132
132
132
133
133
134
135
135
135
136
136
137
137
137
137
138
138
139
139
140
140
140
141
141
141
141
142
142
143
143
143
143
144
144
144
145
145
145
145
145
145
146
146
146
142
56
34
35
34
33
34
34
34
33
59
83
48
37
51
97
143
149
149
149
149
150
150
150
150
151
151
151
152
152
152
153
153
153
153
153
153
154
154
154
154
154
154
154
155
155
155
155
156
155
156
156
156
156
156
156
156
156
157
157
158
158
159
159
159
159
159
159
159
159
159
160
160
160
161
161
161
162
162
162
162
163
163
163
163
163
164
164
164
164
165
165
165
165
166
167
167
168
167
168
169
169
169
169
169
170
170
170
170
170
171
171
172
172
172
173
174
174
174
174
174
175
176
176
176
177
177
178
178
178
179
179
179
179
179
179
179
179
179
179
179
180
180
180
180
181
181
181
181
181
181
181
181
181
180
181
181
181
181
182
183
183
185
186
187
186
53
9
9
8
7
9
8
8
9
9
12
15
24
30
25
15
13
14
13
9
9
13
16
44
156
186
186
186
186
187
188
189
190
190
190
191
191
191
191
190
190
190
190
190
191
191
191
191
191
190
191
191
191
192
194
196
195
193
193
193
194
194
194
194
194
194
195
195
195
195
196
196
196
197
198
198
198
198
199
199
199
199
199
199
200
200
200
200
200
200
200
200
200
200
200
199
199
199
199
199
198
198
198
197
197
196
196
196
195
195
194
194
193
193
192
192
192
192
192
191
191
190
190
190
189
188
188
187
187
186
186
186
185
185
184
184
183
182
181
180
179
179
178
178
178
177
176
176
176
175
174
174
174
174
173
172
172
114
114
115
115
115
116
117
118
119
119
119
120
121
121
121
122
123
123
123
125
125
126
126
126
127
127
128
129
129
130
131
132
132
132
132
133
134
134
135
135
136
136
136
137
137
137
137
138
138
139
139
140
140
140
140
141
141
141
141
141
142
143
143
143
144
144
144
144
145
145
145
145
145
145
145
145
145
140
49
34
35
35
34
34
34
34
35
68
87
43
33
65
110
145
150
150
150
151
151
152
152
152
152
152
152
152
153
153
153
153
153
153
153
154
154
154
154
154
154
155
155
155
155
155
155
155
156
156
156
155
156
156
157
157
157
158
159
159
159
159
159
159
159
159
159
159
159
159
159
159
160
160
160
160
161
162
161
161
162
163
163
163
163
164
164
163
164
164
164
164
164
165
165
165
166
165
166
166
166
166
167
167
167
168
168
168
168
169
169
169
170
170
170
171
171
171
172
172
173
173
173
174
174
174
175
175
175
176
176
176
176
176
176
176
177
177
177
178
178
179
179
180
181
181
181
181
181
180
180
180
180
180
179
179
179
180
181
182
184
184
185
185
179
20
9
9
7
6
9
9
9
9
9
9
12
15
19
27
21
16
10
9
8
9
15
37
103
185
186
186
186
187
187
188
189
189
190
190
191
191
192
192
192
191
190
190
191
193
193
194
193
192
191
192
192
192
193
194
194
194
194
194
195
195
195
196
196
195
195
195
195
196
196
196
196
197
197
198
199
198
199
199
199
199
199
199
200
200
200
200
200
200
200
200
200
200
200
200
199
199
199
199
199
198
198
198
197
197
197
198
198
199
199
198
198
198
198
197
197
196
194
194
193
193
192
192
191
191
190
189
188
187
186
186
185
184
184
183
182
181
181
180
180
179
179
178
177
177
176
176
175
175
175
174
174
173
172
172
171
171
114
114
114
115
115
115
116
117
118
118
119
119
120
120
121
121
121
123
123
123
124
124
125
126
126
127
127
128
128
130
131
131
132
132
133
133
134
135
135
136
136
137
137
137
137
137
138
138
139
139
139
140
140
140
140
141
141
140
141
142
142
142
142
143
143
143
144
144
144
144
145
144
144
145
145
145
145
136
47
40
36
35
36
35
34
34
43
91
86
39
34
33
69
106
148
150
151
151
151
151
152
152
152
152
152
152
152
153
153
153
153
154
154
155
155
155
155
155
155
155
155
156
156
156
157
157
158
158
158
158
158
158
158
158
158
158
159
159
159
159
159
159
159
159
159
159
159
159
159
159
160
160
160
160
161
161
162
161
162
162
162
163
163
164
164
163
163
163
163
163
163
163
163
163
164
164
164
164
165
165
165
166
166
166
166
167
167
167
167
167
167
168
168
169
169
169
170
170
170
171
171
171
171
172
172
172
173
173
173
173
174
173
174
174
174
174
175
175
176
177
177
178
179
180
180
180
180
180
180
180
180
180
179
179
180
180
181
182
184
184
184
184
167
9
9
9
7
7
9
9
9
9
9
8
8
10
14
15
9
8
9
9
8
9
13
48
168
186
186
186
186
186
187
188
188
188
188
189
189
189
190
191
191
191
190
190
190
191
192
192
192
191
191
191
192
192
194
193
193
193
192
194
195
196
197
197
197
196
196
196
196
197
197
198
198
199
199
199
199
199
199
199
199
199
199
199
200
200
200
200
200
199
199
199
199
199
199
199
199
199
199
199
199
199
200
201
201
201
202
203
202
202
200
200
200
199
198
198
197
195
194
193
192
192
192
191
190
189
188
187
186
186
185
184
183
183
182
181
181
181
180
180
179
179
179
178
177
177
177
176
175
175
174
173
173
172
172
171
170
170
113
113
113
114
114
114
115
115
116
117
118
118
118
119
119
120
120
121
122
122
123
124
125
125
126
126
127
127
127
128
129
131
131
131
132
132
133
134
135
136
136
137
137
137
137
137
138
139
139
138
139
139
139
140
140
140
140
140
141
141
142
142
142
143
143
143
144
144
144
144
144
144
145
145
145
145
145
133
66
81
77
71
64
57
47
60
99
122
133
129
122
111
94
127
149
150
151
151
151
151
151
152
152
152
153
153
153
154
154
154
154
154
155
155
155
155
155
155
156
156
157
157
157
158
158
158
158
158
159
158
159
158
159
159
159
159
159
159
159
159
159
159
159
159
159
159
159
160
160
160
160
160
160
161
161
161
161
162
162
162
162
162
162
162
163
163
163
163
163
163
163
163
163
163
163
163
164
164
164
164
164
165
164
165
165
165
166
166
166
166
167
167
167
167
168
168
168
168
169
169
169
169
170
170
170
171
171
171
172
171
172
172
172
173
173
174
174
174
175
175
176
177
177
178
178
179
179
179
179
179
180
180
179
179
179
180
181
181
181
182
182
183
155
9
9
8
6
8
9
9
9
9
9
9
8
8
10
11
10
8
7
8
9
9
22
142
185
186
186
186
186
186
186
187
187
187
187
187
188
188
189
189
189
189
190
190
189
189
189
189
190
191
191
192
192
192
193
192
192
193
193
195
195
196
196
195
195
195
195
195
195
196
197
198
198
198
198
198
197
197
197
197
197
198
198
198
199
199
199
199
199
200
200
200
200
200
200
200
200
200
200
202
204
207
208
207
205
204
203
203
202
201
200
199
199
198
198
197
196
196
194
193
192
192
191
190
188
188
187
186
186
185
185
184
183
183
182
182
181
181
181
180
179
179
178
178
177
177
177
176
176
175
174
174
173
172
172
171
171
170
112
112
113
113
113
113
114
115
115
116
116
117
118
118
119
119
120
120
121
122
122
123
124
125
125
126
126
127
127
127
129
129
131
131
131
132
132
133
133
134
135
136
136
136
137
137
137
138
138
139
139
139
140
140
140
140
141
141
142
142
142
143
143
143
143
144
144
144
144
144
145
145
145
145
146
146
146
129
65
82
84
82
81
78
72
91
138
147
147
148
149
149
148
149
150
151
151
151
151
152
152
152
153
153
154
154
154
154
154
154
154
154
154
154
154
154
155
156
156
156
157
157
157
157
158
158
158
158
158
158
158
158
158
158
158
158
158
159
159
159
159
159
159
159
159
160
161
160
161
161
160
161
161
161
161
161
162
162
162
162
162
162
162
162
162
162
163
163
163
163
163
163
163
163
163
163
163
164
164
164
164
164
164
165
165
165
165
166
166
166
167
167
167
167
168
168
168
169
169
169
169
169
170
170
170
171
171
171
172
172
172
173
173
173
173
174
174
175
175
175
175
175
176
177
177
177
178
178
178
179
179
179
179
179
179
179
180
180
180
181
181
183
142
9
8
7
6
7
8
9
9
9
8
8
9
8
8
7
7
7
7
7
8
11
80
183
184
185
185
185
184
184
185
185
185
185
185
186
186
187
187
187
187
187
188
188
188
188
188
189
189
189
189
189
189
190
190
190
190
191
191
191
191
191
192
192
192
192
192
193
193
193
193
194
194
195
195
195
195
195
195
196
196
197
197
197
198
198
199
199
200
200
200
200
200
201
202
203
203
205
207
209
210
209
207
206
204
203
203
202
202
201
201
200
199
198
197
196
195
194
193
192
191
190
189
188
187
187
186
186
185
184
183
183
183
182
182
181
181
180
180
179
179
178
178
178
177
176
176
175
175
174
173
173
172
171
171
170
170
169
111
112
112
113
113
113
114
114
115
115
116
116
117
118
119
119
119
120
121
121
121
122
123
123
124
125
125
126
126
127
127
128
129
129
130
130
131
132
132
133
133
134
135
136
136
137
137
137
138
138
138
139
139
140
140
141
141
142
142
142
143
143
143
143
143
143
144
144
144
144
145
145
145
145
145
145
145
123
43
48
52
57
63
65
61
102
137
147
148
148
148
149
148
149
149
149
150
150
150
151
151
152
152
152
152
153
153
153
153
153
154
154
154
154
154
155
155
156
156
156
156
156
156
157
157
157
157
157
157
157
157
158
158
158
158
158
158
158
159
159
159
159
159
160
160
160
160
160
160
160
161
161
161
161
161
162
162
162
163
163
162
162
162
162
162
162
162
162
162
162
162
163
163
163
163
164
164
164
164
164
164
164
165
165
165
165
165
166
166
166
166
167
168
168
168
168
169
169
169
169
169
169
170
170
170
170
171
171
171
171
171
172
172
172
173
173
173
173
173
173
174
174
174
174
174
175
176
177
177
178
178
178
179
179
179
179
179
179
179
180
181
181
124
8
8
7
7
9
8
8
9
9
8
8
9
8
7
7
7
6
9
9
8
13
51
174
183
183
183
183
183
183
183
183
183
184
184
184
185
185
185
185
185
185
185
186
186
186
187
187
187
187
187
187
187
188
188
188
188
189
189
189
189
190
190
190
191
191
191
192
192
192
192
193
193
194
194
194
195
195
195
196
196
196
196
197
198
199
200
200
200
201
201
203
204
204
205
206
205
205
207
206
205
204
204
202
201
201
200
200
199
198
197
197
196
195
194
193
192
191
190
189
189
188
188
187
186
186
185
185
184
183
183
182
182
182
181
180
180
179
179
179
178
178
177
177
176
175
175
174
173
173
172
172
171
170
170
169
169
168
110
111
112
112
112
112
113
113
114
115
115
115
116
117
118
118
119
119
120
120
121
121
122
122
123
123
124
125
125
126
126
127
128
128
129
130
130
131
132
132
133
134
135
136
137
137
137
138
138
139
139
140
140
141
141
141
141
142
142
142
142
143
143
143
143
143
143
144
144
144
144
144
144
144
145
145
144
118
42
46
44
44
45
40
43
78
132
146
146
147
148
148
148
148
148
148
149
149
150
150
150
151
151
152
152
152
153
153
153
153
154
154
155
155
155
155
155
155
155
155
155
156
155
155
156
156
156
156
157
157
157
157
157
157
158
158
158
158
158
158
159
159
159
159
160
160
160
160
160
160
160
160
161
161
161
161
162
162
162
162
162
162
162
162
162
162
162
162
162
162
163
163
163
163
163
163
164
164
165
164
164
164
165
165
165
165
165
166
166
166
167
167
168
168
168
168
167
168
168
168
169
169
169
169
170
170
170
170
170
170
170
170
171
171
171
172
172
172
172
172
172
173
173
173
173
174
175
175
176
176
177
177
178
178
178
178
178
178
178
178
179
179
106
9
8
6
7
8
8
8
8
9
8
8
9
8
7
6
6
6
7
8
10
14
22
87
176
183
183
183
183
184
183
183
183
183
183
184
184
185
185
185
185
185
185
185
186
186
186
187
187
187
187
187
187
187
187
187
188
188
189
189
189
189
189
190
190
191
191
191
191
192
192
192
193
194
194
194
195
195
195
196
196
196
196
196
197
199
200
201
201
202
202
202
202
202
202
202
202
202
202
201
200
199
199
199
198
197
196
195
195
195
194
193
193
192
192
191
190
189
189
188
187
187
187
186
186
186
185
184
184
183
183
182
181
181
181
180
179
179
179
178
178
177
177
176
176
175
174
174
173
173
172
171
171
170
170
169
168
168
110
110
111
111
112
112
113
113
114
114
115
115
116
117
117
118
119
119
120
120
120
121
122
123
123
124
124
125
126
126
127
128
129
129
130
130
131
132
132
133
134
134
135
136
136
137
138
139
139
139
139
140
140
140
141
141
141
142
142
142
142
143
143
143
143
143
143
143
143
144
144
144
144
144
144
144
144
123
109
106
91
56
67
54
45
48
71
142
148
148
148
149
149
149
149
149
150
150
150
151
151
151
151
152
152
152
153
153
153
154
154
154
154
155
155
155
155
155
155
155
155
156
155
156
156
156
156
156
156
157
157
157
157
157
157
157
157
157
157
158
158
158
159
159
159
159
159
160
160
160
160
160
160
160
160
161
161
161
161
161
162
162
162
162
162
162
163
163
163
163
163
164
163
163
163
163
164
164
164
164
164
165
165
165
165
166
166
166
166
166
166
166
167
167
167
167
167
167
167
167
168
168
168
168
169
169
169
169
169
169
170
170
170
170
171
171
171
171
172
172
172
173
174
174
174
174
175
175
176
176
176
176
177
177
177
177
177
177
177
177
177
177
81
9
7
6
8
9
8
7
8
8
8
8
7
7
6
7
8
7
7
7
9
11
17
24
92
179
183
184
184
184
184
184
184
184
184
185
185
186
185
185
185
185
185
185
185
186
186
187
187
187
187
187
187
187
187
187
188
188
188
188
189
189
189
189
190
190
190
191
191
191
192
192
192
193
193
194
194
195
195
195
195
196
196
196
196
197
198
198
198
199
199
199
200
200
200
200
200
200
200
200
200
198
198
197
196
196
195
195
194
194
193
193
192
192
191
190
190
189
188
187
187
187
186
186
185
185
184
184
184
183
183
182
181
180
180
179
179
179
179
178
177
177
177
176
176
175
174
174
173
173
172
171
171
170
169
169
168
168
110
111
112
112
112
113
113
113
114
115
116
116
117
118
119
119
120
120
121
121
121
122
123
124
124
125
125
126
126
127
128
128
129
129
130
130
131
132
132
133
133
134
135
136
136
136
137
138
138
139
139
140
140
140
140
140
141
141
142
142
143
143
143
143
143
144
144
144
144
144
144
144
144
145
144
144
142
113
122
126
87
104
135
137
122
97
56
117
147
147
148
148
149
149
149
149
150
150
150
151
151
151
151
152
151
152
151
152
153
153
153
154
154
154
154
154
154
155
155
155
154
155
155
155
155
155
155
155
156
156
156
157
157
157
157
157
157
156
157
157
158
158
158
158
158
159
159
159
159
159
160
160
160
159
160
160
160
160
161
161
161
161
161
162
162
162
162
163
163
163
163
163
163
163
163
164
164
164
164
165
165
165
165
164
165
165
165
165
165
165
165
165
166
166
166
166
166
166
166
166
167
167
167
168
168
168
168
168
169
169
170
170
170
170
170
170
170
171
171
172
172
172
173
173
173
174
174
174
174
174
175
175
175
176
176
177
177
177
177
177
178
176
46
8
8
6
7
7
8
7
7
7
8
8
7
6
5
7
7
7
7
8
8
10
12
18
23
115
183
185
184
183
183
184
184
184
185
186
187
188
186
185
185
185
185
186
186
186
186
186
186
186
186
187
187
187
187
188
188
188
188
189
189
190
189
190
190
190
191
191
191
192
192
192
192
193
193
193
194
194
195
195
195
195
195
196
196
196
197
197
198
198
199
199
200
200
200
200
200
200
200
199
199
198
198
197
196
195
195
195
194
194
193
192
192
192
191
190
189
189
188
187
187
186
186
186
186
185
184
184
183
183
182
182
181
181
180
180
179
179
179
178
178
177
176
176
175
175
174
173
173
172
172
171
171
170
169
168
168
168
112
113
113
113
114
115
115
115
115
116
117
117
118
119
119
120
120
121
121
121
122
122
123
123
124
125
125
126
127
127
128
128
129
129
129
130
130
131
131
132
132
133
134
135
135
135
135
137
137
137
138
139
139
139
140
140
141
141
141
142
142
143
143
143
144
144
144
144
144
144
144
145
145
145
145
145
142
102
72
62
68
75
82
123
142
138
102
121
147
147
147
149
148
148
149
150
150
150
150
150
150
150
150
151
151
151
151
151
152
152
151
151
152
152
153
153
153
153
153
153
154
154
154
154
154
154
154
155
155
155
155
155
155
156
156
156
156
157
157
157
157
158
158
158
158
159
159
159
159
159
159
159
159
160
160
160
160
160
160
160
160
161
161
161
161
161
161
161
162
162
162
162
162
162
163
163
164
164
164
164
164
164
164
164
164
164
164
164
164
165
165
165
165
165
165
165
165
166
166
166
166
166
166
167
167
167
167
167
168
168
168
169
169
169
169
170
170
170
171
171
171
171
172
172
173
173
173
173
174
174
174
175
175
175
175
175
175
175
176
177
177
170
15
9
7
7
7
6
7
7
7
8
8
7
7
7
6
6
7
7
7
8
8
9
10
12
18
25
138
184
184
183
182
182
183
183
185
186
188
187
186
185
186
186
186
186
186
186
186
186
186
187
187
187
187
188
188
188
188
189
189
190
191
191
192
192
192
192
192
192
192
192
192
192
192
193
193
193
194
194
195
195
195
195
195
196
196
197
197
197
198
199
199
200
200
200
200
200
200
200
200
199
199
198
197
197
197
196
196
195
194
194
194
193
192
192
191
190
189
188
188
187
187
186
186
186
185
185
184
184
184
183
182
182
181
180
180
179
179
179
179
178
178
177
176
176
175
175
174
173
173
172
172
171
170
170
169
169
168
168
113
113
114
114
114
115
115
116
116
117
117
118
118
119
119
120
121
121
121
122
122
123
122
123
124
124
125
126
127
127
127
128
129
129
129
130
130
131
131
132
132
133
133
134
133
135
135
136
137
137
137
138
138
139
139
140
140
141
141
142
142
142
143
143
143
143
143
143
143
143
144
145
144
145
145
145
142
96
72
73
74
76
62
62
89
83
58
121
143
146
147
147
148
147
148
148
148
149
149
150
150
150
150
150
150
150
151
151
151
151
151
151
151
151
151
151
151
151
151
152
152
152
152
152
152
153
153
153
153
153
154
154
155
155
155
155
155
155
156
156
156
156
157
157
158
158
159
159
159
159
158
159
159
159
159
160
160
160
160
160
160
161
161
161
161
161
161
160
161
161
162
162
162
162
161
161
162
162
163
162
162
162
162
163
163
163
164
164
164
164
165
165
164
165
166
165
165
165
165
165
166
166
166
166
166
167
167
167
168
168
168
168
168
169
169
169
169
169
170
170
170
170
171
171
171
172
172
172
173
173
174
173
174
174
173
174
174
174
175
175
176
157
10
7
7
7
7
8
7
7
7
8
9
9
7
6
7
6
8
7
9
11
115
10
8
8
11
17
48
167
183
183
182
183
184
185
186
187
186
186
185
185
186
186
186
186
186
186
186
187
187
187
187
188
188
189
189
190
191
191
192
192
193
193
193
193
192
192
191
191
192
192
192
192
192
193
193
194
194
195
195
195
195
195
196
196
196
197
198
198
199
199
200
200
200
200
200
201
201
201
200
200
200
199
199
198
198
197
196
196
195
194
193
192
192
191
190
190
189
188
188
188
187
186
186
186
185
185
184
183
183
183
183
182
181
181
180
179
179
179
179
178
178
177
176
176
175
175
174
173
172
172
171
171
170
170
169
169
168
167
113
114
114
114
115
115
115
115
116
117
117
118
119
119
120
120
121
121
121
121
121
122
122
123
124
124
125
126
127
127
128
128
128
129
130
130
131
131
131
132
132
132
133
133
133
135
135
136
137
137
138
138
138
139
139
139
140
140
141
141
141
141
142
142
142
142
142
143
143
143
143
144
144
144
144
144
144
97
72
76
78
75
73
72
63
65
119
140
140
136
145
146
146
146
146
146
146
147
147
148
148
149
149
149
149
150
150
150
150
150
150
150
151
150
150
151
150
150
151
151
151
151
151
151
151
151
151
151
152
152
153
153
153
154
154
154
154
154
155
155
155
156
156
156
156
156
157
157
158
158
157
157
158
158
158
159
159
160
160
160
160
160
160
160
160
160
160
160
160
161
161
162
162
161
161
161
161
162
162
162
163
163
163
162
162
163
163
163
163
163
163
164
164
164
165
164
164
164
164
164
164
165
165
165
165
166
167
167
167
168
168
168
168
168
169
169
169
169
170
170
170
170
170
171
171
171
172
172
172
173
173
173
173
173
173
174
174
175
175
175
176
143
9
7
6
7
7
7
7
7
7
7
8
8
7
6
8
8
7
8
9
55
177
87
9
9
9
10
16
87
178
182
183
184
185
185
185
185
185
185
185
186
187
187
187
187
186
186
187
187
188
189
189
189
189
190
190
191
192
192
192
192
192
191
190
190
191
190
191
191
192
192
193
194
194
195
196
196
196
196
196
196
196
196
196
197
197
198
199
200
200
200
201
201
201
201
202
202
202
202
201
200
200
199
200
199
199
198
197
196
195
194
193
193
192
192
191
190
190
189
188
188
188
187
187
186
186
186
185
184
184
183
183
182
181
181
180
179
179
179
179
178
177
177
176
176
175
174
173
173
172
172
171
171
171
170
169
169
168
167
113
113
114
114
114
115
115
116
117
117
118
119
120
120
120
121
121
122
122
122
123
123
124
124
124
125
126
126
127
127
127
128
128
129
129
130
130
130
131
132
132
132
132
133
133
134
135
135
136
137
137
138
138
138
138
139
139
140
140
140
141
141
141
142
142
142
142
142
142
142
142
143
143
143
143
143
143
92
76
72
75
78
78
75
71
88
137
145
145
143
134
144
146
146
146
146
146
147
147
147
148
148
148
148
147
148
148
149
149
148
149
149
149
149
149
150
149
149
150
150
150
150
150
150
150
150
150
151
150
151
152
152
152
153
153
153
154
154
154
154
154
154
154
155
155
155
155
155
156
156
156
157
156
157
157
157
158
158
159
159
159
160
160
160
160
160
160
160
160
161
161
161
161
162
162
161
161
161
162
163
163
163
163
163
163
163
163
163
163
163
163
164
164
164
164
164
164
164
164
165
165
165
166
166
166
166
166
166
166
167
167
167
168
168
168
168
169
169
170
170
170
170
170
171
172
171
172
172
172
172
172
173
173
173
173
174
175
175
175
175
176
129
9
7
6
6
7
7
7
7
7
7
7
8
6
7
7
7
8
7
9
119
179
155
15
9
8
10
10
13
98
168
183
184
184
185
185
186
186
186
186
187
187
188
188
188
188
188
188
188
189
189
189
189
190
190
190
191
190
189
189
189
189
189
189
190
191
192
194
195
196
196
197
197
197
197
196
196
196
196
196
197
198
198
199
199
199
200
200
200
200
201
202
202
202
202
202
202
202
203
202
202
201
201
201
202
200
199
198
197
196
195
194
193
193
192
192
191
190
190
189
189
188
188
187
187
186
186
185
185
184
183
182
182
181
181
180
180
179
179
179
178
177
177
176
175
174
174
173
173
172
171
171
171
170
170
169
168
168
167
112
113
113
114
114
114
115
116
116
117
118
119
120
120
120
121
121
122
122
123
123
123
124
124
125
126
125
126
126
127
127
127
128
128
128
129
130
130
130
130
131
132
132
133
133
134
134
135
135
135
135
136
136
136
137
138
138
139
139
139
140
140
140
140
140
141
141
141
141
141
141
141
142
142
142
142
142
89
78
74
74
76
77
76
76
90
136
144
145
145
145
139
137
145
146
146
146
146
146
147
147
147
147
147
147
147
147
147
148
147
148
148
148
148
148
148
149
149
149
149
148
149
149
149
149
149
149
150
149
150
150
151
151
151
151
152
152
152
153
153
154
154
154
154
154
154
155
155
155
155
155
155
155
155
156
156
157
157
157
157
158
158
159
159
159
159
159
160
160
160
160
160
160
161
161
161
161
161
161
162
162
163
163
164
163
163
162
163
162
163
163
164
164
164
164
164
164
164
164
164
164
165
165
165
165
166
165
166
166
166
167
167
167
167
168
169
169
169
169
169
170
170
170
170
170
171
171
171
171
172
172
172
171
171
172
173
173
174
175
176
176
110
9
6
6
7
6
6
6
7
7
7
7
8
7
6
6
6
8
9
10
157
178
178
102
11
10
13
10
10
12
43
138
181
184
185
185
185
185
185
187
187
188
188
188
189
189
189
188
188
188
188
188
189
188
188
188
189
189
189
189
189
191
191
192
193
195
196
196
197
197
197
196
196
197
197
198
199
200
200
200
201
201
200
200
200
200
200
201
202
202
202
202
202
202
202
202
204
205
205
204
205
205
204
204
204
204
203
202
200
197
196
195
194
193
193
193
192
192
191
191
189
189
188
187
187
186
185
185
184
183
183
182
181
181
180
180
179
179
178
178
177
177
176
175
174
174
173
173
172
172
171
170
170
170
169
168
167
167
166
111
112
112
113
114
114
115
115
115
116
117
117
118
119
119
120
120
121
121
121
122
122
123
123
124
125
125
126
126
126
127
127
128
128
128
128
129
129
130
130
131
131
131
132
132
133
133
134
134
134
134
134
135
134
135
136
136
137
137
137
138
138
138
139
139
139
139
139
139
139
139
140
140
140
140
141
141
86
74
59
74
77
80
80
76
112
142
143
143
144
143
144
138
139
145
145
145
146
146
146
146
146
146
146
146
147
147
146
147
146
147
147
147
147
147
147
147
147
147
148
147
147
147
148
147
147
148
147
148
148
148
148
149
149
150
151
151
152
152
152
152
153
153
153
154
154
154
154
155
155
154
155
154
155
155
155
156
156
156
156
156
156
157
157
158
158
158
158
159
159
159
159
160
160
160
160
160
160
160
160
161
161
162
163
162
161
161
161
161
162
162
162
163
163
163
164
163
163
163
164
164
164
164
164
164
165
165
165
165
165
166
167
167
167
168
168
168
168
168
168
169
169
170
170
170
170
171
171
171
171
171
171
171
172
172
173
174
175
174
174
173
84
9
6
6
7
8
6
7
7
7
7
7
7
6
6
6
7
9
9
68
175
177
177
166
123
22
15
17
13
10
11
14
96
166
183
183
183
183
185
186
186
186
186
186
186
186
186
186
186
187
187
187
188
188
188
189
189
189
190
191
192
192
193
193
193
195
196
196
196
196
196
196
196
196
197
198
200
200
200
201
200
200
200
200
200
201
201
202
202
202
202
202
203
203
205
205
206
206
207
207
206
206
206
205
204
204
204
204
202
199
197
196
195
195
195
194
192
191
190
189
188
188
187
187
186
185
185
184
183
182
181
181
180
180
179
179
179
178
177
177
176
176
175
174
174
173
173
172
172
171
170
170
169
169
168
167
167
166
165
110
111
112
113
113
113
114
114
115
115
116
116
117
118
119
119
120
120
121
121
121
122
122
122
123
123
124
124
124
125
126
126
126
127
127
128
128
128
128
129
129
130
130
131
131
131
132
132
133
133
133
133
134
134
134
135
136
136
136
136
137
137
138
138
138
139
139
139
139
139
139
139
139
139
139
140
139
83
73
59
75
75
78
80
80
126
141
142
142
142
142
142
142
142
143
143
143
143
144
144
144
144
145
145
145
146
146
146
146
146
146
146
146
146
146
146
146
146
146
147
146
146
146
146
146
146
146
146
146
146
146
146
147
147
148
149
150
150
151
151
151
152
152
152
153
153
153
153
154
154
154
155
154
155
154
155
156
156
156
156
156
155
156
156
157
157
158
158
159
159
159
159
159
159
159
159
159
160
159
160
160
160
160
161
160
160
160
160
160
160
161
161
161
162
163
163
163
163
163
163
163
163
163
164
164
165
166
165
165
166
165
166
167
167
167
167
167
167
168
168
168
168
168
168
169
169
170
170
170
170
170
171
171
172
172
173
173
173
173
172
171
50
7
6
7
7
7
6
6
6
6
7
7
6
6
7
6
7
9
10
125
176
176
176
177
176
110
21
23
17
10
8
10
12
30
117
172
182
182
183
184
184
184
184
185
185
185
185
186
186
187
187
188
188
188
188
188
188
189
190
190
190
191
191
192
192
192
192
192
193
194
195
196
197
198
199
200
200
200
200
200
200
200
200
201
201
201
202
202
202
202
202
203
203
203
204
204
206
207
207
207
207
207
207
205
204
203
202
201
201
200
199
197
196
195
194
193
191
190
189
188
188
187
187
186
185
185
184
183
182
182
181
180
180
179
179
178
178
177
177
176
176
175
174
174
173
173
172
172
171
170
169
169
168
168
168
167
166
166
165
110
111
112
112
113
113
113
114
114
115
115
116
116
117
118
119
120
119
120
120
121
121
122
122
122
122
123
123
124
124
125
125
125
126
126
127
127
127
128
128
128
129
129
130
130
130
131
131
131
132
132
132
132
133
133
133
134
135
135
135
135
136
136
136
136
137
137
138
138
138
138
138
138
138
139
139
138
80
70
62
76
73
75
79
86
136
141
141
141
141
141
141
142
141
141
141
142
142
142
143
143
143
143
144
144
144
145
145
145
145
145
145
145
145
145
145
145
145
145
145
145
145
145
145
145
145
145
145
146
146
146
147
147
147
147
148
149
149
150
150
150
151
151
151
151
152
152
152
153
153
153
154
154
154
154
154
154
155
155
155
155
155
155
155
156
157
157
157
157
157
157
157
158
158
158
158
159
158
158
159
159
160
160
160
159
159
159
160
160
160
160
160
160
161
162
163
163
163
163
162
163
163
163
163
164
165
165
166
166
166
165
166
166
166
167
166
166
166
166
167
167
167
168
168
168
168
169
170
170
170
170
170
170
171
172
172
171
171
171
170
162
11
7
6
7
7
7
7
6
7
7
7
8
5
5
8
6
8
9
16
160
175
175
176
177
177
169
56
25
27
14
8
8
10
12
13
49
137
180
182
182
182
183
184
184
185
185
185
186
186
187
189
189
188
188
188
188
188
188
189
189
189
190
190
191
191
191
192
192
193
195
195
196
196
196
197
198
200
199
199
200
200
200
201
202
202
201
201
201
201
201
201
201
202
202
203
204
204
204
204
205
204
204
203
203
203
202
201
200
198
198
197
196
195
194
192
191
190
189
188
188
187
187
187
186
185
184
183
183
182
181
180
180
180
179
179
178
178
177
176
176
176
175
174
174
173
172
172
171
171
170
169
168
168
168
167
166
166
165
164
109
109
110
110
110
110
111
112
112
113
114
114
115
115
115
116
116
116
117
117
118
119
120
120
121
121
121
122
122
123
123
124
124
125
125
126
126
127
127
127
128
128
128
129
129
130
130
130
131
131
131
132
132
132
133
133
133
133
133
134
134
134
135
135
135
135
136
136
136
136
136
137
137
136
137
137
135
79
68
64
75
75
75
76
75
123
139
140
140
140
141
141
141
141
140
141
141
142
142
142
142
142
142
143
143
143
143
143
144
144
144
144
144
145
144
144
145
145
145
145
145
145
145
145
145
145
145
146
145
146
146
146
146
145
146
146
146
147
147
147
148
148
148
149
149
149
150
151
151
151
152
152
152
152
153
153
153
153
154
154
154
154
154
154
155
155
155
156
155
156
156
156
157
157
158
159
158
158
158
158
158
159
159
159
159
159
159
160
159
160
160
160
160
160
161
162
162
162
162
162
162
162
163
163
164
165
165
165
165
165
165
165
166
166
166
166
166
166
166
166
166
166
167
167
167
167
168
168
168
169
169
169
169
169
170
170
170
170
170
169
147
10
7
6
7
6
6
6
6
7
6
8
6
6
6
8
7
8
9
79
172
173
173
174
175
176
177
136
27
26
30
14
9
8
9
11
12
14
84
159
181
182
182
182
182
183
184
184
185
186
187
188
188
188
188
188
189
189
190
191
191
190
190
190
191
191
191
192
193
194
195
196
197
197
198
199
201
202
201
201
201
201
201
201
200
199
199
199
199
199
199
200
200
201
201
202
203
203
203
204
204
204
203
203
203
202
201
199
198
197
196
195
194
193
192
192
191
190
189
188
188
188
187
187
186
185
184
183
182
182
181
180
180
180
179
179
179
178
178
177
176
176
175
174
173
173
172
171
171
170
170
169
168
168
167
167
166
165
165
164
107
107
107
108
108
109
109
110
111
111
112
112
113
113
114
114
115
115
116
116
117
117
118
119
119
120
120
120
121
122
122
122
123
123
124
124
125
126
126
126
127
127
127
128
128
128
128
129
129
129
130
130
131
131
131
131
131
132
132
132
133
133
133
133
134
134
135
135
135
134
135
135
136
136
136
136
135
78
66
67
75
74
76
77
76
108
139
140
140
140
140
140
140
140
140
141
141
141
141
142
141
142
142
142
142
142
142
143
143
143
143
144
144
144
144
144
144
145
145
145
145
145
145
145
145
145
145
145
145
145
145
145
145
145
145
145
145
146
146
146
146
146
147
147
147
148
148
148
149
150
150
150
151
151
151
152
152
152
153
153
153
153
153
154
154
154
154
154
155
155
155
156
156
156
157
158
158
158
158
158
158
158
158
158
158
159
159
159
159
159
159
159
159
160
160
160
160
161
162
162
162
162
162
162
163
164
164
164
164
164
164
164
164
165
165
165
165
165
165
165
165
165
165
165
166
166
165
166
166
167
167
167
167
167
167
167
168
168
167
167
130
9
7
7
7
6
6
6
6
6
7
6
6
7
6
7
8
8
11
130
172
172
173
173
173
173
174
173
88
27
31
30
14
10
8
8
10
12
12
26
120
175
181
182
182
183
183
184
185
186
187
187
188
188
188
189
189
189
190
190
190
190
190
191
192
192
192
194
195
196
197
197
199
201
202
203
204
203
202
201
201
201
199
199
198
198
197
198
199
199
199
200
201
201
203
203
204
204
204
204
205
204
203
203
203
201
200
198
198
197
196
194
194
193
192
192
191
190
189
189
188
188
187
186
186
185
184
183
182
181
181
180
180
180
179
179
178
178
178
177
176
176
175
174
173
172
171
170
170
170
169
168
167
167
166
166
165
165
164
164
106
107
107
107
108
107
108
109
109
110
111
111
112
112
113
113
114
114
115
116
116
116
117
118
119
119
119
120
120
120
121
121
122
122
123
123
123
124
125
125
125
126
126
127
127
127
128
128
128
129
129
129
130
130
131
131
131
132
132
132
132
132
133
133
133
133
133
134
134
134
135
135
135
136
136
136
134
76
64
69
76
74
76
77
76
123
139
139
139
140
140
140
140
140
140
140
141
141
141
141
141
141
141
141
142
142
142
142
142
142
142
142
143
143
143
144
144
144
144
144
144
145
144
145
144
145
144
144
144
144
145
145
145
145
145
146
146
146
146
147
147
147
147
148
148
148
148
148
149
148
148
149
149
150
150
150
151
151
152
152
152
152
152
153
153
153
153
153
154
154
155
155
156
156
156
157
157
157
157
157
157
157
157
158
158
158
158
158
158
158
158
158
158
159
159
159
160
160
160
161
162
161
161
161
161
162
162
163
163
162
162
162
163
163
163
163
163
163
164
164
164
164
165
164
164
164
164
164
164
164
165
165
165
165
165
165
165
165
165
164
110
7
8
7
7
7
6
7
6
7
6
7
5
6
7
6
8
9
23
161
171
172
172
173
173
173
174
174
160
43
27
33
30
14
9
9
9
11
11
13
15
71
156
180
181
182
183
184
185
186
187
187
187
187
187
187
187
187
188
189
190
191
191
192
193
193
195
196
197
198
199
199
200
200
199
198
198
198
198
197
197
196
196
196
196
196
197
198
199
199
200
201
202
203
206
204
205
204
204
204
204
203
203
202
200
200
199
198
197
196
195
194
194
193
192
192
191
190
189
188
188
188
187
186
186
185
184
183
183
182
181
180
180
179
179
179
178
178
177
176
176
175
174
173
172
171
171
170
169
169
168
168
167
166
166
165
164
164
164
163
106
107
107
107
107
107
108
109
110
110
111
111
112
112
113
113
114
114
115
115
115
116
117
117
119
119
119
119
120
120
120
122
122
122
122
123
124
124
125
125
126
126
127
127
127
127
128
128
129
129
129
129
130
130
130
131
131
131
131
131
132
132
132
133
132
133
133
133
134
134
134
134
135
135
135
135
124
77
60
68
73
73
74
74
81
127
138
138
139
138
139
139
139
140
140
140
140
140
140
140
140
140
140
140
140
141
141
141
141
142
142
142
142
142
142
143
143
143
143
144
143
144
144
144
144
144
144
144
144
144
144
144
145
145
145
145
145
146
146
146
147
147
147
148
148
148
148
148
148
148
148
148
149
149
150
149
149
150
150
151
151
151
151
151
152
152
152
152
153
153
153
154
154
154
154
155
155
155
156
156
157
157
157
157
156
156
157
156
156
156
157
157
157
157
157
158
158
159
159
159
160
160
160
160
159
160
161
161
161
161
161
161
161
161
161
161
162
161
162
162
162
162
162
163
163
163
164
164
163
163
163
163
164
164
164
164
164
164
164
164
83
8
7
7
7
6
7
6
7
7
7
7
6
7
7
7
9
9
91
170
171
171
172
173
173
174
174
174
174
133
27
26
34
29
14
15
12
11
15
66
13
12
23
95
155
181
183
184
185
185
185
184
184
185
185
186
186
187
188
188
190
191
192
193
194
195
196
196
197
197
197
196
196
196
196
196
196
196
196
196
196
196
196
196
196
196
197
198
199
199
200
201
203
203
205
204
204
204
203
204
203
203
203
203
203
201
200
200
199
198
197
195
194
194
194
192
192
192
191
191
191
190
189
188
187
186
185
184
183
181
181
180
180
179
179
178
177
177
176
175
175
174
173
173
172
171
170
170
169
168
168
167
167
166
166
165
164
164
163
162
106
107
107
107
109
109
109
110
110
110
111
112
113
113
113
114
114
115
115
115
116
116
117
117
118
119
120
120
120
121
121
122
122
122
122
123
123
124
125
125
126
126
127
127
127
127
128
128
129
129
129
129
129
129
130
130
130
130
131
131
131
131
131
132
132
132
132
132
132
133
133
133
133
134
133
134
102
64
60
73
77
77
78
80
93
129
133
136
137
138
139
139
139
139
139
139
139
139
139
139
140
140
140
140
140
140
140
141
140
141
141
141
141
142
142
142
143
142
143
143
143
143
143
143
143
143
143
143
143
143
143
143
144
144
144
144
144
145
145
145
146
146
146
146
146
147
147
147
147
147
147
147
148
148
148
148
148
149
149
150
150
150
151
151
151
151
151
151
151
151
152
152
152
152
153
153
153
153
155
155
155
155
156
156
156
155
155
155
156
156
156
156
156
157
156
157
157
158
158
158
159
159
159
159
159
159
159
160
160
160
160
160
160
161
161
161
161
161
161
161
161
161
161
161
162
162
162
163
162
163
163
163
163
163
163
163
163
164
164
163
47
7
7
6
6
6
6
7
7
7
7
5
7
6
7
7
9
9
135
170
171
172
172
173
173
173
174
174
173
173
103
24
28
30
27
22
21
13
12
73
136
81
13
13
32
115
177
182
182
182
182
182
183
184
185
185
186
187
187
188
190
190
191
192
192
193
194
193
193
193
193
193
193
194
194
194
195
195
195
195
196
196
196
196
197
198
198
199
199
200
200
202
203
203
204
205
205
205
205
206
207
207
207
206
204
204
203
202
201
200
199
197
197
196
195
194
194
193
192
190
189
188
187
186
185
184
183
182
181
181
180
180
179
179
178
177
176
175
175
174
173
173
172
172
171
170
170
169
169
168
167
166
166
165
165
164
164
163
163
162
106
107
107
108
108
109
109
109
110
111
111
112
112
113
113
114
114
114
115
115
116
116
116
117
118
118
119
120
120
121
121
121
122
122
122
122
123
123
123
124
125
125
126
126
127
127
127
128
128
128
128
128
128
129
129
129
129
130
130
130
130
131
131
131
131
131
131
132
132
132
132
132
132
133
133
133
108
40
57
114
129
130
131
133
134
134
133
131
130
131
129
130
130
135
135
135
138
138
138
138
139
139
139
139
140
140
140
140
140
140
141
140
141
141
141
141
141
141
142
142
142
142
142
142
142
142
142
142
143
143
143
143
143
143
143
143
144
145
145
145
145
146
145
146
146
146
146
147
147
147
147
147
147
147
148
148
148
149
149
149
150
149
150
150
150
150
150
150
150
151
150
150
151
151
152
152
152
153
153
153
153
153
153
154
154
153
154
154
155
154
155
155
155
155
156
156
156
156
157
157
158
157
157
158
158
158
159
159
159
159
159
159
159
160
160
160
160
160
161
160
161
161
161
161
161
161
161
161
161
162
162
162
163
163
163
163
163
163
163
154
10
8
7
7
7
6
6
6
7
8
7
6
7
7
7
8
8
36
162
169
171
172
172
172
172
172
173
173
174
175
169
79
23
26
32
25
24
22
14
13
70
165
148
66
14
17
92
171
180
181
181
183
184
185
185
186
187
187
188
189
189
189
189
189
189
189
189
189
189
190
190
190
191
191
192
192
193
193
195
196
196
196
196
197
198
198
199
200
200
202
202
204
205
206
207
207
208
208
208
209
209
209
208
208
206
205
204
203
202
202
201
200
199
197
196
194
193
191
190
189
188
187
187
187
186
185
184
183
182
181
180
180
180
179
178
177
176
175
174
173
173
173
172
171
171
170
169
169
168
167
167
166
166
165
164
164
163
163
162
162
106
106
107
107
108
108
108
109
109
110
111
111
111
112
113
113
113
114
114
115
115
115
116
116
117
118
118
119
119
120
120
121
121
122
121
122
122
123
123
123
124
124
124
125
126
126
126
127
127
127
127
127
128
128
128
129
129
129
129
130
130
130
130
131
131
131
131
131
131
132
132
132
132
132
133
133
112
31
57
128
134
135
135
135
135
136
136
136
136
136
136
136
136
131
130
128
125
128
137
138
138
138
139
138
139
139
139
139
140
140
140
140
141
140
140
140
141
141
141
142
142
142
142
142
142
142
142
142
143
143
143
143
143
143
143
143
143
143
144
145
145
145
145
146
145
145
145
146
146
147
146
146
146
146
146
147
147
147
147
147
148
148
148
148
148
148
149
149
149
150
150
150
150
150
150
151
151
151
152
152
152
152
152
152
152
152
152
153
153
153
153
154
154
154
154
154
155
155
155
156
156
156
156
157
157
157
157
158
157
157
158
158
158
159
159
159
159
159
159
160
160
160
160
160
160
160
160
160
161
161
161
161
161
162
162
162
162
163
162
138
8
7
7
8
6
6
6
6
8
8
6
6
6
7
7
9
10
100
167
168
170
171
170
171
171
171
172
173
173
173
172
162
64
23
23
25
27
24
24
15
14
69
167
173
114
22
15
68
155
180
181
182
183
184
185
186
186
186
186
185
185
185
185
185
185
186
187
187
188
188
189
190
191
191
192
192
193
194
195
195
196
196
196
197
198
200
201
203
203
204
205
206
207
208
208
209
209
211
211
211
212
211
210
209
209
208
207
206
205
203
202
200
198
196
196
194
194
192
191
190
189
188
187
187
186
185
183
182
181
181
180
179
179
178
177
175
175
175
174
173
173
172
172
171
171
170
169
168
168
167
167
166
165
165
164
164
163
162
162
161
105
106
106
107
107
107
107
108
109
109
109
110
110
111
111
112
113
113
113
114
114
114
115
116
116
117
117
118
119
119
120
120
120
121
121
121
122
122
122
123
123
123
124
124
125
125
126
126
126
127
127
127
127
127
128
128
128
129
129
129
130
130
130
131
131
131
131
131
131
131
132
132
132
132
132
132
125
37
35
124
134
134
134
135
135
135
135
135
135
135
135
136
136
136
137
137
137
137
138
138
138
138
138
138
138
138
139
139
139
139
139
139
140
140
140
140
140
141
141
141
141
141
141
141
141
142
142
141
142
142
143
142
142
143
143
143
143
143
143
144
144
144
145
144
145
145
145
145
145
145
145
145
146
146
145
145
146
145
146
146
146
146
146
147
147
147
147
147
147
148
148
148
148
149
149
150
150
150
150
150
150
150
151
151
150
151
151
152
151
152
152
152
153
153
153
153
154
154
154
154
154
155
155
156
156
156
156
156
156
156
157
157
157
158
158
158
158
159
158
158
158
159
159
159
159
159
159
160
160
160
160
161
161
161
161
161
161
161
161
119
8
7
7
7
6
5
6
7
8
8
5
6
6
7
7
9
10
138
166
167
168
168
169
169
170
170
171
171
171
171
171
171
157
58
23
30
33
27
24
24
16
15
72
167
177
154
79
17
28
125
178
182
183
184
183
183
183
182
182
182
183
184
184
185
185
187
187
188
190
190
190
191
192
193
195
195
196
197
197
198
198
199
202
203
205
206
207
207
208
208
208
209
210
210
210
211
212
211
210
210
210
209
208
208
206
205
204
203
201
201
199
198
196
196
194
193
192
192
190
189
189
188
187
186
185
184
182
181
180
180
179
178
177
177
175
175
175
173
173
172
172
171
171
170
170
169
168
168
167
167
166
165
165
164
163
163
162
162
162
161
105
105
106
106
107
107
107
108
108
108
109
109
110
110
111
111
112
112
112
113
113
114
114
115
115
116
116
117
117
118
118
120
119
120
120
121
121
121
122
122
122
123
124
124
124
125
125
126
126
127
127
127
127
127
128
128
128
128
128
129
129
130
131
131
131
131
131
131
131
131
131
132
132
132
132
132
130
52
30
107
133
133
133
134
134
134
134
134
135
135
135
135
135
135
136
136
136
136
137
137
137
137
138
138
138
138
138
138
138
138
139
139
139
139
140
140
140
140
140
140
140
140
140
140
141
141
141
141
141
141
141
142
142
142
142
143
143
143
143
143
143
143
144
144
144
144
144
144
144
144
144
144
145
145
145
145
145
145
145
145
145
145
145
145
145
146
146
146
146
147
147
147
147
147
148
148
148
148
149
148
149
149
149
150
149
149
149
150
150
150
150
151
151
151
151
152
152
153
153
153
153
154
154
154
154
155
155
155
155
156
156
156
156
156
156
157
157
157
157
158
158
158
158
158
159
159
159
159
159
159
160
160
160
160
160
160
160
160
160
98
7
8
7
7
5
5
6
7
8
8
6
7
5
7
7
9
47
161
165
166
167
168
168
169
169
169
169
170
170
170
170
171
171
156
56
23
31
34
28
23
24
17
15
74
167
178
177
139
58
16
82
160
180
180
180
181
181
182
183
184
185
185
186
187
187
189
189
191
191
192
192
193
194
195
197
197
196
196
196
196
197
200
202
204
204
204
204
204
206
207
207
208
208
209
210
211
210
211
211
211
211
210
208
206
206
205
204
203
203
201
200
198
196
196
196
195
193
192
190
189
188
187
186
184
183
182
181
180
180
179
178
177
176
176
175
174
173
173
172
171
170
170
169
169
169
168
167
167
166
166
165
164
163
163
162
162
162
162
161
160
104
105
106
106
106
107
107
107
108
108
108
109
109
109
110
110
110
111
112
112
113
113
114
115
115
115
115
116
116
117
117
118
118
119
119
120
120
121
121
122
122
123
123
124
124
124
125
125
126
126
127
127
127
127
127
128
128
128
128
128
129
129
130
130
130
130
131
131
131
131
131
131
132
132
132
131
130
64
20
92
131
132
133
133
133
133
133
134
134
134
134
134
135
135
135
135
135
135
136
136
136
136
137
137
137
138
137
138
138
138
138
139
139
139
139
139
140
139
139
139
139
140
139
139
140
140
140
140
140
141
141
141
141
141
141
142
142
142
142
143
143
143
143
143
143
143
144
144
143
144
144
144
144
144
144
144
144
144
144
144
144
144
145
145
145
145
145
145
146
146
146
146
147
147
147
147
147
147
147
147
148
148
148
148
148
148
148
148
149
149
149
150
150
151
151
151
152
152
152
153
153
153
153
153
154
155
155
155
155
156
156
156
157
157
156
156
157
157
158
158
158
158
158
157
157
158
158
159
159
159
159
159
159
159
160
160
159
159
158
66
7
8
8
6
5
6
6
7
8
6
6
7
7
8
7
9
107
164
165
166
167
167
168
168
168
168
168
169
169
170
170
171
171
172
158
61
22
29
41
34
24
23
18
15
70
166
178
178
173
133
60
27
117
173
180
181
182
183
184
185
186
186
187
187
188
188
189
189
189
189
190
190
190
191
191
192
192
194
196
198
199
200
200
202
202
202
203
205
206
207
207
208
210
211
214
214
214
214
214
214
213
211
209
207
207
205
204
203
202
200
198
197
195
194
193
192
191
190
188
187
187
186
184
183
183
182
182
182
180
180
179
180
178
177
176
175
174
173
172
171
170
170
169
168
167
167
167
166
165
165
164
164
163
162
162
162
162
161
160
160
104
105
105
105
106
106
107
107
107
107
107
108
108
108
109
110
110
110
111
111
112
112
113
114
114
115
115
115
116
116
117
117
118
119
119
120
121
120
121
121
122
122
122
123
123
124
124
124
125
125
126
126
126
127
127
127
127
127
128
128
128
128
128
129
130
130
130
130
130
130
130
131
130
131
131
131
129
82
20
72
130
132
132
131
132
132
132
133
133
133
133
134
134
134
134
134
134
134
135
135
135
136
136
136
136
137
137
136
137
137
138
138
138
138
139
139
139
139
139
139
139
139
139
139
139
139
139
140
140
140
140
141
141
141
141
141
141
141
141
142
141
142
143
142
143
143
143
143
143
143
142
142
142
143
143
143
143
143
144
144
144
144
144
144
145
145
145
145
145
146
146
146
147
147
147
147
147
147
147
147
147
147
147
147
147
147
148
148
148
149
150
149
150
150
151
151
151
152
152
152
153
153
154
154
154
154
155
155
155
155
156
156
156
156
156
156
156
156
157
157
157
156
156
157
157
156
156
157
157
157
157
158
158
158
158
159
159
159
155
25
8
6
6
5
5
6
6
7
7
6
6
6
7
7
8
11
143
164
165
166
167
166
167
167
167
167
168
168
169
170
170
171
171
172
171
160
68
21
28
46
40
23
23
17
15
66
162
175
176
176
173
106
16
63
151
180
181
181
182
182
182
184
184
185
186
186
186
186
187
187
187
187
188
189
191
192
194
195
196
197
197
198
201
204
205
206
207
209
210
210
211
212
213
214
214
213
214
213
213
212
211
210
208
207
207
207
205
203
202
201
199
198
197
195
194
193
191
190
188
188
188
188
187
187
186
185
185
184
183
182
181
179
177
176
175
174
173
172
171
170
169
169
168
167
167
166
166
165
165
164
163
163
162
162
162
162
161
160
160
159
103
104
104
105
105
106
106
107
107
107
107
107
108
108
109
109
109
110
110
111
111
112
112
112
113
114
114
115
115
116
116
117
118
118
119
119
120
120
120
121
121
121
121
122
122
122
123
124
124
124
125
125
126
126
126
126
127
127
127
127
128
128
128
128
128
128
129
128
128
127
129
129
130
130
130
130
127
69
23
47
125
131
131
131
131
132
132
132
132
132
133
133
133
133
133
133
134
133
134
134
135
135
135
135
135
135
135
136
136
136
137
137
137
137
138
138
138
138
138
138
138
139
139
139
139
139
139
139
139
139
139
139
139
139
139
140
140
140
141
141
140
141
141
141
142
142
142
142
142
142
106
107
142
142
143
142
142
143
143
143
143
144
144
144
144
145
145
145
146
146
146
146
146
146
146
146
147
146
146
147
147
147
147
147
148
148
148
148
148
149
149
149
150
150
151
151
151
151
152
152
153
153
153
153
153
153
153
153
153
153
153
154
154
154
154
155
155
155
155
156
156
155
156
156
156
156
156
156
156
156
157
157
158
158
158
158
159
158
142
8
7
6
6
6
6
6
6
7
6
6
6
6
8
7
7
59
162
164
164
165
165
166
166
166
167
167
168
168
169
169
170
169
170
170
171
170
161
72
20
26
39
31
19
19
17
15
57
155
175
176
177
175
126
17
21
109
166
179
180
180
180
181
181
181
182
182
183
184
185
185
186
187
188
190
192
192
192
194
195
196
199
202
206
208
207
207
208
209
210
210
211
211
212
212
213
213
213
212
211
211
211
209
209
207
207
207
205
203
203
202
201
200
199
197
196
195
194
192
192
193
194
195
193
191
188
187
185
184
181
179
178
177
176
174
173
172
172
171
170
169
170
169
168
167
167
166
166
165
164
164
163
162
162
162
161
161
160
159
159
158
103
102
103
104
104
105
105
106
106
107
107
107
108
108
108
108
109
109
110
110
111
111
111
111
112
113
114
114
115
115
116
116
116
117
118
119
119
119
120
120
120
121
121
121
122
122
122
123
124
123
124
124
125
125
125
126
126
126
127
127
127
127
127
127
127
127
128
127
115
113
125
128
127
127
129
129
99
24
18
24
116
130
130
131
131
131
132
132
132
132
131
132
132
132
132
132
133
133
133
133
133
134
134
134
134
134
134
135
135
135
135
136
136
136
136
136
137
137
137
137
137
137
138
138
138
139
138
139
139
139
139
139
139
139
139
139
139
140
139
139
139
139
140
140
140
140
140
141
141
141
100
102
142
142
142
142
142
143
143
143
143
143
143
144
144
144
144
145
145
146
146
146
146
146
145
146
146
146
146
146
146
146
146
146
147
147
147
147
147
148
148
148
149
149
150
151
151
151
151
151
151
151
151
151
151
152
152
152
152
152
152
152
152
153
153
154
154
154
155
155
155
155
155
155
155
155
156
156
156
157
157
157
157
157
157
157
158
158
124
8
7
6
6
5
6
6
6
7
7
6
6
6
8
7
8
113
163
163
163
164
165
165
166
166
166
166
167
168
168
169
169
169
169
169
169
170
170
161
75
20
26
44
44
20
20
17
15
44
144
175
176
176
177
136
22
14
32
110
162
181
182
183
185
185
186
186
185
184
184
184
186
187
188
188
189
191
192
195
196
197
187
203
205
205
205
206
207
207
209
210
211
211
211
212
214
214
213
213
213
213
212
212
211
210
211
214
214
213
213
211
211
208
206
204
203
201
200
199
197
195
195
191
188
186
184
182
180
180
179
177
176
175
174
173
173
172
171
170
170
169
169
169
168
167
166
166
165
164
164
163
163
162
162
162
161
160
159
159
158
158
102
102
102
103
104
104
104
105
105
106
106
107
107
107
108
108
108
108
109
110
110
110
111
111
111
112
113
114
114
115
115
115
116
116
117
117
118
118
119
119
120
121
120
121
121
122
122
122
123
123
123
123
124
124
123
109
101
93
108
114
117
119
121
121
124
125
125
126
95
84
97
106
107
110
113
116
111
49
19
17
105
128
129
129
130
130
130
131
130
131
131
131
131
132
132
132
132
132
132
133
133
133
133
133
133
133
134
134
134
134
134
134
135
135
135
135
136
135
136
136
136
136
137
137
137
137
138
138
138
138
138
138
138
139
139
139
139
139
139
139
139
139
139
139
139
140
140
140
140
140
98
103
141
141
142
142
142
142
142
142
143
143
143
143
144
144
144
144
145
145
145
145
145
145
145
145
145
145
145
145
145
145
145
145
146
146
146
146
147
148
148
148
148
148
148
148
149
150
150
150
150
150
150
151
151
151
151
152
152
152
152
153
152
152
153
153
154
154
155
155
155
155
155
155
156
156
156
156
156
156
156
156
156
156
157
157
157
158
98
8
7
6
6
5
6
6
7
7
7
6
6
5
8
7
11
146
163
163
163
163
164
164
164
165
165
165
166
166
167
167
167
167
168
169
169
169
170
171
163
80
20
28
57
50
22
20
18
14
24
125
175
177
178
178
144
33
13
13
23
85
140
173
183
184
184
184
183
183
184
185
187
188
187
189
191
193
194
194
161
89
85
200
202
202
203
204
206
207
208
209
210
211
212
214
216
218
218
220
221
221
222
224
224
225
226
226
226
225
223
220
217
214
211
207
204
201
199
195
192
190
187
185
184
182
181
180
179
178
177
176
175
174
173
173
172
172
171
170
170
169
168
167
167
166
165
165
164
164
163
163
162
162
161
161
160
160
159
158
158
157
102
102
102
103
103
104
104
104
105
105
106
106
107
107
107
108
108
108
109
109
110
110
111
111
112
112
112
113
113
114
114
115
115
115
116
116
117
118
118
118
119
120
120
121
121
121
121
122
122
122
123
123
123
124
119
72
34
36
28
31
41
42
48
47
52
56
57
63
53
48
51
60
71
78
85
82
72
48
40
60
85
92
93
97
101
104
107
109
111
114
116
117
119
121
123
125
127
129
130
131
132
132
132
132
132
133
132
132
133
133
133
134
134
134
134
134
135
135
135
135
136
135
135
136
136
136
136
137
136
136
137
137
137
138
138
138
138
138
138
139
138
138
139
139
139
139
139
140
140
140
96
104
140
141
141
141
141
141
142
142
142
142
142
142
143
143
143
143
144
144
144
144
144
144
144
144
144
144
145
145
144
145
145
145
145
145
145
145
146
146
147
147
147
148
148
148
149
149
149
149
149
149
149
150
150
151
151
151
151
151
152
151
152
152
152
152
152
153
153
154
155
154
155
155
155
155
155
155
155
155
156
156
156
156
156
156
157
157
59
7
6
7
6
5
6
6
6
7
7
8
6
6
8
8
66
161
163
163
163
163
163
164
164
164
164
165
166
166
166
166
167
167
166
166
167
167
167
167
167
162
90
21
31
57
54
24
20
19
14
17
97
164
173
173
174
152
59
12
12
12
17
33
88
129
155
173
182
184
185
186
186
187
187
189
189
183
147
77
20
20
32
172
201
203
205
207
210
213
216
219
223
226
229
230
230
232
233
234
234
234
233
233
232
230
227
224
220
216
212
208
205
202
199
197
194
192
190
188
187
186
185
183
182
181
181
179
179
178
177
176
175
174
173
173
171
171
171
170
169
168
167
167
166
165
164
164
163
163
163
162
161
161
161
160
159
159
158
158
157
156
101
102
102
102
103
103
104
104
104
105
106
106
107
107
107
107
108
108
109
110
110
110
110
111
111
112
112
112
113
114
114
114
114
115
115
116
116
117
117
118
118
119
120
120
120
120
121
121
121
122
122
122
123
123
123
122
103
90
55
43
49
43
48
59
61
60
60
52
43
39
37
40
46
47
44
40
38
35
36
43
52
57
63
66
69
74
79
83
87
91
93
94
95
97
99
99
96
96
93
93
95
104
112
121
120
128
132
132
132
132
133
133
133
133
133
134
134
134
134
134
134
135
135
135
135
135
136
136
135
136
136
137
137
137
137
137
138
138
138
138
138
138
138
138
139
139
139
139
139
139
94
106
140
140
140
140
141
141
141
141
142
142
142
142
142
142
142
143
143
143
143
144
143
143
144
144
144
144
144
144
144
144
144
145
145
145
145
145
145
146
146
146
147
147
147
147
148
148
148
148
148
148
148
149
149
150
150
150
150
151
151
151
151
151
152
152
152
152
152
152
152
153
153
153
153
153
153
154
155
154
154
155
155
155
155
156
156
147
13
6
6
6
6
6
6
6
6
7
6
8
7
7
7
9
116
161
161
162
162
162
162
162
162
162
163
163
163
163
163
163
163
163
164
164
165
165
165
165
166
166
164
100
22
33
52
75
74
26
21
14
16
66
152
171
172
172
165
109
25
12
12
15
18
22
25
33
69
107
131
149
163
173
176
157
112
41
17
18
20
74
145
193
207
210
212
214
215
218
220
222
223
224
225
226
227
227
228
227
226
224
223
222
220
217
215
213
211
208
206
203
201
199
197
196
194
192
191
189
188
187
186
185
183
181
181
180
179
178
176
175
174
174
173
172
171
171
170
169
168
167
167
166
165
164
164
163
163
163
162
162
161
160
160
160
159
158
158
158
157
156
101
101
102
102
103
103
103
104
104
105
106
106
107
107
107
107
107
108
109
109
109
110
110
111
111
112
112
112
112
113
113
114
114
114
115
115
115
116
116
116
117
118
118
119
120
120
120
121
121
121
122
122
122
122
122
123
123
123
121
109
89
56
37
37
37
43
47
49
49
46
41
28
18
23
28
26
26
27
28
30
32
33
34
35
36
36
36
37
38
39
40
41
42
44
46
49
52
58
60
64
65
68
71
76
78
87
100
113
126
132
132
132
132
132
133
132
133
133
133
134
134
134
134
134
135
135
135
135
135
136
136
136
136
136
137
137
137
137
137
137
137
137
138
138
138
138
138
139
139
139
91
107
139
139
140
140
140
140
140
141
141
141
141
141
141
142
142
142
143
143
143
143
143
143
143
143
143
143
143
143
143
143
144
144
144
144
144
144
145
145
145
145
146
146
146
146
146
147
147
147
147
147
148
148
148
149
149
148
149
149
150
150
150
150
151
151
151
151
151
151
151
151
152
152
152
152
153
153
153
153
154
154
154
154
155
155
155
126
8
6
6
6
6
6
6
6
6
8
7
7
6
6
7
12
146
159
160
161
161
161
161
161
161
161
161
161
162
163
163
163
163
163
163
163
164
164
164
165
165
166
166
165
103
24
45
143
164
97
29
24
14
15
40
135
172
173
173
174
161
121
66
16
15
18
16
18
18
18
22
26
22
23
23
17
15
16
27
97
162
196
201
202
203
204
205
206
207
208
209
210
212
213
215
217
219
221
222
223
223
223
223
222
220
218
216
214
211
209
206
204
202
200
198
197
195
193
191
189
187
186
185
183
181
181
180
179
177
176
175
175
174
173
172
172
171
170
169
168
167
166
166
165
164
163
163
163
162
162
161
161
160
160
159
158
158
158
157
156
156
155
101
101
101
102
103
103
103
104
104
104
105
106
106
107
107
107
107
107
108
109
109
110
109
110
110
111
111
112
112
113
113
113
114
114
114
114
115
115
115
116
117
117
117
118
119
119
120
120
120
121
121
121
122
122
122
122
122
123
123
123
123
110
77
68
37
33
38
47
47
44
42
39
30
12
2
3
3
4
6
8
9
11
13
22
21
18
15
18
21
23
26
28
28
30
30
31
31
32
32
33
34
35
36
37
37
38
38
37
86
119
119
130
131
132
132
132
132
132
133
133
133
133
133
134
134
134
134
134
134
135
134
135
135
135
136
136
136
137
137
137
137
136
137
137
137
137
137
138
138
138
89
108
138
139
139
139
139
140
139
140
140
140
141
141
141
141
141
141
141
141
142
142
142
142
142
143
142
142
143
143
143
143
143
143
143
144
144
144
144
144
144
144
144
145
145
144
145
145
145
145
146
146
147
147
147
148
148
148
148
148
149
149
149
149
150
150
151
151
151
150
150
150
151
151
151
151
151
152
152
152
153
153
153
153
153
154
154
98
7
6
6
6
6
6
6
6
6
7
7
7
6
8
7
71
157
158
159
160
160
161
161
161
161
160
161
161
162
163
163
163
163
163
163
164
164
164
165
165
165
165
165
166
164
147
138
167
168
167
114
32
25
15
14
25
112
168
173
173
174
174
174
162
145
128
100
65
53
43
31
23
29
52
94
120
124
140
175
191
191
193
194
195
197
198
200
201
202
204
207
208
210
212
215
217
220
222
223
224
224
224
224
223
222
220
218
215
212
209
206
204
201
199
197
195
193
191
189
187
186
185
183
182
181
180
179
178
176
176
175
174
173
172
171
170
169
168
168
167
166
165
165
164
163
163
163
163
162
162
161
160
160
159
158
158
157
157
156
156
155
154
99
100
101
101
102
102
103
104
103
104
104
105
105
106
106
106
107
107
108
108
108
108
109
109
109
110
111
111
112
112
113
113
113
114
114
114
114
115
115
115
116
117
116
117
117
118
119
119
120
120
121
121
121
121
122
122
122
122
122
122
123
122
122
123
114
87
54
29
42
44
43
42
34
28
19
11
9
9
9
14
22
24
19
20
26
35
41
39
40
45
34
13
4
3
3
4
5
6
6
6
6
9
9
11
15
23
27
32
44
50
47
83
112
127
131
132
132
132
132
132
132
133
132
133
133
133
133
134
134
134
134
134
134
135
135
135
136
136
136
136
137
137
136
136
136
136
136
137
137
137
87
109
138
138
138
139
139
139
139
140
140
140
140
141
141
141
141
141
141
141
141
141
141
142
142
142
142
142
142
142
142
142
142
142
143
143
143
143
143
143
143
144
143
144
144
144
144
144
144
144
145
145
146
146
147
147
147
147
147
147
147
148
148
148
148
148
149
149
149
149
149
149
149
149
150
150
150
150
151
151
151
152
152
153
153
153
152
55
7
6
5
5
6
7
6
7
7
7
7
6
7
7
9
117
157
158
159
159
159
159
160
160
160
160
161
161
162
162
162
163
163
163
163
163
163
163
163
163
164
164
164
165
165
166
166
166
167
167
167
131
42
28
15
13
19
85
159
171
172
173
173
174
174
175
176
176
177
176
175
172
175
179
182
183
183
185
187
188
189
190
192
195
196
197
199
201
202
204
206
208
210
213
216
218
221
223
224
225
226
226
226
225
223
221
218
215
211
208
205
202
200
198
196
193
191
189
187
186
185
183
181
181
180
179
177
176
175
174
173
172
171
171
170
169
168
167
167
166
165
164
164
163
163
163
162
162
161
160
160
159
159
158
157
156
156
156
155
154
153
153
98
99
100
100
100
100
102
102
103
103
104
105
105
105
106
106
106
107
107
108
108
108
108
108
109
109
110
110
110
111
112
112
112
112
114
114
114
115
115
115
116
116
116
117
117
117
118
118
119
120
120
120
121
121
121
121
122
122
122
122
122
122
122
122
122
122
103
22
17
30
38
43
44
44
42
36
28
25
26
21
17
25
34
39
43
45
45
44
40
36
34
37
40
42
39
29
21
20
17
14
11
6
7
20
19
30
35
47
62
52
39
35
22
46
103
130
131
131
132
132
132
132
132
132
133
133
133
133
133
133
134
134
134
134
134
134
135
136
135
135
136
136
136
136
136
136
136
136
136
136
84
110
137
137
138
138
138
139
139
139
139
140
140
140
140
140
140
140
140
140
141
141
141
141
141
141
141
141
141
141
141
141
141
142
142
142
142
142
143
143
143
143
143
143
143
143
144
144
144
144
144
144
145
146
146
146
146
146
146
146
146
146
147
147
147
147
147
148
148
148
148
148
148
148
148
149
149
149
150
150
150
150
150
151
151
151
139
9
6
6
5
5
6
6
6
6
7
8
7
6
7
7
15
145
156
157
157
158
158
158
158
159
159
160
160
160
161
161
161
161
162
162
162
162
163
163
163
163
163
163
164
164
164
165
165
165
166
166
166
167
145
58
29
15
14
16
62
145
170
171
171
172
173
173
174
175
176
177
178
179
179
180
181
182
183
184
186
187
188
189
190
191
192
195
196
197
199
201
203
205
208
211
214
218
221
223
225
226
226
226
226
225
223
221
218
214
211
208
204
202
199
196
194
191
190
188
187
186
184
182
181
180
179
177
176
175
174
173
172
171
170
169
169
168
167
167
166
165
164
164
163
163
162
162
161
160
160
159
158
158
157
156
156
155
155
154
153
152
152
152
97
98
98
99
100
100
100
101
101
102
103
103
104
104
104
105
106
106
107
107
107
108
108
108
108
109
109
110
110
110
111
111
112
112
113
113
114
114
115
115
115
115
116
116
117
117
117
118
118
119
119
119
120
120
121
121
121
121
121
121
122
122
122
122
122
119
103
40
17
11
25
33
35
41
41
42
40
30
25
22
22
28
44
45
41
39
34
33
28
23
23
25
32
31
34
50
66
63
57
50
38
31
29
36
53
55
58
61
66
55
44
40
40
42
48
97
130
130
131
131
131
131
132
132
132
132
132
133
133
133
133
133
133
134
134
134
134
134
134
135
135
135
135
135
135
136
136
136
136
136
82
110
137
136
137
137
138
138
138
138
138
139
139
139
139
139
139
139
140
139
140
140
140
140
140
140
140
140
140
140
141
141
141
141
141
141
141
141
142
142
142
142
142
143
143
143
143
143
143
143
144
143
143
144
144
145
145
146
145
145
146
146
146
146
146
146
147
146
147
147
147
147
147
147
148
147
148
148
148
149
149
149
149
150
150
150
115
8
6
5
5
5
6
6
5
6
7
7
8
6
6
6
72
154
154
155
156
156
157
157
157
157
158
158
158
159
159
159
160
160
160
160
161
161
161
161
162
162
162
162
162
163
164
164
164
164
164
165
165
166
166
154
78
32
16
13
15
46
128
170
171
172
172
173
173
174
175
176
176
177
178
179
179
180
181
182
183
184
185
187
188
189
190
192
193
195
196
198
201
203
207
211
214
217
221
224
226
227
228
228
228
226
225
223
220
216
212
208
204
201
198
195
193
191
188
187
186
184
182
181
181
179
177
176
175
174
172
171
171
170
169
168
168
167
167
166
165
164
164
163
162
162
161
161
160
160
159
158
158
156
156
155
155
154
154
153
152
152
151
151
97
97
98
99
99
100
100
101
101
101
102
102
103
103
104
104
105
105
105
106
107
107
108
108
109
109
109
109
110
110
111
111
111
112
112
113
113
113
114
115
115
115
115
116
116
117
117
117
118
118
118
119
119
119
120
120
120
120
120
121
121
121
121
121
105
51
11
4
4
6
4
12
21
36
37
30
27
28
22
17
19
37
64
68
67
61
58
59
63
59
47
47
46
49
49
60
70
74
73
72
70
54
40
41
41
53
66
73
74
72
66
51
47
64
66
55
76
118
130
131
131
131
131
131
131
131
132
132
132
132
133
132
133
133
133
133
134
134
134
134
135
135
135
135
135
135
135
136
135
135
79
112
135
135
136
136
137
137
137
137
138
138
138
139
138
139
139
139
139
139
139
139
139
139
139
139
139
139
139
139
139
139
140
140
140
141
141
141
141
141
141
141
141
142
142
142
142
142
143
143
143
143
143
143
143
143
144
145
145
145
145
145
145
145
146
146
146
146
146
146
146
147
147
147
147
147
147
147
147
148
148
148
148
148
148
148
81
7
6
6
4
6
6
6
6
6
8
7
8
7
7
8
114
153
153
154
154
155
155
156
156
156
157
157
157
158
158
158
158
159
159
160
160
160
161
161
161
161
161
162
162
162
163
163
163
164
164
164
164
165
165
165
161
98
36
18
12
15
44
114
167
170
171
171
172
172
173
173
174
174
176
177
178
179
180
181
182
183
184
186
187
187
189
190
192
194
196
199
202
205
209
213
217
222
226
228
230
232
232
232
231
230
228
226
223
219
215
211
206
202
199
196
193
191
188
187
186
184
182
181
180
178
177
175
174
173
172
171
170
169
169
168
167
166
166
165
164
164
163
162
162
161
161
159
159
158
158
158
157
156
155
154
154
154
152
151
151
151
150
149
97
97
98
98
99
99
100
100
100
101
101
102
103
103
103
103
104
105
105
106
106
107
107
108
108
108
109
109
110
110
110
110
111
111
112
112
113
113
113
114
114
114
115
115
115
116
116
116
117
117
118
118
118
119
119
119
120
120
120
121
121
121
121
104
34
27
81
97
91
75
58
53
75
73
66
29
6
10
19
19
7
17
29
34
33
30
19
25
30
41
38
24
24
30
25
31
39
66
70
67
59
41
31
34
36
40
45
57
66
69
71
70
63
60
62
55
33
81
129
130
130
130
130
130
130
131
131
131
131
132
132
132
132
132
132
133
133
133
134
134
134
134
134
134
134
135
135
134
135
135
78
113
135
135
135
135
136
135
136
136
137
137
137
138
138
137
137
137
137
138
138
137
138
138
138
138
139
138
139
139
139
140
139
139
140
140
140
140
140
140
140
140
141
141
141
141
141
142
142
142
142
142
143
143
143
143
143
143
143
144
144
144
144
144
145
145
145
145
146
146
146
146
146
146
146
146
146
147
147
147
147
147
147
148
148
143
27
6
6
5
5
6
6
7
6
6
8
7
6
6
7
13
141
152
152
153
153
154
154
155
155
156
156
156
157
157
157
157
158
158
158
159
159
159
160
160
160
160
161
161
161
162
162
163
163
163
163
164
164
164
164
164
165
164
119
39
21
12
14
42
106
166
170
171
171
172
172
173
174
174
175
176
177
178
179
180
181
183
184
185
187
187
189
190
192
194
196
200
203
208
212
217
223
227
230
232
234
236
236
236
236
235
233
231
228
224
220
215
210
204
201
197
194
191
189
187
186
183
182
181
179
177
176
174
173
172
171
170
169
169
168
167
166
165
164
164
164
163
162
161
161
161
159
159
158
158
157
157
155
155
154
154
153
152
151
151
150
149
149
148
96
97
98
98
98
99
100
100
100
101
101
101
102
103
103
104
104
105
105
106
106
106
107
108
108
108
109
109
109
110
110
110
110
110
111
111
112
113
113
113
114
114
114
115
115
116
115
116
116
116
117
117
118
118
118
118
119
119
119
120
120
120
117
51
21
99
120
121
118
110
121
120
121
122
121
115
88
39
31
6
3
3
2
3
3
4
4
5
4
3
8
4
5
10
13
9
7
22
33
34
33
25
33
29
19
33
39
38
41
36
30
24
17
7
13
27
7
63
128
129
129
129
130
130
130
130
130
130
131
131
131
131
131
131
132
132
132
132
132
132
133
133
133
133
133
134
134
134
134
134
75
113
135
134
134
135
134
135
135
135
135
135
135
136
136
136
136
136
136
136
137
136
136
136
137
138
138
138
138
138
138
138
138
138
138
138
139
139
139
139
139
140
140
140
140
140
140
141
141
141
141
141
142
142
142
142
142
143
143
142
143
142
143
143
144
144
144
144
145
145
145
145
145
145
145
145
145
146
146
146
146
146
146
146
146
116
6
6
5
5
6
6
6
6
7
6
7
7
6
7
7
70
150
150
151
151
152
152
153
154
154
155
155
155
156
156
157
156
156
157
157
158
158
159
159
159
160
160
160
160
161
161
161
162
162
163
163
163
163
164
164
164
164
164
165
137
51
24
12
13
37
103
165
169
170
171
171
172
173
173
174
175
176
177
179
180
180
181
183
185
185
187
188
190
192
195
198
202
206
211
216
222
227
231
234
237
238
239
239
239
239
238
236
234
231
227
223
218
212
207
202
198
195
191
188
187
184
183
181
179
178
176
174
173
172
171
170
169
168
167
167
166
165
164
164
163
163
162
161
161
160
159
158
158
157
157
156
155
154
153
152
151
151
150
150
149
149
148
148
147
96
96
97
97
98
99
99
100
100
101
101
101
102
103
103
104
104
104
105
105
106
106
107
107
107
108
108
108
108
109
110
110
110
111
111
111
112
112
112
112
113
113
114
114
115
114
115
116
116
116
116
117
117
117
118
118
118
118
118
119
119
119
100
15
70
118
120
120
107
117
121
121
121
121
121
121
118
84
118
108
92
72
40
12
4
4
3
3
3
3
2
3
3
3
3
2
3
3
4
29
62
77
88
99
98
89
13
5
84
112
111
107
98
80
90
89
109
109
129
129
129
129
129
129
129
130
130
130
130
130
130
131
131
131
131
131
131
131
131
131
131
131
132
132
132
133
132
132
133
132
73
114
133
134
134
134
134
134
134
134
135
134
134
134
134
134
135
135
136
135
136
135
136
136
135
136
136
136
136
136
136
137
137
136
137
137
137
138
138
137
138
138
139
139
139
139
139
139
140
140
140
140
140
140
140
140
141
141
141
142
142
142
142
142
142
142
142
144
144
144
144
144
144
144
144
144
144
144
145
145
145
145
145
146
146
71
12
5
5
6
6
5
6
6
6
6
7
7
7
7
7
110
149
150
150
150
151
152
153
153
153
154
154
155
155
155
155
156
156
156
156
157
157
157
158
158
159
158
159
159
160
160
160
161
161
162
162
162
162
163
163
163
164
164
164
164
149
68
26
14
14
27
97
164
169
169
170
171
172
172
173
174
175
176
177
178
180
181
182
184
185
187
188
190
193
196
199
203
209
214
220
226
230
234
237
239
240
241
241
241
241
240
238
236
233
229
225
220
213
207
203
198
194
191
188
186
183
182
179
178
176
174
173
172
171
170
169
168
167
166
165
164
164
164
163
163
162
161
160
160
159
158
157
157
155
155
154
153
152
151
151
150
149
149
148
147
147
147
147
146
95
96
96
97
97
98
98
99
99
100
101
101
101
102
103
103
103
104
104
105
105
105
106
106
106
107
108
108
109
109
109
109
109
110
110
111
111
112
112
112
113
113
113
114
114
114
114
115
115
115
115
116
116
117
117
117
118
118
118
118
118
118
85
8
94
119
119
116
113
119
120
120
120
120
121
120
120
81
120
121
121
121
120
113
105
89
68
43
14
3
4
3
3
4
18
39
64
83
101
118
124
124
124
125
125
119
99
25
53
123
126
126
126
126
126
111
125
109
128
128
128
129
129
129
129
129
129
129
129
129
130
130
130
130
130
130
130
130
130
130
131
130
131
131
131
131
131
131
131
131
71
114
132
132
132
133
133
133
134
134
134
134
133
133
133
134
134
134
134
134
134
134
134
134
134
134
135
135
135
135
134
135
135
136
136
136
136
136
137
137
137
137
137
137
137
138
138
139
139
139
139
139
139
139
139
140
140
140
141
141
141
142
142
142
142
142
142
143
143
143
143
143
143
144
144
143
144
144
144
144
144
144
144
144
133
24
17
10
5
6
6
6
6
6
5
6
6
6
6
6
12
137
149
149
150
150
150
151
152
153
153
153
154
154
154
155
155
155
155
155
156
156
157
157
157
157
158
158
158
159
159
159
159
160
160
160
161
161
161
162
162
162
163
163
163
163
164
158
88
29
17
14
18
93
163
168
169
169
170
171
172
172
173
175
176
177
179
181
181
183
185
187
188
191
193
197
201
206
212
218
224
229
233
237
239
241
242
242
243
243
242
241
240
237
234
231
227
222
215
210
204
200
195
192
189
186
183
182
179
178
175
174
172
171
171
169
168
166
166
165
164
164
164
163
162
162
161
160
159
158
158
157
156
155
154
153
152
151
150
150
149
149
148
147
147
147
146
146
146
145
95
95
96
96
97
97
97
98
99
99
100
100
101
101
101
101
103
103
103
104
104
104
105
105
106
106
107
107
108
108
108
108
109
110
110
110
111
111
112
112
112
112
113
113
113
114
114
114
114
115
115
115
115
116
116
116
117
117
117
117
118
117
75
7
97
118
119
119
119
119
119
119
119
119
120
120
120
81
118
121
121
121
121
121
121
121
121
120
109
90
96
97
95
105
112
120
122
123
123
123
123
124
124
124
125
124
124
77
15
112
125
126
126
126
126
122
112
119
127
127
128
128
128
128
128
128
128
128
128
129
129
129
129
129
129
129
129
129
129
130
130
130
130
130
130
130
130
130
131
131
68
115
131
131
132
132
132
132
132
132
132
133
133
133
133
133
133
133
133
134
133
133
133
133
133
133
134
134
134
134
134
134
134
135
135
135
135
135
135
136
137
137
137
137
137
137
137
138
138
139
138
139
139
139
139
139
139
139
139
139
140
140
140
141
141
141
141
141
142
142
142
142
143
142
142
142
143
143
143
143
143
143
143
143
92
15
16
15
10
6
6
6
6
6
6
6
6
6
6
6
66
146
148
148
149
150
150
150
151
151
152
152
153
153
153
154
154
154
155
155
156
156
157
157
157
157
157
158
158
158
158
158
158
158
159
159
160
160
161
161
161
162
162
163
163
164
164
164
162
107
29
20
15
15
85
161
168
169
169
170
171
172
172
174
175
178
179
181
181
182
184
186
188
190
193
197
202
206
212
218
224
229
233
236
238
240
241
242
243
243
243
241
240
238
235
232
228
223
217
212
206
200
196
192
190
186
184
182
179
177
175
173
171
170
169
168
167
166
165
164
164
163
163
162
161
160
159
158
158
157
156
156
155
154
152
151
151
150
149
149
148
147
147
146
146
146
146
145
144
144
94
95
95
96
96
96
97
97
98
98
99
100
100
100
101
101
102
102
102
103
104
103
104
105
105
106
106
106
106
107
108
108
108
109
109
110
110
110
111
111
112
112
112
112
113
113
114
114
114
114
114
115
115
115
115
115
116
116
116
117
117
117
68
5
95
117
118
118
119
119
118
119
119
119
119
120
119
86
115
119
120
121
120
121
121
121
121
121
122
121
122
122
122
122
122
122
122
123
123
123
123
123
124
123
124
124
124
95
8
100
124
125
125
125
126
126
124
126
126
126
126
126
127
127
127
127
127
128
128
128
128
128
128
128
129
129
128
129
129
129
129
129
129
129
130
129
130
130
130
130
65
117
130
130
131
131
131
131
131
131
131
131
131
132
132
132
132
133
133
133
133
133
133
133
133
133
133
133
133
133
133
134
134
134
134
134
134
134
134
135
135
135
136
136
136
136
136
136
136
136
137
137
137
137
138
138
139
139
139
139
139
139
139
139
140
140
140
141
141
141
141
141
141
141
142
142
142
142
142
142
142
143
142
132
34
7
13
15
14
10
6
7
6
6
6
6
6
6
7
6
106
146
147
148
148
149
149
149
150
150
150
151
151
151
152
153
153
153
154
154
154
154
154
155
155
156
156
156
156
156
156
157
157
157
158
159
159
159
160
160
160
161
161
162
162
163
163
164
164
164
125
36
25
15
14
66
150
169
170
171
171
173
174
177
179
181
184
184
185
186
188
189
189
191
195
198
202
207
211
216
223
227
231
234
237
240
241
243
244
245
244
243
241
239
236
232
228
224
218
212
206
200
196
191
188
185
183
180
177
175
173
171
170
169
168
167
165
165
164
163
163
162
161
160
159
159
158
157
156
155
154
154
153
152
151
151
150
149
148
147
147
147
146
146
146
145
144
144
143
142
94
95
95
95
95
96
96
97
98
98
99
99
99
100
100
101
101
101
102
102
103
104
104
104
104
105
105
106
106
106
107
108
108
108
108
109
109
110
110
111
111
112
112
112
112
113
113
113
114
114
114
114
114
115
115
115
115
116
116
116
116
116
63
5
96
117
117
118
118
118
118
118
118
118
118
119
119
95
106
119
119
119
120
120
120
120
120
121
121
121
121
121
121
121
121
122
122
122
122
122
122
122
123
123
123
123
123
93
7
92
123
124
124
125
125
125
125
125
125
126
126
126
126
126
126
126
126
126
127
128
128
128
128
128
128
128
128
128
128
129
129
129
129
129
129
129
129
130
129
129
63
117
129
130
130
130
130
130
130
130
130
131
131
131
131
132
132
132
132
132
132
133
133
133
133
133
133
133
133
133
133
133
133
133
133
133
133
133
133
133
134
134
133
134
134
135
135
135
135
136
136
136
136
137
136
137
137
137
137
138
138
138
139
139
139
139
139
139
139
140
140
140
140
141
141
141
140
141
141
141
141
141
141
93
39
10
5
12
13
14
11
6
6
6
6
6
6
6
7
9
132
146
146
147
147
148
148
148
148
149
149
150
150
150
150
151
151
152
152
152
152
153
153
154
154
154
154
155
155
155
155
156
157
157
157
157
158
158
159
159
160
160
161
162
163
163
163
164
164
165
165
141
53
24
17
15
41
140
169
170
170
171
172
173
173
174
175
177
178
179
182
184
187
189
193
197
201
205
211
216
222
227
231
235
238
241
244
250
253
253
253
251
245
240
236
231
227
222
216
210
204
199
194
191
187
184
181
178
176
174
171
170
169
168
166
165
164
163
163
162
161
161
160
159
158
157
156
155
155
154
153
152
151
150
150
149
148
147
147
147
146
145
145
145
144
144
143
142
142
141
94
94
94
95
95
95
96
96
97
97
98
99
99
100
100
100
101
101
101
102
102
102
103
104
104
105
105
105
106
106
106
107
108
108
108
108
109
109
110
110
111
111
111
111
112
112
112
113
113
113
114
114
114
114
114
114
115
115
115
115
115
115
59
6
99
115
116
117
117
117
117
118
118
118
118
118
118
104
96
119
119
119
119
119
119
119
119
120
120
120
121
121
121
121
121
122
121
121
122
121
122
122
122
122
122
122
123
91
6
89
123
123
124
123
124
124
124
124
125
125
125
125
125
126
126
126
126
126
126
127
127
127
127
127
127
127
127
128
128
128
128
129
128
128
128
129
129
129
129
129
60
119
129
129
129
130
129
130
130
130
130
130
130
130
131
130
131
131
131
131
132
132
132
132
132
132
132
133
133
133
133
133
132
133
132
132
132
133
133
133
133
133
133
133
133
133
133
133
134
135
135
135
135
136
135
136
136
136
136
137
137
137
137
137
137
138
138
139
138
138
139
139
140
140
140
140
140
140
140
140
140
140
129
41
35
24
4
5
10
13
13
12
5
6
6
6
6
7
7
57
144
145
146
146
146
147
147
148
148
148
148
149
149
149
150
150
150
150
151
151
152
152
152
152
153
153
154
153
153
154
154
155
156
156
157
157
158
158
158
159
159
160
160
161
161
162
163
163
163
164
164
164
151
70
23
17
17
27
134
166
167
168
168
170
171
172
172
173
175
177
179
182
184
188
191
195
200
206
212
218
225
230
235
238
241
246
253
255
255
255
255
255
254
246
238
232
226
221
214
208
202
197
193
189
186
182
179
177
174
172
170
169
167
166
165
164
163
162
161
161
161
160
159
157
156
156
155
154
153
152
151
151
150
149
148
148
147
147
146
145
144
144
144
143
142
142
141
140
139
138
93
94
94
95
95
95
95
96
96
96
97
98
99
99
100
100
100
101
101
101
102
102
103
103
103
104
105
105
105
106
106
106
106
107
107
108
108
108
109
109
110
110
110
111
111
112
112
113
113
113
114
113
114
114
114
114
114
114
114
114
115
115
52
8
102
116
116
116
116
116
116
117
117
117
117
117
117
112
86
118
118
119
119
119
119
119
119
119
119
119
120
120
120
120
121
121
121
121
121
121
121
121
121
122
122
122
122
90
7
87
122
122
123
123
123
123
123
124
124
124
124
124
124
125
125
125
125
125
125
126
126
126
126
126
127
127
126
127
128
127
128
127
128
128
128
128
128
128
128
128
57
120
129
129
129
129
129
129
129
129
129
129
129
130
130
129
130
130
130
130
130
130
131
132
131
132
132
132
132
132
132
132
132
132
132
132
132
132
133
132
132
132
132
133
133
133
133
133
133
133
134
134
135
135
135
135
135
135
135
136
136
135
136
136
136
137
137
138
138
137
137
139
139
139
139
139
139
139
139
138
139
139
90
27
33
30
5
4
5
9
12
13
13
6
6
6
6
6
6
72
143
144
144
145
146
146
146
147
147
147
148
148
148
148
149
149
149
149
150
150
150
151
151
151
152
152
152
152
153
153
153
154
155
155
156
156
156
157
157
157
157
158
159
159
160
160
160
161
162
162
162
163
163
156
80
22
16
16
32
144
165
166
167
167
169
170
171
172
173
174
176
178
181
184
187
190
195
199
206
213
219
226
232
237
243
253
255
255
255
255
255
255
255
254
243
236
230
224
216
210
203
197
192
188
184
180
178
175
172
171
169
167
166
165
164
163
162
161
160
159
159
158
157
156
155
154
153
152
151
150
150
149
148
148
147
146
146
145
144
144
143
143
142
142
141
140
140
138
137
136
93
93
94
94
95
94
95
96
95
97
97
97
98
99
99
99
100
101
101
101
101
102
102
103
103
103
104
104
105
105
105
106
106
106
106
107
108
108
108
109
109
110
110
110
111
111
112
112
113
113
113
113
113
113
113
114
114
114
114
114
114
114
48
10
105
116
116
115
116
116
116
116
115
116
116
116
117
115
79
117
118
118
118
118
118
118
119
119
119
119
119
119
119
119
120
120
120
120
121
121
121
121
121
121
121
122
121
89
7
79
121
122
122
123
123
122
123
123
123
123
123
123
123
124
123
124
124
125
125
125
125
125
125
125
126
126
126
126
126
126
126
126
126
127
127
128
128
128
128
128
54
121
128
128
128
129
128
129
129
129
129
129
129
129
129
129
129
129
129
129
130
130
130
131
131
131
131
131
131
131
131
132
131
132
132
132
132
132
132
132
132
132
132
132
132
132
133
132
133
133
133
133
134
135
135
135
134
135
135
135
135
135
135
135
135
136
136
137
137
136
137
137
138
138
138
138
138
138
137
137
137
124
45
13
36
32
17
4
4
4
7
11
11
14
7
6
6
6
5
34
137
143
143
144
144
144
145
146
146
146
146
147
147
148
147
148
148
148
148
149
149
149
150
150
151
151
151
151
151
152
152
152
153
153
153
154
154
155
155
156
157
157
157
158
158
158
159
159
160
160
160
161
161
162
157
86
18
14
16
64
160
165
165
166
167
168
169
170
171
172
174
176
178
180
183
187
190
194
199
204
210
217
224
231
244
255
255
255
255
255
255
255
255
255
247
234
227
220
213
206
200
194
190
186
182
178
175
172
170
168
167
165
165
163
162
161
160
159
158
158
157
156
155
154
153
152
151
150
150
149
148
147
147
146
146
145
144
144
143
142
142
141
141
140
139
138
137
136
136
135
92
92
93
93
94
94
95
95
96
96
96
97
98
98
99
99
100
100
100
101
101
101
102
102
103
103
104
104
104
105
105
105
106
106
106
106
107
107
108
107
109
109
110
110
110
111
111
111
112
112
112
112
113
113
113
113
113
113
114
114
114
112
41
16
107
115
115
115
116
115
116
115
115
115
115
115
116
116
78
115
117
117
117
117
118
118
118
118
118
119
118
119
119
119
119
119
120
120
119
120
120
120
120
121
121
121
121
88
7
71
120
121
121
122
122
122
122
122
122
123
123
123
123
123
123
123
123
124
123
124
124
124
124
125
125
125
125
126
125
125
126
126
126
126
126
126
126
127
127
127
51
120
128
128
128
128
128
128
128
128
128
128
129
129
129
129
129
129
129
129
129
129
129
129
130
130
130
130
131
130
131
131
131
131
131
131
132
132
132
132
132
132
132
131
132
131
132
132
133
132
133
132
133
133
134
134
134
134
134
134
134
134
134
135
135
135
136
135
135
135
136
137
136
136
137
136
136
136
136
136
135
79
45
14
30
29
29
4
5
3
4
5
10
12
14
7
4
6
14
30
93
141
142
142
143
143
144
144
145
145
146
146
146
147
147
147
147
147
148
148
148
148
149
149
149
150
150
150
150
150
151
151
151
151
152
152
153
154
154
154
155
155
156
156
156
157
157
157
157
158
159
159
160
160
161
157
79
16
15
19
125
164
164
165
166
166
167
168
169
170
172
173
175
178
180
183
187
190
194
198
203
209
216
225
246
255
255
255
255
255
255
255
255
255
248
229
221
214
207
201
195
191
186
183
180
176
173
170
168
167
165
164
163
162
161
160
158
157
157
156
155
154
153
152
151
150
149
148
148
147
146
146
145
145
144
143
143
142
142
141
140
139
138
137
137
136
135
135
134
134
91
92
93
93
93
94
94
95
96
96
96
96
97
98
98
99
99
99
100
100
101
101
101
102
102
103
103
104
104
104
105
105
105
106
106
106
107
107
107
107
108
108
109
109
110
110
111
110
111
111
112
112
112
113
113
113
113
113
113
112
96
96
34
22
107
114
114
115
115
115
115
115
115
115
115
115
115
115
79
114
116
116
117
117
117
117
117
117
117
118
118
118
118
118
118
119
119
119
119
119
119
120
120
120
120
120
120
87
6
65
120
121
121
121
121
121
122
122
122
122
122
122
122
122
123
122
123
123
123
123
123
123
123
124
124
124
124
124
124
125
124
125
125
125
125
126
125
126
125
126
48
119
127
127
127
128
128
128
128
128
128
128
128
128
128
128
128
128
129
129
129
129
129
129
129
129
129
130
130
130
130
130
130
131
131
131
131
131
131
131
131
131
131
131
131
131
131
132
132
132
132
133
133
132
133
133
134
134
134
134
134
133
134
134
134
134
134
135
135
135
135
135
135
135
135
136
135
134
134
134
108
37
45
21
14
30
33
8
4
3
5
4
4
9
11
14
7
5
21
30
28
119
141
141
142
142
142
143
143
143
144
145
145
145
146
146
146
147
147
147
147
147
147
148
148
148
148
149
149
149
149
150
150
150
150
151
151
152
152
152
153
153
154
154
154
155
155
156
156
157
157
158
158
159
159
159
152
63
18
16
63
159
163
164
165
165
166
167
168
169
170
171
173
176
179
181
185
189
194
200
206
211
217
223
245
255
255
255
255
255
255
255
255
255
245
219
209
202
196
192
189
185
181
178
174
171
169
167
166
165
164
162
161
160
159
157
157
156
155
154
152
152
151
150
149
148
147
147
146
146
145
145
144
143
142
142
141
140
140
139
138
137
136
136
135
134
134
133
133
132
91
92
92
93
93
93
94
94
95
95
95
95
96
97
97
98
98
99
99
100
100
101
101
101
102
102
103
103
103
104
104
105
105
105
106
106
106
106
107
107
107
108
108
108
109
109
109
110
111
111
111
112
111
112
112
113
113
112
112
94
68
58
21
28
109
114
114
114
114
114
115
114
115
115
115
115
115
115
82
109
116
115
116
116
116
116
116
117
117
117
117
117
117
117
118
118
118
118
119
119
119
119
119
119
119
119
119
85
5
61
119
120
120
121
121
121
121
121
121
121
121
122
122
122
122
122
122
122
123
122
122
123
123
123
123
123
123
123
124
124
123
124
124
124
124
125
125
125
125
124
46
119
126
126
126
127
127
127
127
127
128
128
128
128
128
128
128
128
128
128
128
128
129
129
128
128
128
128
129
129
129
130
130
130
130
130
130
131
131
131
131
131
131
131
131
131
131
131
131
131
131
132
132
132
132
132
133
133
133
133
133
133
133
133
133
134
134
134
133
134
134
134
134
134
134
134
134
133
133
107
56
34
42
26
10
27
30
25
3
3
4
4
4
4
5
8
10
11
19
27
27
54
136
140
140
141
141
142
142
142
143
143
144
144
145
145
145
146
146
146
146
146
147
147
147
147
147
148
147
148
149
149
149
149
149
150
150
150
150
150
151
151
151
152
152
153
154
154
154
155
155
156
157
157
157
158
158
142
43
23
23
119
162
163
164
165
165
166
167
168
169
171
173
176
179
182
185
188
191
194
196
198
202
209
236
255
255
255
255
255
255
255
255
255
233
205
196
191
188
184
181
178
175
172
169
168
166
165
164
163
161
160
159
157
157
155
154
153
152
151
150
149
149
148
147
146
146
145
145
144
143
142
142
141
141
140
139
138
138
137
136
135
135
134
133
127
131
131
130
130
91
90
92
92
92
93
93
94
95
94
95
96
96
96
97
97
98
98
99
99
100
100
101
101
101
101
102
102
103
103
103
104
105
105
105
106
106
106
107
106
107
107
107
108
108
109
109
109
110
110
110
111
111
111
111
111
112
112
112
85
55
51
21
34
109
113
113
113
114
113
114
114
114
114
114
114
115
115
88
103
115
115
116
116
116
116
115
115
116
116
116
116
117
117
117
117
117
117
118
118
118
118
118
118
118
118
119
84
6
60
118
119
120
120
120
120
121
120
121
121
121
121
121
122
122
121
122
122
122
122
122
122
122
122
123
122
123
123
123
123
123
123
123
124
124
124
124
124
125
123
42
119
125
125
125
126
126
126
126
127
127
128
127
127
127
127
128
128
128
128
128
128
128
128
128
128
128
128
128
128
128
129
128
129
129
129
129
130
130
130
130
130
130
131
131
131
130
130
130
130
130
131
131
131
131
132
132
132
132
133
133
133
132
132
133
132
133
133
133
133
133
133
133
133
133
133
133
132
81
44
47
35
40
30
10
23
28
32
11
8
9
5
4
4
4
4
4
10
15
18
22
7
83
139
139
139
140
141
141
141
142
142
142
142
143
143
143
145
145
145
145
146
145
146
146
146
146
146
147
147
147
147
147
148
149
149
149
149
149
149
149
150
150
150
151
151
152
152
153
153
154
154
155
156
156
157
157
158
114
23
25
59
160
162
163
163
164
165
166
166
166
168
168
170
171
173
175
177
179
182
185
187
191
197
213
250
255
255
255
255
255
255
255
248
208
194
188
185
181
179
176
173
171
168
167
165
164
163
162
160
159
158
157
155
154
153
152
151
150
149
149
148
147
146
146
145
144
143
143
142
141
140
140
140
139
138
137
136
135
132
132
131
118
115
107
74
90
83
87
80
89
90
91
91
92
93
93
93
93
94
95
95
95
96
97
97
97
98
98
99
100
99
100
101
101
101
102
102
102
102
103
103
104
104
105
105
105
106
106
106
106
107
107
108
108
108
108
109
109
109
110
110
111
111
111
111
111
112
111
79
53
59
19
40
109
113
113
113
113
113
113
114
114
114
114
114
114
114
100
94
115
115
115
115
115
116
116
115
115
115
115
116
116
116
116
117
116
117
117
117
117
118
118
118
118
118
118
84
6
59
117
119
119
119
119
119
120
119
120
120
120
120
121
121
121
121
121
121
121
121
121
121
122
122
122
122
122
122
121
120
115
110
106
107
111
108
110
112
117
115
31
112
123
125
125
125
125
125
126
126
126
126
127
127
126
127
127
127
127
127
127
127
127
128
128
128
127
128
128
128
128
128
128
128
128
128
128
128
129
129
129
130
130
130
130
130
130
130
130
130
130
130
130
130
130
131
131
131
132
132
131
131
131
131
131
131
131
132
132
132
132
132
132
132
132
132
132
115
9
47
50
33
35
34
10
14
30
29
19
12
6
4
4
3
4
3
3
8
15
17
10
6
71
137
138
138
139
139
140
140
140
141
141
142
141
143
142
143
143
143
144
144
145
145
145
145
145
145
145
146
146
146
147
147
147
148
148
148
148
148
148
149
149
149
150
150
150
150
151
152
153
153
153
154
155
155
156
156
122
20
26
30
145
160
160
161
162
163
163
164
164
165
166
166
167
168
170
172
174
176
178
181
184
188
194
216
250
255
255
255
255
255
249
211
191
185
181
178
175
173
170
168
167
166
165
163
162
160
159
158
156
155
153
153
152
151
150
149
148
148
147
146
145
145
144
143
142
141
140
139
139
138
138
137
136
134
127
124
112
76
89
74
62
61
60
59
59
57
57
57
89
89
90
90
90
91
92
93
93
94
94
95
95
95
96
96
97
97
98
98
98
99
100
100
100
101
101
101
102
102
103
103
104
104
104
105
105
105
106
106
106
107
107
107
107
107
108
108
108
109
109
110
110
110
110
110
111
111
110
68
55
66
17
45
110
113
113
113
113
113
113
113
114
114
114
114
114
114
107
85
114
114
114
115
115
115
115
115
115
115
115
115
116
116
116
116
116
116
116
117
116
117
117
117
117
117
117
82
5
57
116
118
118
119
119
118
119
119
119
119
119
120
120
120
120
120
120
120
121
120
118
109
99
90
84
74
68
59
54
47
39
35
34
33
34
27
29
30
30
26
13
27
49
60
66
87
100
107
113
120
125
125
125
125
125
126
126
126
126
126
127
127
127
127
127
127
127
127
127
128
127
128
128
128
128
128
128
128
128
128
128
128
128
129
129
130
130
130
130
130
130
129
130
130
129
130
130
130
131
131
131
131
131
131
131
131
130
130
131
131
131
131
131
131
131
127
85
33
9
51
49
35
32
35
15
8
19
24
12
8
4
4
3
3
4
4
3
6
14
14
6
7
71
134
136
137
136
138
139
139
139
140
140
140
140
141
141
142
142
142
143
143
144
144
144
144
144
144
145
145
145
145
146
146
147
147
147
147
148
148
147
148
148
148
148
148
149
149
150
150
151
151
151
152
152
153
153
154
126
26
25
29
137
157
158
158
159
160
160
161
162
163
163
164
165
165
166
167
169
171
172
175
177
180
182
187
201
230
245
247
243
226
197
185
181
177
174
171
169
168
166
165
164
163
162
160
159
158
156
155
153
152
151
151
150
149
148
147
147
146
144
144
143
142
141
141
140
139
139
138
137
136
128
111
92
84
73
66
63
61
61
59
59
58
59
58
57
57
57
56
89
89
89
90
90
90
91
92
93
93
93
94
95
95
96
96
96
97
97
98
98
99
99
100
100
101
101
101
101
102
102
102
103
104
104
105
105
105
105
105
106
106
106
107
107
107
107
107
108
108
108
109
109
109
109
110
111
111
109
60
28
69
15
49
110
112
112
112
112
112
112
113
113
113
113
113
113
113
111
78
114
114
114
114
114
114
114
115
115
115
115
115
116
115
115
115
115
116
116
116
115
116
116
116
116
116
116
81
4
59
114
118
118
117
118
118
118
118
118
117
115
112
109
106
101
99
98
94
84
68
48
38
36
30
24
12
7
4
3
2
1
2
2
1
3
3
3
4
3
2
3
2
3
4
5
9
19
28
35
45
65
86
99
109
117
122
124
125
125
125
125
126
126
126
126
126
126
127
127
127
127
127
127
127
127
127
128
128
127
127
128
128
128
128
128
129
129
130
129
129
129
129
129
129
129
129
130
130
130
130
130
130
129
130
130
130
130
130
129
130
129
120
106
86
60
21
12
9
22
51
45
29
26
29
21
7
7
15
13
11
10
5
3
4
3
4
4
7
10
16
7
7
88
135
135
135
118
136
137
137
138
138
139
139
139
140
140
140
141
142
142
142
142
142
142
143
143
143
144
144
144
144
144
145
145
145
145
146
146
146
147
147
147
147
147
147
147
148
148
148
149
150
150
150
151
151
151
152
151
75
25
33
138
155
156
157
157
158
158
159
159
160
161
162
162
163
164
165
166
167
168
169
171
173
175
177
180
181
184
184
183
181
177
174
172
170
168
167
166
165
163
162
161
160
158
157
156
154
153
151
150
150
149
149
148
147
146
145
144
143
143
142
141
140
139
138
138
134
125
104
108
94
69
64
63
63
62
61
61
60
59
58
58
58
58
57
57
57
56
55
88
89
89
90
90
90
90
91
92
92
93
93
93
94
95
95
96
96
97
97
98
98
99
99
99
100
100
101
101
101
102
102
102
103
103
104
104
104
105
105
105
106
106
106
106
107
107
107
107
108
107
108
108
108
108
109
109
110
110
75
19
84
13
53
110
111
111
112
111
112
112
112
112
113
113
113
113
113
113
75
112
114
114
114
114
114
114
114
114
114
114
115
115
115
115
115
115
115
115
115
115
115
115
115
115
116
116
80
5
62
111
112
105
97
89
81
71
62
53
46
40
35
32
35
40
32
36
32
20
10
5
4
3
2
2
2
1
1
2
2
1
2
2
2
2
2
2
2
1
2
3
2
2
2
2
2
2
1
2
2
2
3
7
17
32
40
74
95
109
120
124
124
125
125
126
125
126
126
126
126
126
126
127
127
127
127
126
127
127
127
127
127
127
127
127
128
128
128
128
129
129
129
129
129
129
129
129
129
129
129
129
129
129
129
128
128
125
113
95
73
39
13
7
5
4
7
19
7
12
36
37
24
24
22
23
11
5
6
7
7
8
12
11
7
5
5
15
8
6
15
8
40
107
134
135
134
108
134
136
136
136
137
137
137
138
139
138
139
139
139
140
140
141
141
141
141
142
142
142
143
143
143
143
144
144
144
144
144
145
145
146
145
146
146
146
146
146
146
147
147
147
147
148
149
149
150
150
150
151
121
30
30
139
153
153
154
154
155
155
156
157
158
158
159
159
160
162
162
163
164
164
165
166
167
168
166
167
166
167
168
169
170
168
167
166
165
164
163
162
161
159
159
158
156
155
154
152
151
150
149
149
148
148
147
146
145
144
143
139
127
137
134
129
137
137
131
125
88
68
65
65
64
63
62
62
61
61
59
59
58
58
58
58
58
57
56
56
55
56
55
88
89
89
90
90
90
91
91
91
91
92
92
93
93
94
94
96
96
96
97
97
98
99
99
100
100
100
100
101
101
102
102
102
103
103
103
104
104
105
105
105
105
106
106
106
106
107
107
107
107
107
107
108
108
109
108
108
109
109
63
21
83
11
57
110
111
111
111
111
111
112
111
112
111
112
112
112
112
112
75
110
113
113
113
114
114
114
114
114
114
114
114
114
114
114
114
115
114
114
115
115
115
114
115
113
109
103
72
32
46
50
40
35
36
34
34
30
27
28
34
39
39
34
25
12
3
2
2
2
3
3
3
3
3
4
3
3
5
3
3
4
3
4
3
4
4
3
4
3
3
3
2
3
3
2
2
2
2
2
2
2
2
1
2
1
1
2
6
18
38
68
92
110
122
124
124
124
125
124
124
125
125
126
126
126
126
126
126
127
126
126
126
127
127
127
127
127
127
127
127
128
128
128
128
128
128
129
128
128
128
128
128
124
110
90
63
28
9
5
5
4
5
7
15
19
22
18
5
2
24
25
23
18
18
15
11
4
5
4
5
6
7
9
12
12
9
18
8
7
12
14
77
132
133
134
131
109
132
135
135
136
136
136
136
137
137
137
138
138
138
138
138
139
139
140
140
140
141
141
141
141
142
142
142
142
143
143
143
143
143
144
144
144
145
145
145
145
145
146
146
146
146
147
147
147
148
148
149
149
112
27
26
113
151
151
152
152
153
153
154
155
155
156
156
157
158
159
159
161
161
162
163
163
163
163
163
162
162
163
163
163
164
164
163
163
162
161
160
159
157
156
155
154
153
151
151
150
149
149
148
147
146
146
145
144
143
138
114
105
80
102
86
80
102
97
76
71
65
65
63
63
62
62
62
61
59
59
58
58
58
58
57
57
57
57
55
55
55
55
55
88
88
89
89
89
89
90
90
90
91
91
92
93
93
94
94
94
95
96
96
97
97
98
98
98
99
99
100
100
101
101
101
101
102
102
102
103
104
103
104
104
105
105
105
106
106
106
107
107
107
107
107
107
107
107
108
108
108
108
48
28
85
9
61
108
109
110
110
110
111
111
111
111
111
111
111
112
112
112
80
107
112
113
113
113
113
113
113
113
113
113
113
114
114
114
114
114
113
109
101
89
79
71
62
51
45
43
40
35
35
32
30
28
25
23
23
25
36
36
28
12
4
3
3
3
4
3
4
4
5
5
5
4
5
3
3
2
3
2
2
3
2
2
2
2
3
2
3
3
3
4
3
3
4
4
4
3
4
3
3
2
3
3
2
2
2
3
2
2
1
3
5
17
41
65
93
115
123
124
124
124
125
124
125
125
125
125
125
125
125
125
126
126
126
126
126
126
126
127
127
127
127
126
127
127
127
127
127
125
113
93
64
25
9
8
5
5
5
6
6
16
20
23
21
20
19
19
7
2
13
30
21
15
13
14
11
9
6
2
3
2
4
4
4
6
12
15
6
7
8
18
94
131
132
132
127
113
131
133
134
134
135
135
135
135
135
136
136
136
136
137
136
137
137
137
138
138
139
139
139
140
140
140
141
141
141
141
142
142
142
142
142
142
143
143
144
144
145
145
145
145
145
145
145
146
146
146
147
147
80
41
33
60
146
150
150
151
151
151
152
152
153
153
154
155
156
156
157
158
158
159
159
160
160
160
160
160
161
161
161
161
161
161
161
159
159
158
157
155
154
153
152
151
150
149
148
148
147
146
146
145
143
142
140
135
119
81
72
70
68
68
67
66
66
65
65
64
63
62
62
62
60
60
59
58
58
58
58
57
57
57
57
56
56
55
54
55
54
55
55
88
88
88
89
89
89
90
90
90
91
91
92
92
93
93
94
93
94
95
95
95
96
97
97
98
98
98
99
99
100
100
101
101
102
102
102
102
103
103
104
104
105
105
105
106
106
106
106
106
106
107
107
107
107
107
107
107
107
106
36
38
85
9
64
108
108
109
109
109
110
110
110
110
110
110
111
111
111
111
86
102
111
112
112
113
112
113
113
113
113
113
113
113
113
106
89
72
59
48
45
43
39
34
35
37
32
31
36
37
34
30
27
27
36
37
33
12
8
4
4
4
4
4
5
5
7
6
7
6
6
6
5
5
4
2
3
2
2
2
1
2
1
1
2
2
6
5
4
5
4
2
3
3
3
3
2
2
3
2
3
4
5
3
3
4
3
2
4
2
2
2
3
1
3
3
5
24
54
87
107
121
124
124
124
124
124
124
124
124
124
125
125
125
125
126
125
125
126
126
126
125
126
126
125
125
120
102
78
40
14
11
11
9
7
6
7
10
16
20
23
20
19
20
19
18
16
14
7
2
2
29
30
21
14
11
12
12
10
7
3
3
2
3
4
4
5
5
5
6
8
13
85
131
131
131
124
114
130
132
133
133
134
134
134
134
135
135
135
135
135
135
135
135
135
136
136
136
137
137
137
138
138
139
139
139
140
140
140
140
141
140
141
141
141
142
142
142
142
143
144
144
144
144
145
145
145
145
145
145
76
98
64
32
117
148
149
149
149
150
150
150
151
152
152
152
153
153
154
155
156
157
157
157
157
156
156
157
157
157
157
157
157
156
156
155
155
154
153
151
151
150
149
148
148
147
146
146
145
143
138
125
107
96
83
75
70
69
68
68
67
66
65
64
64
63
63
62
61
61
60
60
59
59
58
58
58
57
57
57
57
56
55
55
55
55
55
54
54
55
54
87
87
88
88
89
89
89
89
90
90
91
91
92
92
93
93
94
94
94
94
95
95
96
97
97
98
98
98
99
100
100
100
101
101
101
102
102
102
103
103
103
104
104
105
105
105
105
106
106
106
106
107
106
107
107
107
107
107
103
26
44
83
8
68
108
108
108
108
109
109
109
107
107
109
110
109
110
110
111
91
95
112
112
112
111
111
112
112
112
111
107
100
84
61
41
44
50
49
43
33
27
33
37
33
28
32
34
30
27
11
17
31
34
23
8
4
3
3
3
2
5
6
5
6
7
6
6
6
6
6
4
3
3
3
2
1
2
2
1
2
2
2
2
1
5
5
5
6
6
5
5
4
2
2
3
2
2
2
2
2
3
3
3
3
4
4
4
3
4
3
2
2
2
2
2
3
3
3
4
14
42
78
103
113
123
123
123
124
124
124
124
124
124
124
124
125
125
124
125
125
125
124
113
91
63
23
11
8
6
5
4
4
7
13
18
20
22
22
19
21
19
18
18
15
12
7
4
2
2
1
6
18
21
15
7
8
11
12
11
8
4
2
3
4
4
6
7
6
5
7
11
56
128
130
130
123
114
128
131
132
132
132
132
132
133
133
134
134
134
134
134
134
134
135
135
135
135
135
135
136
136
136
137
137
137
137
138
138
138
138
139
139
139
140
140
140
141
141
142
142
142
142
143
143
144
144
144
144
144
138
139
67
42
63
144
147
148
148
148
149
149
150
150
150
151
151
151
152
152
152
153
153
153
153
152
153
153
153
153
153
153
153
153
152
152
151
150
150
149
148
147
147
146
146
145
144
142
126
98
80
74
73
71
71
70
68
68
67
66
66
65
64
64
63
62
62
62
61
60
59
59
59
58
58
57
57
57
56
57
55
55
55
54
55
55
54
54
54
54
54
87
87
88
88
88
89
89
89
90
90
90
90
91
91
92
93
93
93
94
94
95
95
96
96
97
97
97
98
98
99
99
99
100
100
101
101
102
102
102
103
103
103
103
104
104
104
105
105
105
105
105
86
89
106
107
107
107
101
79
31
39
42
7
39
65
70
74
79
83
87
92
61
82
97
107
109
110
109
110
97
88
110
111
111
109
100
92
84
72
54
37
31
37
46
53
49
38
26
24
33
40
33
27
24
23
24
30
31
29
27
20
10
4
5
4
4
4
2
2
2
6
6
7
7
6
4
6
6
4
4
7
5
3
4
4
3
3
3
3
3
2
2
2
3
5
6
7
6
6
4
5
5
6
6
5
5
4
4
4
3
3
3
3
2
4
2
3
5
3
3
4
4
4
3
3
4
4
6
3
2
2
3
10
24
74
102
119
122
122
123
123
123
123
123
123
124
124
124
119
101
79
43
14
10
10
8
4
5
4
7
13
18
21
20
20
20
19
18
16
16
14
10
6
4
3
2
4
3
3
3
0
1
5
8
12
10
5
9
11
11
9
7
3
4
5
5
7
7
7
7
10
15
107
129
128
122
109
126
129
130
130
123
131
132
132
132
132
132
132
132
133
133
133
133
133
134
134
134
134
135
135
135
135
135
136
136
136
137
137
136
137
137
137
138
138
138
139
139
140
140
140
141
141
142
142
142
143
143
143
143
143
88
44
33
123
145
146
147
147
147
147
148
148
148
149
149
149
149
150
150
150
150
150
150
150
150
150
150
150
150
150
150
150
149
149
148
148
147
143
124
111
109
129
137
138
125
97
76
73
71
71
70
70
69
67
67
67
66
65
64
63
63
62
61
61
61
61
60
59
58
58
58
58
58
57
57
57
56
55
55
55
55
55
55
55
54
54
53
53
53
87
87
87
88
88
88
89
89
90
90
90
91
91
91
91
92
92
93
93
94
94
95
95
96
96
96
97
97
98
98
99
98
99
100
100
101
101
101
102
102
102
103
103
103
103
104
104
105
105
105
91
39
63
107
106
106
107
101
33
17
24
18
7
15
21
23
24
26
30
31
32
17
26
29
68
84
103
109
109
100
82
108
96
77
56
42
40
36
32
29
36
48
52
48
38
25
22
32
40
38
26
26
27
24
15
30
34
26
12
3
4
3
2
2
3
2
5
5
3
3
3
6
5
5
4
5
6
6
6
7
7
4
4
4
3
4
3
3
4
5
3
3
4
6
7
6
6
3
3
5
5
6
6
6
6
7
6
6
7
7
7
7
7
7
6
4
2
2
2
3
2
2
4
5
4
4
3
4
2
2
3
2
1
2
3
10
40
80
105
117
121
122
122
122
121
111
91
62
23
12
11
9
8
6
6
5
10
16
20
21
20
19
19
18
16
16
15
12
9
6
3
3
3
3
2
3
2
3
3
2
4
1
1
0
3
14
15
6
5
9
11
10
7
7
7
7
7
7
9
18
13
14
61
128
123
125
108
126
128
129
129
116
129
130
130
130
130
131
132
132
132
132
132
132
132
133
133
133
134
134
134
134
134
135
135
135
135
135
135
136
136
136
136
136
137
136
137
137
137
138
139
139
139
140
140
141
141
141
142
142
142
111
38
26
91
143
144
145
145
146
146
146
146
147
147
147
147
148
148
148
148
148
148
148
148
148
148
148
148
148
148
148
147
147
147
145
137
110
91
80
79
77
80
87
86
74
72
71
70
70
69
69
69
67
67
66
66
65
63
62
62
62
60
60
60
59
59
59
58
58
57
57
57
57
56
56
56
55
54
55
55
55
55
55
54
54
53
53
52
52
86
86
87
87
88
88
88
88
89
89
90
90
90
91
91
91
92
92
93
93
94
94
94
95
95
96
95
97
97
98
98
98
99
99
100
100
100
100
101
102
102
102
102
103
103
103
104
104
104
104
91
43
42
106
106
105
99
64
4
1
9
20
7
24
24
15
6
4
3
10
14
8
12
5
16
23
37
91
107
93
56
52
44
41
37
33
29
28
35
46
50
44
36
23
23
32
37
40
36
29
29
22
39
37
18
5
2
5
18
12
5
6
4
2
3
5
5
5
4
4
3
4
4
3
3
3
3
2
4
3
4
4
5
3
4
4
4
4
4
4
4
6
6
6
7
5
6
5
4
4
5
6
5
6
6
5
6
6
5
6
7
6
4
4
3
2
4
5
6
2
5
6
7
6
6
4
3
3
3
3
3
3
2
2
2
3
2
4
16
46
85
112
102
79
44
14
6
10
10
8
5
3
5
13
17
21
21
20
19
17
16
15
15
13
10
7
4
3
2
3
3
2
3
2
3
3
3
3
4
3
3
2
1
1
0
3
11
18
9
3
5
7
16
16
12
7
3
6
7
20
84
87
17
108
117
126
107
124
127
128
129
116
127
130
130
130
130
130
130
130
130
131
131
132
132
132
132
132
133
133
133
134
134
134
134
134
134
134
135
134
134
135
135
135
135
135
135
135
136
134
134
137
138
138
139
138
139
140
140
140
140
129
33
24
54
140
143
143
143
143
144
144
144
145
145
145
145
145
146
146
146
146
146
146
145
137
132
138
132
140
125
124
129
123
109
94
83
80
77
76
75
74
73
72
71
71
70
70
69
69
68
68
67
67
66
65
63
63
62
62
61
61
61
60
60
59
58
58
57
57
57
57
57
56
55
55
55
54
54
55
55
54
54
54
54
54
53
53
52
52
86
86
87
87
88
88
88
88
88
89
89
90
90
90
91
91
92
92
92
93
93
94
94
94
95
95
96
96
96
97
97
98
98
99
99
99
100
100
100
101
101
101
102
102
102
103
104
103
103
104
100
54
39
95
107
104
79
14
3
1
43
53
6
43
57
64
52
83
91
81
27
10
9
2
3
9
14
50
64
43
41
47
42
35
36
30
34
36
44
44
38
26
25
37
38
27
32
34
39
44
39
13
14
4
2
2
1
9
17
14
5
4
3
2
3
4
2
4
4
3
2
2
2
2
2
3
3
3
4
4
4
4
5
5
5
4
3
4
4
6
8
7
7
7
7
5
5
4
6
3
3
3
4
5
5
5
6
5
5
5
4
3
2
3
4
3
4
4
3
3
6
7
6
6
3
2
2
3
3
2
3
3
3
3
3
3
2
3
10
16
20
19
8
8
6
4
4
5
4
8
14
18
20
21
20
19
18
15
15
14
12
8
5
3
1
3
2
3
3
3
2
3
3
1
2
3
3
4
4
3
4
3
3
2
1
1
1
6
14
13
5
4
6
13
14
9
10
11
7
11
73
122
35
64
114
126
107
122
126
127
127
115
126
129
128
129
129
129
129
130
129
130
130
130
130
130
130
131
131
132
132
133
133
132
133
133
132
131
128
125
123
123
124
125
125
126
129
128
126
123
123
126
132
135
136
137
138
138
138
138
139
138
57
21
34
123
141
141
141
142
142
142
142
142
143
143
143
143
143
143
143
143
138
122
111
87
83
86
81
91
81
81
81
80
79
79
77
76
75
74
73
72
71
70
70
70
69
69
69
68
67
66
66
66
65
63
62
63
62
61
61
60
59
59
58
58
58
58
57
57
57
57
55
55
55
55
54
54
55
55
54
54
53
53
53
53
53
53
52
52
85
86
86
87
87
88
88
88
88
88
89
89
89
90
90
90
91
91
92
93
93
93
94
94
94
95
95
96
96
96
97
97
98
98
99
99
99
100
100
100
100
101
101
102
102
102
103
103
103
104
104
74
41
65
113
103
66
7
9
36
30
11
5
11
7
4
24
54
68
69
75
62
4
13
16
26
45
50
40
45
50
40
35
35
34
39
39
40
39
38
23
27
37
36
26
37
34
17
6
4
3
4
14
19
20
5
2
0
1
4
2
3
3
3
3
2
2
3
2
1
2
1
2
4
3
1
3
3
4
5
5
5
4
4
4
2
3
5
4
5
6
6
7
7
4
4
5
5
4
5
5
3
2
1
3
4
3
3
2
2
1
2
2
5
6
6
5
3
4
5
6
6
6
4
2
3
4
3
2
3
3
3
2
2
7
13
16
17
14
10
10
7
5
5
4
5
10
16
20
20
19
17
16
16
17
13
13
12
7
3
3
3
3
2
2
3
3
3
3
2
4
3
3
2
2
2
3
4
3
4
3
4
4
3
4
3
1
0
2
8
12
8
4
13
12
8
15
9
7
7
36
123
86
19
99
125
106
121
125
125
126
110
124
127
128
128
129
128
129
129
129
128
129
129
129
129
129
130
130
130
130
131
130
128
125
122
121
119
120
119
120
120
120
120
120
120
120
121
121
122
122
123
123
125
130
134
135
135
136
137
137
136
84
19
27
96
130
134
139
140
140
140
140
141
141
141
141
140
140
140
138
133
92
79
79
78
78
78
77
78
77
77
78
77
76
75
75
74
73
72
72
71
71
69
69
69
68
68
68
67
66
65
65
64
63
63
62
61
61
60
60
59
58
58
58
58
57
57
57
57
57
55
55
55
54
54
54
54
55
54
54
53
53
53
53
52
52
52
52
51
84
85
86
86
87
87
88
88
88
89
88
89
89
90
90
90
91
91
91
92
93
93
93
94
94
95
95
95
96
96
97
97
97
98
99
99
99
99
99
100
100
100
101
101
102
102
102
102
102
103
103
82
34
31
75
66
15
4
29
29
9
7
3
21
11
3
6
26
22
26
63
60
47
39
41
49
50
44
45
51
33
38
39
36
37
30
35
32
39
43
33
25
18
7
3
3
5
9
15
22
24
29
34
29
11
2
1
1
3
4
4
5
3
3
3
2
2
2
1
2
1
1
2
2
2
1
2
1
3
4
3
4
3
2
3
2
3
4
4
6
6
7
7
4
4
4
6
5
5
4
4
4
6
6
5
5
4
6
5
4
2
2
5
7
7
7
7
2
2
5
7
6
5
3
3
2
2
3
2
1
2
9
14
16
16
13
11
10
7
6
4
5
4
13
18
21
20
18
18
17
16
15
14
13
10
5
3
2
3
2
3
4
3
3
3
3
3
3
3
3
3
3
3
3
2
3
4
4
4
3
4
3
4
4
4
3
3
2
1
1
1
2
4
12
18
11
10
9
12
7
12
111
116
20
67
123
107
121
124
126
125
107
123
126
127
127
127
127
127
128
128
127
127
124
126
127
127
127
129
129
128
125
119
118
118
118
118
118
118
118
118
118
118
119
118
119
119
119
119
120
120
121
122
122
122
123
125
126
127
128
126
124
98
19
23
73
124
124
127
129
132
134
135
134
130
130
127
107
98
106
91
88
77
77
76
76
76
76
75
76
75
75
75
75
74
73
72
72
72
71
70
70
69
69
69
68
67
67
67
66
65
65
64
62
62
62
61
61
60
60
59
58
58
58
57
57
57
57
57
56
55
55
55
55
55
55
55
55
54
54
53
53
53
52
52
52
51
52
51
51
84
84
85
85
86
87
87
87
88
88
88
89
89
89
89
89
90
91
91
92
92
93
93
93
94
94
94
95
95
96
96
96
97
97
98
98
99
99
99
99
100
100
100
101
101
101
102
101
102
102
90
79
56
39
58
12
6
15
7
42
67
26
5
10
13
12
24
35
40
39
30
31
40
49
46
47
43
42
49
32
29
43
40
32
35
38
27
8
6
3
3
10
22
26
23
26
29
31
31
33
34
27
26
13
2
3
4
1
6
30
25
24
5
3
3
2
1
3
2
1
1
1
1
2
1
2
2
1
2
3
3
4
3
3
1
3
3
4
5
6
7
7
6
4
3
4
4
4
4
5
4
2
3
3
3
3
3
2
3
3
2
4
6
6
7
6
5
6
5
6
4
2
3
2
2
2
2
3
11
15
16
13
9
8
8
6
5
2
3
9
15
19
21
20
19
18
17
16
15
13
11
7
4
3
2
2
2
2
2
3
3
3
4
4
3
4
2
4
3
4
4
2
3
4
3
3
4
4
3
4
4
3
4
3
4
4
4
4
3
2
1
1
5
6
16
20
10
12
15
7
7
91
124
70
19
102
104
116
122
125
123
111
121
125
127
127
126
126
126
124
120
117
115
114
116
116
114
115
117
117
116
115
115
115
115
116
116
116
117
117
117
117
117
117
117
117
118
119
119
119
119
120
120
121
121
121
121
122
122
122
122
122
98
24
19
52
121
123
123
124
124
123
124
124
124
107
87
76
77
80
75
75
75
74
74
74
74
73
73
74
73
72
73
72
72
72
71
71
70
70
69
70
68
68
67
67
67
65
65
65
64
63
63
63
62
61
61
61
60
59
58
58
58
57
57
57
57
57
56
56
55
55
55
55
55
55
55
55
54
53
54
53
52
52
52
52
51
51
51
51
84
84
85
85
86
86
87
87
87
88
87
88
89
89
89
90
90
90
91
91
91
92
93
93
94
94
94
94
95
95
95
96
96
97
97
97
98
98
99
99
99
100
100
100
101
101
101
101
101
101
75
100
80
41
18
3
17
22
7
75
81
16
14
35
48
56
58
50
38
34
44
38
45
44
39
42
40
25
39
40
25
25
12
5
2
5
14
21
15
22
22
18
17
27
30
24
27
34
32
30
31
27
25
14
5
10
31
33
7
86
75
100
97
84
64
29
4
3
3
2
2
2
2
2
2
2
3
2
3
2
2
2
2
3
3
4
3
4
4
6
8
6
5
2
2
3
3
4
4
4
4
3
4
4
4
4
5
4
2
3
4
4
4
3
3
4
5
5
4
2
2
2
2
2
4
13
16
16
13
10
8
7
5
4
3
5
13
18
20
20
19
18
17
16
16
15
12
10
6
3
2
3
2
3
3
3
3
2
3
2
2
3
3
3
4
4
4
3
3
2
3
1
3
4
3
3
4
3
3
5
4
3
4
4
4
5
4
3
4
3
4
4
6
2
12
18
19
10
15
15
7
44
121
96
15
63
103
117
122
125
124
100
122
124
126
125
125
122
118
114
114
114
113
113
113
113
113
113
114
114
114
114
114
114
114
114
114
114
115
115
115
116
116
116
116
116
116
116
117
117
118
118
118
119
119
120
120
120
120
120
121
121
97
28
17
34
117
122
122
122
122
122
122
122
106
76
75
75
74
74
74
73
73
73
72
72
73
72
72
72
72
72
72
71
71
70
70
69
69
69
68
68
67
67
67
67
65
64
64
64
63
63
62
62
61
61
60
59
58
58
58
58
57
57
56
57
57
57
56
55
55
55
55
55
55
55
55
54
54
53
53
53
52
53
52
51
51
51
51
51
83
84
84
84
85
86
86
86
87
88
88
88
88
89
89
89
90
90
90
90
91
91
91
92
93
94
94
94
94
95
95
96
96
96
97
98
98
98
98
98
99
99
99
100
100
100
100
101
101
100
76
101
95
48
14
1
2
2
1
59
71
40
47
47
42
38
27
7
22
36
35
37
44
40
35
40
29
5
5
3
3
9
15
20
29
34
34
25
27
18
6
11
20
19
16
25
30
22
16
18
20
19
12
53
20
62
97
45
7
70
79
101
101
102
103
102
92
74
40
4
2
3
2
2
2
3
3
2
1
1
2
2
3
2
2
2
3
3
6
6
7
7
6
4
5
4
5
4
5
4
4
2
2
3
3
3
2
3
4
3
3
3
3
2
2
2
2
1
1
1
2
7
14
15
15
10
8
8
7
5
4
2
10
16
20
22
20
18
18
17
16
15
14
11
7
5
3
2
2
1
3
4
3
3
3
3
3
3
3
3
3
4
4
3
5
5
3
3
4
2
2
3
2
2
3
4
4
4
4
4
3
3
4
4
4
3
4
3
4
3
5
6
7
2
6
15
19
14
14
22
9
8
98
103
58
18
76
114
121
123
120
110
120
123
121
116
114
113
114
113
112
112
112
113
112
113
113
113
113
113
113
113
113
113
113
114
114
114
114
114
114
115
115
115
116
116
116
116
116
116
116
117
117
118
118
118
118
118
118
119
119
119
93
25
18
26
107
121
120
121
121
122
121
106
75
73
73
73
73
73
72
73
72
71
71
72
71
71
71
71
70
70
70
70
70
69
69
69
69
68
67
67
67
67
65
66
65
64
64
63
63
62
61
60
60
60
59
59
58
58
57
57
57
57
57
56
56
55
56
55
55
54
55
55
55
55
54
53
53
53
53
52
52
52
52
51
51
51
51
51
82
83
84
84
84
85
85
86
86
87
87
87
88
88
89
89
89
90
90
90
90
91
92
92
92
92
93
93
94
94
95
95
96
96
97
97
97
98
98
98
98
99
99
99
100
100
100
100
101
100
75
101
100
55
5
2
10
16
20
43
43
33
34
33
29
34
41
36
37
40
32
21
13
5
7
16
15
16
16
20
21
20
19
19
22
22
18
12
16
20
23
21
12
10
13
14
40
41
8
7
7
5
6
32
15
73
94
15
7
38
76
100
100
100
101
101
101
102
98
68
5
9
2
2
3
2
2
2
2
2
2
3
3
3
1
2
2
2
5
6
6
7
5
4
2
3
4
2
3
2
1
2
2
2
1
2
1
2
13
33
17
2
2
3
2
2
3
3
7
16
19
18
12
10
7
6
5
3
5
13
18
21
21
19
18
17
16
16
15
13
10
6
3
2
3
3
3
2
2
3
3
3
3
3
3
3
3
3
2
3
4
4
4
4
3
4
3
3
6
3
3
3
2
2
3
3
4
4
3
3
3
4
4
4
4
5
4
4
4
3
4
8
7
4
1
13
16
21
12
23
20
7
41
102
100
16
39
112
119
122
120
109
116
114
112
112
112
112
112
112
112
112
112
111
111
112
112
112
113
112
112
113
113
113
113
113
113
114
114
114
114
114
114
115
115
115
115
116
116
116
116
116
116
116
116
116
117
117
118
118
117
118
87
20
23
22
97
119
119
120
120
120
105
76
71
72
72
72
72
73
71
71
71
70
70
70
71
70
71
70
70
69
69
69
69
69
69
69
68
67
67
67
67
65
65
64
64
63
63
62
62
61
60
60
60
59
59
58
58
57
57
56
56
56
56
55
55
55
55
55
54
54
54
54
55
54
53
53
53
53
53
52
52
52
51
51
51
51
51
51
71
82
83
84
84
85
85
85
86
86
87
87
88
88
88
88
89
89
90
90
90
91
91
91
92
92
92
93
94
94
94
95
95
95
96
96
97
97
97
98
98
98
98
99
99
99
100
100
100
100
75
98
100
88
14
3
7
22
9
19
29
21
38
41
26
26
22
12
6
6
4
4
15
25
33
35
30
20
12
7
10
9
6
7
6
6
7
15
14
9
6
6
6
30
62
87
97
94
51
7
6
5
5
5
10
84
89
12
6
18
66
100
100
100
100
100
100
101
85
54
50
76
7
5
2
2
3
2
3
2
2
2
2
3
2
2
3
2
4
5
6
4
2
2
2
2
2
2
3
2
1
2
2
2
3
3
2
5
25
25
29
16
6
15
31
36
26
20
14
8
10
10
7
3
2
9
16
20
24
20
19
18
17
16
15
14
12
8
4
3
3
3
2
2
3
3
3
3
3
2
3
4
4
4
4
3
4
3
5
5
5
3
2
4
4
5
3
5
4
2
2
3
2
2
3
4
3
3
4
4
3
4
4
4
4
4
3
4
3
4
5
8
6
7
1
4
16
18
18
13
26
9
8
84
118
47
18
85
103
106
100
103
104
109
111
111
112
111
112
112
112
112
112
111
111
111
111
111
111
111
111
112
112
113
113
113
113
113
113
113
114
114
114
114
114
114
115
115
115
115
115
115
115
116
116
116
116
116
116
116
116
117
82
17
24
23
88
118
118
118
118
110
78
71
72
72
71
71
70
71
70
69
70
70
70
70
69
69
69
68
68
68
68
68
68
68
67
68
67
67
67
66
66
65
64
63
62
62
62
61
61
60
60
59
59
58
58
58
57
57
57
57
57
56
55
55
55
55
55
54
54
54
55
54
54
53
53
53
52
52
52
52
52
51
51
51
51
51
51
51
59
72
82
82
83
84
85
85
86
86
86
87
87
87
88
88
88
89
89
89
90
91
91
91
92
92
92
93
93
93
94
94
95
95
95
95
96
96
96
96
95
94
93
93
93
94
94
94
94
95
88
78
96
82
24
3
2
9
4
2
6
4
3
12
20
23
18
10
6
7
24
36
40
25
19
13
8
7
4
2
2
2
1
4
3
2
2
4
4
8
36
62
83
96
98
98
98
99
98
86
71
55
37
10
17
87
37
7
6
30
50
99
100
100
100
100
100
100
100
61
89
81
57
76
56
7
3
2
3
2
2
4
3
3
3
3
2
2
3
3
3
3
3
2
1
2
2
2
2
2
5
8
32
59
58
8
7
24
26
26
36
32
61
69
51
22
10
5
5
6
4
4
13
19
23
22
19
17
17
16
16
14
12
9
6
3
2
3
2
3
2
2
2
3
2
2
3
2
4
4
3
4
4
4
4
4
5
3
4
3
5
4
2
5
3
4
2
4
3
4
3
2
3
3
2
4
3
2
3
3
3
4
4
4
4
4
3
4
4
4
8
9
7
8
5
1
9
18
19
18
23
20
7
25
107
85
17
28
46
61
67
79
60
87
107
111
111
111
111
111
111
111
111
111
111
111
111
111
111
111
111
111
111
112
112
112
112
112
113
113
112
113
113
113
114
114
114
114
114
114
114
114
114
115
115
115
115
115
115
115
115
116
91
17
22
20
82
117
117
117
115
80
71
71
71
70
70
70
70
69
69
69
68
69
68
68
68
68
68
68
68
68
68
68
68
67
67
66
67
65
65
65
65
64
63
62
62
61
61
61
60
59
59
58
58
58
58
58
57
57
58
57
57
56
55
55
55
55
55
54
54
54
54
54
53
53
53
53
52
52
53
52
52
51
52
51
51
50
50
50
60
63
77
79
80
81
81
82
82
83
83
84
85
87
87
87
88
88
88
89
89
90
90
91
91
91
91
92
92
93
93
93
94
93
92
92
91
92
91
92
91
91
92
92
92
93
93
93
93
94
93
74
84
93
72
40
29
16
22
21
13
19
36
42
41
49
44
31
31
29
19
16
10
6
6
11
5
3
31
31
16
3
4
4
6
21
38
57
74
88
96
97
98
98
98
98
98
98
98
98
98
98
86
16
32
83
11
13
4
59
56
99
99
100
99
100
100
100
100
97
98
100
98
72
100
91
85
60
2
2
4
2
2
2
3
2
1
1
2
2
2
2
1
2
4
10
24
38
56
68
75
83
79
60
21
3
14
29
30
23
17
20
10
8
8
6
4
3
10
17
23
23
22
18
18
17
15
14
12
10
7
4
2
2
3
2
3
3
2
2
3
2
3
3
3
3
3
3
3
3
3
3
4
4
5
3
4
4
3
4
7
4
3
3
4
4
3
3
4
3
3
2
2
3
3
4
4
2
3
3
3
4
4
4
4
4
3
4
3
4
15
11
13
10
10
1
1
14
22
25
21
26
13
8
62
103
36
20
64
69
53
38
75
82
75
92
108
111
111
111
111
111
111
111
111
111
111
111
111
111
111
111
111
111
112
112
112
112
112
112
113
113
113
113
113
113
113
113
113
113
114
114
114
114
114
115
115
115
115
115
115
115
98
20
21
21
84
116
117
117
98
71
70
70
70
70
70
69
69
68
69
69
68
68
68
68
68
68
67
67
67
67
67
66
66
66
67
67
65
65
64
64
64
64
63
62
61
61
60
59
59
59
59
59
58
58
58
57
57
57
57
57
56
56
55
55
55
55
54
55
55
54
54
54
53
53
53
53
53
52
52
52
51
51
51
50
50
51
50
50
61
62
67
72
72
74
75
76
76
76
77
77
78
79
80
80
82
83
83
84
84
84
85
85
85
85
85
85
85
85
86
86
86
86
86
87
88
88
88
89
89
89
90
91
91
91
91
91
92
92
92
92
68
75
30
23
9
41
27
28
18
23
32
40
40
36
27
14
10
8
12
14
10
10
7
10
15
2
43
91
66
9
49
49
54
64
77
85
95
98
97
98
98
98
98
98
98
98
98
98
99
98
76
43
50
94
29
9
4
65
60
99
99
99
100
100
100
100
100
100
100
100
100
88
80
100
100
97
34
2
14
14
1
4
2
2
2
8
8
16
28
17
39
63
73
83
91
96
96
96
82
40
6
5
5
35
30
21
25
27
5
4
4
5
6
15
19
23
23
21
19
17
16
15
15
12
8
5
3
3
3
2
3
3
2
2
3
2
3
2
2
3
3
4
3
4
3
3
3
3
4
4
4
4
5
3
3
3
2
2
2
3
2
3
2
3
3
3
2
3
3
2
3
4
4
4
4
3
3
4
4
3
4
3
4
5
4
4
4
7
18
17
22
16
16
3
1
4
18
24
28
26
23
14
11
79
61
16
30
54
58
58
59
55
57
92
100
110
111
111
111
110
110
111
111
111
111
111
110
111
110
110
110
111
111
111
112
112
112
112
112
112
112
112
109
110
113
113
113
113
113
113
113
104
114
114
114
114
115
114
115
114
104
24
19
21
82
115
116
114
82
70
70
69
70
69
69
69
69
69
68
68
68
68
68
68
68
67
67
67
66
66
66
66
66
66
66
65
64
64
64
65
64
63
63
62
61
61
60
60
59
59
59
59
58
58
58
58
57
57
56
57
56
56
56
55
55
55
55
55
55
55
54
54
54
53
53
53
53
53
52
52
52
52
51
51
51
50
51
50
62
65
64
62
62
64
64
63
66
65
64
64
61
63
64
64
66
67
69
67
67
71
68
70
69
71
69
72
72
70
73
74
72
72
74
75
74
73
74
75
78
77
77
77
77
77
78
78
76
78
79
79
74
21
7
2
1
2
28
11
5
26
16
17
28
27
16
11
11
7
20
21
8
8
2
5
4
6
62
90
57
18
51
59
59
62
67
83
87
86
86
87
88
88
87
89
88
87
88
89
89
89
65
42
58
88
51
9
4
44
63
90
90
91
91
92
92
92
92
91
92
92
93
93
92
94
94
94
73
3
3
41
62
1
22
54
58
69
78
85
89
91
84
79
83
91
95
96
96
57
7
5
15
18
21
20
18
14
15
18
3
5
13
18
21
20
16
17
17
16
15
14
11
6
3
2
1
3
3
3
3
2
3
2
3
3
4
3
2
2
2
2
3
4
4
3
4
3
3
4
3
3
4
4
3
4
3
4
3
3
3
4
4
3
2
3
1
1
2
3
2
2
4
4
4
4
4
3
4
3
4
4
3
3
4
5
4
4
5
13
16
20
23
19
20
9
2
1
9
19
24
27
26
25
9
22
47
18
20
48
54
57
59
59
56
71
78
108
109
109
110
110
110
110
110
110
110
110
110
110
110
110
110
110
110
110
111
111
111
111
112
111
109
89
94
81
92
93
94
109
110
103
91
107
113
111
113
114
114
111
114
114
107
30
16
22
76
110
110
107
82
72
72
73
73
73
73
72
72
72
71
71
71
71
71
71
72
71
71
71
70
70
70
70
70
69
70
69
68
68
68
68
67
66
67
66
65
65
65
65
64
64
64
64
63
63
63
63
62
62
62
62
62
61
61
61
61
61
62
61
61
60
61
61
60
60
60
61
60
60
60
60
60
59
59
59
59
60
58
59
67
67
68
66
63
64
67
69
68
65
66
67
67
70
68
69
71
72
71
71
71
72
73
75
74
74
72
71
73
72
77
79
78
75
75
76
77
76
76
77
77
78
79
78
80
78
76
77
76
76
77
81
79
50
9
3
1
1
2
30
3
15
13
5
49
53
11
4
1
1
1
5
4
7
4
2
3
3
62
85
41
33
74
76
82
81
84
86
85
85
84
86
84
84
82
86
86
85
88
85
85
79
64
28
67
82
52
28
7
36
70
90
89
91
91
87
87
89
90
90
92
90
91
93
91
89
90
90
91
61
32
40
48
4
38
102
99
96
100
103
100
100
96
94
94
97
93
69
30
17
20
19
15
14
13
9
8
10
29
27
12
14
13
14
15
16
16
15
11
8
5
3
2
2
2
2
3
2
2
2
3
2
3
2
3
4
3
3
3
3
5
4
4
6
3
4
4
3
5
3
3
3
3
3
3
4
3
3
3
3
4
3
2
1
3
2
3
2
3
3
2
2
3
4
4
4
3
4
3
3
4
4
3
4
3
4
4
4
4
13
15
25
25
17
21
17
3
2
2
13
21
27
27
22
26
9
33
34
16
36
59
62
63
64
78
105
108
102
105
105
104
105
104
105
104
104
103
104
103
105
105
105
105
108
106
107
106
103
100
101
100
98
89
60
67
58
63
64
65
64
60
51
90
107
107
106
107
110
105
106
107
108
102
33
16
23
75
106
107
110
108
108
109
104
103
106
105
106
105
107
107
110
106
104
104
107
107
103
108
105
105
107
105
107
103
108
105
104
107
103
105
106
104
104
105
103
101
103
102
100
105
101
99
99
95
98
97
97
99
100
101
97
98
98
98
97
97
100
100
101
99
96
100
96
94
97
96
95
93
94
95
94
95
95
96
95
92
93
90
92
73
71
69
72
73
70
75
73
72
72
69
66
73
75
74
76
77
77
72
74
78
78
77
79
78
79
76
79
80
81
81
81
81
81
81
82
83
82
82
80
81
84
86
86
84
86
83
84
85
83
84
84
84
61
12
3
1
0
1
7
2
12
15
6
3
7
7
4
1
1
1
4
8
12
8
4
5
3
67
86
24
40
89
81
91
88
86
79
72
64
54
49
45
44
43
49
53
60
67
73
80
55
18
18
24
26
66
51
9
52
77
89
90
91
90
87
89
96
96
95
92
93
95
98
95
93
93
90
91
96
97
92
81
41
12
94
110
88
90
91
96
89
89
96
96
70
34
20
20
14
11
10
9
6
8
16
21
22
18
33
14
11
11
11
11
9
5
3
2
2
2
2
3
2
2
2
2
3
3
3
2
2
3
3
3
3
3
5
4
5
4
4
4
6
4
3
4
4
4
3
4
4
4
3
4
4
3
3
3
2
2
2
3
2
2
2
2
3
4
1
2
2
4
4
4
4
4
3
4
3
4
4
3
4
4
4
2
4
6
11
19
26
27
21
14
20
5
1
2
3
16
22
28
26
27
19
10
81
28
21
81
96
100
102
105
112
114
110
110
106
107
105
106
108
112
109
107
104
102
107
108
110
110
112
106
107
109
108
107
112
112
110
111
105
108
103
109
107
108
108
114
110
112
114
110
114
116
115
112
113
111
113
102
34
20
21
85
104
113
111
117
116
113
111
114
116
112
112
116
117
118
111
115
113
111
119
118
122
123
125
123
121
118
114
118
115
117
122
119
116
114
115
116
108
111
110
114
113
114
110
115
118
113
110
107
105
107
102
109
108
111
106
103
102
107
107
102
103
105
109
102
102
100
97
99
96
98
100
99
102
102
105
99
99
101
105
104
101
99
96
80
76
78
77
79
79
78
77
80
76
75
70
68
77
78
79
79
82
82
82
81
85
81
77
81
85
82
84
84
84
83
83
84
88
87
89
88
92
90
88
87
90
90
89
92
91
94
93
91
88
95
90
89
73
8
2
1
1
1
1
3
12
13
2
2
5
8
7
4
2
1
2
5
8
9
2
2
3
63
84
46
43
92
88
85
44
26
43
54
48
27
26
38
16
13
13
35
53
47
24
14
5
16
16
5
2
17
33
6
63
85
93
93
94
92
91
89
95
103
101
101
100
98
97
98
98
97
98
97
102
100
105
102
67
12
70
107
93
84
92
96
93
85
60
26
18
14
16
10
6
7
14
19
22
23
23
19
17
15
34
15
7
5
4
2
2
2
2
3
3
2
3
2
2
3
3
2
2
2
3
3
3
3
4
4
3
4
5
3
5
4
4
4
4
3
4
3
3
2
3
3
3
3
4
4
3
2
2
2
5
6
4
4
3
3
2
1
2
3
2
2
3
3
4
4
4
3
4
2
3
4
4
4
4
4
4
3
4
8
10
20
25
25
15
13
20
11
2
2
2
7
17
22
23
26
32
9
47
78
19
60
117
117
119
126
124
124
124
128
126
125
120
116
119
125
123
112
110
115
113
115
118
118
113
117
118
121
125
122
126
119
121
124
114
121
129
120
124
122
125
122
124
123
119
122
131
131
124
123
128
127
128
119
35
25
20
100
132
130
132
120
129
124
125
129
136
133
125
128
129
133
139
133
127
132
132
130
140
140
136
147
144
135
133
133
131
135
127
126
127
117
121
120
126
126
122
124
122
121
122
125
115
122
121
115
118
120
123
122
126
123
117
114
116
121
117
105
116
118
126
119
123
126
121
114
117
115
114
114
108
106
116
110
116
106
110
114
118
117
116
72
73
72
81
79
80
76
76
76
79
80
81
77
78
79
80
79
80
79
77
81
79
86
84
86
85
83
85
83
85
86
87
84
88
84
89
91
90
89
92
89
89
89
87
89
89
88
85
85
87
88
89
92
77
5
3
2
1
1
1
5
12
13
2
3
5
7
8
5
3
4
15
15
11
4
18
23
12
53
82
42
41
88
93
92
49
19
37
44
47
52
44
9
3
4
11
13
36
55
5
2
2
19
12
2
1
2
6
8
79
92
100
102
99
99
106
104
102
105
107
106
105
98
102
105
103
107
106
106
106
98
99
107
69
16
50
103
105
90
87
70
46
17
14
14
9
6
9
18
23
22
21
20
19
15
16
15
12
8
30
20
5
2
3
2
2
3
2
2
2
2
2
3
3
1
2
3
4
2
3
2
3
4
4
4
4
5
4
4
4
3
2
3
2
3
3
2
4
4
4
4
3
4
3
3
3
2
2
5
8
6
7
9
4
3
2
3
2
1
2
2
3
3
4
3
4
3
4
3
4
5
3
4
4
4
3
3
5
10
11
16
24
24
21
10
19
16
5
2
2
1
8
18
19
26
30
29
8
85
31
27
108
129
127
124
117
128
119
122
131
131
135
123
126
129
135
134
135
130
118
124
130
134
137
138
133
133
135
130
134
120
133
134
133
134
137
141
141
138
128
119
120
134
137
128
140
140
140
135
129
142
139
121
36
29
22
108
134
136
139
145
139
129
136
136
143
139
140
132
135
129
131
135
136
135
142
144
145
140
135
138
144
146
140
138
137
135
129
127
136
129
131
131
132
130
130
126
123
128
132
129
130
135
140
132
135
129
127
125
127
124
125
114
126
131
128
126
126
129
124
124
123
130
128
129
130
121
112
124
122
119
122
124
114
109
123
127
122
122
119
73
72
72
76
75
77
76
76
77
80
78
83
81
79
80
80
80
83
84
84
87
82
85
84
86
84
86
90
86
86
85
87
89
87
87
89
92
86
83
91
91
90
89
84
87
91
88
86
85
87
90
93
87
64
8
13
2
1
1
1
2
11
12
2
2
2
4
7
11
12
44
10
8
17
5
11
11
10
47
83
33
54
96
96
99
95
87
81
74
63
58
55
52
31
32
53
56
61
46
5
7
2
23
7
2
2
1
2
8
79
94
102
104
103
98
98
104
103
106
105
105
105
108
111
110
99
99
105
103
103
100
97
101
67
51
17
84
73
42
17
15
13
11
7
12
21
25
25
23
20
18
18
18
15
9
7
2
2
2
24
29
6
2
2
2
2
2
3
1
2
2
3
2
4
3
3
3
3
2
2
3
4
3
5
4
4
4
4
3
3
3
3
3
3
3
2
3
4
4
2
3
4
3
4
6
7
5
3
6
3
2
3
8
5
2
3
3
3
2
3
2
3
2
3
4
4
4
3
4
4
4
5
4
4
3
3
3
8
11
13
13
25
24
17
10
14
21
9
3
2
2
1
13
18
20
32
35
12
20
65
20
67
125
131
121
122
134
130
127
126
126
131
126
127
131
130
132
133
123
126
121
125
135
130
131
127
129
122
129
126
126
131
129
132
131
130
132
134
131
138
134
136
140
146
133
127
123
134
143
137
139
140
130
39
32
23
107
133
139
146
144
133
134
133
137
141
139
148
143
137
137
143
150
149
132
146
144
137
126
127
137
143
135
137
128
137
134
127
130
142
135
136
135
142
142
135
128
127
137
135
139
131
123
129
137
141
140
139
135
136
131
134
128
133
129
133
135
129
132
127
125
123
134
140
137
127
128
126
120
124
126
123
133
128
127
129
126
133
123
127
80
77
83
84
80
81
79
79
79
82
82
81
83
82
79
79
84
86
88
87
87
87
85
85
79
86
83
86
91
87
90
96
93
90
85
86
93
93
93
93
93
92
92
92
89
92
94
92
96
98
99
94
92
86
19
8
2
2
1
1
3
11
6
2
4
12
36
30
46
10
11
4
7
5
2
10
7
6
37
73
22
26
97
99
97
100
100
94
98
95
100
104
98
65
63
100
96
96
61
4
6
2
27
4
0
1
1
2
12
80
93
104
105
108
105
106
103
105
102
103
103
105
109
107
107
103
100
108
106
101
105
103
100
56
35
26
18
15
14
10
7
15
22
26
25
23
22
20
18
16
12
10
6
2
1
2
2
2
2
10
32
8
3
2
2
2
3
3
2
3
3
3
4
4
4
4
4
4
4
4
4
4
4
4
4
3
3
3
4
4
3
3
3
3
3
3
3
3
3
2
3
3
4
5
4
4
8
5
6
4
3
3
8
6
3
3
3
3
2
1
2
2
3
4
4
4
4
4
4
3
4
5
5
3
4
4
4
9
14
12
10
25
23
15
13
14
24
16
5
2
2
1
9
17
18
24
34
31
8
39
22
32
112
130
131
130
133
130
142
138
132
135
136
131
132
126
127
128
128
133
136
133
128
137
141
141
129
132
135
135
133
130
130
126
130
133
132
125
125
132
135
136
146
142
137
139
140
132
133
133
133
136
128
43
33
23
106
130
126
126
134
135
130
130
138
136
132
124
137
140
143
146
143
141
142
138
141
134
139
134
145
144
137
130
140
140
136
124
122
141
140
140
140
142
140
131
130
121
124
133
140
131
134
137
134
129
134
133
123
129
128
130
141
139
141
139
130
131
126
126
136
137
135
124
121
130
125
120
125
123
129
122
127
121
118
116
114
120
126
128
82
84
85
81
84
83
75
79
85
85
85
84
82
81
79
81
82
83
82
85
86
88
88
87
88
86
86
88
89
92
90
93
91
89
88
87
92
95
94
93
97
94
91
88
95
98
98
96
95
93
94
95
95
89
34
1
1
4
2
0
3
10
7
18
31
45
33
10
5
4
2
3
14
5
4
6
3
5
21
73
13
50
72
89
99
107
105
100
101
101
100
104
108
75
70
107
102
103
74
4
7
8
20
4
2
2
1
3
13
77
100
104
109
117
114
111
112
110
106
107
107
108
107
109
106
109
112
114
110
104
90
69
36
19
18
13
9
7
15
21
26
25
24
22
21
18
14
10
5
2
2
2
2
2
2
2
2
3
3
3
33
7
4
2
3
2
2
3
3
4
4
4
4
5
3
4
4
4
4
3
4
4
3
3
4
3
3
3
3
4
2
3
4
4
4
3
3
3
2
6
6
5
5
5
2
3
5
9
4
3
3
7
7
4
3
3
3
3
3
2
2
2
4
4
4
3
3
4
4
4
4
4
3
4
3
5
10
21
15
10
16
27
23
17
17
13
23
20
7
4
5
7
20
19
17
19
26
39
20
9
16
21
73
136
137
136
135
141
139
141
141
143
141
140
137
128
130
131
130
133
134
128
129
137
134
134
132
132
135
138
142
143
133
135
132
137
135
142
141
148
141
139
143
135
130
141
149
143
141
143
138
142
137
61
33
26
138
145
143
147
151
141
141
144
144
138
131
130
135
140
136
146
144
143
145
146
155
151
149
147
146
138
143
140
140
145
137
133
130
142
133
145
142
144
147
131
132
123
134
136
137
128
128
128
117
128
134
125
118
126
130
140
130
137
133
137
143
136
136
142
146
139
132
139
133
130
126
136
140
142
135
132
136
128
123
122
120
123
126
132
79
78
78
78
77
78
71
74
78
77
83
79
82
83
85
86
86
86
86
85
85
89
91
89
93
87
85
92
97
95
92
94
98
95
91
92
92
92
89
86
91
92
94
93
91
88
85
88
93
93
95
91
79
39
4
2
2
2
1
3
10
9
22
23
5
4
3
4
3
4
4
4
6
9
4
3
2
2
41
76
11
65
98
89
83
103
105
107
109
106
97
103
103
72
63
101
100
103
70
6
4
3
6
5
2
2
1
3
11
72
102
109
114
111
111
109
110
113
113
112
112
110
107
111
115
117
106
85
64
30
17
15
11
9
12
18
23
25
22
21
20
18
17
13
9
5
2
2
2
2
2
1
3
3
2
2
3
3
3
3
32
11
7
3
3
3
3
3
4
4
4
4
4
4
5
4
3
3
3
4
3
3
3
3
4
3
4
2
3
3
4
3
4
4
4
4
2
3
3
4
6
6
4
7
3
3
3
7
6
2
2
7
4
4
2
2
2
2
2
3
3
3
4
4
4
4
3
4
3
4
4
5
3
3
3
5
17
24
17
14
16
21
17
24
19
13
19
21
14
9
10
11
20
22
22
16
18
27
39
10
12
15
33
111
129
133
138
134
134
139
137
136
135
135
131
128
135
137
136
134
131
132
126
129
125
124
135
134
140
134
132
138
140
135
143
136
129
133
130
125
134
142
144
141
147
147
147
146
139
135
145
146
126
45
36
38
142
142
137
139
149
148
144
151
148
145
140
136
138
137
143
149
148
153
149
145
152
158
162
167
170
165
161
148
147
151
146
139
142
132
128
129
140
154
156
152
150
143
141
144
149
149
140
133
130
133
141
134
142
143
144
146
145
140
140
139
140
133
137
143
140
140
137
146
140
134
142
142
144
143
139
136
135
126
132
135
128
128
129
130
76
80
79
78
77
78
78
77
78
78
76
78
82
85
76
78
85
87
90
87
82
84
86
83
88
87
90
90
92
84
81
89
90
90
92
92
89
88
91
94
89
88
89
94
94
88
81
88
90
87
79
59
31
28
60
5
2
3
12
25
18
7
4
2
4
15
12
4
1
3
6
4
2
10
6
2
6
22
83
71
8
44
85
105
106
107
104
103
106
103
101
105
101
69
64
102
105
97
23
7
3
7
9
4
2
2
2
5
8
64
100
109
110
107
109
108
113
114
111
111
110
105
105
97
82
57
26
16
17
13
9
14
21
24
24
21
20
19
17
15
11
6
2
2
2
2
1
2
3
2
1
1
2
2
3
4
2
2
2
3
28
22
7
5
4
4
3
3
4
4
4
4
5
4
4
4
4
4
3
1
3
3
3
3
2
3
3
4
4
3
4
4
2
3
9
5
3
3
4
2
3
6
4
6
5
2
2
8
11
2
3
4
7
7
10
4
2
2
3
2
3
4
4
4
4
4
4
4
4
4
5
4
4
4
4
5
20
21
20
14
17
27
21
25
15
16
8
26
20
9
12
11
22
23
26
23
16
17
29
25
8
14
23
81
129
128
134
138
137
137
138
144
134
139
138
141
137
144
143
138
126
129
133
145
148
143
143
146
148
137
130
121
129
147
143
142
143
139
130
141
140
144
137
139
148
146
130
128
140
150
152
144
66
32
35
50
149
156
151
148
138
143
145
149
152
149
144
141
147
143
134
144
143
151
146
146
141
144
149
151
158
154
149
139
145
147
149
152
146
146
146
141
132
135
149
151
150
150
156
156
162
152
153
144
146
146
140
138
143
142
143
141
141
143
138
144
136
133
134
144
140
139
130
131
131
131
127
134
134
132
130
134
134
126
123
134
132
135
136
130
78
77
83
83
82
85
85
85
85
80
81
82
83
86
86
81
84
84
87
89
87
84
84
86
89
89
89
87
89
89
88
90
88
88
86
89
95
95
95
95
92
93
90
92
91
97
97
86
85
60
30
21
24
57
56
13
17
7
6
3
9
8
6
4
5
12
13
6
4
3
5
7
7
5
7
5
7
5
36
25
6
11
29
96
101
99
99
102
101
105
104
106
105
69
66
105
106
103
47
9
1
8
8
1
2
1
1
7
5
76
115
115
113
117
111
107
108
113
119
115
100
78
44
21
19
20
15
12
15
21
22
22
21
20
19
18
16
11
5
2
2
2
2
1
1
2
2
2
4
2
2
2
2
3
2
3
4
3
3
3
18
31
4
7
3
4
4
4
4
4
4
4
4
4
4
4
3
3
3
1
2
3
3
4
3
4
2
4
3
2
3
3
2
3
8
5
5
3
2
3
3
5
7
3
5
3
3
4
10
4
5
9
9
8
4
3
3
3
2
3
3
4
4
2
4
4
5
4
4
3
5
3
4
3
4
10
15
26
30
12
18
23
17
19
16
18
7
25
25
15
15
14
21
29
25
34
21
18
18
23
15
10
15
39
127
146
144
142
151
145
146
144
149
152
152
153
151
155
153
153
145
147
144
142
142
144
150
149
153
154
147
140
145
149
153
150
152
153
151
150
155
155
152
145
141
156
154
155
158
144
132
74
37
33
34
62
149
151
151
150
149
142
144
146
147
155
151
149
146
143
140
144
148
153
155
162
160
157
153
158
160
160
158
158
161
164
156
159
146
148
145
142
133
136
139
146
144
146
147
146
136
133
139
145
145
147
148
145
139
139
142
137
139
136
133
136
130
138
134
133
138
143
148
134
130
135
125
124
132
128
121
125
134
134
127
124
125
123
124
126
84
83
83
82
84
85
83
84
86
84
86
86
87
88
83
79
73
78
86
88
87
85
86
89
92
88
86
93
93
90
89
91
96
93
90
87
90
89
90
94
96
98
96
99
97
98
97
94
56
13
3
78
76
73
53
24
8
2
1
1
8
8
7
2
3
9
10
3
4
5
7
8
8
8
9
9
5
1
2
5
14
30
66
105
104
103
106
104
105
107
105
102
98
63
59
97
97
101
71
5
16
30
20
2
2
1
1
11
4
28
59
102
110
105
101
103
104
91
70
36
19
17
18
14
16
19
23
23
21
20
18
18
17
12
11
6
3
2
2
2
3
3
2
2
2
1
3
3
2
2
2
2
2
2
2
3
4
3
4
4
10
37
4
7
5
3
4
4
4
4
4
5
4
4
3
3
2
3
3
3
2
3
3
3
3
3
2
3
3
4
2
3
3
2
8
4
5
4
2
2
3
3
6
4
5
5
5
5
5
4
2
4
4
4
3
2
3
2
2
3
3
5
4
4
4
5
5
4
4
4
5
4
4
4
4
14
20
21
21
16
19
18
19
20
21
20
5
13
29
22
17
19
18
33
25
31
37
20
18
18
22
15
11
25
104
150
136
139
148
150
151
156
159
154
156
160
146
145
152
149
143
142
141
141
135
139
139
135
143
139
136
139
145
148
151
151
155
157
162
153
153
157
154
155
150
161
156
155
157
150
85
42
37
33
33
86
152
158
158
162
164
160
159
155
161
163
152
144
144
142
146
155
160
166
169
170
166
171
169
163
163
173
176
167
168
142
143
138
133
130
139
149
143
142
145
150
147
155
157
152
149
147
144
141
144
144
145
135
139
141
140
132
128
133
140
139
137
147
145
137
130
122
132
135
127
124
135
136
144
137
122
127
130
132
125
122
115
117
118
125
79
84
86
88
85
85
77
78
85
82
82
82
81
85
90
90
88
91
93
92
90
87
92
94
93
93
94
96
98
95
92
93
98
101
97
99
100
96
98
102
100
92
93
98
99
101
102
79
19
4
2
30
40
11
7
2
1
2
1
1
8
9
7
2
1
1
1
2
2
2
4
4
7
10
3
3
2
2
14
17
41
99
105
104
102
98
100
106
111
101
101
89
72
57
47
50
33
28
13
1
4
9
12
2
1
2
2
6
5
9
14
95
109
103
80
54
27
19
20
15
15
16
20
24
22
22
19
18
17
16
13
10
5
2
2
2
2
3
2
2
2
4
2
5
2
3
2
2
3
2
3
2
2
2
3
3
4
3
3
6
7
34
7
5
7
4
6
4
4
3
3
3
2
3
3
3
3
2
3
3
3
3
2
3
3
2
2
2
2
3
2
4
2
2
6
7
7
6
5
3
2
2
5
6
3
5
6
3
4
2
2
3
2
2
3
3
3
3
3
4
4
6
3
4
4
4
5
4
4
4
4
4
4
4
6
20
17
20
19
21
17
24
24
25
32
18
4
6
30
29
20
31
20
32
34
26
37
25
19
17
18
21
17
14
50
143
146
131
128
129
131
131
131
134
138
147
141
134
138
134
128
141
142
135
137
137
143
137
151
143
142
150
154
150
142
141
142
157
155
155
155
157
150
146
149
144
143
145
135
85
52
40
38
35
36
115
145
141
138
138
150
153
155
157
156
151
150
153
162
159
155
146
146
153
160
150
154
160
163
158
150
164
171
167
163
148
147
147
139
130
128
124
137
141
148
145
139
151
155
151
138
141
146
151
146
145
139
140
142
138
124
124
136
139
144
138
141
128
125
126
124
139
146
133
145
146
136
135
137
136
134
137
131
121
132
133
131
129
127
132
83
81
81
81
84
84
86
87
86
86
84
86
85
91
95
95
94
93
92
89
97
96
94
89
94
97
95
91
91
97
98
98
99
101
96
100
102
100
97
97
100
98
100
100
95
93
93
57
8
3
2
1
1
2
2
3
2
1
1
0
5
11
6
1
1
1
1
1
1
1
3
5
2
2
2
11
76
82
83
48
69
103
94
97
93
78
74
68
53
37
36
31
16
17
12
5
2
12
5
1
14
2
2
2
2
1
1
0
1
11
24
54
38
21
19
18
16
18
20
22
22
21
20
19
18
17
15
11
6
4
2
1
2
1
2
2
2
2
3
3
3
4
3
3
2
3
3
4
3
4
3
2
2
2
2
3
3
3
4
6
6
29
21
5
7
4
4
4
3
3
4
3
3
3
2
4
7
7
6
8
6
2
3
2
3
2
3
2
2
2
4
3
3
3
5
7
4
3
6
5
2
3
4
8
3
2
3
3
3
3
3
3
2
3
4
3
2
2
2
3
4
5
4
4
3
5
4
4
5
5
4
4
4
4
13
24
22
15
21
17
17
29
24
31
35
6
4
5
24
33
26
29
28
28
38
34
30
36
21
20
20
21
23
21
26
103
133
136
139
137
145
141
142
142
137
140
137
139
143
138
131
131
140
138
135
136
137
142
144
129
125
134
141
136
130
128
131
137
139
143
144
151
142
136
140
141
141
138
127
67
49
39
39
38
83
141
149
137
141
148
133
144
141
150
138
124
133
146
147
147
142
148
138
142
143
150
151
150
153
134
140
142
153
146
148
151
149
146
141
133
133
129
140
142
141
136
139
137
138
143
144
143
140
143
136
146
133
132
138
132
122
127
131
133
129
125
134
135
126
125
126
126
125
133
140
137
143
135
146
137
138
140
132
131
133
123
127
131
135
139
79
82
83
80
80
85
88
89
89
92
89
85
87
87
87
91
89
93
91
90
88
89
87
88
93
93
94
93
92
94
97
96
100
98
98
95
98
101
97
92
89
96
97
95
95
94
88
35
4
2
18
1
1
2
2
1
1
0
1
0
7
11
6
1
2
1
1
1
2
0
2
4
4
3
3
25
73
59
64
39
46
46
27
33
27
14
18
10
6
9
5
1
1
1
1
1
2
10
2
13
68
2
3
2
2
6
12
15
19
21
19
20
19
21
22
24
25
21
20
17
18
18
17
13
10
4
1
2
2
2
2
2
2
3
2
3
2
4
2
3
4
3
2
3
3
5
4
4
4
4
3
3
2
3
3
7
6
3
4
6
5
19
31
4
4
6
2
3
2
3
3
4
3
4
3
6
8
7
7
5
6
2
2
2
2
3
3
3
3
3
3
3
3
3
5
6
2
2
4
5
3
2
3
3
2
2
3
3
2
3
2
2
2
2
3
2
1
2
3
3
4
5
4
3
4
4
4
4
5
4
4
4
3
4
25
19
12
16
19
25
23
29
27
44
20
6
6
10
81
36
30
27
34
28
38
37
36
39
34
24
22
21
23
25
28
58
133
142
138
135
136
139
143
148
143
133
127
130
134
136
140
132
137
139
139
135
134
135
139
144
142
140
145
139
149
142
143
144
143
135
137
143
138
146
151
156
153
151
145
133
67
39
40
58
129
140
148
151
141
150
149
149
143
149
145
151
153
155
156
155
156
150
150
145
144
149
153
147
137
135
132
136
148
139
142
149
131
126
129
143
140
140
119
128
125
124
141
146
145
149
152
136
125
132
141
139
140
135
136
137
136
146
141
145
147
150
143
139
138
132
135
123
119
121
117
116
125
129
123
119
124
127
126
124
117
119
124
121
129
131
81
81
83
87
87
90
89
90
88
93
92
94
96
97
97
96
94
92
91
84
90
95
96
96
96
98
99
100
101
103
100
96
98
98
96
99
102
102
100
95
88
94
99
99
102
102
86
19
4
2
5
2
1
2
3
18
2
1
1
0
9
10
6
1
1
1
3
7
20
28
26
39
36
32
39
32
23
10
7
4
2
1
6
4
3
1
2
1
0
1
1
1
0
1
1
1
5
13
2
32
68
13
14
15
20
17
16
16
18
21
24
25
27
24
22
20
19
17
14
11
9
5
3
2
2
2
3
2
3
3
4
3
3
2
4
3
3
4
3
3
2
4
3
4
3
4
4
4
5
4
4
2
2
2
4
4
2
2
3
7
5
6
37
3
4
6
3
2
2
4
5
4
4
4
3
5
1
2
2
6
9
6
2
2
2
3
4
3
4
3
3
2
2
1
4
9
2
3
3
2
2
2
2
3
2
2
3
3
3
3
3
3
3
3
2
2
3
4
4
4
3
4
4
2
4
4
5
4
5
4
4
3
4
11
30
14
13
17
33
29
36
26
39
27
7
8
36
115
130
73
22
25
37
34
38
38
36
35
59
40
23
27
21
23
25
36
107
133
123
134
140
136
140
133
137
141
142
138
138
141
138
127
126
129
131
139
140
129
130
130
130
136
139
139
138
130
139
149
137
140
141
140
143
144
141
146
145
141
140
137
118
40
45
127
146
149
147
147
142
146
149
153
147
161
161
152
144
133
149
148
150
145
149
141
135
144
143
145
154
153
154
145
134
139
145
141
133
136
141
141
138
130
117
114
138
142
128
125
123
126
134
129
125
123
136
133
130
133
128
115
124
131
138
140
135
133
137
134
140
138
134
133
129
120
124
127
127
126
125
128
137
138
126
122
122
111
112
111
111
108
79
76
73
84
82
85
87
87
84
85
78
71
77
86
88
91
90
88
94
89
94
96
96
92
92
90
92
96
96
90
96
94
95
94
89
92
94
101
102
103
103
108
109
98
92
95
69
16
4
2
2
4
4
1
1
1
1
1
1
3
22
22
32
36
29
39
39
27
32
26
16
13
6
3
2
0
0
1
0
0
2
1
4
3
3
2
1
1
1
2
0
0
4
6
4
4
11
20
16
24
25
16
19
19
15
17
22
22
26
25
23
21
21
20
18
13
10
7
3
2
2
2
2
2
3
2
3
3
2
4
3
3
3
2
4
2
2
2
4
4
3
3
3
3
3
3
3
3
3
3
2
5
3
3
3
5
5
2
4
6
3
3
36
9
3
5
3
3
5
5
5
6
6
6
4
5
2
2
3
6
13
10
3
2
3
3
5
3
3
2
3
4
3
3
2
2
3
3
3
3
2
3
3
3
2
2
3
3
3
4
4
4
3
3
3
3
2
3
3
5
4
5
4
3
4
4
4
4
4
5
4
2
4
12
29
18
12
19
35
35
28
35
38
6
16
88
129
135
138
120
96
26
36
37
41
37
32
16
27
82
23
24
30
25
25
27
44
104
124
127
131
112
131
133
136
131
130
133
134
137
136
129
122
131
130
138
141
135
137
132
133
132
132
121
115
127
144
150
142
149
137
134
134
136
137
134
144
145
145
140
106
80
100
117
126
139
143
135
130
126
136
143
147
152
146
140
142
133
122
134
145
143
146
142
140
145
140
143
157
154
153
140
140
139
142
156
148
124
122
134
137
134
130
127
136
141
135
132
139
131
131
132
135
132
122
131
137
134
127
126
121
125
145
137
128
128
116
115
130
134
125
123
128
125
118
122
125
128
132
131
138
129
125
119
125
120
121
128
127
125
84
83
83
84
82
79
78
86
83
85
81
81
85
84
88
91
90
90
85
78
81
86
94
95
95
94
94
95
95
92
84
84
96
94
96
92
93
91
90
90
92
97
87
90
50
28
16
14
2
3
23
2
2
0
1
1
5
4
8
17
28
16
20
16
9
12
4
3
6
2
0
2
1
1
1
0
1
1
2
4
3
1
5
10
13
6
5
3
3
5
2
10
19
19
18
15
14
11
7
11
15
19
23
25
26
27
25
22
22
20
18
16
13
10
5
2
2
1
2
2
2
2
2
2
2
3
3
3
4
4
3
4
3
2
3
4
4
4
4
4
3
3
4
4
4
4
3
3
4
3
4
5
4
3
4
5
3
3
4
4
5
4
31
23
5
5
3
5
5
4
5
5
6
6
5
2
2
2
2
3
12
13
4
2
3
3
3
3
3
3
4
3
2
2
3
3
3
3
2
3
2
2
3
2
3
4
3
3
3
2
2
3
3
4
3
3
2
4
3
5
4
5
3
4
3
5
4
5
4
4
3
5
4
13
21
18
23
34
36
26
35
41
17
78
120
123
117
117
129
126
130
69
43
69
83
64
20
14
2
63
76
24
24
34
32
24
26
34
94
124
130
130
139
134
118
133
125
123
135
138
134
129
131
119
115
110
106
119
129
131
137
148
147
147
146
143
136
125
120
142
138
148
152
147
135
141
139
139
145
134
107
148
141
146
147
140
141
134
142
144
145
146
158
158
143
140
151
145
150
146
145
148
149
146
156
158
148
149
161
161
152
137
148
145
144
145
151
145
142
155
150
145
146
150
146
149
150
147
144
130
127
124
133
134
141
141
148
138
130
125
124
125
141
142
139
145
136
132
131
126
129
124
135
141
133
124
125
128
122
129
124
126
125
128
124
123
114
119
116
117
79
81
82
85
85
85
87
88
81
79
84
87
82
86
90
91
90
92
91
93
92
92
87
89
91
96
97
98
97
96
95
90
95
94
97
94
94
94
93
91
96
99
60
24
6
2
7
14
3
5
6
2
2
2
5
36
15
8
6
2
4
4
2
1
0
0
0
0
0
0
0
1
1
2
2
1
2
1
8
9
3
1
4
21
9
6
6
8
20
20
17
16
8
4
3
3
7
16
21
26
31
29
26
25
23
21
18
17
13
9
6
3
2
2
2
1
2
2
2
3
2
2
3
3
4
4
3
3
2
3
3
4
4
3
2
4
4
4
4
4
4
4
4
4
4
4
4
4
3
4
4
6
5
5
5
4
3
2
4
4
5
4
20
32
10
7
4
8
3
5
11
5
3
10
11
2
2
2
4
3
9
12
5
2
2
3
3
3
3
3
2
3
3
3
3
3
3
3
3
4
3
3
3
3
3
3
3
3
3
3
3
4
3
4
3
3
3
3
4
5
5
4
3
4
4
5
4
4
4
3
3
4
8
15
15
17
29
34
34
27
39
67
118
144
144
142
149
145
148
149
146
129
129
137
132
120
43
18
9
2
72
72
25
27
34
36
26
27
32
78
128
136
147
150
144
130
126
141
130
141
136
136
135
139
144
148
147
144
134
132
137
136
138
135
138
135
145
148
143
143
147
150
155
147
146
150
142
140
144
138
98
133
128
134
148
156
151
151
155
154
133
125
135
141
147
152
148
154
154
143
138
130
133
142
149
144
147
141
143
156
154
151
136
133
144
147
142
127
117
102
106
124
140
146
143
139
139
139
142
154
152
143
132
123
128
132
121
126
129
142
147
144
144
139
135
135
144
140
142
146
145
119
107
121
134
136
139
125
121
127
129
126
121
116
108
107
119
127
125
128
86
89
88
87
83
83
85
88
85
88
89
89
91
85
86
86
90
87
87
87
83
86
88
90
89
93
90
89
90
98
96
97
94
93
94
97
98
97
99
95
74
38
6
2
2
6
6
11
14
9
9
4
12
54
67
60
18
13
6
1
1
2
1
0
1
1
0
0
0
1
0
2
0
1
1
0
2
1
9
11
3
3
4
15
20
21
19
20
8
3
3
3
9
17
23
28
30
28
25
25
21
20
21
19
14
10
6
3
1
2
2
2
2
3
2
3
3
3
3
4
2
2
3
3
4
4
3
3
3
3
2
2
4
4
4
3
4
4
4
4
4
4
3
4
4
4
4
4
5
5
4
4
3
3
2
3
2
2
3
5
7
6
11
39
10
3
6
6
5
4
8
7
2
13
13
6
2
3
3
4
6
9
3
3
3
3
3
2
2
4
2
2
3
3
3
3
4
3
3
4
3
3
3
3
3
2
3
2
3
4
3
3
3
3
3
3
2
3
5
6
4
3
4
4
5
5
5
4
3
3
3
3
12
17
15
29
26
37
47
42
108
150
143
142
141
138
134
126
126
129
136
137
140
146
142
141
119
26
16
4
5
102
42
27
27
34
41
32
25
30
75
138
136
146
144
139
136
144
138
149
148
141
145
145
148
154
153
149
148
140
143
146
152
154
151
142
144
151
147
145
132
125
129
122
138
145
146
153
149
138
135
140
154
154
155
150
148
155
163
157
150
142
144
137
149
149
133
134
144
146
147
146
142
139
145
153
152
141
139
142
131
132
143
147
153
153
142
131
140
141
134
141
140
139
131
146
145
142
133
127
125
124
123
125
127
133
137
138
135
125
129
138
138
140
136
142
144
142
133
133
137
139
133
129
130
136
134
128
137
135
133
134
126
130
130
135
130
128
124
122
83
82
82
87
81
75
83
83
85
86
91
89
89
90
88
82
82
84
84
89
86
86
85
88
90
91
90
87
83
82
90
94
93
93
94
92
90
91
75
41
12
3
2
12
5
15
8
3
22
19
13
58
89
89
17
7
6
10
5
0
4
5
1
0
0
1
1
0
0
0
0
1
0
1
0
1
0
2
6
9
15
19
19
17
9
4
2
8
16
20
27
30
27
27
26
24
22
20
19
18
14
11
6
3
2
2
1
1
1
2
3
4
3
3
3
2
2
4
3
3
2
3
2
3
3
2
3
3
4
3
4
2
3
4
4
4
4
3
3
3
4
4
4
4
4
4
5
4
4
4
4
3
3
4
3
5
3
2
4
6
7
7
2
38
14
3
3
8
10
9
8
6
2
7
12
9
3
3
3
3
3
3
3
3
2
2
3
3
2
3
2
2
3
3
4
3
3
5
3
2
3
3
3
3
2
3
3
3
4
3
3
4
4
4
3
3
3
3
5
5
4
4
4
4
5
5
5
4
5
3
2
4
16
15
16
33
37
34
46
74
131
143
141
146
146
139
132
123
132
126
126
143
141
140
137
139
146
119
23
12
1
27
123
59
28
26
34
42
35
26
28
55
118
128
132
132
120
117
126
117
136
152
153
142
142
151
152
145
138
136
136
147
145
146
139
139
130
148
150
153
156
155
145
162
155
155
153
153
154
156
146
155
151
142
129
126
121
117
128
151
150
153
145
150
144
143
135
134
147
156
152
162
149
145
156
170
165
168
173
171
186
179
187
183
167
161
155
154
151
150
151
154
154
152
147
149
142
144
146
151
143
151
149
143
148
158
158
158
143
140
140
150
151
151
157
154
145
133
137
140
142
135
138
145
140
141
148
150
154
151
146
152
152
141
137
135
133
125
134
133
78
84
82
79
83
75
83
86
84
87
89
86
88
89
89
86
85
85
86
89
90
94
94
91
94
87
92
94
96
90
89
86
90
96
99
100
86
48
12
3
4
20
65
73
25
10
5
3
9
20
6
49
30
5
3
4
4
8
5
1
6
7
1
0
0
2
0
0
1
1
3
2
1
1
1
6
15
18
17
16
8
5
8
14
20
23
27
29
27
26
25
22
23
21
19
14
10
6
3
2
1
2
2
3
2
2
3
2
3
4
3
3
2
3
2
2
3
3
4
2
2
2
3
4
4
4
3
4
5
4
4
4
4
4
4
3
3
3
4
4
4
3
4
3
3
5
4
3
2
4
6
7
5
2
3
5
4
3
4
5
8
6
3
32
21
6
4
2
5
11
11
8
3
4
10
5
2
3
3
2
3
3
2
2
2
2
3
3
3
3
4
3
4
2
4
3
3
6
3
3
3
3
2
2
5
3
2
3
3
3
4
4
4
3
3
3
2
4
5
4
3
4
5
4
3
5
4
3
4
3
4
8
17
15
23
41
36
48
67
146
147
140
146
157
153
147
144
139
145
145
145
153
154
150
155
155
151
150
110
21
4
2
81
136
61
26
25
35
41
35
25
32
62
140
158
150
147
153
151
150
150
151
164
159
156
159
155
159
158
162
158
155
138
145
147
149
150
156
152
153
148
152
162
167
158
161
166
155
154
164
164
163
162
167
159
162
170
168
162
151
164
170
168
164
163
158
157
158
159
159
163
153
130
129
144
164
158
167
173
160
160
163
167
168
159
149
142
142
143
144
142
142
144
145
155
147
149
154
152
153
150
148
148
149
154
153
149
151
150
156
155
158
157
157
159
158
152
147
148
146
146
135
140
137
119
112
120
115
119
129
127
124
120
112
116
116
122
123
113
124
76
79
81
85
86
84
82
82
85
89
88
90
88
92
92
88
89
89
88
92
87
89
90
87
88
85
91
94
99
99
93
91
94
95
86
53
17
5
5
19
46
59
65
92
52
22
8
5
13
10
7
8
5
2
2
5
13
7
5
0
3
6
1
4
8
3
1
1
2
2
9
18
19
19
18
17
11
6
8
15
21
26
29
28
27
25
21
22
22
20
17
14
9
4
2
2
1
1
2
2
2
3
2
3
3
4
2
4
3
2
2
3
3
4
4
3
3
3
4
3
2
3
2
1
4
3
4
4
4
5
5
3
3
3
3
4
4
4
4
4
4
4
4
5
4
4
3
3
3
5
6
5
4
3
5
8
5
2
1
4
13
6
2
24
32
11
8
2
4
6
8
7
2
3
4
3
2
3
4
4
2
2
2
3
3
4
2
2
3
3
1
3
5
3
4
4
4
4
3
3
3
7
5
4
5
3
3
3
4
4
4
4
4
5
2
3
3
4
5
4
2
3
4
3
3
5
4
4
4
3
4
16
15
16
22
37
45
69
130
152
160
152
148
152
154
161
159
154
159
150
136
136
151
160
156
159
159
150
152
111
16
2
6
103
130
34
26
21
35
43
39
24
37
59
147
166
158
150
155
163
163
162
161
157
155
160
163
167
172
174
171
175
169
167
160
158
159
165
170
166
166
170
169
165
153
163
165
171
164
164
173
173
166
169
176
171
160
159
162
146
146
163
168
173
167
151
159
171
161
147
148
149
133
133
147
154
162
168
184
173
176
168
171
169
165
158
151
152
153
151
152
157
160
157
155
150
147
149
145
143
153
151
149
141
142
149
155
156
154
146
155
150
147
150
143
140
136
132
122
140
140
144
144
140
144
146
139
130
120
126
117
112
128
136
136
128
125
129
135
126
86
86
86
83
81
84
84
86
85
86
87
90
88
86
89
91
90
91
95
91
86
82
85
86
88
94
90
89
87
92
93
97
91
70
23
7
6
6
6
39
31
45
37
24
30
14
5
3
1
1
1
2
5
8
10
20
8
7
4
1
1
4
2
2
11
11
16
22
19
18
17
10
3
5
10
18
23
28
28
26
26
25
23
22
21
19
15
9
7
3
1
2
2
2
2
2
2
2
3
2
2
2
4
4
3
5
4
4
3
4
2
3
3
3
3
3
4
4
4
4
6
2
2
2
2
3
2
3
3
4
3
2
3
4
4
3
6
3
4
4
4
4
3
6
7
6
4
6
4
4
3
4
4
2
4
10
7
2
2
10
11
5
4
12
39
5
7
2
2
5
6
3
2
4
1
3
3
4
4
3
3
2
3
2
2
3
2
3
3
3
2
2
3
5
4
4
3
2
3
4
5
5
6
3
5
3
4
3
4
4
3
3
3
3
3
2
3
4
5
4
3
4
4
4
4
5
5
3
3
3
8
19
14
18
27
36
53
130
168
160
156
148
145
152
154
151
155
160
160
163
158
150
149
145
152
147
152
153
147
148
87
12
2
5
103
95
30
26
18
32
37
38
32
35
53
132
149
154
158
150
152
155
152
156
152
157
155
155
155
151
157
157
155
155
159
152
155
154
160
159
161
160
166
168
162
158
160
153
151
142
146
151
138
146
141
152
146
155
146
154
149
147
163
161
156
166
162
171
171
169
156
159
163
158
158
157
153
157
170
167
169
157
156
166
167
167
167
173
160
149
144
149
149
150
143
131
139
135
137
140
144
140
136
138
137
132
137
142
152
145
153
149
132
144
151
145
133
126
112
110
121
136
132
125
121
127
134
141
139
150
146
133
142
146
139
132
132
140
137
135
87
82
78
83
84
82
84
87
91
89
91
90
95
90
87
85
84
85
92
93
92
92
91
92
92
93
93
90
89
91
85
73
25
13
8
10
7
10
21
11
8
6
7
12
7
4
6
8
9
9
9
12
11
9
13
18
3
7
5
3
8
15
19
20
21
16
12
11
5
12
16
20
25
29
28
27
28
26
24
20
19
16
13
8
4
1
1
2
2
2
3
3
2
3
3
2
2
3
3
3
2
2
3
4
5
5
5
4
4
4
3
2
2
3
4
3
4
5
5
5
5
4
2
2
2
3
2
2
3
3
3
2
4
4
5
3
4
3
3
3
3
4
4
5
5
4
10
6
4
5
3
8
10
2
7
9
9
8
4
8
11
10
11
9
40
10
5
2
2
2
2
2
3
3
3
2
2
2
3
3
2
4
3
3
2
1
3
3
2
3
3
4
4
4
4
3
4
4
4
5
4
4
6
3
3
5
3
3
4
3
3
3
2
2
2
3
4
4
4
5
4
5
4
3
3
6
5
3
2
4
18
18
18
22
34
44
87
152
154
148
143
148
150
154
158
151
135
146
154
156
154
147
133
133
141
148
150
149
156
157
152
88
7
1
12
61
43
33
28
17
35
40
44
44
31
43
127
150
149
154
146
128
148
149
151
153
163
159
151
153
148
141
147
135
154
152
155
161
161
159
157
150
158
159
155
152
139
145
152
155
148
133
133
139
136
137
135
155
140
136
128
140
147
152
165
171
160
157
157
166
167
144
148
151
156
164
169
161
163
150
149
145
136
143
150
151
160
151
157
151
150
149
152
149
141
152
154
156
147
151
152
154
146
147
147
137
141
137
139
142
137
140
130
126
133
126
135
145
143
135
138
132
136
124
127
114
119
131
132
126
126
125
129
126
120
123
112
124
135
124
84
84
86
85
78
73
76
76
84
88
89
87
90
88
90
86
89
92
94
87
60
55
73
93
86
75
70
67
63
46
22
14
4
6
21
45
21
58
52
7
2
7
14
7
18
17
13
14
12
16
20
20
16
21
25
26
23
21
16
16
12
10
8
7
12
18
23
27
30
31
29
28
25
26
24
23
20
16
12
6
2
1
2
2
2
2
4
4
3
3
3
2
2
3
3
2
2
4
6
5
5
2
4
3
4
4
4
4
3
3
3
2
2
3
4
4
4
5
4
5
4
3
3
3
2
3
2
2
2
3
1
3
4
4
4
3
3
2
2
2
3
4
4
4
9
10
8
10
4
3
4
6
5
3
9
7
8
9
2
3
3
4
6
4
34
20
1
2
2
2
3
4
3
4
3
4
3
4
3
2
4
3
2
3
2
2
3
3
3
2
2
3
3
4
6
6
4
4
4
4
5
3
4
5
3
5
4
4
4
3
2
3
3
2
3
3
3
4
3
4
4
6
4
3
4
4
5
3
3
10
27
16
21
28
33
55
131
146
139
140
138
150
159
152
141
142
138
152
161
154
147
154
139
132
131
135
146
154
156
154
149
141
68
4
3
16
61
36
37
31
14
38
43
44
46
38
36
102
141
153
152
151
146
144
136
139
136
151
156
151
154
146
144
144
140
146
144
141
136
155
165
165
151
129
134
134
127
137
131
124
136
153
152
159
153
152
159
160
161
166
148
156
165
162
171
169
163
158
164
170
166
170
173
165
169
169
174
165
166
169
161
154
152
148
139
119
134
154
155
148
155
158
160
166
155
158
150
146
152
153
153
155
157
148
153
154
146
146
147
151
152
156
160
155
150
149
147
149
154
148
152
151
156
148
148
142
146
147
132
127
132
120
126
128
135
143
146
144
144
141
87
87
83
82
82
83
85
84
87
84
84
86
89
89
96
92
89
84
82
43
14
14
15
29
73
79
88
85
54
18
10
3
36
52
59
79
52
22
33
32
31
36
41
46
35
33
33
26
22
32
32
26
23
22
15
11
5
4
7
18
19
25
28
30
32
30
28
28
25
24
23
20
16
14
10
6
2
2
2
3
2
3
2
4
4
2
4
3
3
3
5
4
4
4
5
4
5
5
6
5
5
3
5
3
4
3
3
4
4
4
4
2
2
3
3
4
5
5
5
5
5
5
5
4
4
4
4
6
4
3
2
3
6
4
3
3
4
3
2
3
3
4
4
5
5
6
6
17
10
2
6
11
12
10
7
5
5
7
2
3
3
2
2
2
22
29
2
2
2
2
2
4
3
2
3
3
3
3
3
2
1
2
2
2
3
2
3
2
2
2
2
3
4
4
6
5
4
4
3
4
5
4
3
3
3
3
4
4
3
4
3
2
2
2
3
2
4
4
4
4
5
6
4
4
4
3
4
3
5
27
21
20
26
34
32
105
154
159
152
145
145
142
141
147
150
162
157
151
151
152
152
154
155
154
150
140
143
143
150
153
152
142
129
62
3
3
22
37
40
44
27
44
120
52
46
46
43
36
106
167
170
170
166
160
157
153
141
149
154
161
160
164
163
161
157
160
159
158
156
162
157
160
158
157
163
160
156
156
151
137
140
116
119
139
116
115
140
150
148
126
128
137
134
156
148
158
164
166
167
151
161
153
149
155
162
164
162
159
156
150
149
151
157
145
136
146
170
154
154
146
149
145
139
140
136
150
153
163
156
148
134
133
144
134
146
149
154
154
151
142
136
141
143
134
132
129
136
142
140
142
144
149
147
154
150
148
158
153
149
153
147
152
151
144
143
151
148
150
151
141
89
90
90
87
86
84
88
89
88
84
81
78
69
62
62
59
60
71
72
13
11
14
19
20
78
88
59
21
11
4
26
73
93
77
46
33
24
12
6
7
6
8
5
9
8
5
5
6
6
6
7
5
10
14
18
23
27
31
33
31
28
31
29
26
27
23
21
16
12
7
4
2
2
3
2
2
2
3
2
4
4
2
4
4
3
2
5
4
5
5
7
5
3
5
5
6
6
5
5
4
5
5
4
5
2
4
4
5
5
4
3
4
4
2
2
3
5
5
5
5
5
6
5
6
5
4
3
5
4
4
3
4
3
3
4
4
6
5
3
1
3
4
4
8
9
2
2
13
14
2
6
9
11
12
4
2
2
3
2
3
3
2
2
2
11
39
3
1
2
3
3
3
2
3
3
3
3
2
3
2
3
2
3
3
3
3
2
2
2
2
2
4
4
4
5
4
5
4
4
4
4
4
2
3
3
2
4
4
2
3
3
4
3
2
2
2
4
3
4
4
4
4
4
3
3
5
4
3
4
28
18
20
26
33
61
135
138
139
133
136
147
147
148
144
145
140
119
141
154
161
163
162
159
158
153
157
155
151
152
148
146
144
153
148
69
2
5
34
38
51
48
21
132
152
101
44
45
51
55
110
149
147
144
143
135
135
142
147
150
153
157
158
163
166
154
153
162
156
160
154
147
149
154
156
148
151
140
142
132
122
130
146
155
165
159
158
163
158
146
150
141
123
131
153
159
160
164
162
162
165
162
166
171
173
168
176
179
177
180
167
181
176
162
157
153
156
159
151
144
137
152
156
153
153
139
162
160
152
147
138
142
142
153
155
147
141
136
133
144
145
143
150
144
145
151
149
145
149
152
151
145
143
145
144
147
146
140
130
124
120
128
137
137
121
121
136
138
144
149
147
83
82
75
77
72
66
60
53
54
59
68
74
81
86
86
89
89
93
95
41
8
19
21
21
33
26
12
5
19
65
94
98
92
77
38
41
41
41
38
37
33
29
29
26
25
26
26
29
30
31
35
33
33
33
30
30
30
26
28
25
26
23
17
12
7
2
2
2
2
2
2
2
2
2
3
4
4
4
2
4
3
4
5
5
4
3
3
4
4
5
6
6
2
4
6
5
5
4
3
4
5
4
3
3
3
3
4
4
5
4
4
5
4
3
4
4
6
5
4
4
5
5
5
4
4
2
3
5
4
4
4
5
4
5
6
4
6
8
4
2
3
4
7
5
11
11
9
12
11
3
1
2
2
3
2
2
2
2
3
2
3
3
1
2
2
41
6
2
2
2
2
3
3
2
2
2
3
2
2
2
3
3
3
2
2
2
3
3
2
1
4
3
3
3
4
5
6
3
3
3
3
2
3
3
3
3
4
3
4
3
3
4
3
2
3
4
4
3
4
5
5
4
4
5
5
5
5
3
12
33
18
22
27
33
123
145
149
150
141
145
148
146
143
146
150
151
154
154
145
145
148
149
149
151
155
158
154
160
159
157
150
156
149
153
149
82
5
7
33
40
51
34
82
135
135
117
82
40
46
50
61
69
79
84
83
121
154
152
153
156
161
165
167
172
169
161
165
169
171
169
172
170
174
178
175
169
158
159
158
162
154
165
168
165
171
172
169
169
167
164
163
166
165
167
173
168
155
160
159
151
144
139
143
136
136
143
142
136
144
151
168
171
167
162
156
163
160
160
147
141
141
146
149
157
151
150
159
155
152
155
160
163
162
161
167
161
156
155
155
155
147
134
143
151
150
150
149
155
161
159
145
150
151
145
134
136
137
151
139
136
147
146
149
149
133
131
125
133
136
147
55
57
58
70
72
81
87
89
89
86
87
88
90
84
85
82
81
82
87
80
17
13
9
12
12
6
14
59
82
90
96
102
103
91
42
41
36
35
34
35
35
35
35
33
35
33
32
30
32
31
29
31
28
28
25
20
17
14
11
6
3
2
3
2
2
2
3
2
2
2
3
4
3
3
3
4
4
4
5
4
5
5
5
5
5
4
3
3
4
4
6
4
3
3
4
5
5
5
4
4
4
6
4
5
5
4
5
5
5
4
4
6
5
4
4
4
5
6
6
5
6
6
5
5
4
3
2
2
4
4
4
5
4
7
7
3
7
7
3
3
3
4
6
3
4
9
12
13
5
2
2
3
3
3
3
3
3
3
2
2
2
2
2
3
2
34
23
2
2
3
2
3
2
3
2
2
2
2
3
3
4
3
3
2
2
3
4
3
3
2
4
3
4
5
4
3
4
4
3
4
4
3
4
2
2
3
4
4
4
3
3
5
4
4
3
5
5
4
4
4
4
5
4
5
5
4
3
4
23
31
21
23
31
80
149
154
153
154
145
149
156
156
160
158
162
159
164
160
157
154
142
147
153
149
150
150
152
148
156
154
151
138
126
139
156
159
118
12
8
29
48
42
28
118
154
156
162
143
67
39
44
51
61
69
68
97
143
172
172
166
166
168
168
164
155
154
158
163
167
170
167
168
166
152
157
155
147
144
148
143
151
156
151
154
160
170
163
160
158
166
163
161
162
165
166
165
167
163
160
156
151
150
151
164
157
158
159
159
170
169
172
169
149
156
163
177
165
164
148
157
157
141
134
148
149
155
134
134
152
154
152
153
145
152
151
143
153
148
145
155
157
154
146
140
141
149
155
154
157
155
155
153
146
137
135
143
146
146
146
147
148
142
141
137
136
131
138
144
134
128
80
86
86
83
77
74
80
85
89
87
83
89
88
88
89
88
87
83
91
89
80
23
9
7
26
41
87
98
95
95
95
95
100
98
59
90
63
70
46
28
29
27
27
28
26
23
22
19
19
15
14
12
6
3
1
2
2
1
3
2
2
3
4
3
3
3
2
2
3
4
3
4
4
4
4
6
5
5
5
4
3
5
4
5
5
4
3
4
3
4
4
4
4
5
4
6
5
5
4
4
5
5
5
5
6
4
4
5
5
4
6
6
6
4
4
5
5
6
6
6
5
5
5
4
5
3
2
2
4
4
3
3
2
5
7
2
7
11
5
3
6
4
4
4
3
2
3
4
3
3
3
2
2
2
3
2
2
2
2
2
2
2
2
2
2
24
32
4
3
2
2
2
3
2
2
3
2
3
2
2
3
3
4
3
3
4
4
4
4
4
3
3
3
4
3
4
3
4
4
3
4
3
3
2
3
4
3
4
4
4
4
3
4
2
3
5
4
4
4
4
5
5
4
5
5
4
4
3
31
27
20
26
46
138
144
148
149
147
146
144
139
137
145
152
146
152
155
149
140
135
130
138
149
151
159
165
160
160
171
170
169
165
163
162
166
148
138
116
36
11
39
44
28
49
109
157
161
165
154
46
34
40
45
46
47
55
70
144
148
136
147
147
154
144
140
153
160
159
151
147
137
147
157
152
143
147
154
165
159
158
158
160
158
160
154
151
150
133
147
161
154
146
156
170
171
164
165
181
184
160
158
153
148
134
157
170
174
188
181
173
180
184
174
177
157
154
159
161
154
147
158
147
156
154
160
151
155
160
161
143
142
154
154
146
148
149
149
141
149
152
148
149
152
146
143
129
138
140
145
151
140
136
135
141
139
137
132
139
148
144
143
139
142
138
143
146
147
141
143
148
82
85
87
86
84
83
84
85
82
86
88
88
87
77
73
84
88
87
91
88
62
10
2
61
69
74
90
92
92
91
94
89
93
96
84
77
92
70
77
16
13
4
5
8
3
5
5
3
3
3
3
2
3
2
2
3
2
2
3
4
4
3
4
4
3
3
3
3
3
4
4
5
5
4
6
5
6
5
5
5
4
5
4
5
4
4
4
4
4
4
3
4
4
5
5
5
5
5
5
4
5
5
5
5
6
6
6
5
6
6
7
7
7
4
2
4
5
6
5
4
5
4
4
4
5
4
2
2
4
3
3
3
3
7
5
4
5
11
5
3
4
2
3
6
8
6
5
8
9
9
6
3
3
2
2
2
3
3
2
2
3
2
3
2
3
14
38
2
3
2
2
2
2
2
3
3
2
2
2
3
4
3
3
2
3
4
3
3
4
4
3
3
3
3
3
4
3
3
5
3
3
3
4
3
4
4
4
4
5
4
4
4
3
2
4
5
5
5
3
4
4
5
4
4
4
4
3
15
29
25
23
33
120
156
154
152
153
156
158
162
165
163
154
147
154
163
165
166
162
163
158
156
158
164
164
165
164
167
161
157
159
154
146
141
145
147
158
167
154
75
23
42
38
29
50
98
145
153
147
119
31
25
37
40
45
46
84
141
154
156
159
160
160
158
160
158
158
155
154
149
150
154
148
151
146
148
156
136
127
144
143
127
140
161
154
151
141
142
146
130
122
154
153
143
158
163
167
166
177
166
165
148
140
151
155
166
152
153
163
163
168
164
160
166
164
159
149
151
151
140
149
134
139
144
131
131
147
143
147
153
151
148
154
153
152
146
146
147
148
155
156
150
153
153
148
144
148
150
144
145
150
148
141
139
137
142
148
144
140
147
142
143
142
145
134
138
144
135
134
137
86
87
85
84
82
79
80
81
81
84
88
87
87
85
87
88
87
88
90
76
10
4
11
61
55
91
99
97
101
100
99
91
87
90
94
69
77
63
98
33
15
10
7
8
5
5
4
5
2
3
3
3
3
2
2
4
3
2
4
4
5
5
3
4
4
4
5
6
4
6
7
4
5
6
5
5
5
6
6
5
4
8
7
4
5
5
4
3
5
4
3
6
6
5
5
5
5
5
4
4
4
5
6
7
6
6
5
4
4
4
5
5
6
5
4
3
4
3
5
6
4
4
4
4
5
4
3
2
3
3
2
3
3
9
8
10
10
8
2
4
3
4
6
7
7
9
10
8
4
5
6
4
2
3
3
3
3
3
3
3
3
3
2
3
3
3
38
5
2
2
2
2
2
4
3
2
2
4
5
4
2
3
3
3
4
3
4
3
3
4
4
4
3
3
3
3
4
3
3
3
4
3
4
4
5
4
3
4
4
4
4
3
2
3
5
5
5
5
3
5
5
5
6
5
4
4
4
22
26
25
24
84
145
140
145
160
157
151
151
149
144
148
147
150
152
147
149
146
148
150
143
150
155
154
147
152
141
140
151
154
155
150
149
150
158
154
143
145
147
152
108
41
38
22
17
25
68
136
165
158
98
34
28
41
68
106
158
159
165
163
158
147
138
131
137
155
167
168
162
158
166
163
148
125
134
137
143
149
158
159
162
159
153
149
140
154
147
143
143
143
144
140
127
132
138
152
155
151
153
169
177
171
173
179
168
159
152
160
175
171
159
164
170
172
170
163
150
149
153
152
150
140
157
157
158
147
149
150
154
159
153
157
154
153
146
141
150
161
158
147
158
147
143
153
150
144
140
137
143
150
137
139
147
147
145
145
137
128
130
136
128
126
109
114
121
129
134
133
135
131
75
78
83
88
93
92
88
89
89
89
91
93
97
98
98
94
85
88
92
57
3
6
16
31
68
100
99
100
99
94
96
99
101
102
99
99
92
97
103
81
16
20
10
8
9
5
7
6
3
4
3
4
4
2
3
4
4
3
4
4
4
5
5
4
7
5
6
8
3
4
4
4
4
4
5
6
6
7
8
6
4
7
11
6
6
7
5
4
6
7
7
9
4
4
5
4
5
5
4
5
5
6
5
5
5
5
5
4
5
4
5
5
4
4
4
3
4
5
5
6
5
4
3
3
3
3
2
2
2
2
3
2
3
3
3
4
6
5
3
2
2
6
5
2
3
3
2
2
1
2
2
3
4
3
3
3
3
3
3
3
3
3
2
2
2
2
35
19
2
3
2
3
2
3
2
2
3
4
4
3
4
4
3
3
4
3
3
4
3
3
3
2
3
3
3
2
2
4
3
3
4
4
4
4
4
3
3
4
4
4
3
4
2
4
5
5
4
5
3
5
5
5
4
4
4
3
6
25
28
25
30
105
136
136
138
141
145
131
125
142
137
146
146
152
160
159
155
149
147
146
143
152
154
154
152
147
156
157
154
154
157
158
154
150
153
158
163
168
165
160
163
146
66
34
28
11
46
114
150
151
148
130
60
115
141
149
155
161
162
166
165
162
161
149
125
136
138
130
155
148
161
162
158
160
163
162
158
158
164
145
137
149
155
149
142
142
142
146
158
158
149
134
130
140
142
146
133
128
129
135
137
135
121
139
153
158
141
148
148
157
162
162
160
168
166
167
169
165
167
165
155
157
154
163
163
157
163
157
136
135
132
139
136
126
143
145
156
154
150
150
146
137
137
144
141
142
142
136
134
140
140
136
141
132
139
141
139
139
127
128
142
132
126
128
136
140
140
144
141
136
91
89
92
94
90
87
88
93
95
92
91
95
97
95
96
97
97
99
100
54
3
5
6
18
86
95
93
92
95
99
97
95
94
98
103
100
97
105
109
103
37
16
12
11
10
8
6
8
5
4
4
5
5
4
3
5
6
4
4
4
4
5
4
4
5
6
6
6
4
3
6
8
6
5
6
6
6
6
6
10
6
4
8
7
8
10
7
4
5
7
6
7
6
4
4
5
4
4
4
5
6
6
6
5
4
4
5
5
6
5
5
7
6
7
4
3
3
4
3
4
3
4
4
2
2
2
1
2
2
3
3
2
2
2
2
2
2
2
3
2
2
2
2
2
2
1
2
2
3
3
3
3
3
3
3
3
4
2
3
2
4
2
4
2
2
2
28
29
3
2
2
2
1
1
3
3
4
3
4
3
4
3
5
4
3
4
3
4
4
4
2
2
3
3
4
4
5
5
4
4
5
5
4
4
4
4
5
3
4
3
3
3
3
3
6
4
4
4
3
5
7
5
5
4
4
5
16
27
30
29
90
77
141
132
152
152
150
149
142
142
145
144
146
155
157
147
149
149
135
133
156
159
158
162
157
155
159
165
168
158
149
153
161
159
163
153
160
156
157
163
167
157
108
33
95
114
83
110
139
148
152
159
153
151
161
146
154
157
152
161
157
150
141
158
165
169
168
155
139
129
155
159
158
154
164
159
158
161
156
170
166
156
167
155
150
170
169
155
149
131
108
135
128
141
139
121
124
144
138
129
128
123
125
131
129
125
124
129
141
143
146
147
140
144
153
159
149
155
149
151
165
161
156
151
149
151
151
150
149
154
161
154
154
153
144
135
135
136
145
154
144
140
142
146
146
138
136
136
144
134
141
132
141
135
125
140
140
143
146
142
137
133
129
133
133
134
140
140
141
137
94
92
93
95
97
93
84
83
87
89
89
90
91
95
98
98
99
97
96
66
3
4
4
7
86
98
99
100
98
97
97
95
96
95
96
95
99
104
107
108
83
19
14
13
16
16
11
10
9
5
4
4
5
5
4
6
8
6
4
4
5
5
5
4
4
5
6
5
5
3
7
11
10
7
6
7
8
5
4
7
8
4
10
8
9
9
8
6
6
4
4
6
5
4
4
5
5
4
5
6
5
5
5
6
4
5
5
6
6
5
6
7
6
6
5
4
4
3
3
3
3
3
3
3
2
3
3
2
2
3
2
1
3
2
3
2
3
3
2
3
2
2
3
2
3
3
2
4
2
3
3
3
3
3
5
2
3
3
3
3
3
3
3
3
4
3
17
38
2
2
2
2
2
3
4
3
4
3
3
3
4
4
4
3
4
4
3
3
4
5
4
2
2
3
4
5
5
5
4
5
4
4
4
4
4
3
3
4
2
3
2
3
3
5
5
4
4
5
4
5
6
6
5
4
3
4
24
33
30
79
130
42
141
151
155
159
152
149
151
158
153
150
146
145
137
143
145
143
141
139
150
153
152
142
149
149
151
157
162
162
151
146
152
153
156
163
161
159
158
160
163
163
135
30
40
142
155
161
164
159
145
134
140
160
167
170
172
166
166
163
164
159
156
161
155
146
144
137
147
147
159
162
156
149
160
163
170
160
149
147
143
136
133
144
143
134
137
143
146
144
140
141
141
146
155
154
141
130
142
150
146
147
145
142
144
143
141
137
144
150
156
142
122
130
150
155
149
149
153
159
157
155
150
146
156
160
169
169
161
152
147
157
157
150
143
144
147
144
141
148
154
152
149
147
144
147
143
153
153
156
148
139
143
132
129
137
149
150
144
145
148
142
149
144
134
141
147
151
155
148
93
93
92
92
94
95
95
90
83
84
88
93
94
96
98
98
99
98
99
96
35
4
2
13
92
105
106
104
104
101
99
100
103
105
102
98
96
98
100
102
99
41
17
14
15
19
16
11
9
5
4
4
5
3
3
5
7
7
7
4
6
8
6
6
4
7
6
7
7
7
12
12
11
8
8
10
9
6
6
4
7
5
10
9
7
7
5
6
6
5
4
5
6
5
4
6
4
3
6
7
5
4
4
5
7
5
3
4
5
4
4
4
3
4
4
3
3
2
3
3
3
2
3
3
3
3
3
3
2
3
2
1
2
2
2
2
2
2
2
2
2
1
3
4
3
2
3
3
2
4
3
2
4
2
3
2
3
3
3
3
3
3
3
2
4
2
3
39
4
2
2
3
4
4
4
4
4
4
3
4
4
4
4
3
4
3
4
4
3
3
3
3
3
3
3
4
4
5
5
5
4
4
3
4
4
4
3
3
4
3
3
2
2
6
5
5
5
5
5
5
6
5
5
4
4
8
27
39
39
126
116
84
95
132
151
149
146
146
150
151
153
155
150
150
149
151
152
154
151
147
159
160
153
146
140
145
160
159
159
156
154
150
158
154
140
131
147
153
151
152
157
159
141
28
30
95
147
157
161
157
147
142
138
143
148
135
138
143
144
139
148
158
152
151
155
143
116
104
122
158
153
155
168
166
163
156
154
150
136
136
155
168
166
157
143
148
154
150
148
147
153
161
159
160
162
171
164
168
171
168
157
157
158
146
157
153
152
166
154
141
138
142
145
141
146
153
158
154
162
157
147
145
147
143
167
161
158
156
160
154
148
151
154
154
156
161
157
160
163
165
162
158
150
153
143
147
146
143
146
142
141
149
151
156
154
150
149
147
141
131
136
137
139
141
138
149
152
143
155
146
88
88
90
93
94
95
94
93
89
89
92
93
96
97
96
96
95
96
97
99
95
60
28
76
101
104
104
104
104
105
105
105
103
103
104
102
103
99
101
101
102
69
21
17
14
18
16
15
13
8
6
5
5
6
4
4
7
7
9
5
7
11
10
9
6
7
8
8
8
7
8
9
11
11
7
8
11
5
5
5
8
7
7
7
4
7
5
6
6
4
4
5
7
7
5
5
4
3
6
5
8
7
8
7
6
7
6
5
4
4
4
3
2
4
3
4
3
1
2
2
2
3
4
3
3
4
6
5
3
2
2
2
2
2
2
2
2
2
2
2
4
4
3
4
3
2
2
3
3
3
3
4
3
3
3
2
3
3
3
3
3
3
2
3
3
3
3
36
18
3
4
3
3
4
3
4
4
5
4
4
3
4
4
5
4
4
3
3
3
3
3
4
4
4
4
4
5
5
4
4
3
3
4
3
3
2
3
4
4
3
4
2
5
5
5
5
5
4
5
5
6
5
5
4
3
15
33
34
33
136
146
118
48
137
151
152
157
158
153
153
159
156
147
143
144
126
104
116
129
140
126
127
141
140
139
135
157
155
156
142
138
145
156
158
147
138
133
136
135
138
149
144
142
28
28
32
100
125
137
140
142
139
132
134
143
145
137
128
124
124
134
149
148
146
145
140
141
127
125
132
156
155
167
168
147
143
160
161
159
154
153
157
149
164
169
162
153
156
164
168
161
159
156
165
168
163
148
152
144
134
137
138
138
146
160
161
163
160
174
166
157
160
162
164
166
161
169
168
160
157
162
166
163
165
156
147
147
160
143
135
145
159
161
159
157
163
161
161
154
151
144
152
154
149
159
160
155
151
151
150
158
157
154
146
152
152
149
151
149
156
145
138
144
151
154
145
150
154
147
148
92
92
92
92
94
94
94
95
95
96
96
93
92
95
95
94
93
90
90
92
96
80
66
94
94
92
93
92
94
99
100
102
99
97
98
94
93
90
86
91
78
23
27
28
19
23
20
18
13
11
7
6
6
8
5
5
8
7
10
7
6
8
9
11
7
6
9
8
10
8
8
10
10
10
6
10
10
9
5
4
8
7
5
4
4
6
6
7
7
6
4
3
5
6
6
7
7
5
4
5
8
9
7
5
6
5
5
4
4
4
4
4
3
1
3
3
4
2
2
2
3
2
3
3
4
3
2
2
4
4
2
3
2
2
2
2
2
3
3
3
4
3
3
3
3
2
3
3
3
3
2
4
2
2
2
3
2
2
2
3
2
2
2
3
3
3
3
29
30
3
3
3
3
4
4
3
2
3
3
4
2
3
2
4
2
2
3
3
2
3
3
4
4
4
5
5
3
2
3
4
3
4
3
2
3
3
4
4
4
4
4
3
4
6
5
6
5
4
4
6
6
5
5
4
5
27
37
76
88
74
96
43
18
127
152
155
151
147
147
154
147
142
140
149
158
153
141
149
153
146
145
147
149
147
146
158
145
141
145
143
141
149
157
159
158
159
162
161
155
142
153
159
154
51
25
28
68
143
139
131
139
142
132
136
136
140
135
132
139
141
126
120
136
143
143
153
162
146
137
140
142
155
137
142
159
158
165
168
154
152
161
172
157
143
145
159
151
158
150
149
156
157
163
158
155
161
172
161
161
156
166
161
141
144
151
142
146
154
154
159
154
161
157
155
155
164
168
164
158
153
148
152
156
149
160
153
150
158
142
141
150
159
152
149
148
154
145
145
148
145
152
158
160
160
156
147
154
152
153
153
155
151
142
140
143
144
151
150
149
146
140
145
138
138
146
150
145
139
144
146
85
88
89
87
84
83
86
81
86
86
84
79
76
77
86
89
85
89
89
86
78
27
72
80
83
85
82
80
81
85
93
95
94
96
99
101
98
93
85
77
40
7
19
27
21
25
19
19
12
14
12
6
9
7
8
6
8
9
9
8
5
8
8
11
10
5
9
8
6
7
6
8
8
8
8
8
8
6
5
4
5
6
5
4
6
6
6
6
3
3
5
6
7
8
7
6
7
6
4
6
3
4
4
5
4
3
4
4
3
4
3
2
2
1
3
2
3
3
2
1
2
2
2
2
2
1
3
2
2
2
2
2
2
4
3
3
3
3
4
4
3
3
3
3
2
2
4
4
3
3
2
2
2
3
2
3
3
3
2
3
3
3
4
3
2
4
2
19
38
3
4
4
4
3
4
3
5
4
3
4
4
4
4
3
3
3
3
4
4
3
3
5
5
4
4
3
2
3
4
3
3
3
3
3
3
3
2
3
2
4
3
3
6
5
5
5
5
5
5
6
5
5
4
4
14
38
58
130
88
24
66
114
109
93
151
148
153
156
151
152
147
143
147
150
152
148
141
143
142
148
157
141
141
146
136
131
140
144
160
167
155
151
149
142
147
155
156
153
150
147
140
137
142
68
21
25
36
156
163
153
134
131
142
152
153
156
160
150
138
150
157
161
152
163
163
158
152
149
150
142
137
139
152
154
150
157
171
165
159
155
153
148
154
162
167
166
168
172
166
162
164
152
155
161
159
150
164
168
168
161
162
159
162
157
168
168
167
159
167
171
158
163
169
164
185
185
177
169
168
170
170
161
165
172
174
164
151
158
160
157
145
152
147
145
153
156
159
154
153
148
142
152
157
153
141
153
152
161
164
158
147
155
153
152
155
150
143
151
146
145
139
139
143
136
143
146
149
145
138
139
73
75
58
57
65
66
75
78
86
81
78
78
78
76
80
86
88
90
88
79
66
38
24
28
70
89
87
85
87
75
73
75
80
82
80
84
83
88
91
71
10
39
29
20
26
25
17
19
17
17
15
10
8
6
9
6
6
10
8
9
5
7
6
7
10
6
9
8
4
7
7
5
7
7
7
6
5
7
5
5
4
5
5
4
5
5
5
5
4
3
4
4
6
4
5
4
5
5
4
4
4
2
3
4
4
3
3
4
4
4
3
3
3
1
3
4
3
3
4
2
2
2
2
2
3
2
3
2
2
2
2
3
2
3
5
5
4
4
3
4
3
4
3
4
3
3
3
3
3
2
2
2
2
2
3
2
3
2
3
3
2
4
3
4
3
4
2
6
43
4
4
3
3
3
4
4
4
3
4
3
4
4
3
4
3
4
4
4
4
4
4
4
4
3
3
2
2
3
3
2
3
3
3
3
3
2
2
3
2
3
3
4
6
5
6
5
5
5
5
5
5
4
3
5
28
39
63
49
97
131
137
141
132
46
131
144
144
148
150
155
157
155
150
146
151
150
154
153
151
147
144
144
141
143
142
133
130
130
132
134
123
126
135
141
154
159
158
162
153
149
148
141
129
77
18
25
34
149
151
146
151
155
157
160
149
155
158
144
142
160
162
161
168
162
158
151
150
162
167
162
162
163
163
158
167
171
158
167
162
166
159
162
161
164
167
168
175
168
166
168
172
171
166
167
168
156
164
168
172
173
171
164
166
179
187
163
147
146
152
172
184
205
198
188
197
182
193
200
166
155
167
177
171
171
169
167
162
167
167
167
161
161
162
153
151
161
167
158
148
159
164
160
149
151
155
149
145
148
149
151
146
152
149
137
143
142
144
139
136
142
148
145
151
149
141
136
136
149
151
145
78
80
76
64
77
80
80
82
81
78
80
82
84
77
74
77
76
78
71
67
56
61
61
61
58
58
53
55
42
33
36
46
51
65
74
82
90
91
86
34
10
78
39
10
31
26
20
17
17
19
14
9
10
9
7
4
5
7
10
11
9
7
11
7
9
8
7
8
7
6
8
6
6
7
7
7
6
6
6
7
6
6
4
4
3
6
5
5
5
3
4
3
4
4
3
4
3
3
4
3
4
3
3
4
4
4
3
3
4
4
3
3
3
2
3
2
3
3
2
3
2
2
2
3
3
2
3
3
4
4
3
3
3
3
4
4
4
3
3
3
4
4
3
4
2
2
2
2
3
2
2
2
3
2
2
2
2
3
2
3
3
3
3
4
3
4
4
3
40
20
3
2
2
2
2
4
4
3
3
4
3
3
3
3
3
3
4
4
4
4
4
3
3
3
3
3
2
2
3
2
3
3
2
2
2
2
4
3
2
2
2
4
6
6
6
6
5
5
5
5
5
5
4
7
35
41
81
112
116
124
137
134
140
89
104
146
152
152
139
136
134
132
130
136
146
147
149
142
142
146
148
144
138
145
147
151
150
147
141
136
135
136
123
111
103
121
136
139
140
134
150
154
158
101
17
24
38
152
166
148
153
167
168
163
164
160
153
152
154
152
161
153
155
149
153
123
100
126
141
158
161
161
167
170
167
167
170
172
168
169
164
170
171
170
166
171
173
165
145
160
159
154
166
167
162
163
170
175
169
168
152
165
182
187
178
165
149
151
166
169
174
158
166
170
164
173
178
185
181
172
175
160
158
165
157
149
159
162
164
158
165
167
157
155
156
160
163
166
164
166
160
145
146
154
153
146
138
151
156
157
159
159
149
139
149
151
152
155
148
146
156
155
154
154
151
145
143
148
145
134
78
78
72
71
71
68
54
75
81
85
85
80
75
70
68
75
65
74
79
75
76
76
72
69
69
72
72
72
67
66
73
67
71
64
51
46
49
68
65
10
44
82
44
6
48
27
22
20
20
17
17
12
10
9
8
6
5
5
11
11
9
6
11
9
9
7
6
6
6
6
7
7
5
7
7
5
5
4
5
4
4
5
4
3
3
5
4
4
3
3
3
2
3
4
3
3
2
2
2
3
2
3
2
4
3
3
2
2
2
2
3
3
2
3
2
2
3
2
2
2
2
3
2
2
1
4
5
4
5
5
4
3
3
3
4
4
3
2
2
3
3
2
5
2
2
2
2
2
2
2
2
2
3
2
3
3
3
3
3
3
3
3
3
3
2
2
3
3
30
32
3
3
2
3
2
3
3
3
4
3
2
3
3
3
4
4
3
4
4
3
2
2
2
2
1
2
1
3
3
3
2
2
3
3
2
2
3
4
2
3
2
5
5
6
5
5
6
5
6
6
6
4
4
20
80
64
148
152
136
128
131
140
141
129
55
136
150
156
152
153
147
145
149
146
146
142
143
141
145
153
149
151
147
153
146
146
149
150
142
138
136
152
155
149
143
147
146
145
135
122
120
113
129
89
21
29
79
162
159
156
157
163
163
157
149
156
152
149
144
141
126
126
144
161
164
148
126
135
134
136
144
147
157
168
165
164
169
169
162
159
166
173
174
169
161
166
156
143
135
151
123
136
156
161
150
153
162
169
171
178
189
184
165
163
161
165
170
171
171
181
171
179
192
200
185
179
180
170
178
165
146
145
160
166
159
161
156
161
156
156
163
166
156
164
160
151
156
161
156
160
160
159
150
153
152
150
141
141
151
147
145
143
152
152
146
144
144
154
155
154
152
154
153
153
154
152
151
146
143
147
75
75
78
76
79
77
75
78
80
80
77
79
81
81
82
80
80
79
82
79
75
75
72
73
76
78
79
77
78
80
78
69
70
78
82
82
82
82
41
8
77
92
58
6
58
29
18
19
21
18
14
11
10
10
8
9
8
7
7
7
8
8
8
8
8
8
5
4
5
4
4
5
4
5
4
4
4
3
3
3
4
4
4
2
2
3
3
4
3
3
3
2
3
3
3
3
3
3
2
3
4
3
3
4
3
3
4
1
2
2
3
3
3
3
4
3
3
3
3
4
2
2
3
4
4
4
4
3
4
5
3
4
4
3
3
3
2
3
2
3
2
2
1
2
2
2
2
2
2
1
3
4
3
3
2
2
3
3
4
2
4
4
3
3
3
3
2
3
19
38
3
3
2
2
2
3
4
2
2
2
2
3
3
4
4
3
2
2
4
2
3
2
2
2
2
2
2
4
3
2
2
3
3
2
2
2
2
3
2
3
3
5
5
5
6
5
5
5
5
5
6
4
4
63
141
69
131
149
153
149
138
140
148
151
79
113
142
153
150
150
151
147
140
151
145
137
137
140
140
150
152
145
136
134
143
156
143
139
142
135
144
145
150
160
158
146
138
146
152
135
134
142
154
98
28
27
64
158
152
147
159
163
165
165
164
162
163
162
161
166
162
165
170
166
170
170
167
170
160
157
165
166
161
164
172
171
172
173
175
171
169
170
174
170
177
173
167
168
163
161
153
164
164
156
154
145
162
171
182
180
176
165
157
177
175
173
169
157
156
166
173
176
195
188
173
175
205
173
179
179
182
158
162
164
167
158
154
156
157
153
160
160
159
155
161
155
146
144
150
149
151
158
166
166
151
148
151
155
153
158
154
153
156
160
158
154
148
154
153
151
153
155
157
155
154
148
140
134
122
116
81
68
68
70
63
58
71
76
76
76
85
83
84
84
83
72
74
80
84
83
82
80
78
78
78
80
78
79
79
77
70
58
56
71
74
75
73
66
15
25
59
71
61
11
32
32
24
19
18
15
14
12
5
10
11
9
8
7
7
8
7
6
7
7
5
6
6
5
6
5
5
5
5
5
4
5
4
4
2
4
4
4
4
3
2
2
4
3
3
3
2
3
3
4
3
3
3
3
3
3
3
5
4
4
3
3
3
2
2
2
2
3
2
2
2
2
3
3
4
4
3
1
3
4
5
5
3
3
3
3
3
3
3
2
2
3
3
3
3
2
2
3
1
2
2
2
1
2
3
2
2
2
3
2
3
3
3
3
4
4
4
3
2
3
3
3
3
4
8
43
4
2
3
2
2
2
2
3
3
2
3
3
4
3
3
3
3
3
2
3
4
2
2
3
3
2
2
2
3
2
2
2
3
2
2
2
2
2
2
2
4
5
5
5
6
5
5
5
4
4
5
4
29
127
146
116
91
147
153
150
149
156
156
155
126
84
152
152
153
157
155
145
137
140
147
137
121
123
127
123
130
133
147
145
152
152
160
158
156
158
162
162
165
163
163
160
162
163
163
163
160
159
160
96
27
10
10
127
150
148
144
154
153
151
149
147
142
144
150
154
163
163
170
169
164
166
168
171
167
167
170
165
167
160
158
164
159
159
165
158
165
148
151
156
165
173
173
177
174
167
172
172
167
164
163
168
171
172
179
177
184
180
182
189
183
182
177
185
195
196
195
196
196
191
167
172
173
169
177
160
154
154
160
156
156
158
171
168
145
140
149
138
140
143
148
154
142
150
159
160
164
165
160
158
148
146
147
153
152
148
142
140
143
148
156
152
154
150
154
149
156
155
154
143
147
148
149
142
146
145
70
73
80
78
76
75
76
76
75
76
82
84
87
91
91
90
86
85
84
82
84
81
83
84
83
83
82
82
80
80
78
80
78
70
68
65
69
47
6
29
47
57
42
33
35
47
32
27
18
20
19
17
11
10
10
11
9
7
6
7
6
6
5
6
6
4
6
5
5
5
4
5
5
4
4
4
4
4
4
4
2
3
3
3
3
2
4
3
2
3
3
3
4
3
2
3
3
3
3
3
3
3
3
2
3
3
4
4
2
3
2
2
3
4
5
5
4
4
4
5
3
4
4
3
3
4
4
3
3
3
3
3
2
2
2
2
3
4
2
2
3
2
2
3
2
2
4
3
4
3
2
4
5
3
3
4
3
3
5
4
2
3
4
4
3
3
4
3
3
40
19
2
2
2
2
3
3
3
2
2
3
4
3
2
2
2
2
2
3
2
2
2
3
2
2
2
2
1
1
2
2
2
2
2
2
2
2
1
2
2
4
5
5
6
5
5
5
5
5
5
4
3
88
127
138
136
44
147
156
155
154
150
150
150
147
52
144
149
149
156
163
157
158
155
156
157
154
145
147
152
153
153
154
159
158
158
158
156
161
157
155
159
158
159
163
164
163
163
160
165
162
162
167
142
70
8
55
156
160
149
139
140
142
157
155
154
148
152
147
138
132
146
153
164
161
160
171
174
167
169
170
170
168
166
165
163
162
165
173
173
175
173
175
172
173
173
172
164
166
173
177
180
174
172
171
164
159
167
179
178
179
187
181
199
207
214
192
180
206
214
225
223
204
195
167
165
183
185
185
172
159
155
158
165
166
167
162
169
167
163
161
165
171
168
159
154
159
163
154
158
164
167
162
161
162
158
158
160
160
156
157
158
156
158
159
154
152
145
153
156
155
158
157
157
151
156
152
148
142
148
64
66
73
72
69
70
72
73
75
77
77
78
78
80
81
86
89
89
87
82
82
85
85
85
86
85
84
82
84
84
84
86
89
85
83
84
81
52
7
58
76
68
30
27
36
41
36
35
31
22
21
21
16
14
12
11
9
8
6
5
4
6
4
5
8
5
4
5
4
5
4
3
5
5
4
4
4
5
4
4
2
2
3
2
3
3
3
3
3
3
3
4
3
4
2
3
4
3
4
3
2
2
2
3
3
4
2
3
3
4
4
3
4
5
5
4
4
4
4
4
3
3
2
3
2
2
3
2
2
3
2
3
2
2
2
1
2
3
2
2
3
2
3
3
4
4
3
4
3
3
2
4
4
3
3
3
3
4
3
3
4
4
3
3
4
3
3
2
4
31
31
2
1
2
3
3
3
4
3
3
2
3
2
2
3
2
2
2
3
2
2
2
2
2
3
1
2
2
2
2
2
2
3
2
3
3
3
2
2
3
5
4
5
6
5
5
5
5
4
5
4
21
149
152
146
149
104
116
160
157
158
157
160
157
150
106
107
153
157
153
158
154
156
158
159
158
152
151
154
154
155
152
160
158
155
156
154
153
157
154
153
157
153
154
153
156
157
160
160
161
164
166
167
169
88
13
131
168
166
166
165
170
169
168
166
156
154
160
150
150
162
167
170
168
168
169
157
161
147
156
159
163
175
175
175
180
179
171
167
166
166
170
171
160
160
163
163
170
173
171
165
175
179
178
182
181
177
177
178
180
183
184
182
182
174
170
170
169
177
194
208
225
190
181
175
176
177
179
177
172
161
170
173
183
192
166
166
160
158
165
162
146
140
149
153
155
165
156
162
162
158
157
164
165
165
157
161
156
148
130
125
146
158
153
155
151
156
153
151
150
151
149
150
154
151
152
147
143
142
134
61
62
65
71
73
75
77
79
79
79
81
82
83
83
85
86
85
85
87
87
85
81
81
86
87
86
88
87
86
86
85
85
84
84
82
79
75
65
48
37
47
54
53
41
38
28
39
31
35
22
20
17
16
14
11
8
6
8
6
4
3
5
5
3
4
7
4
3
3
4
4
3
4
4
5
3
4
4
4
4
4
3
3
3
3
3
3
3
3
3
4
3
4
4
3
4
4
3
3
3
2
1
4
4
4
4
5
6
5
5
4
3
3
3
3
3
3
3
3
3
2
2
3
2
3
2
2
2
2
2
2
2
2
2
3
2
2
1
2
2
2
4
4
4
4
3
3
3
3
3
3
3
3
3
3
3
4
4
2
3
3
3
3
3
3
5
4
2
3
21
40
3
2
2
2
2
2
3
3
2
2
2
3
1
3
3
1
2
2
2
3
2
2
2
3
2
2
2
2
2
2
2
3
3
2
2
2
2
3
3
5
5
5
5
5
5
4
5
5
6
3
83
152
154
154
153
137
60
146
146
135
132
138
145
144
130
38
141
161
155
154
155
160
153
145
141
143
149
154
158
163
159
161
162
157
155
157
157
153
156
161
159
153
158
157
159
163
161
162
158
151
149
144
138
62
15
128
156
164
169
168
170
167
170
172
169
169
166
165
169
167
164
161
170
171
166
161
169
173
173
169
168
171
170
175
166
167
177
178
178
177
177
180
179
179
179
174
176
181
166
154
166
173
172
172
172
177
179
177
176
173
175
178
192
194
200
191
163
170
167
176
193
191
192
217
212
189
182
176
178
185
179
173
146
135
145
154
156
156
155
157
158
162
167
170
168
165
158
161
166
166
165
159
164
161
153
148
151
156
146
147
142
150
158
157
151
156
154
140
125
124
131
146
141
139
133
132
138
138
138
56
59
60
63
63
64
62
65
68
68
73
70
79
82
85
84
83
81
81
81
80
83
85
83
81
82
82
77
74
75
72
75
76
75
72
67
66
67
54
37
16
11
27
36
35
28
30
31
32
30
19
18
16
14
10
6
4
5
5
5
4
5
11
8
5
6
6
4
4
4
4
4
3
3
4
4
4
4
4
5
4
3
4
3
4
5
4
3
4
3
4
4
4
4
3
3
4
4
4
5
5
5
4
4
5
4
4
4
4
4
4
4
3
3
3
2
2
2
2
1
2
2
2
2
2
2
2
1
2
2
2
2
2
2
3
2
2
2
2
2
4
3
4
3
2
2
3
3
3
3
3
3
2
2
3
2
1
2
3
2
3
3
3
3
4
3
2
3
3
9
45
3
2
2
1
2
3
2
2
2
3
2
2
3
3
2
2
2
2
2
2
2
2
2
2
2
2
2
1
2
2
3
3
2
3
4
4
4
3
2
4
4
5
5
5
5
6
5
5
4
5
111
134
126
130
138
134
71
123
154
154
154
156
145
138
124
21
92
149
150
153
147
143
143
147
151
158
156
158
159
157
156
157
156
159
159
159
167
168
166
166
167
165
165
164
167
168
169
167
169
168
167
163
163
71
17
140
168
164
161
161
163
172
176
172
168
165
166
165
163
156
156
155
162
170
175
176
175
170
169
168
172
174
175
173
173
170
167
169
174
176
178
180
177
175
175
178
174
174
174
178
178
177
176
176
173
174
178
179
178
175
172
173
179
202
192
191
176
186
197
211
210
213
213
217
214
195
172
180
186
178
174
173
169
165
173
174
172
170
168
165
169
167
166
160
155
156
162
161
157
152
143
141
151
152
147
146
150
156
154
156
155
154
154
149
153
150
150
143
148
142
144
149
145
142
143
140
138
126
131
74
70
68
66
67
65
59
59
66
70
67
67
68
69
65
62
68
70
69
70
76
69
74
74
76
75
72
68
61
51
56
66
69
69
71
73
77
70
49
46
42
46
41
26
25
31
34
44
39
34
38
27
26
20
13
6
6
7
6
7
8
6
9
9
7
5
5
4
4
4
4
3
3
3
4
4
4
4
4
4
4
5
5
5
4
4
4
3
4
3
3
4
4
4
6
4
4
5
4
4
4
4
3
3
3
4
4
3
2
3
4
3
2
2
3
2
2
1
2
2
2
2
2
2
2
2
2
2
2
2
3
2
3
3
4
4
3
2
2
2
2
4
2
2
2
2
3
3
4
3
3
3
3
3
3
2
2
2
2
3
4
4
4
4
2
3
2
2
2
3
42
16
3
2
2
1
3
2
2
2
2
3
2
2
3
1
2
2
4
3
3
2
3
2
2
2
2
2
2
2
4
3
3
4
3
3
2
4
3
4
5
5
5
4
5
5
5
5
5
5
51
151
144
144
139
138
136
104
73
100
81
59
17
6
9
11
28
35
157
159
154
157
155
155
159
159
157
155
160
165
161
160
163
161
161
165
160
157
153
160
159
147
147
154
159
155
151
154
148
152
159
157
158
160
65
17
119
139
142
151
144
131
142
140
130
128
136
146
146
145
142
140
145
152
148
133
129
130
129
135
141
144
148
157
165
165
159
154
151
149
145
141
140
150
156
160
166
174
172
173
177
180
179
175
172
175
175
178
177
172
174
166
161
158
166
181
192
203
212
203
215
224
228
227
234
218
212
177
185
184
176
175
171
168
162
160
163
167
169
171
172
171
158
134
126
143
157
155
147
151
140
128
119
132
131
139
146
143
150
153
152
143
137
130
119
131
127
140
146
139
127
124
128
134
142
144
143
147
147
143
67
68
64
60
62
58
61
64
70
74
70
65
58
66
65
62
57
53
58
63
61
66
66
66
73
74
76
81
79
76
70
63
61
68
69
73
75
75
67
50
44
20
24
24
21
39
35
32
18
17
34
33
31
17
9
10
13
9
9
11
13
11
8
10
6
4
3
4
5
5
4
4
4
4
5
4
5
5
4
3
4
3
4
5
5
2
5
6
4
3
5
5
4
4
5
4
3
3
4
4
3
3
2
3
2
2
3
3
2
3
2
2
2
2
2
2
2
2
2
2
2
2
1
2
2
2
2
2
2
2
4
4
4
5
4
4
4
3
3
2
2
2
3
3
3
2
3
3
4
2
4
5
4
2
2
2
2
2
2
2
3
3
2
3
3
3
3
3
2
3
32
29
3
2
2
3
2
2
2
3
3
3
3
3
4
3
3
3
3
3
3
3
3
3
3
2
2
3
3
2
4
5
4
3
2
3
3
2
2
5
5
5
5
4
5
5
6
5
6
5
105
145
136
154
155
152
97
23
13
8
35
75
98
110
131
135
140
57
131
145
138
129
131
132
136
147
150
155
159
162
165
164
158
158
156
162
167
166
163
160
163
166
164
161
158
153
154
154
148
143
149
158
161
154
66
16
93
113
106
111
127
143
147
148
152
150
144
138
132
132
133
134
135
146
145
147
136
156
163
160
161
164
165
167
171
171
167
167
171
174
173
174
174
173
169
161
153
150
156
165
173
172
172
164
155
151
163
172
169
167
170
175
171
174
190
184
178
169
144
152
166
190
211
211
206
191
183
168
165
166
163
157
166
175
174
166
155
145
142
141
132
119
115
120
127
133
137
150
155
150
144
142
146
149
149
144
146
140
143
147
133
126
127
128
135
134
132
141
132
135
132
131
133
131
124
136
133
134
132
133
63
63
64
67
66
63
60
67
59
62
66
66
53
42
43
46
49
51
49
37
35
39
49
55
59
59
59
68
69
74
79
79
73
78
73
73
71
76
75
73
64
46
30
29
22
26
31
36
23
19
22
36
34
27
28
25
18
5
7
6
9
8
10
11
5
5
3
4
4
5
7
5
6
4
4
4
3
5
6
5
6
6
6
7
7
2
3
4
4
4
4
4
4
4
4
4
4
2
2
3
3
3
3
2
2
2
3
2
2
3
2
3
2
2
2
1
2
2
2
2
2
2
1
2
2
2
2
3
4
4
5
5
4
4
4
4
3
3
3
2
2
2
3
2
3
3
3
4
4
4
4
3
4
4
3
3
2
2
2
3
3
2
2
3
2
2
2
2
1
2
23
38
3
2
2
4
3
2
3
3
3
3
3
4
3
3
3
3
4
3
4
3
4
3
3
2
3
3
3
3
3
3
3
2
2
4
4
3
2
4
5
4
5
5
5
5
4
6
4
14
139
148
153
154
153
156
157
129
67
77
138
154
152
145
142
139
142
112
85
142
143
144
153
156
159
152
154
158
162
160
160
165
165
165
168
165
160
162
162
167
162
160
158
152
135
127
128
128
126
134
149
155
149
150
76
18
42
119
129
128
127
127
141
148
153
160
160
162
152
147
151
155
161
163
165
170
163
163
168
166
157
147
141
153
167
173
171
168
167
171
169
176
169
167
172
172
173
169
167
159
154
156
160
168
176
176
175
177
175
176
192
194
175
170
167
172
174
175
181
181
176
166
159
153
154
155
154
149
153
159
153
141
150
137
106
97
111
112
111
111
118
124
131
134
132
136
134
143
151
151
151
146
143
142
133
129
134
139
133
141
143
141
136
138
142
147
146
139
135
132
138
144
134
134
140
143
145
139
128
124
62
65
69
68
72
70
61
55
65
57
61
61
68
69
67
64
70
71
72
67
64
62
68
72
67
66
71
68
72
75
74
72
75
77
74
76
78
65
68
75
78
66
38
19
17
19
18
20
20
18
22
38
36
32
23
20
9
2
5
6
8
10
16
9
5
4
7
8
4
7
7
6
5
4
3
2
3
4
3
2
2
3
4
7
9
8
7
9
9
9
5
4
4
3
3
5
3
2
3
3
2
2
3
2
3
3
2
2
2
2
3
2
2
2
3
2
2
2
2
2
2
3
3
4
5
4
3
4
3
4
5
4
4
3
4
3
2
2
2
2
3
2
2
2
3
3
3
3
2
3
4
4
4
2
2
2
3
2
2
2
2
2
2
3
3
3
3
2
2
2
10
45
6
2
2
2
2
3
2
2
2
4
3
3
3
3
3
2
3
3
3
3
3
2
4
1
2
2
2
2
2
2
2
3
2
2
4
3
4
5
5
5
5
5
4
6
5
6
4
79
151
155
163
163
161
159
157
137
146
50
147
158
153
153
156
156
150
144
45
149
155
154
153
158
158
154
146
132
132
143
146
141
136
150
157
160
161
166
164
159
156
154
156
151
146
142
144
150
155
164
169
165
159
160
102
18
35
153
162
159
149
140
144
150
153
158
158
158
161
165
170
172
172
172
166
164
158
157
162
164
171
169
167
169
165
165
168
165
166
168
172
174
177
177
166
154
153
161
165
166
167
167
164
164
167
158
163
170
173
174
175
181
170
171
169
160
167
172
183
185
174
186
179
169
164
162
170
166
168
146
143
145
153
151
154
157
157
159
155
153
153
154
155
150
145
149
156
161
156
142
135
147
156
148
149
145
144
150
149
147
143
135
132
133
134
145
153
153
149
147
151
153
151
155
149
149
139
128
124
132
72
77
77
79
84
80
77
77
74
71
81
79
78
83
81
82
78
69
79
80
76
78
75
75
82
80
78
79
83
84
80
82
81
77
77
75
62
58
54
48
44
34
36
16
11
12
8
6
8
10
15
37
34
27
7
2
2
3
3
5
5
11
11
3
3
4
5
4
3
8
5
6
6
4
2
2
2
2
2
2
4
4
5
4
4
4
4
3
3
4
7
10
8
8
8
6
4
3
2
3
2
2
2
2
3
3
2
2
2
2
2
3
3
2
3
2
2
2
3
4
5
4
3
2
4
5
3
3
2
3
3
3
3
3
3
3
2
3
2
2
3
2
1
2
3
3
2
2
2
3
3
3
2
2
2
3
3
2
3
3
3
4
3
3
2
3
3
2
2
2
2
43
16
2
2
2
2
3
3
4
4
4
5
4
4
5
4
4
5
3
3
2
2
3
3
1
2
2
2
3
2
3
2
2
3
2
2
3
5
4
4
5
5
4
5
6
5
6
5
116
142
151
150
152
157
154
154
148
149
93
123
154
158
153
143
136
135
144
94
96
134
136
144
149
138
121
116
116
112
110
112
123
125
133
137
141
147
153
151
150
153
157
159
162
166
159
157
157
161
163
163
164
165
164
115
19
34
144
163
167
169
165
159
155
155
161
161
156
150
162
167
172
167
164
161
167
167
158
154
160
163
158
152
150
156
150
144
154
150
154
167
173
169
166
167
172
161
150
154
160
159
155
160
161
152
158
166
153
150
155
169
196
198
186
175
181
180
190
195
205
197
195
186
162
163
167
150
149
153
162
152
159
162
156
158
152
156
153
155
163
160
161
157
154
152
144
142
137
142
149
148
150
145
146
147
153
157
154
159
156
147
148
148
154
157
157
150
142
140
150
155
148
141
142
134
135
131
134
136
141
69
76
83
81
79
74
77
84
87
84
87
88
87
79
76
78
76
76
75
77
81
78
79
85
87
87
82
80
81
82
86
88
85
84
85
80
66
54
47
50
59
62
47
21
21
19
15
15
11
11
10
10
17
18
6
2
2
2
2
3
6
8
5
3
6
5
4
2
6
10
3
7
3
2
2
2
1
2
3
4
5
6
4
4
3
4
4
4
3
2
3
3
1
1
2
5
5
4
4
5
6
4
3
3
2
3
2
2
2
2
2
2
3
2
3
3
1
2
3
3
3
3
3
2
2
3
3
3
3
3
3
3
2
2
3
3
2
4
3
3
3
2
2
2
3
1
3
2
2
3
2
2
2
3
2
2
3
4
2
2
2
2
3
2
3
3
2
2
2
3
1
34
30
3
2
3
2
3
3
3
3
3
3
4
4
3
4
4
2
2
2
2
2
2
2
3
2
2
2
3
3
2
2
3
2
3
2
3
4
4
4
5
5
5
5
5
5
4
26
141
145
145
148
156
159
155
158
156
154
135
70
157
162
158
148
141
128
133
127
60
150
161
161
166
172
158
153
147
142
150
152
152
148
147
151
150
151
155
162
165
161
157
160
163
158
162
161
162
161
159
162
161
158
156
126
22
32
132
153
155
156
149
142
153
159
162
164
162
161
168
169
164
161
158
155
153
167
166
148
139
138
140
136
142
153
151
148
143
147
149
154
164
156
169
163
155
159
166
162
158
166
164
165
170
174
181
182
194
178
171
175
180
174
201
212
217
200
182
174
161
152
159
163
169
172
170
169
178
177
174
170
167
168
166
169
166
166
166
160
161
166
168
161
161
161
157
157
162
164
161
162
161
162
161
158
153
157
154
150
145
140
131
125
134
130
130
130
122
126
132
135
139
143
142
143
144
138
135
129
132
77
83
81
79
76
72
68
64
61
66
71
75
77
81
84
87
84
75
77
83
88
82
89
90
87
81
87
91
87
84
85
84
85
83
80
74
59
65
55
51
32
26
17
13
11
9
6
5
4
4
3
4
4
7
5
3
2
2
2
4
5
8
9
9
8
4
4
4
11
7
5
10
4
2
2
2
2
2
4
4
5
7
5
2
4
5
5
4
3
3
2
2
2
3
2
3
2
2
2
2
2
5
8
10
9
8
4
4
3
2
2
2
2
3
2
2
2
2
2
3
2
2
2
2
3
3
3
3
4
4
3
2
3
2
2
3
3
3
3
3
3
3
3
2
3
2
2
2
2
2
2
3
2
2
2
2
2
3
3
2
2
1
2
3
2
3
2
2
3
3
2
25
36
2
2
2
2
3
3
3
3
3
4
3
3
2
1
3
3
2
3
2
2
2
2
3
2
2
2
2
2
2
2
2
2
3
3
4
4
4
5
4
4
4
5
5
5
4
42
71
129
148
146
150
154
154
150
143
139
129
62
124
145
145
149
155
164
160
158
74
137
166
173
170
172
172
168
159
156
162
163
166
163
160
158
163
164
164
161
165
166
162
161
158
162
166
166
163
156
162
166
164
167
164
142
30
35
82
161
154
157
165
162
164
168
164
164
166
171
169
168
163
153
148
146
146
166
173
172
168
162
164
163
158
162
158
154
159
169
172
169
175
173
170
166
155
159
161
164
170
174
172
171
166
162
174
176
179
174
180
185
190
194
162
170
183
185
193
205
200
185
180
176
180
180
178
181
179
177
171
168
149
141
139
146
156
166
168
166
164
166
166
163
159
161
159
163
165
165
162
164
162
162
162
164
159
160
155
153
146
152
151
149
139
145
151
144
139
145
149
148
152
153
152
152
148
146
144
140
134
76
78
80
79
79
82
81
78
74
73
76
80
85
87
90
88
85
80
85
87
85
87
85
82
80
80
72
68
75
78
80
78
77
70
72
71
61
47
27
15
7
16
12
8
9
12
12
11
8
8
8
8
9
8
6
5
2
4
3
3
3
4
3
8
13
9
2
3
9
4
9
7
4
4
3
3
2
5
6
3
4
5
2
2
4
5
5
3
2
2
2
2
2
2
3
2
2
1
2
2
2
2
2
3
3
2
3
3
3
5
3
4
4
3
2
2
2
2
2
2
2
3
3
3
2
2
3
2
3
2
2
2
2
2
2
2
3
1
4
2
2
2
2
3
2
2
3
3
3
3
2
1
2
2
1
2
2
3
3
2
1
2
3
2
2
2
2
2
2
2
3
12
42
4
2
2
2
3
4
3
3
3
2
2
2
2
3
3
2
2
1
2
2
2
2
2
2
2
3
3
3
2
2
2
1
2
3
4
4
5
4
4
4
4
5
5
4
5
130
127
72
76
131
148
155
151
137
140
142
150
126
100
165
159
159
159
158
163
162
124
93
154
159
164
160
155
157
158
151
148
154
157
157
160
158
159
156
151
151
159
163
166
164
162
162
158
158
153
148
146
149
145
140
134
129
55
89
80
151
163
165
161
164
166
168
171
171
171
170
174
173
165
165
166
159
149
146
142
136
145
153
157
164
163
161
157
159
160
166
169
163
160
160
162
160
158
155
167
157
154
152
154
156
156
151
143
142
154
152
150
158
167
171
196
186
182
173
171
169
163
166
174
172
178
184
169
167
167
169
174
167
161
156
155
153
156
157
151
150
154
150
145
146
141
147
148
144
139
140
139
150
145
141
153
155
159
158
155
154
155
157
156
154
152
157
156
150
154
146
143
144
148
148
147
150
144
144
150
150
149
78
74
73
76
77
79
81
78
78
81
83
83
83
83
82
79
77
78
86
90
90
91
94
89
90
91
89
84
86
85
79
78
77
72
67
50
29
21
23
20
10
5
6
7
14
21
19
16
13
12
11
7
4
4
3
3
2
2
2
2
2
2
3
5
5
4
3
5
5
5
11
10
7
3
3
3
3
9
4
4
5
3
2
3
4
6
3
2
3
3
2
2
2
2
2
2
2
2
2
2
2
3
3
2
3
2
2
2
2
2
2
2
3
3
4
6
6
4
3
2
2
3
2
2
1
2
2
3
3
3
1
1
1
2
2
2
2
2
2
2
2
2
2
3
3
3
2
3
3
3
3
2
2
2
2
3
4
4
3
2
2
2
2
2
3
3
2
2
3
2
3
2
43
13
2
2
3
3
3
3
2
2
2
2
2
2
3
2
2
2
2
3
2
2
2
2
2
2
2
2
2
3
3
3
2
2
3
4
5
4
4
3
4
5
5
4
4
69
152
154
149
134
70
93
150
167
166
158
154
157
156
56
157
168
167
163
158
159
160
162
55
154
164
158
162
163
162
160
161
158
158
158
160
159
161
159
156
160
159
160
166
163
160
157
154
155
159
158
157
158
161
166
170
162
149
122
141
141
144
153
161
161
166
167
166
168
166
168
176
179
178
178
176
176
178
176
172
173
176
172
170
173
178
179
173
167
166
170
168
174
174
171
169
171
171
168
176
176
172
175
171
168
172
163
149
148
141
160
173
171
164
164
167
169
170
173
169
168
168
167
165
168
165
158
148
147
154
145
139
150
148
138
140
140
133
125
126
136
141
150
158
163
163
166
164
162
162
162
158
159
154
150
147
148
156
161
162
158
156
159
157
153
153
152
147
141
149
147
152
153
151
151
151
149
147
151
151
150
148
145
77
74
73
71
72
77
80
83
82
81
83
81
82
86
88
90
89
91
92
88
83
81
83
87
79
73
79
85
91
86
81
86
84
77
80
74
57
64
65
68
57
50
43
34
40
36
10
5
3
4
4
3
3
4
4
3
3
2
2
2
2
2
3
3
2
2
2
2
2
2
3
2
2
3
2
3
7
5
3
5
5
3
3
4
6
6
3
3
4
3
2
2
2
3
3
2
2
2
1
1
2
4
3
2
3
2
2
2
2
2
2
2
2
2
1
2
3
2
2
2
3
4
4
4
4
2
2
3
2
2
3
2
1
1
1
1
1
1
2
2
2
2
2
3
2
3
2
2
2
2
2
1
2
2
3
3
3
3
3
2
2
2
2
2
2
2
2
3
2
2
2
1
34
28
3
2
3
2
2
2
2
2
2
2
2
1
2
2
2
1
2
2
1
2
2
2
2
2
2
3
2
2
2
3
2
2
4
4
5
4
4
4
4
4
4
4
5
110
147
154
156
153
153
128
62
88
131
146
146
144
150
109
104
145
145
147
151
150
148
144
95
111
154
154
154
156
157
156
159
154
158
159
159
160
154
152
153
150
155
154
152
153
154
158
160
159
157
158
159
163
166
164
165
166
169
167
167
169
168
171
167
163
162
156
162
167
169
171
172
170
169
166
166
168
168
165
161
163
160
156
155
161
171
169
169
171
171
170
171
172
171
170
172
176
178
171
166
165
161
161
167
170
168
170
171
167
162
160
155
160
159
169
174
181
192
207
211
189
180
160
157
145
133
134
142
143
147
150
159
162
156
147
150
147
129
132
127
123
131
123
128
148
161
155
157
162
161
160
159
157
159
159
154
156
147
143
154
156
153
154
154
151
151
151
151
149
149
148
146
146
145
146
147
142
137
144
145
136
135
130
76
75
72
74
76
79
85
84
81
80
83
83
81
83
86
85
81
81
83
88
91
86
85
81
80
88
90
93
93
88
87
86
81
79
80
74
67
77
76
59
54
39
18
17
15
17
15
12
8
7
6
5
5
4
4
4
4
3
2
2
2
3
3
3
2
2
2
3
2
3
2
3
2
2
1
3
6
4
5
7
5
5
4
4
6
5
5
6
7
3
3
3
3
4
3
3
2
2
2
1
3
3
2
2
3
2
1
2
1
2
2
2
2
2
2
2
2
2
2
1
2
2
2
2
3
4
3
4
4
3
4
3
3
2
2
2
2
2
1
2
2
2
2
2
3
3
2
2
2
1
2
2
3
1
2
3
2
2
2
2
2
2
1
2
3
2
3
2
3
2
3
3
26
37
3
2
2
2
3
2
2
2
3
2
2
2
2
2
1
2
1
3
3
2
2
2
2
2
3
2
3
3
2
2
1
2
4
3
4
3
4
3
4
3
4
4
5
68
124
143
147
154
154
147
146
118
54
87
138
157
159
151
57
147
145
145
148
147
145
145
131
54
145
153
155
155
156
154
153
155
162
164
161
162
157
154
152
156
160
161
159
154
159
160
163
163
165
166
166
167
165
166
162
162
163
162
165
164
166
170
167
172
172
169
164
168
172
167
163
160
161
163
164
168
171
176
178
177
175
173
169
154
140
140
145
152
160
166
168
174
175
176
174
173
174
174
174
169
172
177
175
174
173
171
169
167
166
176
171
185
171
157
156
154
155
163
164
165
164
166
165
167
171
163
170
176
166
167
174
170
169
167
176
182
160
159
160
158
153
160
162
159
159
160
161
161
160
157
151
148
158
156
156
156
153
151
155
148
143
151
155
154
148
144
138
137
137
136
132
133
129
132
133
131
130
136
139
134
135
135
72
75
68
63
69
75
82
81
84
88
85
88
88
84
78
74
79
81
87
86
81
81
85
86
84
85
87
88
88
91
90
84
85
80
86
84
77
72
69
65
53
41
64
68
64
57
38
23
7
8
7
5
4
4
3
3
3
3
3
3
4
4
4
9
9
5
17
11
3
3
2
3
3
3
3
3
2
4
3
4
4
3
3
4
3
3
3
3
3
3
5
6
4
5
5
3
2
2
2
3
4
3
3
3
3
3
2
2
3
2
2
2
2
2
2
2
2
2
2
1
2
11
3
2
2
2
2
2
2
2
1
3
2
2
2
3
3
3
3
3
4
4
3
3
2
2
2
3
2
2
2
2
2
2
2
2
2
2
2
1
2
2
2
1
2
3
2
3
2
2
3
3
16
46
2
2
2
2
1
2
2
2
2
3
2
2
2
2
2
2
3
3
2
2
2
2
2
2
2
2
3
2
3
2
2
3
3
3
3
4
3
4
4
3
5
4
58
124
70
74
129
147
149
148
150
152
147
107
45
104
145
151
88
123
154
158
157
161
158
157
160
78
133
158
153
149
144
145
143
144
145
148
151
153
155
158
153
151
153
152
148
150
150
155
154
158
164
168
167
165
158
154
148
150
151
155
162
167
169
166
167
171
169
161
164
170
165
168
164
164
168
172
176
175
171
173
166
166
166
162
165
167
171
168
171
169
167
160
151
154
165
168
171
174
175
174
176
172
170
164
165
170
173
175
174
172
173
174
170
181
171
169
188
188
190
195
186
179
185
186
209
218
224
213
198
203
188
193
170
170
177
166
161
166
155
156
162
156
151
146
149
147
142
153
154
153
155
149
143
139
145
153
156
152
144
148
155
148
145
149
151
149
143
136
136
141
138
145
144
146
146
143
142
138
127
126
121
112
114
118
57
58
61
64
68
78
75
72
72
76
80
79
77
75
72
69
73
75
79
86
91
90
88
87
88
89
88
92
92
88
83
84
84
81
80
81
80
79
77
65
60
76
82
81
75
77
75
70
58
29
17
31
21
5
5
11
11
5
5
12
24
39
55
62
54
35
23
28
15
7
5
4
4
4
4
4
4
3
3
4
3
3
2
3
4
3
4
3
2
2
2
3
2
2
3
2
2
2
2
2
2
2
2
2
3
2
2
2
2
2
2
2
3
2
2
2
1
2
2
3
2
12
2
1
2
2
2
1
2
2
1
2
2
2
2
2
2
1
2
2
1
2
2
2
2
3
3
2
2
3
2
3
4
4
2
2
2
3
3
2
3
4
3
3
2
2
2
2
3
2
2
2
4
45
13
2
2
2
2
2
2
2
2
1
2
2
2
2
2
1
2
2
2
2
2
2
2
2
2
1
3
2
3
3
3
3
3
3
3
4
3
3
3
4
4
7
85
145
144
105
17
92
142
144
148
147
149
151
139
101
48
105
112
97
148
149
152
159
154
155
156
124
86
161
163
159
151
151
147
158
156
158
160
161
159
157
160
164
162
153
157
160
160
164
167
166
162
158
156
154
156
158
158
159
158
158
160
157
155
152
144
145
147
152
148
147
147
154
158
165
169
167
169
171
170
171
175
169
167
165
165
161
160
158
154
159
166
170
164
159
156
153
157
160
164
166
166
168
169
174
178
176
177
178
177
175
176
175
177
179
179
178
185
211
213
221
206
214
212
219
221
218
195
189
185
206
198
179
174
187
179
165
159
162
158
158
161
162
158
154
142
143
149
145
133
133
132
135
140
136
138
140
141
138
146
145
145
139
137
139
140
136
123
129
133
131
128
131
131
139
135
135
125
138
135
134
134
131
117
103
71
72
73
71
71
71
72
76
80
83
82
76
75
74
74
71
71
73
74
74
77
79
78
82
83
79
80
77
73
66
67
66
69
67
60
46
52
75
80
78
75
60
49
60
63
73
66
64
66
67
74
60
47
55
57
51
41
6
12
42
40
34
20
11
25
32
36
11
4
2
15
48
58
39
14
8
4
3
12
10
8
3
3
2
3
3
3
3
2
2
3
3
3
3
3
3
2
2
3
3
2
3
3
3
2
2
2
1
2
2
2
2
3
2
2
2
2
3
2
2
2
2
5
1
1
2
2
1
2
3
2
1
2
1
2
2
2
1
1
2
2
2
1
2
2
2
2
2
2
2
1
2
2
1
2
2
2
2
2
2
2
4
3
3
3
4
4
4
6
4
4
4
4
35
27
2
2
2
2
2
1
1
2
1
1
2
1
2
2
2
2
2
2
2
2
2
2
2
4
3
3
3
1
3
2
3
4
5
3
4
4
4
3
4
5
6
78
118
119
123
129
135
139
133
132
138
140
148
147
127
122
67
41
107
134
131
130
134
141
148
152
146
42
141
151
152
155
154
155
154
146
149
155
157
159
157
153
156
156
158
159
155
153
148
151
158
154
159
161
159
158
162
160
159
163
168
163
160
161
159
159
165
166
168
165
164
164
160
158
157
156
155
157
161
165
167
165
164
169
169
162
149
142
150
152
155
167
166
168
167
163
163
160
163
164
167
169
168
170
169
173
173
172
170
166
169
168
164
167
173
167
172
180
174
171
177
198
211
197
202
181
176
170
153
164
150
163
167
164
157
148
149
152
148
152
157
158
159
154
140
138
144
134
125
132
141
147
150
140
133
131
133
140
142
133
127
115
111
101
105
120
119
115
114
115
112
113
109
106
112
102
103
103
106
113
120
122
124
126
123
71
72
71
71
72
72
75
75
77
77
78
80
81
81
76
77
81
81
78
76
75
76
76
74
75
74
72
72
73
73
72
69
65
68
72
75
77
80
79
75
65
76
62
48
38
51
52
54
53
57
44
40
51
59
64
55
66
69
64
20
7
6
16
22
16
4
7
9
28
39
47
56
45
36
37
12
3
2
2
4
2
3
3
4
3
2
4
2
2
2
3
4
3
2
2
2
3
2
3
3
3
4
3
2
2
2
2
2
2
2
1
2
3
3
1
1
2
2
2
2
2
1
1
1
2
2
2
2
2
2
2
2
2
2
2
2
2
2
2
2
2
2
1
3
1
2
1
2
2
2
2
2
2
1
2
1
2
2
2
2
2
2
1
1
2
2
2
2
2
1
2
2
4
26
37
3
4
5
6
5
4
4
4
3
2
2
1
2
2
2
2
2
2
2
2
2
2
2
2
4
4
3
3
2
3
4
4
4
4
4
4
4
4
4
5
5
108
138
142
145
150
149
154
149
147
144
139
135
133
126
116
77
88
126
143
151
153
153
154
149
151
96
104
147
142
142
149
150
148
151
150
152
149
151
150
154
158
155
150
151
149
149
149
156
151
147
152
157
157
161
158
156
158
155
159
156
155
161
156
162
163
162
159
159
153
155
164
167
164
165
166
162
160
163
163
160
165
168
166
158
159
157
159
154
147
144
151
160
161
158
154
151
159
153
154
159
161
163
164
163
163
164
166
153
155
160
166
163
156
148
156
156
155
160
159
164
160
156
170
168
171
162
154
152
157
140
142
141
154
157
175
162
147
135
140
129
124
129
135
141
139
142
133
130
130
125
127
133
130
122
118
118
130
124
138
136
127
127
128
129
127
113
112
112
109
111
114
114
128
126
115
114
120
129
120
114
117
125
125
113
76
76
74
74
81
83
84
84
86
85
85
88
86
79
74
73
77
76
73
77
77
75
78
80
82
82
83
81
80
79
81
83
83
84
84
84
83
83
78
65
69
75
82
82
86
84
76
74
68
67
71
71
72
70
64
58
62
67
68
43
4
2
7
33
32
39
44
39
40
32
10
12
13
15
9
3
4
3
3
4
3
3
4
3
2
3
3
4
2
2
2
4
3
2
3
3
2
3
3
2
3
3
2
3
3
2
2
2
3
2
2
3
3
2
2
2
2
2
2
2
2
1
1
1
2
2
3
3
2
2
2
1
2
1
1
1
2
2
2
2
1
2
2
2
2
2
2
2
2
1
2
1
2
2
2
1
2
1
2
2
2
1
1
1
2
2
2
2
2
2
2
3
2
16
43
2
2
2
2
3
2
4
4
4
5
6
8
7
6
5
3
3
3
2
3
3
2
2
2
3
2
3
2
2
4
4
4
4
4
4
4
4
4
4
5
45
139
143
137
131
129
134
135
135
137
131
125
105
105
104
89
107
136
145
148
137
131
142
147
142
122
105
145
148
151
149
153
157
154
150
152
146
141
146
136
132
127
138
145
145
139
147
149
144
141
146
151
155
154
158
154
150
157
157
158
158
157
160
161
153
156
156
163
165
158
160
157
159
161
158
155
151
149
144
135
130
127
129
135
133
135
146
153
154
158
160
157
148
157
159
152
160
160
144
141
154
167
170
167
162
164
168
162
161
166
168
174
169
169
163
151
160
162
153
155
151
143
135
132
144
144
143
141
129
111
107
117
136
130
139
145
143
136
143
145
137
127
133
139
141
122
122
115
116
117
118
128
127
116
114
117
127
129
124
122
122
122
115
109
125
126
126
125
116
109
117
131
122
128
136
131
128
124
122
123
124
126
121
122
119
78
79
76
79
83
77
70
69
78
83
87
86
84
82
79
76
78
79
83
87
87
87
86
84
85
87
89
91
88
86
86
87
81
78
78
79
80
83
68
72
64
68
69
63
57
46
30
20
27
39
44
46
46
51
48
40
31
26
15
11
25
9
4
5
7
26
11
6
4
11
36
22
7
6
4
3
3
4
3
3
4
4
3
4
3
4
3
4
2
3
3
3
3
3
3
3
2
3
3
3
3
3
3
3
3
3
2
3
2
3
2
2
3
3
2
2
2
2
2
3
2
2
2
2
2
2
2
2
1
1
2
2
1
1
1
2
2
2
2
2
2
2
2
2
3
2
2
2
1
2
2
2
2
2
2
2
2
1
2
2
2
2
2
2
2
2
1
2
2
2
2
2
2
6
43
11
2
2
2
2
1
2
2
2
2
2
3
5
9
13
14
14
9
9
7
4
4
2
2
2
1
2
2
1
5
4
3
4
3
4
4
4
4
4
5
87
131
139
139
135
130
126
127
130
135
125
117
111
110
97
103
119
139
140
140
137
143
144
142
122
114
128
144
145
142
137
140
135
136
147
153
144
143
150
154
147
146
150
144
140
142
146
152
151
154
156
150
149
141
157
158
156
159
161
161
157
156
155
156
155
156
152
151
154
145
146
153
151
148
147
147
141
146
150
134
136
141
136
143
139
137
134
143
152
144
147
151
157
159
154
146
151
148
150
151
147
151
150
146
151
160
157
147
153
154
149
150
148
147
159
152
169
163
162
162
163
161
172
165
155
171
148
147
148
153
151
147
142
138
153
154
153
142
139
137
127
128
139
129
132
132
144
147
144
141
135
127
127
132
124
128
134
127
123
130
129
127
120
108
95
104
111
120
127
134
134
134
134
122
119
113
114
117
119
126
132
134
134
127
127
74
74
75
75
75
78
75
75
71
66
71
79
81
87
82
75
77
73
75
76
79
81
81
78
80
84
85
83
87
85
86
86
85
82
81
82
81
81
78
68
71
70
68
54
65
71
66
65
59
34
15
19
31
59
58
20
21
49
59
29
19
14
30
12
20
6
5
6
4
3
19
36
36
3
5
3
4
4
3
3
3
3
3
3
3
4
4
3
3
3
2
2
2
3
3
3
2
3
2
2
3
3
3
3
2
2
3
2
2
3
3
3
2
2
3
3
4
3
3
3
3
3
2
2
2
2
2
2
2
2
2
2
1
2
2
2
2
1
3
2
2
2
1
1
2
1
1
2
2
2
2
2
1
2
1
2
2
2
2
2
2
2
2
2
3
2
2
2
1
2
2
1
2
2
35
27
2
2
2
2
2
2
2
1
1
1
2
2
2
2
3
7
10
12
13
14
15
17
15
13
11
6
3
5
4
4
2
3
4
3
3
3
4
5
6
121
133
127
130
128
119
117
123
126
124
131
125
114
107
101
115
121
120
130
138
135
135
139
134
119
131
145
150
145
138
134
123
128
122
129
133
136
134
138
139
144
142
133
132
148
154
149
146
147
145
141
147
152
156
148
139
138
150
156
158
156
157
158
154
154
164
164
162
161
155
153
151
146
142
146
150
148
145
146
145
143
145
153
152
154
160
160
151
146
141
147
137
147
157
158
146
132
136
141
143
159
161
159
160
150
154
150
154
160
156
157
155
157
154
159
162
149
142
151
149
131
144
137
136
132
120
116
115
118
117
109
114
117
126
128
124
130
129
119
108
126
125
141
152
148
135
137
134
128
126
130
141
145
150
149
141
141
145
143
138
136
132
132
139
129
127
118
127
127
122
116
111
116
118
129
131
118
114
119
125
127
120
119
122
123
71
67
64
64
63
57
61
73
77
77
76
77
81
83
83
83
84
82
81
85
85
84
86
89
87
82
80
84
84
78
72
70
73
78
82
86
84
76
69
70
61
59
60
62
67
66
69
74
71
62
37
53
67
75
78
65
54
61
58
51
47
28
23
21
22
10
5
4
3
4
9
9
4
5
4
4
6
3
4
3
4
3
3
3
3
3
3
3
3
3
2
3
3
2
3
3
3
2
2
2
2
2
2
2
3
3
3
2
2
2
2
2
2
3
3
2
2
2
3
2
2
2
2
2
2
2
2
2
1
1
2
2
2
2
2
2
2
2
2
1
1
2
2
2
2
2
2
2
1
2
2
1
1
2
2
2
2
2
2
3
2
3
2
2
2
2
2
2
2
2
2
2
2
3
25
33
2
2
2
2
1
2
3
3
2
2
3
2
2
2
2
2
1
3
5
9
11
14
18
21
22
23
21
18
12
6
3
2
3
2
3
4
4
4
48
124
128
129
119
131
124
124
128
133
134
138
141
116
116
112
107
116
123
125
128
129
130
120
118
120
127
132
133
125
135
143
147
142
136
128
140
142
147
145
152
146
143
144
142
151
152
157
156
145
146
147
146
149
150
153
158
157
159
161
162
163
162
160
159
156
157
161
162
159
158
157
154
153
160
157
159
156
150
151
148
144
138
143
145
147
140
134
132
130
129
124
120
129
138
140
139
130
131
127
121
116
125
128
123
105
112
124
127
130
130
125
127
128
135
142
152
156
157
162
164
157
143
141
148
144
140
143
137
139
138
136
137
138
138
143
134
128
126
133
130
137
138
137
137
130
127
133
131
126
135
146
155
151
152
155
151
150
157
150
144
144
140
141
148
148
145
148
147
138
130
123
126
128
121
121
120
117
111
119
122
118
115
110
111
114
79
74
67
66
69
74
79
75
69
69
67
67
72
81
82
75
77
79
76
81
85
83
82
77
73
76
82
83
86
83
81
81
84
83
81
79
77
72
73
78
83
81
80
76
77
81
84
83
66
60
70
68
60
71
80
76
55
49
46
47
53
43
24
13
12
11
9
10
4
4
4
5
4
4
4
5
4
3
6
4
3
4
5
4
4
3
3
3
4
3
3
2
3
3
2
3
3
2
2
3
2
2
2
2
3
3
2
2
3
2
2
2
3
2
3
2
2
2
2
3
3
2
2
3
2
3
3
2
2
2
2
1
1
2
2
2
2
2
2
2
2
2
2
2
2
2
2
2
2
2
2
1
1
3
2
2
2
2
2
2
2
2
2
1
2
2
2
1
2
2
2
2
2
2
18
38
2
2
2
2
2
2
2
2
2
2
2
2
3
2
1
3
3
3
2
2
2
3
7
13
19
20
23
23
21
23
19
16
13
8
5
3
3
3
90
117
121
123
119
123
123
120
126
135
132
127
135
125
125
126
125
128
130
123
123
120
120
120
125
129
135
148
147
133
130
132
133
140
142
147
141
150
142
138
142
149
146
144
148
148
136
137
144
146
147
145
143
143
140
145
147
152
152
151
154
152
157
159
153
149
151
159
158
157
162
166
166
167
161
152
148
150
156
159
158
160
157
155
150
153
160
163
159
153
150
148
153
153
150
147
143
144
154
153
146
147
151
144
145
152
150
146
155
158
157
161
162
159
156
155
157
150
149
149
155
152
146
139
145
146
144
145
140
134
139
154
147
143
145
151
150
149
149
143
148
152
145
134
139
139
143
145
146
138
136
135
138
140
152
156
152
152
148
148
147
148
149
144
143
135
132
137
138
138
138
136
141
138
136
125
123
124
117
117
119
116
125
122
117
115
78
70
64
61
58
59
67
72
75
74
74
73
77
81
81
77
73
73
78
76
71
75
78
77
79
86
84
82
82
81
80
79
80
82
80
86
87
82
81
75
70
68
75
75
78
79
78
75
71
67
59
71
79
76
66
47
48
58
57
59
59
28
25
28
27
22
18
19
22
6
13
11
6
3
4
4
4
4
4
3
4
3
4
4
4
4
3
4
4
3
3
2
3
3
3
3
3
3
3
3
2
3
2
3
3
2
3
3
3
2
2
3
3
2
3
2
2
3
2
3
2
2
3
2
2
2
2
2
2
2
2
2
3
3
3
2
2
2
2
3
3
3
2
2
2
3
2
2
2
2
2
2
2
2
2
2
2
2
2
2
2
2
2
2
2
2
2
2
2
2
2
2
2
3
6
43
9
2
2
2
2
3
2
3
3
2
3
2
2
3
3
3
2
4
2
3
2
2
4
3
3
9
8
11
16
19
15
18
18
11
3
3
3
11
118
128
135
135
134
127
129
134
137
132
137
139
129
119
125
125
123
132
130
117
120
117
110
122
126
123
129
117
108
116
123
133
149
151
153
153
145
142
150
152
144
139
134
138
152
157
156
147
146
152
151
146
141
138
133
127
131
135
139
144
140
137
126
114
108
108
123
143
153
153
150
145
144
149
153
153
150
145
148
163
169
163
161
165
165
167
167
168
166
151
144
140
147
152
145
136
130
128
131
133
138
136
127
123
118
126
135
141
151
162
166
156
151
158
169
169
166
161
158
158
160
160
159
155
153
148
149
151
160
162
151
145
148
148
151
148
141
141
146
147
141
138
131
115
121
115
128
131
130
127
137
137
136
140
139
149
145
144
153
152
147
133
128
136
139
140
131
122
130
129
136
138
134
141
137
132
122
128
120
105
101
110
114
116
108
113
76
76
74
73
74
74
75
78
81
77
77
78
83
80
77
79
75
76
81
80
84
85
81
81
81
81
84
82
82
84
83
80
81
82
80
79
79
80
82
84
83
75
59
52
59
64
63
58
68
74
78
78
78
78
73
59
46
41
38
41
39
29
14
13
13
13
9
17
25
20
4
4
10
4
3
5
4
4
4
6
5
27
39
35
36
27
3
4
4
3
3
4
3
3
3
3
3
3
3
3
3
4
4
2
3
2
3
3
3
3
3
3
3
2
2
2
3
3
2
3
2
2
2
2
2
3
3
2
2
4
2
2
2
3
2
3
2
3
2
2
3
2
2
2
2
2
3
3
3
3
3
2
2
2
2
2
2
3
3
2
3
3
2
2
2
2
2
2
2
2
2
2
2
2
2
35
21
2
2
2
3
3
3
2
3
2
3
3
3
3
2
3
3
2
2
3
3
3
4
4
4
3
3
3
4
6
9
8
8
3
3
2
4
56
114
111
122
120
111
109
102
104
101
97
103
91
96
107
111
113
123
112
114
118
123
127
129
131
134
141
138
136
140
145
147
151
147
145
148
146
144
147
142
143
144
146
153
157
152
151
157
152
149
142
144
151
155
151
148
152
153
147
141
140
137
138
139
141
142
143
137
137
138
136
146
159
162
152
148
141
136
137
137
149
158
158
159
154
159
168
171
172
172
163
162
158
153
153
158
156
156
162
159
151
149
159
151
148
144
147
151
153
155
154
141
134
138
135
136
142
147
143
129
123
120
116
119
122
133
143
149
144
143
147
149
156
150
145
152
145
139
132
142
150
147
155
160
154
150
149
146
151
150
147
131
123
130
125
128
129
135
140
137
130
130
135
142
144
144
145
142
143
147
138
130
131
140
134
125
121
118
127
130
127
118
121
119
106
105
114
71
70
71
72
75
73
71
68
66
64
61
56
50
48
49
52
53
59
62
52
49
52
61
70
74
74
79
82
83
84
80
77
80
79
74
73
76
75
72
71
72
78
76
68
63
57
71
73
74
79
80
77
76
77
76
72
67
47
56
57
58
35
29
35
30
19
10
19
26
17
10
6
4
5
7
4
4
4
5
5
4
3
13
28
19
11
26
42
30
9
3
3
4
3
4
3
3
4
3
3
4
4
4
4
4
3
3
3
3
2
3
3
3
2
2
2
2
2
2
3
3
2
3
3
3
2
3
3
3
3
2
2
2
3
2
2
3
3
2
3
3
2
2
3
3
2
3
3
3
3
3
3
3
4
3
3
2
3
2
2
3
3
3
3
2
2
3
3
2
2
2
2
3
3
4
31
28
2
2
3
3
2
3
3
3
3
2
3
3
3
2
3
3
3
4
6
4
4
4
5
4
4
4
4
4
4
4
4
4
4
3
3
3
68
88
86
81
85
94
85
85
78
86
100
99
105
97
96
95
117
115
111
114
123
124
125
124
125
114
101
109
109
124
138
151
148
135
150
150
151
153
157
154
151
150
156
160
155
153
151
133
131
133
148
151
146
149
145
149
155
158
160
161
158
155
151
154
155
153
152
147
144
153
161
161
164
159
148
155
163
163
153
145
147
158
155
151
147
132
126
137
137
137
131
136
147
159
158
160
164
162
166
166
162
153
145
145
138
133
136
135
137
130
135
140
132
130
135
133
143
139
132
132
131
136
131
128
127
139
139
135
129
126
142
147
144
131
130
131
132
136
142
146
154
157
159
161
159
160
157
158
161
157
153
145
142
145
150
147
141
139
145
147
147
142
138
128
132
134
141
150
151
149
144
139
135
135
135
140
138
139
140
141
144
139
135
131
134
130
130
61
64
66
69
70
72
79
80
80
75
70
70
77
73
72
70
67
70
76
78
76
75
74
77
81
82
81
79
79
76
75
75
74
70
64
57
52
54
62
63
66
77
82
72
67
67
67
79
82
79
73
69
69
69
60
57
48
52
41
48
54
57
50
35
32
27
30
34
39
34
38
32
45
43
47
23
13
5
15
4
8
18
23
17
8
3
3
4
4
4
3
3
3
3
4
3
4
5
4
3
3
5
13
24
31
29
37
38
39
43
46
40
20
12
11
14
17
10
5
3
5
4
8
3
3
4
3
3
3
3
4
3
3
2
2
3
2
3
3
3
2
2
4
4
2
3
3
3
4
4
3
4
3
3
3
3
3
3
4
3
2
4
3
3
3
3
2
3
3
4
3
3
3
4
4
20
37
4
4
3
3
3
4
3
4
5
5
3
4
4
4
4
4
4
4
4
4
5
4
4
4
3
4
3
4
4
3
4
5
5
4
3
4
67
74
78
64
41
69
67
67
78
78
78
67
58
39
41
43
62
82
70
65
80
115
118
107
108
114
103
82
66
73
83
119
142
149
163
165
159
155
149
149
150
137
141
145
144
148
153
154
150
152
158
158
155
153
153
148
144
149
148
149
151
155
154
147
146
155
156
159
160
160
156
157
161
165
159
144
148
156
151
149
147
145
143
127
126
127
131
131
140
142
138
130
140
150
152
160
170
165
162
159
151
146
143
144
136
131
130
125
130
137
136
139
144
151
160
159
159
158
157
153
149
146
146
150
156
154
168
177
175
177
179
182
186
193
193
199
178
168
163
165
162
154
157
165
161
147
145
153
156
154
148
146
141
148
149
146
143
140
136
132
131
133
130
136
143
148
148
147
145
144
139
135
139
138
142
141
136
134
132
128
124
120
126
128
123
118
116
49
47
43
42
44
43
53
66
68
68
77
82
86
88
80
73
70
66
64
70
74
78
84
88
89
92
90
86
86
88
88
85
85
83
77
73
77
83
87
79
71
73
69
57
48
50
62
68
66
69
64
57
53
51
50
53
61
71
62
54
58
68
76
71
63
46
50
56
64
54
52
60
63
58
56
54
61
60
48
46
22
15
28
29
17
5
9
28
49
55
47
45
46
45
45
36
47
26
19
40
38
37
41
36
21
14
34
25
7
45
47
37
15
3
4
7
9
3
3
4
5
3
19
15
4
3
3
4
4
4
3
4
4
3
3
3
3
3
3
3
4
4
3
3
2
2
4
2
3
4
3
4
3
4
3
3
3
3
3
4
4
4
3
3
4
5
4
5
5
6
6
5
4
4
4
9
42
10
5
4
5
4
5
4
5
6
5
4
4
4
4
5
6
4
5
4
6
5
6
5
5
5
6
6
5
5
5
6
7
7
6
7
6
7
7
12
16
21
18
14
13
30
25
36
44
43
35
29
39
42
78
79
84
74
85
109
122
125
129
135
131
117
113
101
89
72
75
116
131
142
142
134
137
149
151
144
144
142
136
127
139
152
140
135
129
113
105
129
149
144
133
124
124
123
135
145
147
152
158
161
154
154
158
158
156
158
161
163
163
157
156
154
150
157
155
155
150
146
136
138
142
143
141
132
136
133
140
155
161
156
157
161
167
166
169
165
163
163
164
165
168
166
164
166
168
169
167
164
166
169
168
165
165
164
166
162
166
171
195
202
204
181
188
199
200
200
174
157
157
157
161
161
160
153
152
149
152
149
150
158
161
160
160
160
154
154
148
137
138
144
147
148
151
149
150
149
144
141
140
137
132
138
147
146
143
141
142
143
143
147
143
137
129
126
122
122
117
119
131
131
63
65
67
66
67
69
70
69
64
64
66
70
76
73
71
73
77
80
79
79
82
86
85
85
84
84
82
77
80
76
71
67
56
53
49
43
35
43
56
62
62
65
68
70
69
69
70
72
75
74
74
73
72
73
76
77
75
68
60
57
58
67
78
81
79
65
68
71
62
56
55
56
57
63
62
60
64
56
49
42
48
54
55
48
43
32
8
24
32
46
49
44
47
63
56
57
33
34
37
48
43
50
49
52
43
49
51
54
34
22
14
8
22
40
35
33
47
48
44
49
41
30
20
3
5
5
19
4
3
4
4
4
4
3
3
4
3
6
5
4
4
4
4
5
4
4
4
4
4
5
5
5
4
3
3
4
5
4
4
5
6
5
4
4
4
5
5
4
5
5
4
5
5
5
4
6
41
25
4
4
4
5
6
5
6
5
5
4
6
4
5
5
5
6
6
5
6
5
5
5
6
5
6
5
5
5
6
6
6
6
6
6
6
6
6
7
7
7
10
14
15
16
36
12
15
31
25
12
13
14
33
52
63
78
81
92
106
131
129
128
130
113
105
98
93
100
92
90
101
111
118
113
108
105
119
133
131
127
114
110
108
122
130
141
147
145
140
125
113
119
121
114
119
119
122
124
133
137
145
151
155
155
152
148
144
149
152
158
160
163
165
168
169
159
144
133
123
116
116
112
105
106
107
115
116
117
120
125
144
159
165
164
164
162
160
153
149
149
155
158
158
160
157
159
162
159
156
151
146
142
142
145
146
149
153
155
162
188
207
219
220
230
240
224
227
229
225
213
184
192
170
167
171
167
165
158
157
161
161
155
148
153
151
143
138
141
138
145
145
149
148
149
150
150
151
151
153
156
153
157
153
153
148
147
146
144
144
135
129
122
121
129
129
120
119
119
116
117
116
122
59
60
58
60
62
62
70
75
75
75
75
76
78
76
75
73
70
69
71
74
73
74
79
82
82
81
74
70
72
75
77
76
75
75
74
72
70
69
69
75
74
76
78
77
79
77
70
67
77
75
74
71
70
70
76
73
76
79
72
60
60
60
63
62
67
72
71
66
71
67
62
65
74
67
69
68
63
51
43
48
50
49
49
52
49
52
52
56
64
63
69
68
60
61
55
41
16
29
14
5
16
21
17
16
20
25
16
11
15
19
21
5
19
53
49
18
6
10
11
40
48
39
20
4
4
7
14
20
16
10
4
5
5
4
3
3
5
5
4
4
4
4
4
4
5
4
4
4
4
5
5
4
3
5
5
5
3
5
5
5
5
4
4
4
5
5
5
5
5
4
4
4
5
4
4
4
33
37
4
4
4
4
4
5
5
5
5
5
5
5
6
5
5
4
4
5
5
5
6
6
6
4
4
5
5
5
5
6
6
5
6
6
6
6
6
6
7
10
12
16
15
16
33
26
39
57
43
17
13
12
11
13
15
20
40
46
44
73
107
129
136
132
123
122
125
113
102
92
91
92
101
115
114
111
103
106
107
107
115
115
110
107
108
118
133
134
142
138
135
137
147
144
136
137
132
127
127
127
117
110
129
135
137
132
129
120
119
126
129
138
149
161
160
168
166
161
152
149
149
149
150
148
142
142
141
142
143
150
145
137
135
154
159
166
169
167
163
157
152
152
156
157
157
164
167
170
172
170
168
164
166
168
166
163
166
168
175
171
168
163
161
159
152
144
139
134
133
136
144
156
161
168
182
173
162
136
124
122
127
127
125
144
150
152
142
145
146
151
155
156
153
147
144
149
151
151
152
151
148
151
148
150
147
147
146
149
149
151
152
146
145
145
141
137
138
133
132
132
137
135
71
71
70
65
64
68
74
75
74
72
68
69
70
73
68
67
70
70
71
71
72
75
75
73
70
67
67
68
69
71
73
74
73
72
71
72
70
71
68
75
79
81
81
76
77
77
81
80
78
70
66
63
63
71
67
65
63
64
65
68
68
64
62
62
64
67
67
63
61
62
59
55
61
71
68
56
61
67
69
64
55
48
35
29
35
32
41
39
44
51
56
55
52
47
45
38
33
25
41
42
39
46
41
38
35
28
21
15
5
6
27
31
12
4
6
4
4
16
17
13
19
13
9
5
4
4
4
5
6
6
17
7
5
5
4
4
5
4
4
4
5
5
5
5
5
5
4
5
5
5
5
5
4
5
6
5
5
5
6
5
7
5
4
5
4
4
5
6
5
5
3
6
4
5
6
4
23
42
5
6
5
4
5
5
5
6
5
6
5
5
5
5
5
5
5
6
5
4
5
5
6
5
5
5
4
4
5
5
5
5
5
6
6
6
6
6
7
11
17
20
23
32
23
14
30
53
58
47
45
21
16
37
58
68
59
45
49
55
48
51
95
126
142
137
137
138
131
119
117
116
118
128
133
130
135
130
126
131
127
118
125
126
117
107
105
126
134
131
125
118
123
143
145
139
143
146
147
148
150
142
128
125
132
131
140
140
144
145
143
135
126
131
144
144
151
161
164
164
164
164
158
155
145
137
134
133
133
140
147
148
143
143
154
160
160
162
161
158
158
162
164
164
161
163
162
165
170
168
166
158
157
161
167
171
168
168
179
176
168
179
209
220
193
199
206
219
197
168
167
172
165
158
148
147
142
142
139
144
142
148
151
140
147
153
151
143
141
139
147
149
151
149
142
141
141
138
143
149
151
153
150
150
147
142
146
146
148
145
144
143
144
142
142
141
140
138
136
137
137
139
75
74
72
71
69
72
68
63
58
60
57
55
53
54
57
61
57
56
58
55
51
46
51
54
56
60
59
56
51
46
44
45
48
53
54
53
51
52
58
66
74
75
77
76
76
79
81
77
77
76
58
64
66
69
47
42
57
62
50
30
46
50
55
58
58
62
63
59
57
63
63
56
57
52
37
32
25
41
55
62
66
61
56
48
32
30
20
22
27
22
36
47
49
47
38
24
29
18
7
24
47
49
42
23
21
21
7
9
14
33
22
14
15
11
18
28
27
38
33
16
4
4
15
10
5
4
6
5
4
4
5
5
5
4
4
4
4
4
4
4
3
4
5
5
4
4
4
6
5
5
5
5
5
5
5
5
4
5
6
6
5
5
5
5
5
5
5
5
5
5
5
5
5
5
5
6
12
46
9
5
5
4
4
5
5
5
5
5
6
5
5
6
5
5
5
5
4
5
5
6
6
4
6
4
5
4
4
5
5
5
6
6
5
6
6
7
7
10
24
30
18
14
23
18
27
47
45
66
55
56
39
33
50
57
82
101
98
87
110
107
77
45
78
121
134
127
112
104
114
132
136
130
136
137
141
143
140
135
128
125
128
130
133
135
132
127
127
133
145
146
140
148
150
145
140
137
150
153
154
153
141
133
133
131
112
101
99
111
109
110
117
126
123
111
109
117
128
150
163
164
159
160
160
158
157
156
152
150
148
153
153
156
161
161
163
160
153
155
155
158
163
159
162
164
164
161
155
148
146
144
140
143
145
149
155
164
164
162
162
176
186
179
211
213
197
180
183
161
158
158
160
152
150
153
159
155
153
154
146
142
141
134
131
126
127
132
140
147
149
146
140
146
146
147
142
144
148
149
146
147
146
142
141
141
144
146
147
144
135
130
131
126
125
128
134
135
135
137
134
138
64
64
68
70
69
65
64
66
67
64
61
62
62
62
62
60
52
45
47
54
54
55
55
57
53
46
44
46
50
52
50
49
48
46
49
55
61
66
68
69
69
76
78
79
80
84
79
76
77
80
69
64
61
70
75
68
74
72
58
52
43
42
49
50
40
38
56
51
49
58
60
62
60
62
57
50
34
26
41
51
53
52
62
66
61
50
47
40
48
24
8
25
36
37
33
64
55
36
14
14
34
48
66
70
64
70
73
72
63
75
63
68
59
54
41
42
45
25
7
4
4
6
10
5
4
4
5
5
3
4
4
5
5
5
4
4
4
3
4
4
4
4
5
5
5
5
5
5
5
5
5
4
4
4
5
3
4
5
5
5
5
5
5
5
4
4
5
5
5
5
6
5
5
5
5
5
5
43
24
4
5
5
5
5
6
5
5
4
5
4
5
5
6
5
6
5
4
5
5
6
6
5
6
5
4
4
5
5
5
5
6
5
5
6
8
11
10
10
17
36
41
53
72
64
30
40
53
45
51
63
69
55
18
16
24
41
64
72
76
91
105
104
95
109
120
123
137
139
136
130
123
115
121
132
129
130
136
129
131
139
148
145
139
139
149
150
148
140
136
129
129
126
125
128
137
139
143
149
152
149
133
139
145
147
140
135
134
136
130
132
139
146
149
148
146
148
153
156
153
150
154
158
159
159
157
161
160
159
163
158
153
149
159
160
159
155
145
148
149
154
152
157
148
152
157
163
164
165
161
161
158
157
157
148
155
155
169
168
170
156
159
167
165
183
172
154
147
141
135
133
134
127
116
111
118
117
127
133
134
142
147
151
152
146
142
142
147
141
135
134
130
125
117
109
108
110
118
123
129
127
123
124
127
129
132
132
135
140
140
135
134
137
138
140
142
134
137
132
133
139
66
66
66
68
66
64
64
65
67
71
71
72
73
73
74
71
68
69
69
71
72
71
73
74
74
70
68
65
63
62
63
64
65
66
69
71
73
74
77
82
82
82
83
81
79
75
67
64
61
59
61
63
67
74
76
76
72
64
54
50
43
40
36
34
33
30
44
56
60
69
70
70
68
68
67
69
66
66
56
51
44
40
31
26
24
26
23
23
23
16
21
17
22
23
26
22
16
10
39
56
50
34
38
55
51
45
47
40
30
44
47
32
16
9
11
9
11
36
48
49
31
36
19
26
30
37
15
11
34
41
45
41
42
34
25
31
46
40
40
34
14
17
32
11
6
11
6
6
4
4
5
5
5
5
5
5
5
5
5
5
5
5
6
6
7
6
6
5
5
4
5
3
4
5
3
5
5
34
37
4
5
5
4
5
5
4
5
5
5
6
4
5
5
4
5
6
5
6
5
5
4
4
5
5
5
6
5
5
5
6
6
6
5
6
6
8
12
11
11
16
27
51
73
98
79
53
44
69
76
52
44
90
105
68
44
33
37
38
50
56
51
42
56
75
95
116
126
130
140
140
137
133
115
108
103
109
115
126
131
124
114
114
117
119
118
123
148
143
134
128
129
135
141
148
156
156
154
147
148
151
156
161
160
159
159
152
142
143
138
134
133
134
129
126
132
139
153
158
156
143
137
147
150
157
155
153
154
152
152
149
148
143
151
156
156
152
152
155
153
147
152
152
147
151
159
166
164
162
173
164
160
160
153
153
160
175
174
161
151
158
160
161
149
145
145
144
144
137
133
134
129
122
128
131
129
133
131
130
127
125
130
137
141
139
143
147
147
144
146
141
138
137
136
132
128
125
122
120
126
129
135
141
142
142
143
141
141
137
141
139
135
137
136
135
134
132
134
132
128
131
67
64
62
60
57
61
62
63
63
61
60
56
50
48
50
53
52
52
50
47
48
50
56
59
60
65
69
71
73
71
71
71
72
74
77
77
77
82
86
85
87
85
81
78
81
81
78
75
70
70
71
73
76
73
67
66
61
60
58
61
66
65
60
52
42
39
42
49
53
55
60
61
63
59
57
63
65
56
55
58
54
56
56
62
66
67
56
48
55
57
38
27
47
40
35
21
17
19
43
52
62
52
32
34
25
20
10
7
20
28
33
21
13
14
24
22
40
60
68
58
48
46
57
63
68
71
61
46
48
63
54
69
53
47
62
55
34
40
43
40
40
27
7
7
6
27
20
8
14
6
6
5
5
4
4
5
5
6
5
5
5
6
5
5
6
6
5
4
5
5
5
5
5
6
6
6
5
25
44
6
5
5
5
6
6
6
5
7
7
6
6
6
5
4
5
5
5
5
4
3
4
4
5
4
3
5
5
5
5
5
5
6
6
6
5
7
8
12
17
23
39
62
78
74
86
94
105
99
100
106
102
102
105
117
111
108
97
87
94
97
94
101
105
98
101
99
93
117
130
126
115
113
130
139
132
127
130
137
134
136
132
139
144
148
154
151
144
143
148
145
144
148
147
142
139
134
128
126
131
139
141
140
141
144
152
153
146
146
155
159
155
148
146
123
129
135
149
148
157
155
155
157
153
155
155
152
154
155
148
140
139
147
154
160
151
148
149
150
154
156
153
140
144
147
152
163
150
146
162
150
132
140
152
158
161
159
169
174
157
160
173
180
161
155
145
140
154
149
147
150
146
141
133
133
137
145
143
140
136
131
128
115
126
133
143
138
130
130
132
139
144
143
142
141
144
136
133
136
144
142
139
140
142
140
141
142
138
133
138
141
138
136
137
137
133
136
136
137
134
131
60
60
61
67
68
65
63
62
57
60
62
58
57
55
55
55
55
55
53
55
57
59
60
64
68
67
71
72
74
78
79
77
76
77
79
78
77
78
82
84
86
89
90
88
87
88
87
85
79
81
81
81
72
69
72
73
72
68
68
67
60
52
49
51
53
54
58
62
64
62
61
67
68
68
69
69
71
72
69
68
73
72
69
69
68
66
70
59
48
47
56
61
61
57
59
50
50
37
34
25
23
30
47
59
63
51
45
46
55
62
57
50
35
38
42
49
54
50
42
10
9
6
6
6
5
8
8
5
9
11
15
23
9
5
5
6
6
8
6
5
4
8
6
6
5
5
6
6
5
7
5
5
5
5
5
5
5
5
5
4
5
4
6
5
5
5
5
4
5
5
5
5
4
4
4
6
6
13
47
9
5
5
5
5
6
6
6
6
6
5
5
6
6
6
6
5
4
5
5
5
4
5
5
5
4
5
5
5
5
5
6
5
6
6
6
6
6
8
13
24
28
45
39
44
78
100
112
107
113
117
117
138
132
126
127
131
117
122
114
126
131
132
127
122
116
119
136
139
130
140
151
145
143
142
145
147
149
153
154
147
138
131
135
145
150
153
146
143
155
152
147
146
144
138
142
153
153
147
140
136
137
138
139
135
135
139
144
141
139
129
122
122
128
130
128
132
134
132
130
128
130
126
128
132
134
140
146
144
145
148
147
153
153
156
155
149
147
148
152
151
153
153
153
152
148
144
146
150
142
137
129
117
113
116
116
114
112
113
122
124
123
122
123
128
133
131
126
118
119
132
130
127
132
139
134
128
129
128
120
111
111
109
113
113
115
116
123
131
133
135
128
136
143
144
130
128
130
138
132
128
130
133
138
140
136
137
138
137
139
139
136
137
133
126
129
128
124
125
118
113
49
41
38
47
56
58
60
57
60
67
58
56
67
72
69
71
73
76
76
74
73
75
74
74
75
77
80
83
83
83
84
86
85
84
86
86
87
87
87
86
85
87
86
80
75
73
73
73
73
74
78
75
74
76
76
73
74
75
72
69
68
70
70
70
67
66
72
73
73
77
76
74
74
72
69
67
63
54
37
37
47
47
44
50
56
62
64
71
65
61
54
48
43
43
53
76
81
77
65
62
56
66
70
59
60
56
61
70
61
67
68
61
59
63
65
46
34
16
28
15
8
5
13
7
7
5
8
6
5
6
10
10
7
5
6
6
6
6
6
5
10
7
8
6
25
28
24
24
5
6
6
6
5
4
4
6
6
5
6
5
6
6
6
4
5
5
5
6
6
4
4
5
4
3
4
5
5
5
43
24
5
5
5
5
6
6
6
6
5
4
5
5
6
5
5
5
5
6
6
6
5
6
6
5
4
6
4
4
5
6
6
6
6
5
6
6
6
8
14
29
50
53
61
72
80
78
77
79
83
98
112
114
113
115
110
118
121
132
136
130
118
113
119
129
144
140
145
146
141
147
152
148
147
146
143
144
148
143
132
125
134
136
136
139
142
141
145
153
156
145
143
150
157
158
157
157
158
155
156
157
157
159
153
152
144
144
148
143
138
140
143
144
143
138
148
155
155
152
155
156
156
154
145
138
137
144
154
153
155
150
152
156
159
161
161
158
161
164
163
161
160
160
155
164
158
160
173
173
153
151
153
155
150
136
130
136
134
135
128
124
122
126
115
113
123
123
116
109
115
116
111
112
125
139
145
142
140
130
131
137
139
140
142
143
146
141
144
149
150
147
136
131
132
136
142
147
152
151
150
146
145
146
148
146
143
143
142
144
139
121
108
98
89
82
76
62
54
62
63
58
50
50
46
43
40
38
37
42
48
46
50
53
51
49
51
54
56
57
59
64
67
67
63
70
71
69
66
66
69
74
76
78
80
81
81
78
73
68
67
68
69
67
59
53
48
44
44
43
38
38
54
64
72
74
75
74
79
69
71
72
69
70
67
69
70
73
72
68
70
72
73
70
73
71
72
71
65
63
71
69
60
51
43
44
46
46
42
45
47
37
40
42
34
31
28
30
43
63
84
81
62
66
73
77
81
76
77
83
81
76
68
70
62
54
69
60
50
27
18
29
30
16
17
8
7
4
13
11
8
7
8
8
6
12
18
12
6
9
18
7
4
5
6
7
13
16
9
12
6
5
5
5
5
4
4
6
5
6
5
6
5
6
5
4
5
6
5
5
5
4
4
4
5
4
4
4
5
5
35
34
6
6
6
5
5
6
5
6
6
5
5
6
5
6
6
5
6
6
7
7
6
6
6
5
6
6
5
6
6
6
6
7
7
6
5
12
9
22
32
54
53
49
38
44
86
85
63
77
100
106
88
80
87
93
114
132
134
134
127
139
138
132
136
142
137
132
142
134
144
152
148
150
150
143
144
147
142
141
137
131
132
144
150
151
149
153
152
151
154
155
150
155
154
148
149
152
155
160
159
157
158
154
157
159
160
160
161
161
159
147
146
156
157
160
156
149
150
158
159
159
160
154
162
157
152
150
148
149
147
137
133
137
136
134
130
121
127
140
153
153
149
150
143
140
143
143
142
139
131
131
142
141
132
128
135
139
145
139
124
115
118
127
130
119
118
118
120
122
122
126
132
133
131
131
136
137
139
141
142
136
132
133
133
129
131
127
127
136
143
140
141
139
143
146
141
143
150
145
147
143
140
134
127
110
99
92
84
84
79
68
67
54
38
42
54
58
45
52
52
43
63
60
58
54
50
48
47
44
38
43
42
25
18
17
17
20
28
40
46
51
55
60
61
63
67
67
66
65
66
69
71
72
72
71
71
73
70
67
62
58
54
53
54
55
54
56
55
52
46
43
42
41
44
48
48
48
59
63
67
68
71
71
67
66
66
68
72
69
71
69
66
66
61
56
54
56
54
52
47
47
44
36
31
30
29
30
30
34
41
46
50
55
53
50
50
41
36
39
56
73
72
80
79
80
72
65
70
76
73
74
74
70
68
57
47
58
61
70
69
71
66
61
55
45
52
35
39
43
51
48
38
10
21
16
25
18
23
41
43
25
19
9
19
15
23
23
14
16
8
20
37
27
5
5
5
6
5
5
5
6
5
6
4
4
5
5
6
5
5
5
4
4
5
5
4
4
4
5
26
42
5
4
4
4
5
4
6
5
5
6
5
5
4
5
4
5
6
6
5
6
6
6
6
6
7
7
6
6
6
6
6
6
6
6
6
8
12
12
7
16
33
32
25
25
50
79
64
72
89
86
98
98
97
79
75
76
98
131
130
117
111
117
113
107
103
114
125
129
122
141
152
155
153
146
141
146
153
153
149
143
142
143
143
151
156
158
160
159
158
159
151
151
157
155
141
141
139
133
148
154
159
157
158
157
157
154
159
161
159
161
160
159
160
160
157
162
162
159
156
154
154
154
155
149
150
151
148
142
139
136
138
139
137
138
136
133
129
133
140
144
148
154
156
149
141
145
149
151
148
150
155
148
145
142
136
129
123
113
119
119
115
111
117
120
129
131
133
136
138
139
141
147
148
148
152
153
148
148
148
149
153
155
155
152
149
148
143
139
150
147
142
133
133
139
136
134
129
118
104
87
76
56
51
45
44
34
29
34
32
35
32
39
45
43
36
44
37
29
37
35
54
46
44
45
51
60
65
64
60
61
59
51
52
51
45
39
35
32
31
27
26
24
27
32
34
34
35
36
36
34
36
36
43
49
54
65
71
74
76
76
75
74
75
73
72
70
69
67
66
63
65
64
63
64
67
70
74
77
77
76
70
70
69
64
64
69
72
70
70
71
70
71
74
75
74
73
72
68
70
75
73
72
70
67
63
61
58
51
46
44
41
48
56
59
63
66
72
67
64
64
61
63
74
75
76
78
67
53
52
54
64
76
67
58
67
69
75
71
64
60
59
51
50
53
52
59
55
39
28
42
40
23
34
38
44
54
48
38
51
48
39
31
21
20
39
32
36
37
43
37
37
18
7
6
5
6
6
7
6
6
6
6
7
6
6
5
5
4
5
4
5
4
4
5
5
5
5
4
15
47
8
6
6
6
6
6
5
6
6
6
6
6
6
5
4
4
4
5
5
6
6
5
5
5
5
6
6
5
6
6
6
6
6
6
6
6
6
7
7
8
7
10
15
17
16
35
34
26
29
33
44
48
50
58
77
101
115
113
120
116
90
101
109
124
132
142
147
153
152
154
155
155
156
154
153
151
152
153
153
156
153
154
151
152
154
150
152
155
158
155
148
138
133
142
156
153
149
133
137
141
140
136
129
128
129
128
134
135
136
131
131
122
122
130
136
138
146
150
144
145
147
144
144
143
144
145
146
146
153
151
144
143
141
140
140
137
130
128
133
128
121
122
129
137
142
140
144
144
144
153
150
160
164
162
162
161
157
155
154
156
158
156
151
149
153
151
154
158
161
163
158
158
160
158
156
151
152
148
148
152
152
150
149
154
157
148
134
130
119
109
91
70
53
60
76
75
64
53
54
54
52
82
82
70
66
67
70
60
55
29
31
31
36
65
46
26
27
25
26
28
61
60
55
57
55
54
58
62
68
72
69
65
65
60
56
50
44
41
43
41
39
41
41
36
33
33
34
34
32
33
35
41
45
52
59
63
65
68
73
76
77
80
81
79
79
80
77
74
73
72
76
76
76
76
76
76
80
81
78
78
78
77
72
67
62
54
57
57
70
75
75
68
64
63
61
61
61
63
64
67
71
71
72
72
74
71
67
58
54
54
59
65
65
66
65
67
72
71
63
63
60
61
69
73
77
81
73
70
65
59
62
68
71
70
72
75
77
79
78
72
69
75
71
73
67
68
52
28
21
29
43
50
47
42
37
27
16
11
7
8
17
27
45
43
46
29
17
9
9
21
31
35
44
11
6
6
6
6
6
6
6
6
6
6
6
6
6
5
6
6
6
6
6
5
5
6
5
4
6
44
22
5
4
4
5
5
5
5
5
3
6
5
5
7
5
6
6
6
5
5
6
6
6
6
6
7
6
5
5
5
5
5
10
13
14
14
13
9
11
16
17
29
37
55
79
80
92
87
84
87
77
68
71
71
63
75
89
98
125
134
120
101
119
109
91
102
118
124
140
139
121
131
134
121
125
129
124
117
116
111
115
121
120
124
121
120
117
114
120
130
138
139
137
140
139
149
152
152
146
140
140
142
139
137
130
129
123
118
119
127
130
132
135
143
144
134
131
144
144
141
141
149
140
130
140
139
133
131
129
125
123
123
124
121
118
117
116
123
126
134
139
141
141
137
134
134
138
145
145
138
131
129
138
142
142
143
145
150
153
156
155
160
161
163
163
157
151
152
157
159
151
146
148
152
153
153
152
152
162
147
149
133
113
111
105
95
86
79
77
68
70
64
43
35
33
33
49
51
32
37
35
56
58
59
46
49
66
85
87
49
43
36
28
34
36
25
26
23
19
22
50
53
56
58
60
62
65
66
66
68
69
69
69
63
62
60
63
64
62
62
60
63
61
59
58
58
59
59
58
58
60
64
67
69
68
66
65
69
75
79
80
79
80
80
79
81
82
79
78
80
81
83
83
74
68
68
60
59
60
66
62
66
68
71
70
67
62
56
50
53
63
66
67
68
62
56
49
45
41
45
58
68
76
77
76
77
81
82
81
80
78
76
76
75
76
75
76
80
70
77
77
75
72
73
65
64
62
74
76
77
71
62
62
77
70
60
62
65
62
65
62
63
65
56
58
60
65
63
64
69
71
73
68
43
23
25
34
45
52
43
9
5
7
16
6
8
6
6
6
6
5
5
5
5
6
5
5
5
5
5
6
6
5
4
5
5
5
4
5
5
5
5
5
5
4
4
4
5
5
36
34
6
5
5
6
5
5
5
6
6
6
6
6
6
6
6
6
6
6
6
6
5
5
6
6
5
5
6
5
5
5
6
6
6
12
16
9
13
23
18
22
28
33
40
44
53
56
64
82
107
115
113
98
93
111
98
108
110
120
123
126
114
123
123
121
113
117
113
112
121
134
117
115
110
85
87
113
118
118
127
127
133
140
144
142
145
148
141
124
116
111
124
125
133
139
133
143
147
144
147
152
152
158
159
155
151
147
145
145
142
137
141
148
151
147
142
146
154
160
157
158
159
161
157
162
162
160
159
157
158
159
162
159
158
156
158
165
166
164
163
160
164
163
159
158
154
149
141
140
140
146
141
136
140
146
144
140
137
139
145
140
149
154
154
148
141
140
148
155
158
159
154
148
140
142
140
130
132
129
97
82
68
55
57
55
43
43
49
46
50
56
51
58
52
62
46
35
62
67
43
44
56
59
60
66
60
59
59
50
71
55
38
30
36
30
22
28
26
15
26
54
53
54
57
59
59
61
64
65
65
66
66
67
69
70
71
69
69
69
69
70
70
73
77
78
76
77
75
69
66
67
69
71
75
75
77
77
81
84
85
85
84
85
85
84
84
83
87
84
82
80
76
73
67
63
58
54
57
58
61
59
61
61
66
69
70
73
67
67
63
58
61
62
65
65
66
69
65
68
67
63
66
68
73
75
77
73
74
76
78
79
78
77
80
79
75
72
71
74
75
71
63
60
60
58
61
71
74
66
65
61
64
68
62
57
66
72
75
79
78
74
60
41
53
60
59
59
68
55
66
60
57
56
56
57
37
40
40
11
11
13
6
5
6
5
6
9
17
9
6
6
7
4
5
6
5
6
5
5
5
5
6
6
5
5
6
5
5
5
5
5
5
5
5
6
5
6
6
6
26
44
6
7
6
7
7
7
6
6
6
6
6
6
7
7
6
7
8
8
7
6
5
5
6
6
6
5
5
5
5
5
6
9
15
17
14
20
34
42
50
52
57
69
81
73
72
81
66
58
70
104
141
137
104
104
124
134
124
115
105
131
139
138
113
119
112
113
88
87
89
120
140
130
125
128
133
125
134
139
150
154
151
147
141
148
149
148
151
156
157
159
154
149
151
150
158
158
156
157
158
159
159
157
156
154
154
145
143
143
134
138
126
158
155
147
145
155
156
160
158
160
159
158
157
158
157
148
147
151
154
150
148
153
154
152
154
160
168
179
186
182
176
171
179
164
160
157
157
159
163
163
159
163
165
164
167
171
163
169
163
167
179
166
136
138
141
121
95
99
87
71
57
51
57
61
51
52
49
47
69
70
63
54
42
48
42
32
60
82
42
51
57
63
66
63
49
45
43
75
68
76
60
55
52
48
54
69
71
60
59
60
55
33
37
38
36
27
27
20
15
67
67
67
67
69
68
66
66
67
67
66
68
70
72
72
73
75
74
75
80
78
77
78
79
77
78
80
79
78
78
79
81
82
84
85
84
83
85
84
85
85
86
86
87
83
86
87
89
87
81
79
77
76
76
75
65
57
59
53
56
50
50
47
51
54
53
57
63
56
62
66
69
69
66
60
55
46
41
56
54
54
54
58
60
60
61
63
62
68
68
62
66
67
72
72
74
71
74
77
78
76
70
68
62
66
73
74
72
70
70
71
72
72
72
68
69
67
67
66
65
71
75
73
77
77
75
71
77
60
51
56
57
54
37
52
61
40
42
43
43
60
64
63
43
35
14
11
45
52
33
16
10
9
6
6
6
6
5
6
6
6
6
6
6
4
5
5
5
5
4
5
5
6
6
6
5
5
6
6
17
49
9
7
7
7
7
7
7
7
7
6
7
7
7
7
7
6
6
7
7
7
7
7
6
6
7
6
6
10
6
6
6
5
7
10
10
10
27
32
29
48
50
71
89
85
78
101
82
75
80
78
95
106
98
69
80
86
98
101
112
116
115
118
130
155
143
137
141
133
142
143
149
157
153
149
150
147
147
144
148
149
149
149
147
152
152
147
145
148
153
156
156
152
144
152
143
146
148
154
151
152
153
154
152
152
150
151
152
136
147
130
117
147
147
155
155
153
152
156
162
163
144
141
154
157
154
147
150
149
148
147
144
143
143
147
147
148
145
151
163
172
165
168
174
176
171
172
172
179
183
187
188
173
162
161
163
170
173
155
141
145
133
88
45
52
62
51
58
62
62
66
61
52
32
36
45
67
78
76
56
43
49
59
61
70
70
58
67
81
74
78
82
87
87
82
64
61
64
81
82
60
69
68
67
60
53
50
55
57
58
59
65
54
29
23
36
31
21
17
17
67
67
65
68
72
74
72
72
73
73
73
74
73
74
72
74
73
78
79
77
77
78
78
80
79
79
78
74
76
77
78
79
79
77
77
78
79
81
85
86
79
77
78
76
83
84
82
78
77
76
78
73
70
73
76
75
70
69
70
70
72
70
67
57
59
60
54
47
46
47
47
52
50
49
44
36
37
37
35
36
34
45
44
45
44
49
48
49
54
50
53
50
49
45
47
49
56
51
47
49
55
58
53
48
45
40
38
48
56
58
66
63
69
67
60
66
72
69
67
60
40
40
49
53
53
55
62
58
41
11
11
10
5
10
9
5
8
12
14
19
16
43
50
39
19
9
6
11
34
45
22
5
5
18
11
6
6
6
5
5
5
5
4
6
5
4
6
5
5
5
5
4
4
5
5
5
5
6
6
7
45
25
5
5
6
6
6
6
5
6
6
6
6
6
6
7
5
5
6
7
7
6
6
6
6
6
6
6
5
5
5
5
5
6
6
10
19
25
29
21
44
54
54
60
49
54
62
41
38
41
61
86
99
99
109
116
126
121
114
123
131
128
126
139
150
143
150
151
150
151
152
156
154
153
148
148
145
147
145
144
140
147
149
148
154
154
154
153
153
154
156
154
153
154
153
148
149
146
149
150
152
153
151
155
158
156
137
156
109
128
114
119
127
150
138
154
160
150
148
151
153
133
155
162
164
163
160
161
159
158
160
159
158
154
154
153
156
160
165
160
159
159
158
157
159
160
160
161
159
162
163
167
171
178
187
189
160
130
82
71
71
63
65
53
47
36
39
39
32
32
33
37
47
40
46
61
64
82
85
80
77
70
71
66
56
68
77
78
76
75
81
80
74
76
70
66
62
66
69
69
66
62
57
60
61
65
58
48
45
50
70
61
57
48
23
24
16
16
33
28
70
71
68
69
68
69
69
70
71
71
71
72
72
73
73
73
74
74
76
78
78
78
77
77
76
78
78
78
78
77
75
74
72
74
77
77
78
77
76
79
80
81
77
63
54
62
56
63
74
79
80
81
83
74
62
57
65
73
68
71
71
70
66
68
64
60
60
52
49
44
32
32
34
41
43
40
31
36
29
31
33
37
39
35
37
35
37
32
30
40
53
54
57
55
48
41
42
46
45
42
43
32
41
36
39
35
34
29
37
34
37
37
29
36
35
30
25
19
14
11
8
13
17
14
14
13
15
11
7
16
18
15
14
16
6
5
5
4
4
5
5
5
5
6
5
5
6
5
4
37
46
5
5
6
5
5
4
4
5
4
4
4
4
5
5
4
5
5
5
5
5
4
5
4
4
4
5
5
5
5
34
37
4
5
5
6
5
4
6
6
5
5
5
4
6
5
5
4
4
4
5
5
5
5
5
5
5
4
4
5
5
6
6
6
6
12
27
46
58
59
69
70
71
85
92
95
98
94
92
90
105
110
110
110
116
125
128
122
120
122
128
127
141
144
143
143
142
143
146
150
146
147
146
141
142
147
145
141
146
143
143
149
149
146
149
154
154
152
151
149
147
148
150
152
149
148
151
151
151
155
156
157
157
158
159
159
145
104
97
109
116
120
130
99
99
120
130
140
134
142
162
164
163
164
163
161
158
157
158
155
162
164
163
160
155
156
159
159
159
136
128
139
147
165
167
164
147
137
126
121
109
89
91
94
92
64
49
45
44
52
55
45
37
49
44
52
51
35
35
31
30
33
30
35
43
55
47
65
74
63
66
72
75
68
59
53
63
66
59
64
60
57
65
72
59
68
64
57
64
60
67
79
60
58
58
57
55
52
50
46
55
69
52
49
35
17
24
32
21
25
66
67
68
69
71
72
73
73
73
74
74
76
76
74
75
77
78
78
77
77
79
79
78
79
78
77
75
75
76
76
76
78
75
74
72
72
69
71
72
73
75
78
80
82
81
77
63
48
50
59
53
58
61
65
69
62
49
41
40
49
57
60
59
61
64
65
63
63
63
58
46
43
39
41
41
38
31
28
23
25
23
20
21
20
19
14
15
15
20
19
12
11
15
20
22
22
25
35
37
36
43
45
47
42
35
35
36
32
30
26
34
38
44
44
46
52
41
32
22
13
9
9
18
17
21
21
20
18
5
7
10
11
5
5
5
5
5
5
4
5
7
5
6
5
5
5
6
6
6
9
11
4
5
5
4
4
4
4
5
5
4
4
4
5
6
3
5
5
5
6
6
5
5
6
4
5
5
4
5
5
26
42
5
5
5
5
5
4
5
4
4
5
5
5
5
6
4
5
5
5
6
5
5
4
5
4
5
5
5
5
5
7
7
8
12
11
13
21
34
55
60
73
74
69
76
79
80
82
85
88
98
97
103
114
117
119
119
115
119
126
114
120
119
128
135
137
136
142
141
143
147
151
148
145
143
145
145
145
150
150
149
148
148
145
144
140
137
135
133
137
135
134
125
125
120
105
114
127
138
141
142
144
142
148
149
132
103
82
87
87
96
129
128
92
103
119
129
91
135
132
132
121
92
118
142
121
103
83
81
100
118
129
133
121
88
78
91
103
88
76
72
68
68
78
75
100
129
92
91
81
84
72
68
83
78
90
73
70
68
72
59
64
57
41
38
39
54
47
34
43
37
45
40
39
34
60
62
62
64
66
66
65
69
72
61
52
57
61
57
55
56
54
57
58
59
54
63
59
60
58
57
63
64
51
59
55
48
49
46
43
48
66
58
49
49
28
21
20
23
26
69
69
69
69
67
67
67
67
67
67
68
67
68
68
70
73
75
77
78
80
83
82
82
82
83
83
84
84
84
82
78
77
73
73
74
74
76
77
75
73
73
73
73
73
74
78
77
79
72
64
56
52
42
56
61
62
71
68
67
64
62
53
51
46
49
49
49
49
52
55
44
41
40
35
37
46
49
47
43
42
43
44
41
42
40
42
40
38
34
30
31
31
35
28
33
29
22
16
18
15
19
12
11
12
5
5
4
5
6
11
12
16
18
19
20
21
24
21
22
9
10
11
20
18
20
18
22
16
15
15
17
17
14
11
7
5
6
7
6
6
6
7
7
7
4
5
5
5
5
5
4
4
4
5
5
10
10
8
11
9
9
5
5
7
7
6
6
6
7
5
4
5
5
6
5
5
5
5
5
5
18
48
6
4
5
5
4
4
4
4
5
5
5
6
6
5
5
5
4
4
5
6
4
5
4
4
5
5
5
5
5
6
6
7
13
23
34
59
51
70
75
55
63
64
76
79
83
80
85
88
99
99
107
118
123
130
136
137
142
146
150
152
151
150
149
157
153
148
137
107
108
126
130
128
120
124
125
120
109
104
99
87
79
80
75
90
85
83
80
96
102
96
93
98
97
103
99
97
95
88
88
105
103
98
93
89
87
73
68
80
105
78
100
81
89
85
80
60
61
67
62
74
61
64
79
75
67
72
59
64
83
92
81
72
82
79
69
56
56
59
60
70
72
81
80
85
84
71
70
71
72
82
77
81
72
70
70
65
68
69
76
69
82
72
60
50
43
39
41
41
38
41
42
42
44
53
64
72
71
68
68
68
69
64
68
63
53
55
54
54
55
56
53
53
52
54
57
55
51
55
54
52
56
50
53
51
48
54
52
44
45
52
47
49
46
37
20
27
29
28
69
68
66
69
69
70
70
73
73
73
73
73
73
73
74
76
77
74
73
75
78
80
81
82
82
82
83
85
85
86
86
85
84
84
83
82
82
82
82
83
82
80
79
80
79
75
75
75
76
76
79
76
65
64
61
50
46
47
55
64
65
67
69
61
45
42
40
39
47
53
48
42
44
47
49
45
43
40
41
36
30
31
26
30
27
32
39
47
49
49
50
53
53
52
52
51
55
57
56
53
54
49
44
37
28
24
27
25
31
26
26
24
18
19
19
28
30
25
19
12
16
20
35
43
45
45
48
47
52
45
47
45
46
49
38
23
28
20
10
14
6
5
6
5
7
6
6
5
5
6
5
5
6
5
5
4
4
5
9
12
11
7
6
5
7
5
5
5
5
4
4
5
5
5
5
5
5
5
5
5
7
45
23
4
5
5
5
4
4
3
5
5
4
5
5
5
5
5
4
5
5
4
5
4
4
5
5
5
5
5
5
5
6
6
7
14
27
38
52
64
69
76
83
82
81
85
88
89
96
104
109
119
130
134
142
148
152
152
148
138
123
133
135
125
100
102
109
103
98
93
107
120
126
118
108
101
105
110
98
89
95
93
82
81
84
83
92
88
85
78
83
116
112
86
80
89
107
105
105
93
106
109
111
100
90
84
96
79
63
65
82
71
74
75
77
74
75
63
53
62
72
84
92
82
83
85
73
89
100
59
72
67
57
49
46
50
44
53
51
54
51
57
57
68
79
79
75
71
56
53
55
62
64
68
68
70
59
66
56
58
63
63
60
63
73
63
53
51
41
42
44
43
42
41
43
50
56
58
55
62
66
63
63
64
66
61
55
54
52
53
48
49
50
45
44
45
48
50
46
50
58
57
49
53
57
52
45
45
46
44
43
45
39
40
39
42
39
34
36
42
71
74
72
71
70
68
68
69
72
75
76
76
74
74
75
77
77
78
79
79
80
80
80
81
82
83
82
84
85
85
85
83
81
82
84
84
85
84
84
85
83
84
87
86
84
83
82
83
83
81
80
78
69
68
67
63
56
52
52
54
50
52
49
45
38
38
42
44
44
46
46
38
41
44
42
48
52
52
51
54
49
40
33
26
23
25
27
20
22
19
25
22
18
20
18
20
21
25
30
25
31
27
27
25
24
23
19
23
26
23
24
24
20
16
22
26
20
16
16
17
14
12
13
13
15
15
14
9
7
6
7
8
5
5
5
5
5
5
7
14
14
24
35
42
44
51
53
52
47
36
33
25
20
11
8
7
6
4
5
5
6
6
4
5
4
5
5
4
5
4
4
3
5
5
6
5
5
4
4
4
5
35
34
5
5
5
4
5
5
5
5
4
5
5
5
5
5
5
5
5
4
4
5
4
5
4
5
5
6
5
5
6
9
12
8
7
10
13
11
18
20
34
40
45
57
63
72
85
99
95
113
120
137
138
129
122
132
128
127
98
84
66
59
58
67
93
102
101
126
127
117
101
121
131
119
106
85
100
104
106
93
77
71
82
70
67
79
84
69
72
67
67
87
76
77
72
92
94
71
75
90
84
81
88
76
65
68
58
56
64
67
69
67
60
68
64
65
84
84
74
77
88
88
91
79
78
64
63
78
79
92
79
74
67
64
49
61
60
51
45
54
76
86
73
64
65
70
72
81
71
58
60
63
65
59
57
62
46
63
54
61
73
69
66
73
74
65
44
39
39
36
61
66
43
56
71
64
59
59
59
62
63
59
63
64
60
58
53
48
49
41
39
43
45
37
39
43
46
38
40
48
48
48
51
51
55
44
41
39
38
42
37
35
39
40
37
32
24
22
37
63
67
69
72
73
72
73
75
74
74
72
71
72
73
72
72
71
71
70
70
73
76
77
79
80
81
81
82
83
83
82
81
82
82
81
82
80
80
81
82
79
81
80
79
82
83
82
82
82
78
79
80
81
80
83
72
64
71
72
71
61
67
63
55
51
47
43
48
48
46
46
49
52
47
44
41
47
41
42
39
40
34
34
41
44
33
32
26
34
25
32
25
22
22
32
22
25
31
25
25
23
13
13
11
15
18
21
20
25
22
22
17
22
16
16
9
6
7
6
8
14
7
14
12
12
12
11
21
25
23
7
18
20
10
16
11
9
6
14
12
10
19
23
30
44
49
64
64
69
73
67
67
64
54
48
44
34
28
19
16
11
9
10
9
6
6
6
6
6
6
5
4
5
4
4
5
6
6
6
5
4
28
43
22
13
5
5
6
5
5
5
5
5
6
5
6
5
5
5
5
5
5
5
5
5
4
5
5
5
8
6
6
6
13
17
18
18
22
21
21
17
12
15
17
13
14
17
26
40
52
70
74
60
73
80
101
100
107
115
104
106
116
108
106
115
119
136
147
147
140
149
148
149
140
135
130
122
93
72
54
56
50
62
63
53
53
54
50
56
52
47
55
52
52
52
55
68
78
58
62
74
74
77
75
75
80
70
56
55
59
61
68
60
52
59
59
57
75
70
61
56
56
64
54
54
52
52
51
53
52
61
62
66
78
84
84
70
69
66
58
72
74
67
69
67
66
73
72
73
70
61
45
48
57
65
55
56
51
67
77
76
69
63
64
61
57
65
73
60
44
41
52
59
73
68
68
57
55
59
64
61
61
58
55
57
56
57
49
48
48
44
44
46
38
35
34
38
43
42
38
40
38
43
44
47
48
55
48
37
36
28
29
36
32
29
34
34
34
30
23
73
72
72
72
72
72
73
73
73
74
75
75
76
77
77
78
78
79
78
79
78
79
80
80
80
82
83
83
82
85
84
82
81
80
76
75
79
82
82
79
79
80
80
79
78
78
76
74
72
70
68
62
61
61
65
69
61
60
61
62
65
61
48
53
45
44
41
41
50
50
50
48
48
51
42
42
39
40
35
33
42
35
34
33
32
29
27
27
30
25
23
24
22
22
21
22
22
26
27
26
27
24
22
17
17
16
35
12
13
13
11
12
10
15
20
19
9
5
8
8
14
9
12
19
7
8
9
8
8
10
8
20
16
18
14
13
29
29
25
10
10
7
17
23
21
14
27
29
36
45
49
55
63
65
64
65
70
68
62
61
53
49
48
49
42
39
28
14
10
9
6
7
7
6
6
6
6
5
5
5
5
20
46
23
24
12
6
7
7
6
6
5
6
6
6
6
7
5
6
6
6
5
5
5
6
5
6
6
6
5
6
7
9
11
7
10
9
7
9
10
11
14
31
26
30
32
32
29
35
45
42
46
49
58
67
80
87
92
87
98
84
90
94
98
113
118
128
126
128
118
112
116
109
108
94
83
88
71
53
58
65
63
52
50
42
42
45
49
63
57
56
59
65
58
60
74
60
61
68
72
62
57
55
67
71
65
76
73
58
59
63
57
51
52
51
62
53
46
49
50
44
42
44
46
45
43
45
49
49
48
50
47
55
51
56
81
75
79
81
77
74
79
66
59
58
63
70
77
79
76
72
59
53
75
85
78
74
68
71
74
76
78
67
61
50
50
54
57
66
66
68
64
60
61
64
63
65
54
51
57
56
58
56
59
56
54
54
44
43
40
46
46
48
40
32
22
28
34
39
41
32
30
37
37
41
43
47
52
52
31
26
27
22
19
21
18
27
26
28
24
71
72
72
72
70
70
69
67
68
68
70
72
75
77
75
76
76
76
78
80
81
82
83
81
81
81
81
80
81
81
81
82
82
82
79
77
78
82
84
83
81
78
74
77
78
78
75
74
73
72
76
75
74
74
73
68
64
64
59
63
60
52
46
47
50
51
50
45
41
43
39
41
46
51
42
45
50
44
41
39
44
45
36
37
40
41
40
39
39
40
35
38
33
33
31
35
32
36
38
36
34
34
34
32
30
30
28
19
18
16
15
13
17
18
19
8
6
6
5
6
12
9
10
8
7
5
7
6
6
5
6
8
7
8
6
6
6
6
9
11
11
7
8
7
7
7
6
7
7
15
21
17
31
33
37
48
49
64
55
54
59
63
60
56
51
48
44
35
33
28
22
16
19
16
12
8
7
7
8
7
7
11
43
20
5
5
5
6
5
12
5
6
7
6
6
6
7
5
6
6
6
5
6
5
6
5
6
6
25
5
6
6
6
9
7
15
16
13
24
22
26
24
33
35
34
43
28
27
49
57
49
45
64
57
52
57
65
72
70
73
81
101
90
87
88
94
99
81
79
73
57
66
81
93
102
69
60
73
73
64
73
69
61
57
81
75
64
58
55
53
69
59
74
70
58
64
77
63
61
61
55
57
53
52
61
58
54
54
55
50
45
44
46
48
46
46
49
43
38
42
42
38
41
43
44
39
40
38
39
43
47
44
44
41
47
66
66
66
61
74
74
73
77
70
52
59
81
79
81
75
77
77
78
71
69
63
66
68
71
61
62
68
71
58
44
43
47
50
53
55
52
56
59
61
58
56
65
62
59
52
57
54
48
54
62
57
57
54
58
46
46
48
51
46
38
26
27
33
35
42
36
33
37
37
41
42
37
39
44
39
30
36
33
28
25
22
24
29
25
20
66
66
67
70
70
71
72
72
71
72
72
73
73
75
76
76
75
76
77
76
77
76
77
78
78
81
82
82
82
84
83
81
83
83
80
80
78
79
78
80
80
81
80
77
77
77
75
74
77
74
77
75
75
73
72
75
77
76
79
74
76
74
74
71
74
71
70
67
59
60
54
55
50
46
43
43
41
36
35
33
35
33
27
39
39
42
42
43
46
42
44
48
47
43
40
32
28
25
18
23
29
26
26
22
25
27
29
28
15
20
15
9
10
12
13
7
5
6
5
5
5
5
5
6
5
9
7
5
5
5
6
10
7
7
6
6
6
6
8
7
6
6
7
15
32
23
22
24
26
30
33
34
43
46
50
44
46
48
53
51
46
42
54
53
55
43
45
47
44
43
42
45
42
34
36
38
40
40
42
33
32
23
37
35
15
12
11
8
5
5
6
6
8
7
7
7
7
6
5
5
5
6
5
6
16
13
15
15
11
7
6
5
6
8
14
25
28
27
20
25
24
33
45
51
56
67
61
56
56
68
67
65
64
64
76
74
80
85
84
75
77
80
88
80
75
83
81
77
84
85
78
89
86
85
93
73
57
58
74
85
97
88
70
76
74
72
71
65
68
72
59
60
57
68
55
61
57
57
46
41
44
52
55
50
42
48
56
47
44
40
40
44
43
41
42
46
42
42
33
34
41
44
43
37
36
35
34
37
40
50
49
46
41
45
50
53
60
61
51
50
56
63
66
66
65
65
59
54
58
66
73
74
73
68
73
60
56
58
57
57
53
55
60
55
58
61
64
66
60
38
44
49
51
50
53
51
50
48
53
55
47
57
53
51
58
58
58
61
53
45
45
46
47
47
50
36
39
36
35
39
43
38
40
52
47
36
35
27
38
35
33
36
41
40
33
32
31
35
38
43
70
70
69
70
68
67
72
72
72
73
72
75
75
74
74
75
75
73
74
73
72
72
73
75
76
80
82
79
80
80
79
77
76
76
76
78
77
76
76
76
77
79
78
78
78
78
77
77
76
78
78
77
78
79
78
77
78
78
76
78
79
78
80
80
80
79
80
77
77
72
70
71
69
71
72
69
64
61
57
56
48
41
37
41
37
40
33
26
24
21
22
23
29
33
39
43
47
49
47
47
42
39
34
37
44
39
41
37
37
32
27
23
13
12
13
7
18
19
15
6
6
6
6
5
5
8
7
6
5
7
6
11
6
5
6
6
7
6
8
8
9
11
12
10
9
10
18
21
19
29
34
35
46
49
58
52
52
48
53
56
47
51
48
52
46
50
51
49
50
52
49
52
42
22
24
25
28
35
40
44
44
48
42
47
41
30
16
12
7
6
6
6
5
5
7
7
7
9
18
22
27
21
29
34
45
41
39
43
43
44
24
30
32
27
30
37
39
40
45
55
54
57
65
67
64
68
73
73
75
77
84
72
73
75
67
61
75
82
82
70
80
77
81
78
75
74
65
73
78
74
64
63
67
80
81
82
76
76
78
77
73
74
66
57
64
63
67
66
62
62
71
60
55
55
50
40
42
48
51
46
44
41
50
57
52
56
56
49
49
39
37
42
39
38
40
41
37
34
36
30
40
46
59
47
34
40
52
50
38
41
46
53
56
57
44
44
49
51
43
42
44
52
53
53
52
54
49
51
57
57
60
62
64
68
71
63
72
69
60
54
48
50
62
44
49
52
49
51
54
42
40
42
43
45
48
44
42
41
42
48
56
56
49
49
51
54
52
48
43
41
42
39
36
37
27
26
30
34
40
38
35
27
29
30
32
35
40
43
51
49
45
47
50
50
49
49
47
50
56
61
73
73
74
75
74
72
73
72
72
73
72
72
72
73
74
74
74
75
77
78
79
78
75
74
73
72
76
79
80
81
82
83
84
84
85
84
84
84
84
84
83
84
82
82
82
83
85
86
84
83
83
82
82
80
79
82
80
81
75
78
72
73
78
77
77
76
76
76
76
75
76
73
73
74
73
74
74
72
70
73
69
67
66
59
53
50
50
46
41
38
37
29
21
17
15
13
12
16
24
36
38
46
53
51
51
37
36
34
36
35
39
38
32
29
22
8
12
9
7
6
6
7
8
6
5
5
5
6
5
5
6
6
11
12
13
21
25
28
31
29
27
31
27
22
21
26
34
34
39
38
60
47
48
43
54
63
66
61
57
57
59
58
56
60
59
60
62
66
57
55
53
50
54
52
43
38
35
46
45
56
53
57
52
49
57
46
42
45
42
36
38
40
34
27
30
48
62
69
60
56
55
50
53
56
57
61
57
50
49
50
50
64
76
66
65
59
57
55
54
73
76
74
70
74
75
79
73
80
85
77
72
69
72
64
59
52
50
53
63
67
71
63
69
76
81
74
65
60
59
53
57
56
59
67
55
66
68
74
67
68
61
62
60
52
49
54
56
58
58
57
56
65
74
80
75
45
50
67
75
57
38
35
41
45
48
53
58
61
63
56
43
37
38
37
37
39
34
32
35
36
50
56
54
74
63
67
76
73
61
63
60
68
66
73
56
59
63
60
48
42
43
49
50
48
45
46
47
48
57
57
59
58
57
60
65
67
68
74
57
47
45
49
46
32
35
43
40
37
42
45
39
34
34
33
29
31
27
27
28
35
43
43
36
41
46
49
43
34
32
32
29
20
22
22
18
19
21
26
30
29
22
27
30
37
52
50
49
50
50
51
54
62
67
67
65
65
67
66
65
65
66
66
68
71
72
72
72
73
74
76
77
77
74
71
71
74
77
78
78
79
79
80
81
82
83
82
81
80
78
76
75
75
77
79
81
83
81
83
86
87
85
86
85
86
85
85
84
84
84
84
81
81
80
80
80
78
79
81
70
68
66
74
78
74
79
73
74
70
71
74
73
74
73
75
74
76
76
78
77
77
75
72
69
72
68
57
57
50
52
51
43
40
38
40
41
39
37
26
18
12
9
13
16
17
32
37
40
43
47
45
43
40
43
38
32
20
23
21
22
16
14
11
20
20
13
18
10
10
9
11
15
19
31
36
45
56
51
51
50
47
45
42
41
44
42
40
42
35
37
38
70
45
51
54
62
66
72
54
55
57
54
58
51
50
56
47
42
46
42
46
46
50
53
58
57
47
56
56
55
58
58
49
42
47
60
59
64
61
60
59
66
63
73
69
65
57
56
63
70
56
64
80
70
69
66
71
74
71
76
72
71
74
77
64
68
65
68
56
64
60
64
69
70
72
72
72
63
62
64
62
67
68
71
70
78
68
62
49
54
67
69
59
62
60
60
71
64
61
54
46
44
47
55
72
63
62
60
60
55
59
70
66
55
52
52
54
53
59
77
86
81
73
74
82
92
80
62
48
57
66
57
41
45
44
46
50
53
59
69
64
63
64
57
55
57
63
43
41
45
55
58
68
56
55
68
67
65
60
62
59
56
63
59
56
58
51
60
65
62
51
42
45
62
46
40
43
44
42
46
49
52
51
50
54
58
59
56
65
69
62
50
47
40
20
18
25
27
28
25
32
31
32
34
24
17
16
17
16
16
19
26
25
24
23
33
36
35
36
34
35
39
36
32
30
30
34
34
35
42
43
36
31
35
52
54
55
55
57
53
52
56
62
63
61
59
61
63
62
64
63
66
67
67
67
68
69
71
72
72
71
71
70
69
69
70
73
77
80
81
83
82
83
82
81
81
81
81
82
83
85
86
85
83
80
79
78
79
80
78
80
83
84
85
86
87
86
80
87
82
72
71
74
79
77
75
75
81
82
80
79
80
75
75
69
68
63
67
66
65
66
68
70
74
73
75
75
75
75
76
76
77
75
70
68
69
58
47
47
46
47
52
49
39
42
43
46
38
42
58
52
46
41
32
18
14
7
10
18
22
33
41
39
36
43
50
44
50
46
41
59
53
44
59
52
51
51
49
46
40
49
43
39
36
29
35
47
53
59
57
50
60
59
61
62
62
64
69
64
60
56
63
67
71
84
83
82
81
66
65
67
55
52
50
57
60
57
55
52
56
56
63
61
61
69
55
48
51
56
47
63
71
60
62
50
72
74
64
56
66
71
71
74
67
73
69
65
55
52
64
54
54
66
66
66
56
53
66
70
71
67
62
57
55
58
55
54
75
79
70
76
76
76
68
68
67
63
64
68
60
58
57
61
58
61
68
73
78
68
67
56
52
55
57
61
59
65
61
51
56
60
60
80
79
68
62
65
70
69
68
67
77
75
68
65
73
75
82
86
68
71
68
63
53
51
57
79
79
65
46
55
64
58
71
70
55
50
51
53
62
66
51
63
61
56
60
65
61
57
59
58
60
64
70
67
54
61
52
51
52
52
53
59
71
78
53
42
49
50
51
47
38
31
43
32
26
27
37
42
38
37
42
46
48
50
49
52
51
55
63
68
66
63
54
32
19
22
21
20
24
37
41
32
27
26
27
25
31
29
31
31
37
43
37
34
40
42
40
44
46
49
55
57
52
51
53
56
62
62
68
68
72
75
76
75
77
74
78
82
81
76
78
85
88
84
86
88
89
89
88
95
73
74
74
74
74
74
74
75
75
76
74
76
74
75
74
74
73
74
74
74
78
82
84
86
86
86
86
86
85
86
86
87
88
88
88
88
87
85
85
84
85
88
86
78
77
79
82
83
85
84
82
73
72
74
65
67
66
69
67
69
69
69
68
78
73
68
73
58
54
63
70
75
79
79
81
72
73
67
73
67
77
72
69
61
63
62
55
50
56
47
45
43
45
36
31
26
19
15
20
21
30
42
44
48
46
43
32
17
12
17
14
24
37
41
41
45
48
53
57
66
73
77
78
79
62
53
48
41
45
49
49
51
58
56
53
56
58
61
65
62
64
68
66
71
73
63
66
65
57
59
73
85
86
89
86
84
79
81
73
74
75
65
70
65
61
62
57
64
69
72
74
66
65
66
62
65
66
60
67
62
67
65
69
48
59
65
71
56
59
71
60
54
52
50
60
65
56
67
70
67
64
73
78
78
64
56
49
58
72
86
83
81
74
44
42
58
76
74
75
78
86
101
58
55
53
53
57
58
55
59
62
63
58
54
56
58
69
69
61
60
54
66
63
53
55
61
74
69
54
76
68
72
72
67
57
55
70
64
59
57
55
71
75
54
54
61
64
69
62
50
48
46
51
52
46
57
58
55
52
45
52
61
67
68
73
59
58
56
54
51
40
41
44
44
47
46
51
69
57
49
43
45
57
61
53
56
53
51
61
49
48
52
55
77
77
43
47
47
39
37
34
27
31
29
29
30
27
31
33
36
39
40
38
36
40
44
48
52
61
65
72
67
66
52
40
39
39
36
42
52
59
58
54
39
40
39
52
54
56
52
61
67
66
62
71
78
73
77
74
75
70
72
72
73
70
68
83
85
89
88
84
85
78
84
87
91
97
97
100
98
94
98
99
97
96
98
93
94
91
97
74
74
74
74
74
75
76
76
77
78
78
78
78
79
78
79
79
78
75
74
72
72
74
77
80
84
87
88
88
88
88
88
88
88
88
88
88
88
89
89
88
88
88
89
90
89
90
85
69
60
63
71
77
75
67
68
73
61
67
62
67
72
75
71
66
69
74
64
50
43
45
48
50
57
61
64
55
53
50
54
67
63
53
49
50
53
44
28
33
44
32
31
31
17
14
11
12
16
19
16
12
11
11
14
19
38
54
48
55
54
45
41
55
64
57
67
71
62
60
64
63
57
53
53
64
71
68
49
53
52
52
47
48
48
54
64
64
58
66
72
69
68
68
76
78
70
71
60
50
45
69
74
72
74
82
85
66
67
70
72
75
74
74
74
74
81
72
67
66
68
76
72
62
62
56
57
53
50
53
52
53
56
51
43
50
45
48
52
47
58
60
49
52
46
62
71
63
66
70
79
72
66
68
75
74
63
66
80
74
79
79
72
81
82
71
75
72
65
61
60
66
77
75
55
54
57
58
51
47
53
51
55
55
54
53
56
54
59
52
51
45
52
58
52
54
62
65
74
72
69
72
68
66
67
71
72
68
66
59
46
44
47
63
62
45
51
55
57
53
45
40
48
48
43
57
55
50
49
57
46
47
55
57
58
67
68
56
53
54
58
42
28
25
28
32
33
38
52
62
51
55
46
46
56
52
48
44
45
53
51
47
48
43
37
50
66
41
35
40
32
35
33
22
26
32
28
24
24
27
31
33
30
29
34
36
33
36
47
50
46
47
51
64
63
70
70
74
71
74
74
79
85
84
86
79
71
78
82
83
87
85
70
72
75
72
81
86
84
81
78
88
90
90
83
93
97
96
98
107
108
106
105
111
109
101
97
100
101
107
95
94
96
97
90
76
76
68
65
75
83
74
73
73
71
71
71
73
74
75
76
77
78
78
79
79
79
79
80
80
80
79
77
75
75
73
74
77
81
85
87
88
88
88
88
89
88
88
88
89
90
89
90
90
91
90
92
94
93
86
79
61
46
39
69
71
65
66
58
64
63
66
76
61
60
80
78
66
67
64
37
30
28
33
26
32
37
39
41
43
50
48
47
46
42
41
38
38
44
43
40
31
31
37
42
48
49
50
51
52
56
62
70
42
33
32
35
47
57
61
61
56
54
56
58
59
55
61
61
63
70
65
67
63
51
44
47
43
44
59
73
75
64
55
62
59
70
72
71
70
60
56
55
56
59
59
69
67
63
61
67
71
69
69
65
65
63
66
67
61
60
58
59
60
57
63
74
57
56
57
69
64
67
57
50
56
56
52
52
62
51
48
56
48
46
47
42
38
40
44
41
80
74
72
66
65
61
60
54
56
68
80
70
58
53
56
59
60
61
60
64
58
57
61
78
79
80
70
64
55
48
52
64
71
63
59
52
51
52
56
54
52
50
52
54
54
52
54
53
56
69
68
49
53
55
61
61
57
58
62
63
62
60
56
52
59
63
60
55
51
57
54
48
48
54
50
47
49
55
49
50
46
49
44
45
53
58
40
51
45
44
42
48
48
41
43
52
60
58
49
51
51
45
32
23
21
25
32
34
42
47
51
55
64
59
51
46
28
32
35
34
30
35
35
32
35
48
57
36
43
50
43
40
35
38
40
41
41
48
51
50
49
57
56
55
60
67
79
98
102
103
98
98
106
109
111
105
89
75
62
52
56
76
92
97
98
97
97
101
101
107
109
96
92
97
91
81
80
88
89
71
78
79
78
76
76
91
96
95
93
98
106
104
98
90
90
96
87
78
76
75
80
71
64
60
54
49
54
56
57
65
71
70
71
72
73
72
71
71
69
70
72
74
76
78
78
79
78
79
80
80
81
82
81
82
81
80
78
76
78
80
84
87
88
89
88
89
89
89
89
89
90
89
90
90
91
90
92
92
89
86
85
78
63
68
68
66
71
64
62
62
61
65
56
64
62
66
58
60
71
70
44
32
46
53
55
49
44
47
52
47
50
55
52
49
53
61
70
72
69
63
61
68
76
79
73
78
75
81
82
76
64
71
77
70
61
61
68
68
59
59
55
47
47
53
56
53
63
76
87
69
68
70
63
40
46
48
50
62
51
72
65
75
76
73
76
69
69
64
55
58
55
54
59
61
53
48
63
69
67
69
61
55
67
66
58
55
55
52
48
50
51
52
52
54
56
67
65
69
56
55
58
58
59
49
60
50
52
53
48
48
51
64
65
65
47
50
57
76
65
38
69
79
72
69
68
61
59
51
52
61
68
73
59
58
51
58
54
52
54
56
49
51
54
70
80
78
60
59
55
49
46
53
64
62
51
47
47
46
50
56
55
55
53
48
57
50
48
52
68
75
67
75
65
56
57
54
49
51
49
53
50
62
59
51
52
53
56
64
60
61
51
54
47
47
49
46
47
49
40
40
45
44
40
38
41
49
51
40
46
42
45
44
42
27
23
25
31
40
48
49
52
50
36
31
25
27
30
26
32
40
41
40
42
44
43
44
40
45
47
44
46
45
42
39
45
50
52
52
66
74
68
66
62
76
78
89
94
98
95
98
98
100
95
95
90
93
104
106
104
110
122
121
113
110
110
116
116
104
100
92
98
112
118
108
95
84
69
58
57
63
78
68
59
70
76
70
77
79
79
80
83
85
92
96
94
92
92
92
86
81
80
78
73
72
75
78
86
75
73
75
79
81
79
80
85
77
78
84
85
85
68
71
73
71
71
71
70
73
74
75
75
74
74
74
76
77
77
76
77
79
80
80
80
81
83
84
84
84
83
82
80
80
81
84
86
87
87
89
89
89
90
89
90
91
90
90
90
87
85
79
77
74
73
64
67
70
65
60
70
68
69
66
68
73
59
72
69
73
80
80
71
72
67
68
73
63
63
60
65
58
58
57
55
53
54
60
70
73
73
80
77
71
76
76
78
81
84
83
82
75
67
67
63
56
52
55
75
78
73
75
74
68
59
54
55
59
64
74
76
70
69
83
79
63
58
65
73
79
76
69
65
68
70
66
68
75
71
75
67
62
56
50
57
53
58
51
50
47
54
61
55
53
46
45
51
44
51
45
48
48
46
45
44
45
46
58
61
60
61
53
48
52
68
76
60
60
64
60
69
49
50
55
60
70
57
67
68
75
78
76
63
70
75
58
60
65
56
50
49
51
56
59
63
64
66
80
72
51
46
50
51
47
50
57
51
63
59
54
48
42
43
50
60
55
42
49
43
36
45
50
53
54
55
47
47
45
43
61
66
70
70
67
66
64
54
38
41
43
39
44
51
59
57
53
55
49
56
63
61
67
63
57
47
44
50
42
44
43
30
31
32
33
41
35
37
35
36
34
38
41
38
36
34
29
33
39
48
60
62
67
66
59
61
54
48
45
51
46
48
50
58
63
63
66
70
72
65
67
75
71
75
85
92
96
100
95
94
95
92
92
98
97
97
95
94
90
89
86
77
67
66
68
63
61
61
58
58
63
74
78
87
96
103
115
117
115
117
112
119
118
117
115
110
108
111
106
98
84
74
68
64
58
60
68
85
87
89
90
94
95
92
93
92
92
89
92
88
90
87
85
82
82
85
91
98
102
105
100
105
108
104
103
101
100
100
98
95
96
101
101
72
70
72
73
74
73
62
65
63
64
62
73
75
76
76
75
75
76
79
76
70
68
70
77
78
80
81
82
83
84
85
83
82
78
81
78
83
85
86
88
88
88
85
85
84
84
87
87
74
66
68
72
72
72
69
70
70
69
64
66
70
68
72
76
77
78
77
78
73
85
73
62
60
50
56
54
59
63
57
56
64
61
55
60
61
66
70
73
70
68
70
69
65
68
65
68
77
73
80
87
89
82
76
75
69
72
72
67
66
69
72
80
76
68
62
72
76
70
60
60
57
58
64
65
58
60
53
57
70
59
65
66
70
66
67
62
59
56
55
58
65
57
50
45
42
44
49
50
48
40
35
42
45
40
46
46
43
42
45
49
51
48
41
38
38
47
51
56
58
56
53
60
79
80
72
54
67
55
48
48
49
54
75
80
70
83
68
75
69
76
83
67
68
68
71
69
53
47
50
54
49
49
48
48
57
60
64
65
57
54
60
58
51
55
44
38
42
41
45
48
42
47
56
52
46
58
59
34
40
47
46
53
55
51
51
60
65
63
61
65
67
79
78
73
69
45
37
44
43
43
43
51
38
50
51
52
47
39
40
49
45
44
47
39
47
46
45
34
17
16
15
15
21
22
23
27
34
34
36
37
39
34
32
39
50
58
61
64
67
67
67
69
70
66
65
69
69
77
77
81
82
83
77
75
74
63
64
64
68
64
63
72
86
95
101
102
99
101
101
97
95
92
88
89
85
81
80
87
90
91
94
95
91
88
86
83
79
77
76
78
77
84
88
90
95
98
103
100
103
107
108
109
114
115
114
111
109
107
113
115
109
107
102
102
112
112
112
108
107
111
114
115
114
111
111
109
106
105
112
113
112
110
109
109
111
110
113
111
113
112
110
104
104
103
94
89
91
83
89
88
